P3
400 225
255
174 197 0
174 198 0
175 198 0
174 197 0
172 195 0
174 198 0
173 197 0
172 196 0
176 199 0
174 198 0
174 197 0
174 198 0
174 198 0
174 197 0
174 197 0
175 198 0
172 196 0
174 198 0
175 198 0
173 197 0
172 196 0
175 197 0
174 198 0
174 198 0
174 198 0
175 198 0
175 198 0
175 198 0
171 195 0
174 197 0
175 198 0
173 197 0
174 197 0
175 198 0
173 197 0
175 198 0
173 197 0
174 198 0
174 197 0
174 197 0
171 195 0
173 197 0
174 197 0
173 196 0
173 197 0
171 195 0
175 198 0
174 197 0
174 197 0
173 196 0
173 196 0
174 198 0
173 197 0
173 196 0
173 197 0
172 196 0
173 197 0
174 198 0
174 197 0
174 197 0
172 196 0
173 197 0
173 197 0
173 196 0
171 196 0
172 195 0
173 197 0
170 194 0
171 195 0
170 194 0
174 197 0
174 198 0
174 198 0
174 198 0
176 199 0
172 196 0
174 197 0
172 196 0
172 196 0
172 196 0
174 197 0
174 197 0
175 198 0
174 197 0
174 197 0
174 197 0
175 198 0
173 196 0
174 198 0
173 196 0
172 196 0
173 195 0
173 197 0
175 198 0
174 197 0
175 198 0
173 197 0
173 197 0
173 197 0
172 196 0
173 197 0
174 197 0
174 197 0
172 196 0
174 197 0
174 198 0
172 196 0
174 197 0
174 197 0
173 197 0
173 197 0
174 198 0
174 197 0
172 196 0
173 196 0
174 197 0
176 198 0
174 197 0
175 198 0
173 196 0
172 196 0
174 197 0
175 198 0
175 198 0
174 197 0
170 194 0
172 196 0
176 198 0
175 198 0
173 197 0
173 197 0
173 196 0
169 192 0
173 197 0
173 197 0
175 198 0
173 196 0
173 197 0
174 197 0
175 198 0
173 197 0
174 197 0
174 197 0
174 197 0
173 197 0
174 196 0
174 197 0
173 197 0
174 197 0
172 196 0
174 197 0
174 196 0
173 196 0
171 196 0
174 197 0
174 197 0
171 195 0
173 195 0
170 194 0
173 197 0
174 197 0
173 196 0
172 196 0
174 197 0
174 198 0
168 192 0
176 198 0
173 197 0
173 196 0
174 197 0
175 198 0
174 198 0
173 195 0
173 196 0
175 198 0
175 197 0
174 197 0
173 196 0
173 197 0
173 196 0
173 196 0
175 198 0
172 195 0
171 195 0
172 196 0
173 196 0
174 197 0
172 196 0
173 197 0
174 197 0
172 195 0
172 196 0
174 197 0
172 195 0
174 197 0
172 195 0
172 195 0
174 197 0
173 196 0
173 196 0
175 198 0
175 197 0
172 194 0
172 196 0
174 197 0
172 196 0
172 194 0
173 197 0
173 197 0
173 197 0
173 197 0
174 197 0
172 195 0
172 195 0
175 198 0
174 197 0
171 195 0
174 196 0
174 197 0
173 196 0
173 195 0
174 197 0
172 195 0
174 196 0
173 196 0
173 196 0
174 196 0
171 195 0
174 197 0
171 195 0
174 198 0
173 195 0
172 196 0
173 196 0
175 197 0
173 196 0
173 196 0
174 197 0
172 196 0
174 197 0
173 197 0
172 195 0
172 195 0
172 195 0
172 195 0
175 198 0
174 197 0
172 196 0
157 161 40
144 127 61
148 132 64
152 139 75
160 148 84
155 142 79
154 142 76
163 150 83
162 150 85
161 149 85
161 150 88
167 156 93
160 152 89
163 153 92
163 155 93
164 153 88
164 154 94
167 158 99
160 151 92
164 155 94
165 157 97
167 159 100
169 159 100
162 152 92
168 161 101
162 154 97
165 157 101
168 160 101
168 162 102
169 164 105
170 162 104
165 159 103
166 159 103
168 160 104
169 161 104
166 161 105
166 160 105
168 163 106
163 158 103
167 162 106
165 159 102
167 161 104
166 160 104
166 162 106
168 163 106
169 164 107
169 164 108
167 161 105
168 162 106
169 164 108
167 162 108
171 166 109
170 166 110
170 166 110
170 165 110
169 165 109
171 167 110
169 164 108
171 168 111
169 165 109
170 166 109
167 162 107
165 160 106
167 163 108
167 163 108
170 166 110
171 166 110
168 164 108
168 165 110
168 164 108
168 164 107
168 162 106
169 165 109
170 167 111
169 165 109
167 162 105
167 162 107
171 167 111
169 163 108
171 168 111
168 164 107
169 163 107
169 164 108
169 165 109
169 165 109
171 167 110
172 167 110
173 168 110
171 167 110
168 164 108
170 166 109
168 161 104
169 164 106
171 165 108
168 164 107
170 165 108
171 163 105
169 164 105
170 163 105
170 162 103
169 163 104
170 162 104
171 163 104
170 161 102
166 157 97
171 164 104
165 156 99
169 159 99
169 160 100
169 161 103
170 159 99
168 161 103
168 159 99
165 156 98
160 150 92
166 159 98
165 154 94
168 156 93
167 156 95
165 154 90
165 154 90
165 155 93
168 157 93
164 153 90
159 147 83
156 143 79
156 143 81
164 152 82
157 143 79
161 148 82
150 136 67
157 150 59
175 197 7
175 198 0
173 197 0
174 197 0
174 198 0
175 198 0
173 197 0
174 198 0
173 197 0
175 198 0
173 197 0
175 198 0
174 197 0
175 198 0
174 197 0
174 197 0
173 197 0
175 198 0
173 196 0
176 198 0
175 198 0
173 196 0
174 198 0
174 198 0
172 196 0
173 197 0
175 198 0
175 198 0
174 197 0
174 197 0
173 197 0
174 197 0
173 196 0
173 196 0
174 198 0
173 197 0
174 198 0
175 198 0
174 197 0
172 196 0
174 197 0
174 197 0
175 198 0
172 195 0
174 197 0
173 196 0
175 198 0
174 197 0
175 198 0
173 197 0
173 197 0
173 196 0
174 197 0
175 198 0
174 197 0
174 198 0
175 198 0
174 197 0
173 197 0
174 197 0
172 197 0
174 197 0
174 197 0
176 198 0
175 198 0
173 197 0
172 195 0
173 197 0
175 197 0
174 196 0
174 197 0
173 197 0
174 197 0
174 198 0
172 196 0
173 197 0
172 195 0
175 198 0
173 196 0
174 197 0
173 197 0
174 198 0
172 195 0
173 197 0
176 199 0
173 196 0
174 198 0
173 196 0
173 196 0
173 197 0
173 196 0
174 198 0
175 197 0
171 195 0
175 198 0
173 195 0
174 197 0
175 197 0
175 198 0
171 195 0
173 197 0
175 198 0
173 196 0
173 197 0
173 197 0
173 197 0
174 197 0
172 195 0
175 197 0
172 195 0
171 195 0
172 196 0
175 198 0
175 197 0
175 198 0
173 197 0
173 197 0
172 195 0
175 198 0
173 196 0
174 198 0
172 196 0
174 197 0
174 197 0
173 197 0
172 194 0
172 197 0
173 196 0
173 197 0
174 197 0
173 196 0
174 197 0
172 196 0
175 197 0
175 198 0
172 195 0
174 197 0
174 198 0
173 197 0
173 197 0
173 197 0
173 195 0
174 197 0
173 197 0
175 198 0
174 197 0
174 196 0
172 196 0
175 198 0
171 195 0
174 197 0
171 195 0
175 197 0
175 198 0
175 198 0
172 196 0
173 196 0
175 198 0
172 196 0
173 196 0
175 198 0
173 196 0
174 197 0
172 196 0
173 196 0
173 196 0
175 197 0
174 197 0
173 196 0
173 197 0
172 195 0
172 196 0
173 196 0
170 194 0
172 195 0
173 196 0
173 197 0
173 196 0
172 196 0
171 195 0
173 196 0
174 197 0
173 197 0
174 196 0
172 196 0
174 196 0
172 196 0
174 197 0
174 197 0
171 195 0
172 195 0
170 193 0
174 197 0
174 197 0
171 193 0
172 196 0
175 198 0
174 197 0
171 194 0
172 195 0
174 197 0
173 196 0
173 196 0
174 197 0
172 196 0
174 197 0
174 197 0
173 197 0
174 197 0
175 198 0
171 194 0
172 195 0
172 195 0
173 196 0
175 198 0
173 195 0
174 197 0
173 197 0
172 194 0
173 196 0
172 195 0
174 197 0
172 196 0
173 196 0
173 197 0
174 197 0
173 195 0
173 196 0
171 194 0
173 196 0
173 197 0
173 197 0
173 196 0
172 195 0
173 196 0
173 197 0
175 197 0
174 197 0
173 196 0
172 196 0
173 196 0
172 195 0
173 196 0
172 194 0
173 196 0
174 197 0
174 197 0
173 197 0
172 195 0
174 197 0
175 197 0
174 197 0
174 197 0
172 194 0
172 196 0
172 195 0
176 198 0
173 197 0
174 197 0
172 195 0
172 195 0
175 198 0
174 197 0
174 197 0
174 197 0
171 193 0
173 196 0
167 183 32
150 135 68
154 140 72
160 147 80
148 134 69
158 145 80
154 142 77
161 146 80
159 147 85
161 151 88
154 143 79
166 155 94
161 150 88
162 151 88
160 150 92
159 150 92
164 154 91
166 158 99
171 164 103
162 153 93
167 157 98
169 160 102
168 160 101
160 152 94
167 160 103
165 157 97
163 154 96
167 159 102
167 159 101
167 160 100
161 154 100
165 157 99
169 163 108
168 162 105
164 158 102
164 156 100
168 161 104
169 165 107
169 162 104
173 167 109
163 157 103
165 160 106
171 165 108
170 164 108
168 163 106
167 163 107
168 163 107
168 163 106
170 164 107
172 167 110
167 162 106
168 164 108
169 165 109
169 164 108
171 168 111
168 162 106
169 165 110
171 166 109
172 168 111
169 165 108
166 161 106
170 164 107
168 164 108
169 164 109
170 164 107
167 163 107
168 165 110
170 163 106
168 164 108
169 165 110
168 164 109
169 165 109
170 167 112
172 168 111
169 165 109
170 167 111
166 161 105
170 165 108
170 167 110
172 167 109
168 164 109
172 169 112
168 163 107
168 163 106
172 167 110
166 161 105
168 163 107
166 162 107
170 166 110
167 161 106
168 164 109
167 159 103
169 164 108
168 164 108
164 155 100
172 167 109
171 165 106
170 163 105
173 168 109
170 165 108
165 159 104
171 164 104
170 163 103
170 165 107
167 161 105
169 162 104
168 161 104
170 161 101
166 157 100
164 156 96
167 159 100
168 160 101
169 160 102
165 156 95
165 155 96
167 159 100
167 157 98
167 154 94
171 162 102
171 160 98
169 159 97
164 151 87
164 152 92
163 151 91
170 158 96
166 153 90
162 149 84
166 156 93
159 146 81
162 148 85
149 134 72
156 144 75
150 135 69
164 168 50
173 197 0
174 197 0
173 197 0
174 197 0
174 197 0
174 197 0
174 197 0
174 197 0
174 197 0
173 196 0
173 196 0
175 198 0
173 196 0
174 197 0
174 197 0
174 197 0
175 198 0
174 198 0
174 197 0
173 197 0
175 198 0
175 198 0
174 197 0
173 197 0
174 198 0
173 196 0
174 198 0
172 197 0
174 198 0
174 197 0
175 198 0
173 197 0
173 197 0
175 198 0
173 196 0
173 196 0
173 197 0
171 195 0
175 198 0
174 197 0
176 199 0
174 198 0
173 196 0
173 197 0
175 198 0
174 197 0
174 197 0
173 197 0
173 196 0
175 196 0
175 198 0
175 198 0
173 197 0
172 196 0
173 197 0
174 197 0
175 198 0
173 197 0
174 198 0
175 198 0
174 198 0
174 197 0
173 197 0
174 197 0
170 194 0
174 197 0
173 196 0
173 197 0
173 197 0
173 197 0
173 197 0
172 195 0
173 196 0
174 197 0
173 197 0
173 197 0
175 198 0
174 197 0
175 197 0
174 197 0
173 197 0
171 195 0
174 197 0
173 197 0
174 198 0
173 197 0
173 196 0
173 196 0
174 198 0
173 197 0
176 198 0
173 197 0
172 196 0
174 197 0
175 198 0
173 197 0
173 197 0
175 198 0
173 197 0
173 196 0
173 197 0
174 198 0
173 196 0
172 196 0
175 198 0
175 198 0
171 195 0
173 196 0
173 197 0
173 197 0
175 198 0
174 198 0
173 196 0
172 196 0
172 196 0
175 198 0
173 196 0
175 197 0
174 198 0
173 197 0
174 196 0
171 195 0
172 196 0
173 196 0
171 194 0
174 198 0
173 197 0
173 197 0
175 198 0
172 194 0
174 198 0
175 197 0
172 196 0
174 197 0
173 196 0
174 197 0
173 196 0
173 197 0
174 197 0
176 198 0
174 198 0
175 198 0
172 196 0
174 197 0
174 197 0
172 195 0
174 198 0
174 197 0
174 196 0
173 196 0
174 197 0
174 198 0
174 197 0
171 195 0
174 198 0
173 197 0
173 196 0
175 198 0
173 196 0
173 196 0
174 197 0
172 196 0
175 197 0
173 196 0
172 196 0
173 196 0
173 196 0
172 195 0
172 195 0
172 196 0
174 197 0
174 197 0
174 197 0
173 196 0
172 195 0
173 197 0
173 196 0
173 197 0
173 197 0
172 196 0
172 195 0
173 196 0
169 192 0
173 196 0
172 195 0
174 197 0
172 195 0
173 196 0
174 197 0
174 197 0
172 195 0
174 197 0
172 195 0
173 197 0
175 198 0
172 196 0
173 197 0
173 197 0
175 197 0
173 197 0
173 196 0
173 196 0
171 194 0
173 197 0
171 195 0
173 197 0
172 195 0
172 196 0
172 196 0
175 198 0
174 197 0
171 194 0
173 197 0
175 197 0
173 196 0
171 194 0
171 194 0
174 197 0
174 196 0
173 197 0
173 196 0
173 196 0
175 198 0
172 196 0
173 197 0
172 196 0
174 196 0
174 197 0
171 195 0
172 195 0
173 197 0
174 197 0
174 197 0
174 198 0
173 197 0
174 196 0
172 195 0
173 197 0
173 197 0
173 197 0
172 195 0
172 195 0
170 194 0
173 197 0
174 197 0
170 193 0
174 198 0
172 196 0
175 198 0
174 196 0
172 195 0
176 199 0
174 197 0
174 197 0
174 197 0
173 195 0
173 195 0
173 196 0
174 197 0
172 195 0
173 195 0
173 196 0
170 193 0
173 196 0
172 194 0
173 196 11
156 149 64
156 141 74
158 144 75
156 145 78
154 140 78
158 146 81
160 150 82
165 156 88
158 147 85
160 146 83
152 141 79
158 148 86
163 153 89
164 152 90
161 154 92
163 153 94
168 158 97
163 153 94
164 157 97
163 153 93
166 157 99
167 158 99
160 152 96
166 159 100
163 155 93
170 163 106
168 160 102
168 161 103
168 162 104
167 160 103
171 164 106
166 158 100
170 163 104
171 166 107
169 163 107
169 164 106
164 159 104
165 159 103
171 165 107
169 165 107
169 163 107
167 163 107
171 167 110
165 160 105
163 158 104
169 163 107
169 164 108
167 161 104
170 165 108
169 162 106
166 161 105
169 165 108
171 166 109
171 166 109
170 167 111
169 165 109
169 165 109
167 163 107
167 165 110
169 165 109
172 167 109
170 166 109
170 166 109
168 162 106
170 165 109
170 166 109
172 168 111
170 166 111
173 169 111
167 163 108
171 168 111
169 164 108
171 167 111
166 162 107
168 164 109
168 163 106
170 168 112
169 165 108
168 164 108
170 166 110
170 166 109
172 167 110
172 166 109
169 164 107
169 164 108
169 163 106
168 163 106
173 168 110
169 163 105
170 164 107
170 165 108
172 167 109
169 162 105
170 163 105
168 161 104
173 167 109
170 164 106
168 161 104
173 168 110
170 164 106
169 163 106
169 162 105
167 160 104
167 159 101
171 166 107
170 163 103
168 160 100
166 157 99
167 159 101
173 164 104
168 160 102
170 162 101
172 160 100
167 158 98
164 156 98
160 152 95
160 149 91
166 156 98
162 150 88
161 151 91
167 156 95
167 157 96
163 152 93
165 155 93
167 155 94
163 151 85
165 154 89
164 152 87
160 145 76
159 145 81
158 145 81
154 140 80
161 148 76
153 140 74
164 180 20
173 196 0
173 197 0
173 196 0
173 196 0
174 197 0
174 197 0
174 198 0
174 197 0
174 197 0
173 196 0
174 198 0
172 196 0
172 196 0
174 197 0
176 198 0
176 199 0
173 197 0
174 196 0
174 197 0
175 198 0
172 196 0
174 197 0
172 196 0
174 198 0
171 196 0
174 197 0
174 197 0
174 198 0
174 197 0
174 198 0
174 197 0
174 197 0
173 197 0
175 198 0
172 196 0
173 197 0
175 198 0
174 197 0
173 197 0
174 198 0
173 196 0
174 197 0
174 197 0
174 197 0
175 198 0
174 198 0
174 197 0
173 196 0
175 198 0
173 197 0
175 198 0
173 197 0
173 197 0
176 198 0
176 198 0
173 197 0
171 195 0
175 198 0
171 196 0
174 198 0
175 198 0
174 198 0
173 196 0
173 197 0
175 198 0
173 197 0
175 198 0
176 199 0
174 197 0
173 197 0
174 198 0
173 197 0
174 197 0
174 197 0
174 198 0
174 197 0
173 197 0
173 197 0
173 197 0
174 198 0
174 197 0
174 198 0
173 196 0
173 196 0
174 198 0
172 196 0
173 197 0
174 197 0
173 196 0
174 197 0
173 197 0
174 198 0
171 193 0
173 197 0
173 197 0
174 197 0
172 195 0
174 197 0
172 195 0
171 195 0
173 197 0
174 196 0
174 198 0
174 197 0
173 197 0
173 196 0
174 198 0
172 195 0
174 197 0
174 197 0
174 198 0
174 197 0
175 198 0
174 197 0
173 197 0
172 197 0
172 195 0
172 196 0
172 196 0
172 195 0
173 197 0
174 197 0
173 197 0
174 197 0
173 196 0
174 197 0
173 196 0
171 195 0
172 195 0
173 196 0
175 198 0
175 198 0
175 198 0
173 197 0
173 197 0
174 197 0
172 197 0
173 197 0
172 196 0
174 196 0
174 197 0
172 196 0
173 197 0
172 195 0
173 196 0
172 195 0
174 197 0
173 196 0
175 198 0
174 198 0
172 195 0
171 195 0
173 196 0
175 198 0
173 197 0
173 196 0
172 196 0
173 196 0
172 195 0
174 198 0
175 198 0
174 197 0
173 196 0
173 197 0
173 196 0
171 195 0
173 197 0
171 195 0
172 195 0
174 198 0
172 196 0
174 198 0
172 196 0
173 195 0
172 196 0
173 196 0
171 195 0
173 196 0
172 196 0
174 197 0
175 197 0
173 197 0
175 198 0
173 196 0
172 196 0
171 195 0
171 194 0
173 197 0
172 196 0
175 198 0
174 197 0
172 195 0
174 197 0
174 197 0
170 194 0
174 198 0
173 197 0
172 196 0
172 195 0
171 194 0
173 197 0
172 195 0
173 197 0
171 195 0
173 195 0
174 197 0
173 196 0
173 195 0
173 197 0
171 195 0
172 196 0
173 194 0
174 196 0
173 197 0
173 197 0
172 195 0
174 196 0
174 196 0
169 192 0
173 197 0
174 197 0
174 197 0
172 195 0
171 194 0
172 195 0
173 197 0
173 196 0
173 196 0
172 194 0
173 196 0
173 197 0
174 197 0
174 197 0
175 198 0
173 196 0
172 196 0
174 197 0
174 197 0
174 198 0
171 194 0
174 197 0
171 195 0
173 195 0
173 196 0
175 198 0
171 195 0
170 193 0
172 195 0
173 197 0
174 198 0
172 195 0
173 196 0
169 194 0
172 196 0
172 196 0
172 196 0
173 197 0
174 196 0
172 195 0
172 195 0
175 198 0
172 195 0
173 196 0
174 196 0
159 166 47
152 137 70
154 141 70
153 140 77
151 139 72
160 148 85
156 143 80
157 144 78
159 146 79
157 146 83
160 149 81
163 152 92
159 148 85
162 152 92
163 153 94
160 149 91
164 155 92
162 152 92
161 154 95
166 157 95
160 155 97
162 154 96
164 155 96
162 156 100
168 158 98
163 153 91
161 154 97
161 152 96
168 162 105
168 161 105
168 162 104
167 162 105
161 156 101
169 163 105
167 161 105
167 161 104
167 161 105
166 159 102
167 161 105
165 159 104
167 162 106
167 161 105
167 161 104
165 160 105
166 162 106
161 157 104
172 168 111
171 165 108
169 165 109
170 167 110
167 162 107
169 164 108
168 164 109
172 168 112
166 161 106
170 165 109
170 165 108
170 167 110
170 166 110
173 170 113
169 166 110
171 166 109
170 166 110
167 165 110
170 166 109
171 167 110
171 168 111
169 165 109
169 166 111
169 164 108
172 167 111
169 165 109
168 163 108
169 164 108
169 165 109
172 166 108
168 165 109
165 162 107
168 164 108
167 164 108
168 163 107
167 163 107
168 164 108
170 165 108
169 164 108
171 166 108
170 166 110
170 163 106
173 170 113
170 165 108
165 160 105
171 166 109
171 167 110
169 164 108
170 166 108
170 164 107
169 164 106
170 164 107
171 166 109
174 168 109
170 164 107
171 165 106
171 164 105
168 162 103
164 158 102
171 166 108
166 160 104
174 167 107
170 160 101
168 161 102
168 160 103
168 162 103
165 156 97
164 156 97
168 160 101
172 163 101
162 152 92
164 155 94
168 158 96
161 149 87
163 152 87
160 148 88
166 158 96
164 152 92
165 154 92
169 159 93
162 149 88
164 154 89
163 153 87
160 148 82
156 143 77
161 150 86
160 147 85
156 142 76
146 130 68
152 145 60
173 195 11
172 196 0
174 196 0
172 196 0
172 196 0
173 196 0
173 197 0
171 194 0
173 196 0
173 196 0
174 197 0
174 198 0
174 198 0
174 197 0
173 196 0
175 198 0
174 198 0
173 197 0
174 197 0
177 199 0
173 196 0
175 198 0
172 195 0
173 197 0
173 197 0
176 199 0
175 198 0
173 197 0
173 197 0
172 196 0
174 198 0
173 196 0
172 196 0
173 196 0
174 198 0
176 198 0
173 197 0
174 197 0
174 197 0
174 197 0
173 197 0
174 198 0
174 197 0
174 197 0
173 196 0
176 198 0
172 196 0
175 198 0
173 197 0
175 198 0
173 197 0
173 196 0
175 198 0
172 195 0
174 198 0
173 197 0
174 197 0
173 197 0
171 195 0
174 197 0
174 197 0
173 197 0
174 197 0
175 198 0
172 196 0
174 197 0
174 197 0
173 196 0
171 195 0
174 197 0
173 197 0
170 194 0
172 196 0
175 198 0
175 198 0
174 197 0
174 198 0
174 197 0
172 196 0
172 196 0
172 196 0
174 197 0
171 195 0
175 198 0
174 197 0
174 197 0
173 197 0
174 197 0
172 196 0
174 197 0
173 196 0
174 197 0
173 197 0
173 196 0
173 197 0
173 196 0
174 197 0
171 196 0
174 198 0
174 198 0
174 197 0
173 196 0
174 197 0
175 198 0
173 197 0
173 196 0
172 196 0
174 197 0
173 197 0
172 196 0
174 197 0
174 197 0
175 198 0
173 197 0
173 197 0
173 197 0
176 198 0
172 197 0
174 197 0
173 197 0
172 196 0
174 197 0
173 196 0
173 196 0
173 197 0
172 196 0
173 197 0
173 196 0
173 196 0
173 196 0
174 197 0
172 196 0
174 196 0
172 196 0
174 197 0
175 198 0
172 195 0
173 196 0
174 198 0
172 195 0
173 196 0
173 196 0
174 196 0
173 197 0
174 197 0
171 193 0
174 197 0
172 195 0
173 197 0
173 197 0
173 197 0
171 194 0
173 197 0
172 196 0
174 198 0
172 195 0
174 197 0
173 197 0
173 197 0
174 198 0
172 194 0
171 195 0
174 197 0
174 197 0
173 196 0
173 195 0
173 196 0
173 197 0
174 198 0
174 197 0
174 197 0
173 196 0
173 196 0
172 195 0
173 197 0
171 194 0
172 196 0
172 195 0
171 195 0
174 197 0
173 195 0
173 196 0
174 197 0
171 195 0
174 197 0
174 196 0
172 195 0
172 195 0
174 196 0
174 197 0
174 198 0
172 195 0
170 194 0
174 197 0
173 196 0
172 196 0
174 197 0
172 195 0
171 194 0
175 198 0
172 194 0
171 194 0
172 196 0
172 197 0
175 197 0
173 196 0
173 196 0
172 195 0
173 195 0
173 196 0
173 196 0
174 197 0
173 196 0
173 197 0
171 194 0
172 196 0
171 194 0
173 196 0
173 196 0
173 196 0
173 196 0
170 193 0
174 197 0
172 195 0
172 196 0
173 195 0
171 193 0
171 195 0
173 197 0
173 197 0
175 198 0
174 198 0
172 195 0
173 197 0
173 196 0
173 197 0
172 196 0
172 195 0
174 197 0
173 195 0
174 197 0
172 195 0
174 196 0
171 194 0
171 195 0
173 195 0
172 196 0
171 194 0
173 196 0
171 195 0
173 197 0
173 196 0
173 196 0
172 195 0
174 198 0
174 197 0
171 194 0
174 196 0
171 195 0
173 197 0
172 196 0
171 194 0
173 196 0
165 180 33
144 127 52
153 140 74
157 144 73
154 141 75
159 148 79
168 157 90
160 149 85
164 153 89
151 139 77
158 148 76
163 152 90
161 150 90
165 154 88
162 153 93
166 157 94
158 151 93
166 157 97
160 152 97
163 155 95
160 153 95
168 161 102
159 153 97
166 155 93
161 154 96
166 160 103
163 156 98
168 161 100
168 159 102
161 152 98
162 155 99
168 162 105
169 164 107
162 156 100
166 160 104
168 163 107
166 161 105
169 162 105
169 163 106
172 167 109
166 161 106
169 164 109
169 163 105
167 161 105
171 166 108
165 160 105
170 164 108
170 166 109
170 166 110
168 163 107
167 162 106
168 163 108
170 164 108
167 162 107
168 164 108
171 166 110
167 163 107
172 167 109
170 166 110
167 163 108
173 168 110
171 166 109
167 164 108
172 169 112
169 166 110
173 169 112
170 167 111
169 165 109
171 166 109
167 163 108
172 168 111
173 169 112
170 167 111
171 166 109
169 165 109
172 168 111
171 167 110
171 168 111
170 164 107
170 166 110
170 165 108
172 168 111
172 168 111
172 168 110
171 167 110
171 166 108
170 164 108
171 164 107
167 161 105
170 164 107
168 163 107
171 166 108
169 162 105
170 164 107
169 164 108
166 159 102
168 164 106
175 169 110
169 163 104
167 161 103
168 162 106
166 161 104
171 163 105
171 164 107
172 166 108
172 164 105
174 165 106
171 163 104
170 161 102
168 160 101
167 160 102
167 160 103
174 166 106
170 161 100
171 164 103
169 160 99
164 155 97
167 157 95
170 161 100
169 160 100
164 153 94
164 151 92
168 158 97
168 157 94
166 154 90
162 152 87
167 158 97
167 156 94
170 160 94
165 153 86
160 149 88
165 152 89
162 150 83
158 146 70
158 144 72
154 139 68
151 138 71
161 168 41
175 198 0
172 195 0
173 196 0
174 197 0
174 198 0
175 198 0
173 197 0
174 198 0
175 198 0
174 197 0
174 197 0
172 196 0
175 198 0
175 197 0
175 198 0
173 196 0
172 196 0
175 198 0
174 197 0
174 197 0
172 196 0
172 196 0
174 197 0
175 198 0
175 198 0
173 196 0
175 198 0
173 196 0
174 198 0
172 196 0
173 197 0
174 197 0
175 198 0
174 197 0
174 198 0
175 198 0
175 198 0
172 196 0
175 198 0
173 197 0
173 197 0
175 198 0
175 198 0
174 197 0
173 196 0
172 196 0
172 194 0
175 198 0
173 197 0
173 197 0
174 197 0
175 198 0
173 197 0
175 198 0
173 197 0
173 196 0
173 197 0
172 196 0
173 196 0
174 197 0
173 196 0
173 197 0
172 196 0
174 197 0
172 195 0
173 197 0
174 198 0
173 197 0
173 196 0
173 196 0
175 198 0
173 196 0
173 197 0
175 198 0
172 196 0
175 198 0
171 195 0
175 198 0
175 198 0
173 196 0
173 196 0
174 197 0
170 193 0
174 198 0
173 196 0
173 197 0
172 196 0
172 196 0
172 196 0
174 197 0
173 196 0
173 197 0
175 198 0
173 196 0
175 198 0
174 197 0
174 198 0
175 198 0
172 196 0
174 196 0
175 198 0
174 198 0
175 198 0
174 197 0
174 197 0
173 196 0
174 197 0
174 198 0
173 197 0
175 198 0
175 198 0
174 197 0
173 196 0
173 196 0
174 197 0
173 197 0
175 198 0
174 197 0
171 195 0
173 196 0
175 198 0
173 197 0
170 193 0
175 198 0
173 197 0
173 196 0
174 197 0
174 197 0
175 197 0
172 196 0
173 196 0
171 195 0
175 197 0
172 195 0
175 198 0
173 197 0
173 196 0
174 197 0
171 195 0
173 197 0
171 195 0
173 196 0
173 196 0
174 197 0
176 199 0
174 197 0
174 197 0
172 196 0
173 195 0
173 196 0
174 197 0
174 198 0
174 197 0
170 193 0
169 193 0
172 195 0
173 196 0
172 195 0
172 196 0
172 195 0
173 196 0
174 198 0
175 198 0
173 196 0
171 195 0
173 196 0
172 195 0
173 196 0
171 194 0
173 196 0
173 195 0
171 194 0
174 197 0
171 194 0
173 196 0
173 196 0
174 197 0
173 197 0
170 193 0
174 197 0
174 197 0
174 197 0
173 196 0
173 196 0
173 196 0
173 196 0
173 196 0
173 197 0
173 196 0
171 195 0
171 195 0
172 196 0
172 197 0
173 196 0
175 198 0
172 194 0
174 196 0
173 197 0
173 196 0
171 194 0
174 197 0
173 196 0
173 196 0
172 195 0
173 197 0
172 196 0
170 194 0
173 196 0
172 196 0
175 198 0
175 197 0
172 194 0
173 197 0
174 197 0
173 196 0
173 196 0
171 194 0
173 195 0
173 196 0
173 196 0
173 196 0
174 197 0
175 197 0
174 197 0
172 195 0
174 197 0
173 197 0
174 197 0
174 197 0
171 194 0
173 196 0
173 196 0
173 196 0
173 196 0
172 195 0
174 197 0
175 197 0
175 198 0
173 196 0
173 196 0
173 196 0
173 196 0
174 197 0
175 197 0
172 196 0
171 194 0
174 197 0
172 196 0
171 195 0
170 193 0
171 193 0
172 196 0
174 197 0
174 197 0
172 196 0
173 196 0
173 196 0
172 196 0
171 195 0
171 195 0
173 195 0
172 193 16
151 142 58
156 141 73
155 143 73
157 148 78
154 141 74
157 145 79
164 153 89
164 153 85
156 144 86
165 154 88
164 154 92
159 151 90
162 152 87
161 152 89
166 155 94
163 154 90
164 155 93
165 157 96
162 155 97
161 152 96
166 158 98
165 157 97
163 155 96
159 150 95
165 157 97
166 157 100
162 156 101
163 156 100
167 159 103
166 158 100
167 159 102
169 163 104
169 163 104
168 161 102
164 157 100
169 164 106
163 157 103
166 159 103
167 162 105
167 161 106
164 159 105
170 165 107
170 165 109
168 162 105
170 166 110
166 161 105
170 165 108
167 162 107
171 167 110
170 165 108
169 165 109
167 163 108
166 163 109
171 167 110
167 163 108
169 164 108
170 165 109
168 165 109
168 165 109
171 167 110
169 165 109
174 170 112
169 166 110
170 166 110
172 168 111
171 166 110
169 166 110
170 166 110
173 169 111
172 167 110
171 167 110
171 167 110
172 169 112
172 168 110
170 166 109
169 166 110
167 162 106
171 167 111
169 165 110
169 166 111
172 168 110
167 163 108
170 166 110
171 165 109
171 166 109
170 166 110
172 167 110
171 165 107
164 159 104
172 165 108
168 164 107
173 168 110
169 165 109
171 166 109
172 166 108
170 164 107
170 165 106
172 166 108
173 165 107
170 165 108
174 167 107
171 165 106
170 164 106
166 159 101
170 163 103
170 164 106
171 164 106
170 165 106
169 161 101
170 162 103
168 160 103
167 159 98
169 161 101
167 159 98
167 158 99
170 163 102
168 160 102
166 158 98
165 156 96
175 165 104
168 158 97
169 161 99
169 158 94
165 155 94
170 160 92
165 154 93
163 155 95
164 153 88
160 149 85
162 150 86
165 152 86
164 154 88
164 154 84
158 145 80
166 153 86
150 137 70
152 138 71
149 136 63
171 191 19
175 198 0
175 198 0
175 196 0
173 196 0
174 197 0
174 197 0
173 196 0
172 196 0
173 197 0
173 196 0
173 196 0
173 197 0
172 195 0
174 197 0
172 196 0
174 197 0
173 197 0
173 197 0
175 198 0
174 197 0
173 197 0
174 197 0
175 198 0
176 198 0
173 197 0
173 197 0
174 197 0
175 198 0
173 197 0
173 197 0
173 197 0
174 198 0
173 196 0
173 196 0
175 198 0
171 195 0
173 197 0
173 197 0
174 198 0
175 198 0
173 196 0
176 198 0
172 195 0
174 198 0
174 198 0
173 197 0
170 194 0
174 197 0
173 196 0
173 197 0
173 197 0
175 198 0
174 197 0
174 197 0
173 197 0
174 198 0
173 196 0
173 197 0
173 197 0
173 196 0
172 196 0
174 198 0
173 197 0
173 196 0
173 197 0
173 197 0
173 197 0
175 198 0
173 196 0
175 198 0
172 196 0
173 196 0
173 197 0
173 197 0
172 195 0
174 198 0
172 195 0
173 195 0
174 197 0
172 196 0
175 198 0
174 197 0
173 197 0
175 198 0
174 197 0
176 198 0
173 197 0
172 196 0
171 195 0
173 197 0
174 197 0
173 197 0
172 196 0
175 197 0
172 196 0
173 197 0
171 195 0
173 196 0
175 197 0
175 198 0
173 196 0
171 195 0
173 197 0
172 195 0
172 196 0
173 196 0
173 196 0
175 198 0
172 195 0
173 197 0
174 197 0
174 197 0
172 195 0
174 197 0
172 196 0
175 198 0
170 193 0
173 197 0
172 196 0
174 197 0
174 196 0
173 196 0
174 197 0
174 197 0
176 198 0
171 194 0
172 196 0
171 195 0
172 196 0
176 199 0
171 194 0
171 195 0
172 195 0
173 196 0
173 197 0
172 196 0
172 196 0
172 196 0
175 197 0
174 196 0
172 195 0
172 195 0
173 196 0
172 196 0
174 197 0
174 197 0
175 198 0
172 196 0
172 196 0
173 196 0
173 197 0
172 195 0
173 197 0
176 198 0
172 196 0
172 196 0
174 197 0
173 197 0
174 197 0
174 197 0
174 197 0
173 197 0
175 198 0
174 197 0
174 197 0
173 196 0
173 196 0
173 196 0
172 196 0
173 197 0
173 197 0
173 196 0
171 194 0
172 196 0
174 198 0
174 198 0
172 195 0
174 197 0
174 197 0
174 197 0
172 195 0
173 196 0
174 197 0
173 196 0
173 196 0
171 194 0
172 195 0
174 197 0
172 195 0
173 196 0
172 196 0
172 196 0
171 195 0
175 198 0
173 196 0
171 194 0
174 197 0
173 196 0
171 195 0
172 195 0
172 196 0
173 197 0
175 198 0
173 195 0
175 197 0
172 196 0
171 194 0
170 193 0
170 194 0
172 195 0
175 197 0
172 195 0
173 196 0
175 197 0
173 196 0
171 196 0
175 198 0
172 196 0
173 195 0
174 197 0
171 194 0
172 196 0
173 197 0
171 194 0
173 196 0
172 195 0
173 196 0
175 198 0
173 196 0
174 196 0
175 197 0
173 197 0
172 195 0
173 196 0
174 197 0
171 194 0
174 196 0
173 196 0
174 197 0
173 196 0
174 197 0
174 197 0
175 198 0
172 195 0
175 197 0
172 195 0
173 197 0
175 198 0
174 198 0
172 196 0
171 194 0
173 196 0
173 195 0
173 197 0
173 196 0
173 196 0
174 196 0
173 196 0
174 197 0
171 195 0
160 164 42
152 137 69
151 135 64
161 150 78
164 151 82
149 136 72
159 147 79
164 153 86
162 153 83
156 146 85
156 145 84
158 149 85
168 158 94
164 154 92
163 155 93
162 153 92
160 152 94
162 152 92
160 153 94
159 151 93
164 157 95
161 154 97
163 156 98
165 158 99
162 154 98
167 160 102
162 154 99
159 153 99
167 160 101
168 161 102
164 157 101
165 159 101
163 158 103
167 161 103
162 155 101
169 163 107
166 161 105
168 162 105
166 160 105
168 162 105
170 164 108
166 161 105
164 160 104
166 163 107
166 160 105
164 159 105
168 163 107
169 163 106
170 167 111
169 165 109
171 167 111
167 163 108
169 165 108
169 165 108
170 166 109
169 164 108
169 166 110
172 168 110
169 165 110
170 165 109
168 165 110
172 170 113
171 168 112
167 164 109
169 165 109
172 168 111
172 168 110
170 165 108
169 166 111
171 168 111
171 168 111
170 166 110
170 167 110
170 165 108
170 166 110
168 163 108
170 165 108
174 168 110
168 162 107
168 163 107
171 167 109
172 168 111
167 163 108
170 166 110
169 164 108
173 170 112
168 163 107
171 167 110
170 167 110
172 168 111
172 167 110
169 165 108
171 165 108
172 168 111
172 166 108
171 166 109
170 165 106
170 165 107
169 163 106
165 160 104
169 163 106
168 160 103
169 163 105
170 162 103
170 164 106
170 162 101
169 161 103
170 163 105
171 164 104
168 161 103
169 164 106
168 161 100
165 156 97
168 162 104
168 159 97
165 157 100
170 160 101
168 160 97
170 161 101
162 152 93
171 161 99
170 162 101
169 158 96
170 160 100
169 158 94
160 148 87
166 154 90
167 156 93
156 144 84
169 158 95
161 148 87
163 150 83
161 148 84
159 148 82
159 149 83
159 147 81
162 146 80
158 144 78
160 146 80
158 156 52
176 199 0
174 197 0
174 197 0
173 196 0
174 197 0
175 198 0
175 198 0
175 198 0
174 197 0
174 197 0
175 198 0
174 197 0
173 197 0
173 196 0
174 197 0
173 197 0
175 198 0
174 197 0
174 197 0
176 199 0
174 197 0
172 197 0
173 197 0
174 198 0
173 197 0
174 197 0
174 198 0
175 198 0
172 196 0
172 196 0
175 198 0
174 197 0
175 198 0
174 197 0
175 198 0
176 198 0
175 198 0
173 197 0
176 198 0
173 197 0
174 198 0
172 196 0
172 196 0
172 196 0
173 196 0
174 198 0
175 198 0
174 197 0
173 197 0
174 197 0
173 197 0
172 196 0
171 195 0
176 199 0
173 196 0
174 197 0
172 196 0
172 195 0
174 197 0
172 195 0
172 196 0
173 197 0
174 197 0
170 193 0
173 196 0
176 199 0
173 197 0
175 198 0
175 198 0
174 197 0
175 198 0
174 197 0
174 197 0
173 196 0
173 196 0
173 196 0
175 198 0
172 196 0
175 197 0
173 196 0
173 196 0
173 197 0
174 198 0
174 197 0
174 197 0
175 198 0
174 197 0
174 197 0
170 193 0
173 196 0
173 196 0
174 197 0
174 197 0
175 198 0
174 197 0
174 198 0
172 195 0
173 197 0
174 196 0
173 196 0
170 194 0
173 196 0
171 194 0
173 197 0
173 196 0
173 196 0
175 198 0
173 196 0
172 196 0
175 196 0
174 197 0
171 194 0
173 196 0
174 198 0
174 198 0
175 198 0
174 196 0
174 197 0
174 197 0
173 196 0
173 196 0
174 197 0
174 197 0
172 196 0
175 198 0
174 197 0
172 195 0
174 197 0
173 197 0
171 194 0
172 197 0
173 196 0
173 196 0
173 196 0
174 197 0
173 196 0
173 196 0
174 198 0
172 195 0
175 198 0
174 197 0
173 196 0
173 196 0
173 196 0
172 197 0
174 198 0
173 196 0
172 195 0
174 197 0
173 196 0
173 196 0
175 198 0
173 196 0
173 197 0
173 196 0
174 197 0
172 195 0
172 195 0
175 198 0
171 194 0
173 196 0
173 196 0
171 194 0
173 196 0
171 195 0
175 198 0
172 196 0
174 196 0
174 197 0
172 196 0
172 196 0
172 197 0
172 195 0
173 197 0
173 196 0
173 196 0
173 196 0
172 196 0
172 195 0
172 196 0
173 197 0
173 197 0
171 195 36
167 191 47
162 184 67
159 182 78
146 170 100
145 170 102
155 179 86
151 175 95
148 173 99
142 166 107
141 166 111
149 174 95
151 176 90
154 177 86
161 185 70
167 190 48
171 194 18
170 193 0
175 198 0
172 195 0
172 195 0
173 196 0
173 197 0
173 197 0
173 196 0
174 196 0
171 194 0
175 198 0
171 195 0
171 194 0
173 195 0
173 196 0
173 197 0
174 197 0
173 197 0
171 194 0
174 197 0
172 195 0
170 194 0
172 194 0
173 196 0
173 195 0
170 194 0
170 193 0
172 196 0
173 195 0
170 193 0
173 196 0
172 194 0
174 196 0
173 196 0
171 194 0
174 197 0
172 196 0
173 195 0
172 194 0
172 195 0
174 197 0
174 198 0
174 198 0
172 195 0
174 196 0
171 193 0
174 197 0
173 196 0
173 196 0
174 196 0
176 198 0
172 196 0
174 197 0
172 195 0
174 197 0
175 198 0
173 196 0
173 197 0
173 196 0
174 197 0
170 188 21
154 140 68
152 138 72
150 135 66
162 150 81
156 142 75
161 150 80
159 148 77
153 143 79
162 151 85
167 158 93
159 147 83
155 144 81
157 148 84
158 149 88
163 155 92
159 148 89
162 153 94
167 159 100
159 150 93
162 154 94
160 152 95
162 153 92
163 155 95
165 156 97
161 153 95
163 156 99
162 156 99
163 155 99
166 160 101
166 159 103
162 156 100
164 156 100
166 160 103
169 163 106
166 159 104
168 161 104
163 156 102
166 161 105
164 159 104
167 160 104
168 164 108
170 165 108
167 162 107
164 159 105
164 160 105
165 161 106
172 167 110
170 165 109
169 165 109
167 163 107
174 169 113
167 163 108
169 165 109
165 162 107
168 165 109
173 168 110
169 165 109
171 168 111
168 165 109
168 164 109
170 167 111
171 165 108
172 169 111
168 164 109
172 168 112
171 168 111
171 167 111
172 168 111
171 167 110
173 169 112
172 168 110
170 167 111
171 167 111
172 168 110
172 166 109
170 166 110
172 169 112
171 168 111
172 168 110
172 168 110
175 170 112
171 168 111
173 167 110
173 167 110
168 163 108
169 163 107
172 167 110
170 166 109
171 166 109
171 166 110
171 166 109
171 166 108
173 169 112
173 169 111
168 164 107
172 169 112
168 162 106
171 164 107
173 167 109
171 166 108
170 165 108
167 161 104
173 166 106
175 168 108
170 162 103
172 165 104
176 169 109
171 164 106
170 163 105
172 165 105
166 159 99
175 167 105
167 159 102
172 165 105
171 164 101
167 159 99
169 161 100
172 164 103
167 158 98
169 161 98
171 161 99
169 160 100
157 146 86
170 159 99
169 161 96
163 150 87
163 153 92
166 156 94
163 152 90
163 152 90
164 154 90
167 156 93
164 153 89
164 151 91
156 144 74
161 150 83
161 149 85
153 139 74
155 141 79
150 135 66
167 181 35
173 196 0
174 196 0
174 196 0
174 196 0
174 196 0
172 197 0
172 196 0
174 197 0
172 196 0
174 197 0
173 197 0
174 197 0
175 198 0
174 196 0
174 196 0
173 197 0
174 198 0
172 196 0
174 198 0
174 198 0
175 198 0
176 198 0
175 198 0
174 197 0
174 197 0
173 196 0
173 197 0
172 196 0
175 198 0
172 196 0
176 198 0
172 197 0
173 197 0
175 197 0
174 197 0
174 197 0
172 195 0
173 196 0
175 198 0
173 196 0
173 196 0
171 194 0
174 197 0
173 197 0
173 197 0
176 198 0
175 198 0
172 197 0
176 199 0
174 197 0
174 197 0
172 196 0
170 193 0
174 198 0
173 197 0
172 196 0
171 195 0
174 197 0
173 197 0
172 195 0
173 196 0
173 197 0
173 196 0
173 197 0
173 197 0
174 197 0
174 197 0
175 197 0
173 196 0
170 193 0
173 197 0
173 195 0
174 197 0
174 197 0
174 197 0
174 198 0
174 197 0
174 198 0
175 198 0
173 197 0
173 196 0
173 196 0
175 198 0
173 196 0
172 196 0
173 197 0
174 197 0
172 194 0
172 196 0
174 197 0
175 198 0
172 196 0
176 198 0
170 195 0
175 197 0
175 198 0
174 196 0
174 197 0
175 197 0
174 197 0
172 196 0
173 197 0
172 196 0
174 196 0
174 198 0
172 196 0
173 197 0
171 194 0
174 197 0
173 196 0
174 197 0
174 197 0
173 197 0
174 197 0
174 198 0
173 197 0
172 195 0
174 197 0
172 195 0
173 196 0
173 196 0
171 195 0
172 196 0
171 195 0
172 196 0
173 196 0
174 197 0
172 196 0
174 197 0
174 197 0
171 195 0
171 194 0
169 192 0
173 196 0
173 196 0
175 198 0
174 196 0
172 195 0
171 194 0
171 195 0
176 198 0
172 196 0
173 196 0
175 198 0
173 196 0
174 197 0
175 198 0
173 196 0
173 197 0
172 195 0
174 197 0
172 194 0
173 197 0
173 197 0
171 194 0
174 196 0
175 198 0
173 196 0
172 196 0
170 193 0
173 196 0
173 197 0
172 196 0
174 197 0
174 197 0
172 194 0
172 196 0
174 197 0
175 198 0
172 196 0
172 195 0
173 196 0
175 198 0
171 194 31
157 181 76
152 177 90
140 165 111
124 150 134
115 141 141
86 117 166
69 104 173
61 99 181
61 98 180
62 99 180
61 99 181
62 99 180
62 99 181
62 99 181
61 98 179
62 99 180
61 99 180
62 99 180
62 99 181
62 99 181
62 99 181
62 99 179
61 99 179
72 106 176
84 115 168
103 131 152
118 144 140
125 151 128
149 173 100
156 180 76
167 190 44
176 198 0
173 196 0
172 195 0
173 196 0
171 193 0
173 195 0
172 196 0
173 196 0
174 196 0
171 195 0
173 196 0
170 193 0
172 195 0
171 194 0
171 195 0
173 196 0
171 194 0
176 198 0
174 197 0
175 197 0
171 194 0
174 197 0
172 194 0
172 195 0
173 196 0
170 194 0
170 193 0
174 198 0
174 197 0
172 196 0
172 196 0
174 197 0
172 195 0
173 196 0
171 195 0
173 196 0
172 196 0
172 195 0
172 196 0
172 195 0
174 198 0
172 195 0
171 193 0
173 197 0
174 197 0
173 197 0
172 195 0
171 195 0
173 197 0
174 197 0
173 196 0
175 197 0
172 196 0
155 152 52
151 138 69
149 136 66
151 138 69
155 141 72
156 142 75
154 142 74
155 143 75
160 150 82
164 153 87
157 146 85
162 152 88
159 149 89
160 149 87
165 155 94
160 152 94
163 154 92
158 148 90
165 156 97
161 153 95
162 153 96
161 153 96
163 155 98
163 155 98
163 156 99
164 158 101
168 161 103
163 157 100
159 150 94
159 151 96
164 156 100
168 162 104
165 158 101
166 158 101
166 162 107
166 160 106
167 161 106
163 157 102
169 163 106
162 156 102
165 162 108
160 155 102
164 160 106
169 163 106
166 162 106
165 160 106
170 164 106
171 167 111
167 163 107
171 166 109
169 163 106
172 168 111
167 163 108
167 163 108
171 166 109
172 167 110
171 167 110
166 163 109
169 164 108
169 164 108
172 168 111
172 169 112
171 167 111
167 163 109
168 164 108
169 165 109
171 168 112
172 170 113
171 168 111
169 166 110
169 165 110
170 166 109
171 167 111
169 166 111
172 167 110
170 166 111
172 168 111
171 167 111
171 166 110
171 166 110
170 164 108
171 166 109
172 168 111
171 168 111
171 168 111
173 170 112
174 170 112
176 170 112
172 168 110
170 165 108
172 168 111
172 167 110
171 166 109
168 165 108
171 166 107
173 168 110
175 170 111
171 168 111
171 165 107
170 164 106
170 164 107
170 165 108
170 163 105
171 163 105
168 163 106
171 164 106
166 159 98
169 163 104
172 165 105
172 167 107
171 165 107
172 165 107
169 161 100
170 162 100
168 162 101
169 161 103
168 159 99
165 156 97
172 162 99
168 158 97
164 156 94
174 166 103
174 164 103
173 163 101
167 160 100
169 160 99
165 154 92
161 150 87
167 157 91
163 152 90
162 150 85
158 145 82
166 155 89
164 153 87
162 150 86
166 154 92
155 141 74
164 150 83
158 145 80
161 147 79
156 143 73
158 153 59
173 197 0
175 198 0
175 198 0
174 197 0
172 197 0
175 198 0
175 198 0
174 197 0
174 196 0
174 197 0
175 198 0
173 196 0
175 198 0
172 195 0
170 194 0
174 198 0
170 195 0
174 198 0
172 196 0
175 198 0
173 196 0
172 195 0
174 198 0
176 198 0
175 198 0
171 194 0
174 198 0
175 198 0
173 196 0
174 197 0
173 197 0
173 196 0
173 197 0
174 197 0
176 199 0
172 195 0
175 198 0
173 197 0
173 197 0
172 196 0
173 197 0
171 195 0
171 194 0
175 198 0
175 197 0
172 195 0
174 197 0
173 197 0
174 197 0
173 197 0
172 195 0
176 199 0
173 197 0
173 197 0
173 196 0
173 196 0
175 198 0
174 196 0
174 197 0
170 195 0
174 198 0
177 199 0
175 198 0
173 196 0
172 195 0
174 197 0
173 196 0
173 197 0
173 197 0
173 196 0
173 197 0
170 193 0
176 199 0
173 197 0
173 197 0
172 196 0
174 197 0
174 198 0
175 198 0
174 197 0
175 198 0
173 196 0
173 196 0
174 197 0
172 196 0
175 198 0
175 198 0
173 196 0
172 196 0
171 195 0
173 196 0
173 196 0
173 196 0
173 197 0
172 197 0
174 197 0
174 198 0
175 197 0
170 194 0
173 195 0
172 195 0
174 197 0
173 196 0
173 197 0
173 196 0
173 196 0
171 194 0
175 198 0
172 195 0
173 197 0
170 192 0
172 196 0
174 197 0
172 195 0
172 196 0
171 194 0
172 196 0
175 198 0
173 196 0
173 197 0
174 197 0
174 197 0
174 197 0
174 197 0
172 196 0
174 197 0
175 198 0
173 197 0
174 197 0
173 195 0
173 196 0
174 197 0
174 197 0
173 196 0
175 198 0
174 196 0
173 197 0
174 196 0
174 198 0
173 196 0
174 197 0
173 196 0
171 194 0
173 197 0
174 197 0
173 197 0
171 194 0
172 196 0
172 195 0
173 195 0
173 197 0
172 196 0
171 193 0
174 197 0
174 197 0
174 197 0
172 195 0
174 196 0
174 197 0
172 195 0
173 196 0
171 193 0
170 193 0
173 195 0
173 196 0
173 197 0
174 196 0
171 195 0
171 194 18
161 184 72
151 175 97
121 149 134
94 124 160
68 103 178
62 99 179
61 99 180
61 99 180
62 99 181
62 99 181
62 99 180
61 99 180
62 99 181
62 99 181
61 99 181
62 99 181
62 99 181
61 99 181
62 99 180
61 98 180
61 99 181
62 99 181
62 99 180
61 98 180
61 98 179
62 99 181
62 99 181
62 99 181
61 98 178
61 98 175
61 98 179
62 99 180
62 99 181
62 99 180
62 99 180
61 98 180
88 118 164
107 134 150
132 157 121
149 172 95
171 194 31
173 195 0
172 195 0
171 195 0
171 195 0
172 195 0
174 196 0
172 194 0
173 197 0
173 196 0
173 196 0
175 198 0
175 197 0
173 196 0
172 196 0
172 195 0
173 196 0
175 198 0
174 197 0
173 196 0
172 195 0
174 196 0
173 196 0
172 196 0
174 196 0
173 196 0
173 196 0
174 196 0
173 196 0
173 196 0
174 197 0
174 197 0
173 196 0
174 196 0
174 196 0
174 197 0
173 195 0
172 195 0
171 194 0
171 195 0
174 197 0
175 198 0
175 198 0
172 196 0
173 196 0
170 193 0
171 193 0
173 196 0
167 183 26
151 135 68
157 146 73
154 141 72
162 151 83
156 143 78
159 147 82
161 149 80
154 143 82
159 147 82
165 154 93
161 149 83
164 154 89
164 154 90
163 152 89
157 147 86
164 156 94
167 156 91
160 151 92
162 153 96
155 149 91
159 151 91
167 158 99
161 154 96
155 149 95
160 153 96
169 162 101
157 152 98
163 157 104
165 158 97
157 150 94
161 155 100
167 161 105
165 160 105
167 160 101
166 162 104
163 159 105
160 156 102
170 164 107
171 166 109
167 160 104
168 163 106
165 161 106
169 165 109
170 165 109
169 165 109
166 162 106
162 158 104
169 163 107
171 167 111
167 162 106
165 158 103
171 167 110
170 165 109
170 167 112
167 162 107
168 164 108
171 167 111
169 164 109
168 164 108
169 165 110
170 166 109
165 162 107
172 168 112
172 168 111
172 169 112
173 168 111
169 165 110
169 166 111
169 165 109
169 165 108
168 165 109
170 164 108
172 168 111
170 166 110
172 169 113
171 167 110
171 168 112
173 170 113
170 167 112
173 168 110
171 168 111
171 168 111
171 168 111
170 166 110
173 168 111
172 169 113
173 168 110
171 167 110
169 164 107
173 169 112
170 166 109
169 165 110
173 169 111
172 166 109
170 164 107
173 168 111
173 167 109
167 160 104
167 161 105
173 167 109
171 164 106
169 163 105
170 164 105
174 168 108
166 161 104
168 163 105
166 159 101
171 166 108
169 161 104
167 161 102
169 162 104
168 162 104
174 167 107
171 163 102
174 165 106
169 162 100
172 164 104
167 161 101
168 161 101
171 162 99
169 157 96
164 155 94
172 163 102
167 158 95
170 161 98
168 157 95
168 157 95
157 146 86
168 158 99
167 156 94
163 154 92
164 152 90
162 152 86
162 151 87
164 152 86
167 156 93
161 148 79
168 156 87
159 147 83
154 142 75
153 140 67
154 139 76
165 180 23
176 198 0
173 196 0
174 197 0
173 197 0
175 198 0
173 195 0
174 198 0
173 197 0
174 197 0
174 198 0
174 197 0
173 197 0
173 195 0
174 198 0
174 197 0
174 197 0
174 197 0
173 197 0
173 197 0
172 196 0
172 196 0
172 196 0
172 195 0
173 196 0
175 198 0
172 197 0
173 197 0
175 198 0
175 198 0
175 198 0
173 196 0
175 198 0
173 197 0
175 198 0
174 198 0
173 197 0
173 197 0
174 197 0
173 197 0
175 198 0
174 197 0
174 197 0
175 198 0
174 198 0
174 197 0
175 198 0
172 196 0
172 196 0
173 196 0
174 197 0
174 197 0
173 197 0
173 197 0
173 197 0
171 195 0
173 196 0
174 198 0
173 197 0
174 197 0
174 197 0
174 197 0
172 196 0
172 195 0
173 197 0
174 197 0
174 197 0
171 195 0
172 196 0
173 197 0
174 197 0
174 197 0
174 198 0
174 197 0
173 197 0
173 196 0
173 196 0
174 197 0
173 197 0
173 196 0
171 194 0
174 197 0
174 196 0
174 197 0
172 196 0
173 196 0
174 197 0
173 197 0
175 198 0
171 194 0
172 195 0
174 197 0
174 197 0
174 197 0
173 197 0
172 195 0
175 198 0
174 197 0
174 197 0
172 195 0
174 198 0
175 198 0
171 194 0
173 196 0
174 197 0
172 196 0
173 196 0
173 196 0
172 196 0
175 198 0
172 196 0
172 195 0
173 196 0
173 197 0
173 196 0
174 197 0
174 197 0
176 198 0
174 197 0
173 196 0
173 196 0
172 195 0
173 197 0
171 194 0
172 195 0
170 194 0
172 196 0
172 195 0
171 195 0
172 196 0
173 197 0
171 195 0
174 197 0
172 196 0
175 198 0
174 197 0
173 197 0
170 193 0
175 198 0
173 196 0
172 196 0
174 197 0
173 196 0
173 197 0
173 197 0
172 196 0
174 197 0
173 196 0
172 196 0
172 196 0
172 196 0
174 197 0
174 196 0
175 198 0
172 196 0
174 197 0
174 198 0
172 195 0
175 198 0
172 196 0
172 195 0
171 195 0
175 198 0
173 196 0
171 195 25
163 186 62
131 155 124
106 134 153
75 109 172
62 99 179
61 99 179
61 99 179
61 98 180
62 99 180
61 98 181
62 99 180
61 99 181
61 99 181
62 99 181
61 99 181
62 99 181
61 98 181
61 99 181
61 99 181
61 99 181
62 99 181
61 99 181
62 99 181
61 99 181
62 99 181
62 99 181
61 99 181
62 99 181
62 99 181
62 99 181
61 99 181
62 99 181
62 99 180
62 99 181
61 99 181
61 99 181
62 99 181
62 99 178
61 98 179
61 98 180
62 99 180
61 98 180
61 98 178
61 98 178
61 98 178
92 121 159
130 155 126
138 162 114
167 190 40
174 198 0
171 193 0
175 197 0
174 198 0
172 195 0
175 198 0
170 194 0
172 195 0
172 195 0
173 197 0
172 195 0
173 196 0
174 197 0
174 196 0
172 196 0
173 196 0
169 193 0
173 196 0
172 195 0
172 195 0
173 196 0
173 196 0
172 195 0
173 197 0
171 194 0
172 195 0
173 196 0
172 195 0
172 195 0
173 196 0
171 193 0
174 196 0
172 195 0
174 196 0
173 197 0
173 196 0
172 196 0
173 197 0
173 196 0
172 196 0
173 197 0
172 196 0
171 193 5
153 146 61
150 137 66
154 138 72
149 138 72
153 140 73
157 142 75
156 145 78
156 145 78
158 147 82
161 150 85
161 151 87
161 150 85
160 149 87
158 149 87
160 150 87
161 152 94
160 149 91
165 157 97
161 151 94
162 155 93
159 151 95
165 159 97
159 150 91
152 146 93
158 152 97
161 153 97
157 150 95
163 156 100
159 153 98
155 148 95
165 159 102
162 154 99
162 156 101
165 160 105
163 157 102
165 159 103
160 156 103
166 160 101
160 157 104
161 156 104
165 160 105
163 159 105
171 164 107
162 159 106
172 166 108
166 161 106
171 166 110
167 162 107
167 162 105
165 162 108
168 164 108
168 164 109
170 166 111
174 169 112
169 164 107
169 164 108
171 167 111
164 160 106
170 166 111
166 162 106
170 166 109
171 166 109
169 163 107
172 168 111
171 168 112
169 166 111
170 168 112
171 167 112
167 164 108
173 169 112
172 169 112
172 167 110
170 167 111
167 163 108
171 166 110
171 167 111
170 166 109
171 167 111
173 170 113
170 166 111
173 169 112
168 165 109
173 169 112
172 167 110
169 165 109
173 168 111
168 164 108
173 169 112
174 169 112
170 166 109
172 168 111
170 167 110
170 165 109
169 165 108
173 168 109
171 167 109
172 167 110
170 166 109
171 166 108
173 167 108
167 162 105
171 165 107
171 165 109
174 168 109
168 161 103
171 166 107
169 161 102
172 166 107
169 161 103
172 165 107
167 160 102
169 163 104
168 161 103
170 162 102
170 161 101
170 161 101
172 165 105
167 159 99
169 162 103
170 162 102
170 160 100
170 161 101
172 163 103
166 157 96
166 156 94
167 158 100
167 158 96
169 159 93
166 156 91
164 153 91
166 157 95
166 156 93
169 159 94
160 149 86
165 154 90
161 151 85
166 155 89
166 156 88
165 153 87
158 146 80
156 142 79
155 141 70
151 138 65
158 150 62
173 196 11
174 196 0
174 197 0
174 197 0
172 196 0
171 194 0
174 198 0
174 197 0
174 197 0
176 199 0
173 197 0
175 197 0
174 197 0
174 197 0
172 195 0
172 196 0
173 196 0
172 197 0
175 198 0
175 198 0
174 197 0
176 198 0
175 198 0
173 196 0
173 196 0
172 196 0
173 196 0
174 198 0
173 196 0
175 197 0
172 196 0
173 197 0
174 197 0
172 196 0
173 197 0
174 197 0
174 197 0
173 197 0
173 197 0
174 198 0
175 198 0
173 197 0
174 197 0
173 196 0
174 197 0
175 198 0
174 197 0
173 197 0
173 197 0
173 197 0
173 196 0
175 198 0
173 197 0
173 197 0
174 197 0
174 198 0
173 197 0
174 197 0
172 196 0
174 197 0
172 195 0
174 197 0
175 198 0
173 197 0
173 197 0
172 196 0
175 198 0
174 197 0
175 197 0
173 195 0
174 197 0
176 198 0
175 198 0
171 194 0
172 196 0
172 195 0
176 198 0
174 198 0
174 197 0
174 197 0
172 195 0
172 196 0
173 197 0
175 197 0
174 197 0
173 197 0
176 198 0
173 196 0
176 198 0
172 196 0
171 196 0
172 195 0
174 197 0
174 196 0
174 198 0
172 195 0
174 197 0
172 196 0
173 196 0
174 197 0
175 198 0
173 195 0
173 196 0
173 197 0
172 196 0
173 197 0
174 197 0
171 194 0
174 197 0
174 197 0
175 198 0
172 195 0
173 196 0
172 194 0
175 198 0
172 196 0
174 197 0
174 197 0
174 197 0
173 196 0
173 196 0
172 195 0
174 197 0
171 195 0
172 196 0
174 196 0
172 195 0
174 197 0
173 197 0
175 198 0
173 196 0
171 195 0
172 196 0
173 195 0
174 198 0
174 197 0
173 196 0
173 196 0
174 197 0
173 196 0
171 194 0
174 197 0
173 196 0
174 198 0
167 191 0
174 197 0
172 195 0
173 196 0
173 197 0
171 195 0
174 198 0
174 197 0
173 197 0
172 196 0
175 198 0
173 196 0
173 197 0
173 195 0
174 198 0
171 193 0
172 195 25
147 171 97
111 138 147
77 110 169
62 99 181
62 99 180
62 99 181
62 99 179
61 98 178
61 99 181
62 99 181
62 99 181
61 98 181
61 98 181
61 99 180
62 99 181
62 99 181
61 99 181
62 99 181
62 99 181
61 99 181
62 99 181
61 98 181
62 99 181
61 99 181
61 99 181
61 99 181
61 98 181
62 99 181
61 98 181
61 98 181
62 99 181
62 99 181
61 98 181
62 99 181
61 99 180
61 98 179
62 99 181
62 99 179
62 99 181
61 98 181
62 99 180
62 99 181
62 99 181
62 99 180
61 98 179
62 99 181
62 99 181
62 98 179
61 98 178
61 99 181
62 99 179
61 99 179
100 129 156
130 156 125
158 182 78
171 195 0
172 195 0
173 196 0
172 196 0
170 194 0
173 196 0
173 196 0
174 197 0
171 193 0
173 196 0
175 198 0
172 195 0
173 196 0
173 196 0
175 198 0
173 196 0
173 196 0
172 194 0
172 196 0
173 195 0
171 195 0
172 196 0
173 195 0
171 195 0
175 198 0
173 196 0
174 197 0
173 195 0
172 196 0
172 196 0
171 194 0
174 196 0
174 196 0
175 197 0
174 196 0
174 197 0
173 196 0
173 196 0
172 195 0
166 176 40
153 139 68
155 142 72
150 138 66
154 140 73
156 145 76
154 142 76
147 134 76
156 147 82
153 142 80
159 147 84
156 145 82
163 153 91
162 152 94
156 148 89
162 154 91
157 150 91
157 149 89
160 150 92
159 150 91
156 149 94
155 148 95
159 151 93
156 148 92
160 153 97
159 154 100
164 157 100
166 159 101
159 154 97
163 157 102
163 155 99
166 158 101
163 158 104
162 157 102
162 158 103
157 153 102
164 160 106
167 161 105
168 163 106
163 159 105
167 163 108
165 161 107
168 164 107
167 164 108
171 165 107
171 166 110
167 164 109
166 161 106
170 164 108
170 166 110
164 160 106
165 160 106
167 162 108
174 169 112
172 167 110
169 166 111
170 165 109
170 165 109
170 166 109
174 170 112
170 165 108
171 168 111
173 169 112
169 165 109
171 168 111
169 165 110
172 167 111
169 165 110
169 165 110
172 168 111
171 168 111
173 170 113
171 166 109
171 167 111
170 165 109
171 167 110
171 168 111
172 169 113
171 167 110
171 168 112
171 168 111
170 166 109
173 169 111
173 168 110
173 168 111
172 168 111
172 167 109
173 168 111
170 165 109
172 168 110
170 167 110
173 168 110
172 168 111
170 165 109
172 165 107
172 169 111
174 169 111
173 168 110
170 164 105
170 165 108
171 165 105
171 167 110
173 167 106
172 168 109
170 165 107
174 167 108
167 162 105
170 165 105
169 164 106
171 163 103
174 168 107
171 164 104
170 164 105
171 163 103
169 162 103
168 161 102
166 160 100
171 163 102
171 165 103
172 164 104
169 161 101
170 160 98
164 155 95
167 159 94
161 151 86
168 158 96
160 152 85
165 155 90
167 159 93
164 154 91
165 157 92
167 156 91
164 154 90
166 158 94
160 149 88
165 155 88
167 156 90
161 150 86
153 141 73
160 149 80
161 148 84
157 144 77
150 136 72
153 140 70
145 131 69
167 180 32
175 198 0
174 197 0
175 198 0
173 195 0
175 198 0
174 197 0
172 196 0
173 196 0
173 197 0
174 197 0
174 197 0
173 196 0
174 197 0
175 198 0
173 196 0
176 198 0
172 195 0
174 198 0
171 195 0
174 197 0
172 196 0
174 198 0
176 198 0
175 198 0
174 197 0
175 197 0
174 197 0
172 195 0
174 197 0
172 195 0
176 199 0
174 197 0
171 196 0
176 198 0
174 198 0
172 196 0
175 197 0
174 197 0
173 197 0
173 197 0
173 196 0
175 198 0
175 198 0
174 198 0
173 197 0
174 197 0
175 198 0
170 194 0
172 196 0
174 198 0
174 197 0
173 196 0
173 197 0
173 197 0
173 197 0
174 197 0
173 197 0
172 196 0
173 196 0
175 198 0
174 198 0
173 197 0
172 196 0
173 196 0
173 196 0
173 196 0
173 197 0
173 196 0
175 198 0
172 196 0
173 196 0
174 197 0
172 196 0
174 197 0
174 197 0
173 197 0
172 196 0
173 196 0
174 197 0
173 197 0
174 197 0
173 196 0
172 196 0
172 196 0
172 195 0
173 196 0
174 197 0
173 196 0
175 198 0
173 197 0
174 197 0
174 197 0
171 195 0
172 194 0
174 198 0
174 197 0
174 197 0
172 196 0
173 196 0
172 196 0
172 195 0
174 197 0
172 195 0
174 197 0
174 196 0
175 198 0
172 195 0
176 198 0
174 198 0
171 195 0
173 197 0
174 198 0
172 196 0
173 196 0
174 197 0
173 197 0
175 197 0
172 196 0
173 196 0
175 198 0
172 195 0
173 197 0
173 195 0
174 197 0
174 197 0
172 196 0
172 196 0
173 196 0
172 195 0
174 197 0
174 197 0
174 197 0
174 198 0
174 197 0
172 196 0
172 195 0
173 197 0
174 197 0
172 196 0
174 197 0
173 196 0
172 196 0
172 196 0
175 198 0
174 197 0
172 196 0
172 196 0
173 195 0
174 197 0
174 197 0
173 196 0
173 196 0
173 197 0
173 196 0
171 194 0
173 196 0
170 194 40
149 174 99
118 145 136
78 111 168
62 99 179
61 99 179
62 99 180
62 99 179
62 99 180
61 99 180
62 99 179
61 99 180
62 99 181
62 99 181
61 98 180
62 99 181
62 99 181
61 98 180
62 99 181
61 99 181
61 98 181
61 98 181
61 98 181
62 99 181
61 99 181
62 99 181
62 99 181
62 99 181
61 98 181
62 99 181
62 99 181
62 99 181
62 99 181
62 99 181
61 98 181
62 99 181
61 98 181
61 99 181
61 99 180
61 99 181
61 98 180
62 99 181
61 99 181
62 99 180
61 98 181
62 99 181
61 98 180
61 98 180
61 99 181
61 98 179
61 98 180
61 98 178
61 98 179
61 98 176
61 98 178
62 98 177
62 99 178
62 99 178
61 98 179
92 121 159
133 159 120
167 190 51
172 196 0
173 196 0
172 195 0
172 195 0
172 195 0
171 194 0
172 195 0
172 196 0
171 195 0
172 195 0
172 195 0
174 197 0
171 195 0
173 196 0
175 198 0
171 195 0
174 196 0
170 194 0
172 195 0
175 198 0
171 194 0
173 196 0
174 197 0
173 195 0
170 194 0
174 196 0
173 197 0
173 196 0
173 196 0
174 197 0
173 196 0
174 196 0
171 194 0
173 197 0
170 193 0
172 195 0
157 152 60
147 133 59
152 139 70
151 139 70
163 151 82
157 145 79
160 150 82
155 145 78
160 150 87
156 144 79
159 150 87
159 148 89
155 143 81
155 146 87
158 149 85
161 152 92
159 152 93
160 154 97
156 148 90
164 158 99
162 151 93
161 153 95
157 150 93
165 156 96
161 154 98
158 151 95
164 155 99
166 157 99
162 155 100
152 146 95
161 156 102
158 154 101
161 155 100
164 158 104
162 157 103
165 160 105
165 160 105
167 162 106
161 155 101
166 161 104
163 158 104
162 157 103
163 159 105
166 161 107
162 159 107
165 161 107
164 160 105
160 157 106
167 163 108
168 163 107
169 164 108
166 162 107
167 165 110
166 162 107
169 166 110
171 166 109
167 164 109
169 165 110
168 165 111
169 165 110
173 167 109
168 163 108
172 167 111
171 167 110
166 163 109
171 167 110
174 169 112
170 167 112
169 165 110
172 168 112
170 167 111
171 167 111
172 168 111
173 169 111
173 169 111
173 170 113
173 167 109
174 170 112
173 167 110
174 170 112
172 168 111
172 168 112
172 167 111
172 169 112
172 167 110
172 167 110
171 168 110
170 167 110
172 169 111
171 168 112
170 166 109
169 164 106
171 167 108
174 169 110
171 166 109
171 167 110
170 164 106
175 171 113
172 165 106
172 168 110
172 166 108
170 164 106
171 167 109
172 167 109
170 166 108
170 163 102
170 164 105
171 163 104
172 166 107
169 161 101
168 160 102
168 161 102
170 165 108
169 161 100
174 167 106
167 158 101
168 160 99
170 163 102
168 158 97
169 162 102
166 158 101
169 162 105
164 156 98
168 159 94
167 158 97
171 161 101
164 154 93
168 159 98
168 158 97
165 155 91
169 157 92
170 161 95
168 158 94
164 153 90
170 159 94
162 153 88
163 153 86
160 148 81
163 151 82
164 153 86
158 144 74
162 151 85
160 146 79
157 145 74
150 138 68
156 148 62
174 197 0
176 198 0
174 197 0
175 197 0
174 197 0
173 196 0
172 195 0
174 197 0
173 196 0
174 197 0
173 197 0
173 197 0
174 197 0
174 197 0
174 197 0
175 198 0
175 198 0
176 198 0
175 198 0
172 196 0
173 197 0
173 197 0
173 197 0
173 197 0
175 198 0
172 195 0
173 196 0
173 196 0
173 197 0
175 198 0
175 198 0
176 198 0
173 196 0
173 197 0
174 197 0
173 197 0
172 196 0
174 197 0
173 196 0
176 199 0
172 196 0
173 196 0
172 196 0
171 195 0
174 197 0
172 196 0
173 196 0
172 196 0
174 198 0
173 197 0
174 197 0
175 198 0
176 198 0
175 198 0
174 197 0
174 197 0
174 197 0
172 195 0
173 195 0
174 197 0
174 197 0
173 197 0
170 194 0
173 197 0
173 197 0
175 197 0
174 198 0
173 197 0
173 196 0
172 195 0
172 196 0
174 197 0
174 197 0
175 198 0
172 196 0
172 195 0
175 197 0
172 196 0
174 197 0
172 196 0
173 196 0
173 196 0
173 197 0
175 198 0
173 197 0
175 198 0
173 197 0
174 197 0
175 198 0
173 196 0
172 196 0
174 198 0
175 198 0
172 196 0
172 195 0
176 198 0
173 196 0
172 196 0
174 197 0
173 196 0
172 194 0
172 195 0
174 197 0
171 195 0
175 198 0
172 196 0
171 195 0
175 198 0
172 196 0
174 198 0
172 196 0
174 197 0
172 195 0
172 196 0
172 196 0
174 197 0
172 196 0
174 197 0
172 196 0
172 196 0
173 197 0
172 195 0
174 198 0
174 197 0
173 196 0
173 197 0
173 196 0
172 195 0
174 197 0
171 194 0
172 195 0
175 198 0
173 197 0
173 196 0
173 196 0
174 196 0
173 196 0
171 194 0
172 195 0
173 196 0
174 197 0
174 197 0
174 198 0
174 197 0
173 195 0
174 197 0
172 195 0
175 197 0
172 196 0
176 199 0
173 197 0
174 197 0
174 196 0
172 195 0
154 178 86
116 142 143
73 107 173
61 99 178
61 99 179
62 99 180
61 98 179
62 99 181
62 99 181
62 99 180
62 99 181
61 99 181
61 99 181
62 99 180
61 98 181
61 99 181
62 99 181
62 99 181
62 99 181
62 99 181
62 99 181
61 99 181
62 99 181
62 99 181
61 99 181
62 99 181
61 98 181
62 99 181
61 98 181
62 99 181
61 98 181
62 99 181
62 99 181
62 99 181
61 99 181
62 99 181
61 99 181
62 99 181
62 99 181
62 99 181
62 99 181
62 99 180
62 99 181
61 98 181
62 99 181
61 98 180
61 99 181
61 98 180
62 99 180
61 99 181
62 99 181
62 98 179
62 99 180
61 97 178
61 98 177
61 98 179
61 99 181
61 98 179
61 98 179
62 98 179
62 99 179
62 99 179
62 99 178
62 99 179
84 115 163
144 167 107
167 190 44
173 196 0
171 194 0
174 197 0
174 197 0
174 197 0
172 195 0
174 197 0
172 195 0
173 195 0
173 196 0
173 196 0
170 195 0
175 197 0
172 196 0
174 197 0
173 197 0
172 194 0
173 195 0
173 196 0
173 196 0
173 196 0
174 196 0
172 196 0
172 195 0
170 193 0
173 196 0
172 196 0
172 195 0
171 194 0
172 195 0
174 197 0
170 193 0
163 176 28
149 135 71
154 142 71
154 141 73
152 142 73
152 138 66
157 145 82
162 152 80
158 146 84
158 148 83
155 144 81
165 156 91
158 151 86
158 148 87
163 153 92
155 145 89
158 148 87
158 147 86
162 152 90
158 151 93
166 158 98
154 147 93
149 143 90
160 153 97
158 151 98
158 152 95
154 151 101
163 157 101
156 150 96
159 154 99
162 157 103
160 155 103
163 158 102
163 157 102
157 154 102
167 162 105
162 156 102
160 156 103
170 165 108
165 157 101
160 156 104
162 156 104
166 160 104
161 157 105
165 162 107
158 156 105
163 160 106
167 161 107
165 161 107
165 160 106
170 167 111
165 161 106
170 167 111
165 161 106
169 164 108
164 160 107
167 163 109
170 165 109
169 164 108
169 165 110
166 162 108
167 163 108
171 166 109
172 168 112
173 169 113
171 167 110
171 167 111
174 169 111
174 170 113
169 165 108
168 164 109
172 169 113
171 167 111
172 168 112
172 168 111
173 170 113
173 169 112
173 168 110
172 168 111
173 169 112
173 168 111
173 168 110
169 164 108
174 170 112
171 167 110
173 168 111
173 169 112
174 170 112
174 170 112
175 170 111
173 167 109
170 164 107
171 166 109
170 165 109
171 166 110
170 165 109
169 164 108
173 168 111
171 167 108
170 165 108
173 168 108
172 167 107
170 164 106
170 164 104
171 166 106
169 162 104
168 162 102
172 166 106
171 166 108
171 164 104
168 160 103
167 160 102
175 166 105
171 164 103
173 166 106
172 164 103
170 163 101
168 161 104
171 162 102
169 160 102
170 163 103
169 162 100
166 157 97
169 161 100
170 162 98
170 163 98
168 159 97
169 161 99
171 162 97
168 157 94
172 164 101
163 154 94
170 161 97
165 155 91
162 151 86
166 155 90
163 153 93
165 156 88
163 150 85
166 153 89
165 153 90
155 143 76
157 144 78
155 142 74
153 139 72
150 138 71
154 140 68
169 184 33
173 197 0
175 198 0
175 197 0
174 197 0
173 197 0
175 198 0
174 197 0
174 197 0
174 198 0
173 197 0
172 195 0
172 196 0
172 195 0
171 195 0
172 196 0
173 196 0
174 197 0
173 196 0
172 196 0
175 198 0
176 198 0
175 198 0
173 197 0
175 197 0
175 198 0
176 199 0
174 197 0
173 197 0
174 197 0
173 197 0
175 197 0
174 198 0
174 197 0
172 196 0
174 197 0
173 196 0
172 196 0
175 198 0
173 197 0
172 196 0
174 198 0
173 196 0
173 196 0
175 198 0
172 195 0
173 196 0
172 195 0
173 196 0
170 194 0
172 196 0
173 196 0
171 195 0
173 197 0
174 197 0
173 196 0
173 197 0
174 197 0
172 196 0
171 195 0
172 196 0
172 196 0
174 197 0
174 197 0
173 196 0
173 197 0
173 197 0
174 197 0
174 197 0
172 196 0
173 197 0
175 198 0
173 196 0
173 197 0
172 195 0
173 197 0
172 195 0
171 195 0
173 196 0
174 197 0
174 197 0
175 198 0
174 196 0
173 197 0
172 196 0
172 195 0
173 196 0
174 198 0
173 196 0
174 197 0
176 198 0
173 197 0
174 197 0
173 197 0
174 197 0
170 194 0
172 195 0
173 195 0
171 195 0
174 197 0
176 198 0
174 197 0
172 195 0
173 197 0
173 197 0
171 195 0
174 197 0
174 196 0
172 196 0
173 196 0
173 197 0
173 196 0
173 196 0
173 196 0
172 196 0
174 197 0
174 196 0
173 196 0
174 197 0
173 197 0
174 197 0
170 193 0
172 195 0
174 197 0
173 196 0
173 196 0
173 196 0
174 197 0
172 196 0
174 196 0
174 196 0
173 196 0
172 196 0
171 194 0
174 197 0
175 198 0
174 197 0
172 195 0
171 195 0
173 197 0
173 196 0
170 194 0
173 196 0
174 196 0
175 197 0
172 195 0
175 198 0
172 196 0
172 196 0
172 196 0
173 196 0
169 192 31
144 168 110
84 115 168
62 99 180
62 99 179
62 99 180
62 99 178
62 99 179
61 99 181
62 99 180
61 99 180
62 99 181
62 99 180
61 99 181
61 99 181
62 99 181
62 99 181
62 99 181
61 99 181
62 99 181
62 99 181
62 99 181
62 99 181
61 98 181
61 98 181
62 99 181
61 98 181
61 98 181
62 99 181
61 98 181
61 99 181
61 99 181
61 99 181
62 99 181
62 99 181
61 99 181
61 99 181
61 98 181
62 99 181
62 99 181
61 98 181
61 99 181
61 99 181
61 99 181
61 99 181
62 99 181
61 98 181
62 99 181
61 99 181
62 99 181
62 99 181
62 99 181
61 98 180
61 99 181
61 99 181
62 99 181
62 99 180
61 99 180
61 98 180
61 98 179
62 99 180
62 98 178
61 99 180
62 98 177
61 98 178
61 98 178
61 98 177
62 98 177
61 98 177
64 99 172
110 138 147
161 185 70
172 195 0
172 196 0
171 193 0
172 195 0
171 195 0
173 196 0
170 193 0
174 196 0
173 197 0
173 196 0
176 198 0
173 197 0
172 196 0
172 195 0
174 196 0
172 195 0
173 196 0
172 195 0
175 197 0
173 196 0
172 196 0
171 194 0
175 197 0
171 193 0
172 195 0
171 194 0
172 196 0
171 195 0
174 196 0
171 194 0
152 148 54
148 135 63
150 136 65
155 143 71
151 138 75
157 146 76
156 146 77
163 150 84
160 150 84
159 150 84
156 147 78
165 155 92
153 143 83
164 155 92
166 155 94
159 150 91
157 148 90
157 150 91
152 146 89
158 151 95
155 149 93
158 151 96
155 147 90
158 150 92
161 153 96
160 154 96
157 149 95
156 150 94
156 150 97
150 144 94
163 157 100
157 152 99
159 153 101
158 154 102
164 158 103
159 155 102
158 155 103
162 157 103
155 150 98
166 161 107
162 157 104
162 157 104
162 155 101
165 161 106
161 157 104
169 163 108
166 162 108
165 161 107
165 161 107
170 166 110
168 163 107
163 160 107
165 161 107
168 163 107
168 163 106
170 165 108
172 167 109
168 165 111
171 165 108
171 166 109
171 167 110
167 163 108
172 169 112
170 166 109
173 168 111
172 169 112
170 166 109
168 165 110
170 167 111
173 168 111
170 167 112
172 168 111
170 167 110
172 169 112
174 170 112
172 168 111
173 169 112
172 168 111
173 169 111
170 168 112
171 167 110
170 166 110
172 168 110
173 169 112
172 169 112
171 166 109
174 169 111
172 168 111
171 167 110
172 168 111
174 170 111
172 168 110
173 169 111
173 168 111
172 168 110
171 167 108
172 167 109
171 166 107
172 167 109
174 167 108
171 166 108
173 169 111
173 168 109
173 168 110
172 166 107
173 166 107
174 168 110
171 165 105
171 163 104
171 165 105
172 165 106
173 167 105
171 166 106
169 162 101
171 164 105
171 165 107
169 164 103
169 163 104
167 160 99
170 163 102
168 161 100
171 164 103
168 161 98
173 164 99
164 155 91
168 160 95
169 160 99
172 162 100
161 152 92
168 158 97
167 159 96
170 161 96
169 160 99
164 153 88
164 154 88
162 153 89
161 150 81
164 152 90
167 156 93
157 146 83
159 147 82
161 150 79
162 151 86
163 152 84
155 142 77
156 142 78
158 143 73
159 155 58
175 197 0
172 195 0
176 198 0
175 197 0
174 197 0
173 196 0
175 198 0
174 197 0
175 198 0
172 196 0
174 198 0
173 196 0
174 197 0
174 198 0
175 198 0
174 198 0
173 197 0
172 196 0
173 197 0
172 196 0
172 196 0
175 198 0
175 198 0
175 198 0
173 196 0
176 199 0
173 197 0
174 197 0
175 198 0
174 197 0
171 195 0
170 195 0
172 195 0
173 196 0
173 197 0
174 197 0
174 197 0
175 198 0
173 196 0
172 196 0
171 195 0
174 198 0
172 195 0
174 197 0
173 197 0
173 197 0
172 196 0
173 197 0
174 197 0
173 196 0
172 196 0
175 198 0
172 196 0
173 197 0
174 197 0
173 197 0
175 198 0
174 197 0
174 197 0
172 196 0
172 196 0
175 198 0
173 196 0
173 196 0
174 197 0
172 195 0
172 197 0
172 196 0
173 196 0
174 197 0
172 196 0
173 197 0
172 196 0
175 198 0
173 196 0
173 197 0
173 197 0
173 197 0
175 198 0
173 197 0
172 196 0
173 196 0
173 195 0
172 194 0
174 197 0
173 196 0
172 196 0
172 196 0
173 197 0
174 198 0
172 196 0
173 197 0
173 197 0
175 197 0
173 196 0
175 197 0
173 196 0
173 196 0
173 196 0
174 197 0
173 197 0
173 196 0
175 198 0
173 196 0
174 197 0
173 197 0
173 195 0
174 198 0
172 194 0
175 197 0
172 196 0
172 196 0
173 197 0
171 193 0
173 197 0
175 198 0
173 197 0
171 194 0
174 197 0
173 197 0
174 197 0
174 197 0
173 196 0
171 193 0
172 196 0
173 197 0
172 195 0
173 195 0
174 197 0
174 197 0
173 197 0
173 196 0
170 193 0
171 194 0
171 195 0
169 192 0
172 196 0
172 195 0
173 196 0
172 195 0
172 196 0
172 195 0
175 197 0
175 198 0
173 196 0
172 195 0
172 195 0
176 198 0
166 190 54
126 152 131
69 104 174
62 99 178
62 99 180
62 99 180
62 99 181
62 99 181
61 99 179
62 99 180
62 99 181
61 99 180
61 99 181
61 99 181
61 99 181
61 99 181
62 99 181
62 99 181
61 99 181
61 99 181
62 99 181
62 99 180
61 99 181
62 99 181
61 98 181
61 99 181
61 99 181
61 98 181
61 99 181
62 99 181
61 99 181
61 99 181
62 99 181
61 99 181
61 99 181
61 99 181
61 98 181
62 99 181
62 99 181
61 99 181
61 99 181
61 98 181
61 98 181
61 98 181
61 99 181
61 98 181
61 99 181
61 99 181
61 99 181
62 99 181
61 98 181
61 98 181
62 99 181
62 99 181
62 99 181
62 99 180
61 98 181
61 99 181
62 99 180
61 99 181
62 99 181
61 99 181
61 98 180
62 99 180
61 98 179
61 98 179
61 98 178
62 99 180
62 99 180
62 98 177
61 98 178
62 99 180
61 97 173
61 98 177
87 118 162
154 178 84
171 195 18
170 193 0
170 194 0
172 195 0
173 196 0
171 193 0
173 195 0
170 193 0
173 197 0
171 195 0
174 197 0
173 196 0
174 197 0
173 196 0
172 194 0
172 196 0
172 194 0
172 195 0
172 195 0
170 193 0
173 196 0
169 192 0
170 194 0
174 197 0
171 194 0
173 196 0
172 196 0
168 181 38
143 130 57
151 138 65
155 141 70
149 135 66
152 141 73
160 149 83
154 144 79
155 144 78
158 147 86
155 147 81
161 151 89
157 146 84
149 140 79
155 146 88
156 147 90
155 145 84
163 155 93
157 149 92
152 144 88
159 152 93
154 146 91
159 153 100
152 146 95
165 159 100
159 152 97
163 155 97
151 144 90
158 154 100
158 152 97
160 153 97
161 155 101
152 147 98
162 157 102
157 153 102
159 155 102
158 154 103
159 155 103
159 155 101
163 159 107
161 156 102
163 159 106
165 160 105
163 159 105
166 162 108
168 162 106
169 165 110
160 158 107
164 160 106
161 157 105
166 163 108
166 163 108
170 166 109
169 166 110
165 161 106
170 166 109
166 163 110
166 163 109
167 164 108
171 167 111
170 167 111
173 169 111
170 166 110
170 167 110
175 171 113
171 166 110
172 169 112
172 167 110
172 168 111
171 167 111
170 167 109
173 169 112
172 169 112
173 168 111
172 169 112
171 167 111
172 168 112
173 169 111
173 169 112
171 167 109
173 169 112
173 170 113
173 167 109
174 170 111
172 168 111
172 168 111
172 167 110
174 169 112
174 168 110
175 170 112
171 167 111
173 168 111
173 169 110
173 169 112
174 169 111
173 169 111
173 169 112
172 167 110
172 167 109
174 170 111
173 168 109
175 170 112
172 167 107
173 169 112
172 166 108
171 168 108
173 167 108
170 165 107
171 167 108
167 161 102
174 167 107
168 163 106
171 165 106
175 168 106
170 163 104
167 160 105
171 164 104
170 164 102
170 161 100
170 163 101
169 163 101
171 162 100
166 159 97
172 164 103
175 166 102
169 160 98
166 159 96
172 163 97
164 157 92
171 161 97
168 160 97
169 159 97
164 154 91
163 151 88
167 157 95
169 157 90
168 158 92
168 158 94
163 152 89
163 153 85
162 150 86
159 146 81
165 152 85
161 148 76
162 149 80
158 144 74
159 148 83
153 141 71
146 130 60
170 188 16
174 197 0
173 197 0
173 195 0
173 195 0
174 197 0
173 196 0
174 197 0
173 197 0
175 198 0
175 198 0
173 196 0
172 195 0
173 197 0
173 197 0
176 199 0
173 197 0
173 196 0
173 197 0
174 197 0
175 198 0
175 198 0
175 198 0
173 197 0
175 198 0
174 197 0
174 198 0
173 197 0
174 197 0
171 195 0
174 198 0
173 196 0
173 197 0
172 195 0
174 197 0
174 197 0
176 199 0
174 198 0
173 197 0
175 198 0
174 197 0
175 198 0
173 197 0
173 197 0
174 196 0
174 197 0
172 195 0
174 197 0
173 196 0
173 196 0
176 199 0
173 197 0
173 196 0
175 198 0
174 197 0
172 196 0
175 198 0
174 197 0
173 196 0
172 196 0
173 197 0
172 195 0
173 197 0
172 196 0
172 195 0
174 197 0
173 196 0
172 195 0
174 197 0
173 196 0
174 198 0
175 198 0
172 196 0
174 197 0
173 197 0
174 198 0
173 196 0
175 197 0
174 197 0
173 196 0
173 197 0
172 196 0
175 198 0
172 195 0
172 196 0
172 196 0
174 197 0
173 197 0
173 196 0
175 198 0
172 196 0
173 196 0
171 195 0
172 194 0
173 196 0
173 196 0
172 196 0
175 198 0
176 198 0
175 198 0
173 197 0
173 196 0
173 196 0
174 196 0
171 195 0
172 195 0
174 198 0
171 195 0
174 197 0
175 198 0
171 195 0
175 197 0
173 196 0
173 197 0
173 196 0
174 198 0
172 196 0
173 196 0
174 196 0
172 195 0
173 196 0
172 196 0
173 196 0
173 196 0
173 196 0
173 196 0
172 196 0
171 195 0
173 197 0
174 197 0
173 197 0
173 195 0
173 196 0
173 196 0
174 197 0
170 194 0
172 195 0
169 193 0
172 195 0
172 196 0
174 197 0
171 194 0
170 194 0
172 196 0
170 194 0
172 196 0
162 185 70
115 142 142
66 102 179
62 99 180
61 99 180
62 99 181
61 98 179
62 99 179
62 99 180
61 99 180
62 99 181
62 99 181
62 99 180
62 99 180
62 99 181
62 99 181
62 99 181
62 99 181
62 99 181
62 99 181
62 99 181
61 98 181
62 99 181
61 99 181
62 99 181
61 99 181
61 99 181
61 99 181
61 99 181
61 99 181
61 99 181
61 99 181
61 99 181
61 98 181
62 99 181
61 99 181
61 99 181
60 98 181
62 99 181
61 98 181
62 99 181
62 99 181
61 99 181
61 99 181
61 99 181
62 99 181
61 98 181
62 99 181
61 98 181
62 99 181
62 99 181
61 98 181
62 99 181
61 99 181
62 99 181
61 99 181
61 98 180
61 99 181
62 99 181
62 99 180
61 98 180
62 99 181
62 99 180
61 99 181
62 99 180
62 99 180
62 99 180
61 98 178
61 99 181
62 99 180
61 98 180
62 98 178
62 98 179
61 98 177
62 99 178
62 99 178
62 98 176
61 98 175
88 119 166
143 168 104
173 196 18
173 195 0
172 194 0
174 196 0
172 195 0
170 194 0
174 197 0
173 196 0
173 196 0
172 196 0
173 196 0
172 194 0
172 195 0
172 195 0
174 197 0
172 195 0
174 196 0
174 196 0
174 196 0
172 195 0
173 195 0
173 197 0
171 194 0
174 196 0
174 197 0
154 154 44
149 136 64
153 141 68
161 151 81
160 148 78
160 147 78
152 139 73
156 143 78
160 148 80
159 148 83
157 147 80
150 139 79
162 151 87
159 149 84
158 149 88
157 149 93
152 141 82
166 157 94
159 151 93
159 152 96
158 151 95
156 147 92
156 150 95
160 153 98
155 149 95
158 150 96
154 149 96
158 152 96
155 150 96
159 153 99
154 149 98
155 151 100
164 159 104
156 151 100
162 156 102
157 153 101
157 153 100
165 160 106
163 158 104
161 158 105
160 155 103
160 156 104
162 155 101
165 160 106
167 164 108
160 157 105
163 158 106
164 159 105
164 160 106
163 159 106
165 161 107
163 159 106
161 158 105
167 163 109
170 167 111
170 166 111
172 166 109
168 164 109
166 161 106
168 165 110
165 162 108
168 164 108
172 168 111
171 168 111
172 168 111
167 165 110
171 169 113
169 166 110
170 166 109
168 165 110
173 169 111
170 167 111
171 168 112
169 164 107
171 167 111
173 168 111
173 169 113
174 169 111
171 168 111
173 170 113
174 171 114
172 168 111
172 169 112
172 167 111
172 168 112
173 168 110
174 170 113
172 167 109
173 168 110
171 167 110
173 169 111
173 167 109
173 168 110
175 171 113
173 169 110
171 167 109
171 166 110
174 169 110
176 171 113
174 169 111
172 168 109
171 166 109
170 166 109
172 168 110
171 166 108
172 165 105
170 165 108
173 167 106
170 164 104
172 167 107
173 168 109
175 170 110
174 167 104
170 163 104
169 161 101
173 167 108
169 162 104
169 162 103
170 165 105
172 164 100
172 164 101
169 162 103
173 167 103
168 160 97
171 163 102
169 160 98
169 159 95
168 160 97
171 164 101
165 156 93
168 158 93
170 160 95
169 162 97
173 164 101
168 159 90
163 154 90
169 158 90
163 152 88
167 157 87
166 157 92
163 152 88
170 159 91
166 154 82
159 148 80
161 147 77
162 149 82
163 151 76
152 138 67
146 132 65
155 158 45
174 197 0
174 198 0
174 197 0
173 196 0
175 197 0
175 197 0
174 198 0
173 197 0
173 195 0
173 196 0
175 197 0
172 195 0
174 197 0
175 198 0
174 197 0
174 197 0
174 197 0
175 198 0
174 198 0
173 197 0
174 197 0
173 196 0
173 196 0
175 198 0
174 198 0
175 197 0
172 195 0
173 196 0
173 197 0
171 195 0
173 196 0
172 196 0
173 197 0
173 197 0
172 195 0
172 195 0
174 197 0
172 196 0
175 198 0
175 198 0
175 198 0
173 197 0
174 197 0
173 195 0
175 198 0
174 197 0
174 197 0
172 196 0
173 196 0
175 198 0
173 197 0
174 197 0
173 197 0
173 197 0
173 197 0
172 196 0
172 196 0
172 196 0
174 198 0
173 197 0
175 197 0
172 195 0
173 196 0
175 198 0
174 198 0
174 198 0
173 197 0
173 197 0
177 199 0
174 197 0
174 198 0
175 198 0
173 196 0
173 196 0
176 198 0
174 196 0
173 197 0
171 195 0
174 197 0
174 198 0
173 196 0
174 197 0
173 197 0
174 197 0
172 195 0
174 197 0
174 197 0
174 197 0
170 195 0
173 197 0
172 195 0
173 197 0
173 197 0
172 196 0
173 197 0
171 194 0
173 197 0
170 194 0
172 196 0
174 197 0
174 197 0
172 195 0
172 196 0
171 195 0
174 197 0
173 196 0
172 196 0
172 196 0
174 197 0
172 195 0
173 195 0
172 196 0
174 196 0
173 196 0
172 195 0
174 197 0
171 194 0
174 198 0
174 197 0
175 198 0
172 195 0
173 196 0
171 194 0
172 195 0
173 196 0
175 197 0
172 196 0
173 196 0
173 196 0
172 195 0
170 193 0
171 196 0
172 195 0
172 196 0
173 197 0
173 196 0
173 196 0
171 193 0
174 197 0
172 194 0
173 196 0
174 197 0
173 197 0
164 186 67
110 137 143
67 102 174
62 99 179
62 99 177
62 99 181
61 98 180
62 99 179
62 99 181
62 99 180
62 99 180
61 99 181
61 98 180
61 99 180
61 99 181
61 99 181
61 99 181
61 99 181
62 99 181
62 99 181
62 99 181
61 99 181
62 99 181
61 99 181
62 99 181
61 99 181
61 99 181
62 99 181
62 99 181
61 98 181
61 98 181
61 99 181
61 99 181
61 99 181
62 99 181
61 98 181
61 99 181
62 99 181
61 98 181
62 99 181
61 98 181
61 99 181
61 98 181
61 98 181
61 99 181
61 99 181
61 99 181
62 99 181
62 99 181
61 98 181
62 99 181
61 99 181
61 99 181
61 99 181
61 99 181
62 99 181
61 99 181
61 98 181
61 99 181
61 98 181
62 99 181
61 99 181
61 99 181
62 99 180
62 99 179
61 98 177
62 99 181
61 98 178
62 99 180
62 99 180
62 99 180
61 98 180
62 99 181
61 98 180
61 99 180
62 98 178
61 98 178
62 98 177
61 98 175
61 98 179
61 98 176
61 97 173
86 116 163
141 166 105
171 194 0
172 194 0
173 197 0
171 195 0
173 196 0
170 192 0
171 195 0
173 196 0
171 194 0
172 194 0
173 197 0
173 195 0
172 193 0
172 194 0
171 195 0
173 197 0
173 196 0
172 196 0
172 194 0
172 194 0
171 193 0
173 194 0
172 191 23
147 132 64
146 133 58
142 132 60
150 139 66
154 141 72
152 140 79
151 140 80
151 140 76
157 145 79
160 152 87
154 145 86
150 139 79
155 148 84
161 152 88
149 141 83
159 151 93
150 140 85
155 148 90
154 148 93
144 138 85
159 151 93
158 152 97
155 149 94
152 146 93
152 145 90
149 142 92
162 156 100
162 156 103
154 147 94
158 151 95
150 144 90
158 153 102
159 155 104
159 154 102
159 155 103
163 157 102
161 155 102
156 152 102
162 157 104
162 158 104
160 156 104
158 154 103
159 155 103
163 158 104
161 157 104
158 156 106
158 154 102
159 155 102
165 161 106
165 160 106
162 158 104
167 164 109
165 162 108
168 164 108
172 167 110
167 164 110
165 161 107
169 165 110
168 165 111
167 164 109
172 169 112
168 165 109
173 168 110
167 164 109
171 167 111
174 169 110
172 169 112
169 166 111
174 171 113
171 166 109
173 169 112
173 169 111
172 169 111
171 167 111
173 169 112
172 169 112
169 166 110
169 166 111
174 169 112
175 171 112
172 168 110
171 166 109
172 168 108
176 170 111
175 171 113
177 171 112
173 169 111
172 168 111
173 169 112
175 169 111
173 169 111
173 169 111
173 168 111
173 169 111
173 169 111
173 168 109
172 168 108
173 169 111
175 170 110
174 169 110
175 169 108
172 165 107
174 168 109
172 168 109
174 168 107
175 167 105
173 167 108
173 168 110
174 169 109
170 166 104
170 165 105
174 169 108
173 168 108
174 166 104
169 164 105
171 165 103
174 167 108
170 164 102
177 169 105
171 165 103
169 162 102
176 168 104
165 157 95
171 163 102
170 161 98
170 162 101
173 164 101
168 158 96
169 162 100
169 160 100
167 156 94
167 157 94
167 158 95
173 162 99
165 154 89
159 150 83
165 151 87
167 158 92
159 147 82
164 154 90
163 151 84
164 152 86
165 153 87
165 155 86
161 150 84
154 139 74
153 140 67
151 138 73
153 140 68
146 138 55
173 197 0
172 196 0
173 195 0
174 197 0
175 197 0
175 198 0
175 198 0
173 197 0
173 195 0
173 196 0
174 198 0
172 196 0
172 196 0
172 195 0
174 197 0
171 195 0
174 198 0
170 195 0
173 196 0
174 197 0
173 196 0
174 197 0
173 196 0
173 197 0
173 196 0
174 198 0
174 197 0
174 198 0
174 197 0
174 197 0
173 197 0
175 198 0
173 197 0
172 196 0
174 198 0
175 198 0
173 196 0
174 198 0
171 196 0
175 198 0
174 197 0
172 196 0
172 196 0
174 198 0
175 198 0
173 197 0
174 197 0
171 195 0
171 194 0
172 196 0
172 195 0
174 197 0
173 197 0
173 197 0
174 198 0
173 196 0
174 197 0
172 196 0
173 197 0
172 196 0
172 196 0
171 195 0
175 198 0
174 197 0
173 197 0
174 197 0
175 198 0
175 198 0
172 196 0
174 197 0
175 198 0
174 196 0
174 197 0
173 196 0
173 197 0
175 198 0
173 197 0
173 197 0
175 198 0
176 198 0
172 196 0
172 195 0
174 197 0
171 195 0
174 197 0
174 197 0
174 197 0
172 196 0
172 195 0
173 194 0
173 196 0
171 195 0
173 196 0
172 195 0
172 196 0
174 197 0
173 196 0
174 197 0
173 196 0
175 198 0
173 196 0
173 197 0
171 194 0
171 195 0
173 196 0
173 197 0
173 196 0
175 197 0
171 195 0
176 199 0
171 195 0
172 196 0
172 195 0
173 195 0
172 196 0
175 198 0
171 195 0
173 197 0
175 197 0
174 197 0
173 197 0
172 196 0
172 195 0
174 197 0
175 198 0
173 196 0
174 195 0
173 196 0
172 194 0
174 197 0
172 194 0
174 197 0
174 197 0
170 194 0
173 197 0
172 196 0
173 196 0
173 197 0
175 198 0
172 196 0
172 196 0
169 193 40
119 145 140
64 100 178
62 99 178
62 99 178
62 99 180
62 99 180
61 98 178
62 99 180
61 99 179
62 99 178
62 99 180
62 99 180
62 99 181
62 99 181
62 99 181
61 98 181
62 99 181
61 99 181
61 98 179
62 99 181
61 99 181
61 98 181
62 99 181
61 99 181
62 99 181
62 99 181
61 98 181
61 99 180
62 99 181
62 99 181
62 99 181
61 99 181
61 98 181
61 99 181
62 99 181
61 98 181
61 99 181
61 99 181
61 98 181
61 99 181
61 99 181
62 99 181
62 99 181
61 99 181
62 99 181
62 99 181
61 98 181
61 98 181
61 99 181
62 99 181
61 99 181
61 98 181
62 99 181
61 99 181
61 98 181
61 98 181
61 98 181
62 99 181
62 99 181
61 99 181
61 98 181
61 97 178
62 99 181
62 99 181
62 99 181
62 99 180
61 98 180
62 99 179
61 98 180
62 99 180
62 99 179
62 99 180
61 98 179
61 98 179
62 98 176
62 99 179
62 99 180
62 99 179
61 98 178
62 99 180
62 99 176
62 98 177
62 99 178
62 98 176
62 99 178
99 127 150
146 169 98
174 197 0
172 195 0
172 195 0
171 193 0
172 194 0
173 197 0
172 195 0
172 196 0
173 195 0
173 196 0
173 196 0
173 196 0
172 194 0
169 193 0
171 194 0
170 192 0
174 195 0
171 194 0
173 194 0
169 192 0
163 170 45
144 131 54
145 133 57
153 141 69
148 137 68
152 140 72
158 146 81
159 149 81
154 144 82
157 146 84
165 155 90
148 139 79
151 143 86
159 147 84
155 146 88
154 145 87
160 151 93
154 147 89
159 151 88
155 146 90
153 146 88
154 148 94
153 145 89
152 146 96
160 152 94
157 152 97
153 147 93
149 143 93
158 151 97
156 150 97
160 155 101
162 156 101
161 155 100
154 150 100
165 158 102
145 141 94
161 156 103
165 158 103
159 154 102
151 148 99
154 149 99
156 154 104
163 158 105
161 158 106
165 160 106
160 156 103
167 161 106
165 161 107
161 157 104
160 156 103
162 159 107
168 164 108
164 161 108
167 163 108
171 167 111
168 164 110
170 166 110
170 164 107
168 164 109
171 167 111
167 164 109
168 163 108
169 166 111
167 162 107
174 170 113
170 167 111
168 165 110
175 170 112
174 170 113
173 169 112
172 168 111
173 168 110
175 170 112
172 168 112
172 168 112
172 168 112
173 169 112
174 171 113
172 168 111
175 171 113
174 169 112
173 169 111
173 169 112
174 169 111
172 168 111
174 170 113
174 170 113
171 168 110
174 169 110
172 168 112
175 170 111
174 168 108
174 169 112
172 168 110
171 166 107
173 168 109
175 171 111
172 167 108
173 168 110
173 168 110
173 167 109
173 167 109
171 166 106
174 168 107
172 168 110
173 166 105
172 167 107
173 168 108
172 166 106
175 168 107
170 165 108
170 164 104
174 168 106
169 163 104
173 167 107
171 163 101
172 166 103
170 161 99
173 167 107
172 166 105
174 167 104
175 168 106
165 159 99
169 162 101
171 163 100
173 166 102
169 160 98
174 165 101
175 165 101
165 155 94
168 160 99
168 160 95
167 159 96
175 167 104
170 159 94
171 163 95
163 152 85
165 153 89
162 150 85
166 155 85
168 156 89
165 155 85
163 152 86
167 157 91
161 150 84
160 148 76
165 153 82
155 142 72
159 146 80
157 144 75
155 140 69
166 177 50
171 195 0
174 197 0
174 197 0
173 196 0
174 197 0
174 197 0
174 196 0
174 197 0
175 198 0
174 197 0
174 197 0
172 196 0
174 197 0
173 196 0
173 197 0
172 195 0
174 196 0
173 196 0
173 197 0
172 196 0
172 196 0
174 197 0
173 197 0
174 198 0
176 198 0
175 198 0
173 196 0
175 197 0
173 196 0
174 197 0
175 197 0
174 198 0
173 196 0
174 198 0
174 197 0
172 196 0
174 197 0
173 197 0
175 198 0
173 196 0
173 196 0
174 197 0
172 196 0
174 197 0
173 196 0
175 198 0
174 197 0
173 197 0
173 196 0
172 196 0
173 196 0
175 197 0
173 197 0
174 197 0
171 195 0
173 197 0
172 196 0
170 193 0
175 198 0
174 197 0
173 196 0
175 198 0
173 196 0
172 195 0
172 195 0
172 197 0
173 197 0
173 196 0
171 195 0
173 197 0
174 197 0
175 198 0
171 194 0
174 198 0
174 198 0
174 197 0
173 196 0
174 197 0
174 197 0
172 196 0
174 198 0
173 196 0
174 197 0
172 195 0
175 198 0
174 197 0
178 199 0
172 197 0
171 195 0
171 194 0
173 197 0
175 198 0
172 195 0
170 194 0
172 196 0
171 195 0
176 198 0
175 198 0
171 195 0
172 195 0
174 198 0
173 197 0
173 196 0
174 197 0
172 195 0
173 196 0
173 197 0
172 196 0
172 196 0
175 198 0
174 197 0
171 194 0
174 197 0
173 196 0
171 195 0
172 195 0
173 196 0
173 197 0
172 195 0
173 196 0
174 197 0
173 196 0
174 197 0
172 194 0
173 196 0
174 197 0
173 196 0
173 197 0
174 196 0
173 195 0
173 196 0
171 195 0
173 196 0
174 197 0
175 197 0
174 197 0
173 196 0
171 194 0
169 193 36
122 148 133
75 108 172
62 99 173
62 99 177
61 99 179
62 99 177
62 99 180
61 99 179
62 99 179
61 99 181
61 98 179
62 99 181
62 99 181
62 99 180
61 99 180
61 99 180
62 99 181
62 99 181
61 99 180
61 98 180
61 98 181
62 99 181
61 98 181
61 99 181
61 98 181
61 99 181
62 99 181
61 99 181
61 99 181
61 99 181
61 99 181
61 99 181
61 99 181
62 99 181
62 99 181
61 99 181
61 99 181
61 99 181
61 98 181
61 99 181
62 99 181
62 99 181
61 98 181
61 99 181
61 99 181
62 99 181
62 99 181
61 99 181
62 99 181
62 99 181
61 99 181
61 99 181
61 99 181
62 99 181
62 99 181
62 99 181
62 99 181
61 99 181
61 99 181
61 99 181
62 99 181
62 99 181
61 99 181
62 99 181
61 98 180
61 98 181
62 99 181
62 99 180
62 99 181
62 99 181
61 98 178
62 99 180
61 98 180
61 98 179
62 99 181
62 99 181
62 99 180
61 98 180
61 98 179
62 99 179
62 99 179
62 99 178
62 99 176
61 98 177
61 98 176
61 97 174
62 98 175
62 98 177
61 98 177
108 136 149
157 181 74
173 196 0
171 195 0
172 193 0
172 196 0
172 193 0
171 193 0
169 192 0
173 196 0
173 196 0
170 193 0
172 195 0
173 195 0
173 196 0
170 193 0
172 195 0
171 193 0
171 193 0
172 195 0
152 140 56
143 130 62
151 138 70
154 139 73
149 137 68
157 146 77
156 145 74
155 143 77
151 140 79
151 141 81
153 142 79
154 145 82
161 153 91
154 143 82
157 148 86
157 148 91
150 142 86
153 146 90
150 143 88
147 140 87
156 150 95
154 147 90
156 150 96
148 143 88
156 148 89
163 156 102
158 151 95
150 146 96
158 153 100
149 145 96
159 154 99
155 148 94
158 153 101
151 147 96
155 150 101
158 152 100
154 151 102
149 146 99
164 160 106
155 152 100
157 154 104
162 158 105
159 156 105
159 154 102
161 158 105
165 160 105
159 157 106
161 157 105
166 161 106
161 158 107
159 156 105
167 163 109
160 157 105
170 164 108
168 164 109
167 162 108
165 161 105
164 161 108
165 163 109
170 166 110
167 163 109
166 163 109
169 165 111
173 168 109
171 168 111
171 167 111
167 164 109
170 168 112
168 165 109
172 169 112
168 166 111
172 169 111
170 166 110
177 171 112
173 169 113
175 171 112
173 169 112
174 170 111
173 169 111
177 172 113
172 168 111
172 167 108
174 169 110
173 169 111
173 170 112
173 169 111
173 168 109
177 171 112
172 169 112
175 171 114
173 167 109
173 169 111
172 167 109
175 170 110
173 168 109
174 170 112
172 168 109
171 167 110
175 170 110
173 168 110
174 169 109
174 170 111
173 167 108
173 168 109
173 168 109
173 168 108
174 167 106
171 166 108
171 165 104
172 166 108
174 168 108
173 165 106
174 167 107
171 166 107
172 165 103
172 164 100
172 166 105
174 168 109
174 166 103
172 166 102
170 162 101
170 164 100
173 164 101
173 164 102
171 163 102
170 161 98
168 160 96
171 163 100
172 163 100
169 158 93
171 162 98
168 159 93
172 162 97
165 157 90
172 162 97
170 161 97
166 159 95
169 158 90
164 154 89
166 157 92
166 156 92
170 158 90
160 149 85
164 153 84
165 154 87
164 151 82
162 149 77
155 142 73
155 142 73
154 138 70
152 136 68
158 155 55
174 197 0
175 197 0
173 196 0
176 198 0
175 198 0
175 198 0
173 196 0
172 194 0
174 197 0
174 197 0
172 196 0
175 198 0
174 197 0
175 198 0
173 197 0
174 197 0
174 197 0
172 196 0
174 198 0
174 197 0
172 195 0
174 197 0
175 198 0
173 197 0
173 196 0
173 196 0
172 196 0
172 196 0
174 198 0
175 198 0
173 196 0
173 197 0
172 195 0
174 198 0
174 197 0
174 197 0
173 196 0
174 198 0
173 196 0
173 196 0
175 198 0
173 197 0
175 198 0
173 197 0
171 194 0
171 194 0
175 198 0
174 198 0
175 197 0
175 197 0
173 196 0
174 197 0
174 198 0
174 197 0
175 198 0
173 197 0
173 197 0
174 198 0
174 197 0
172 195 0
174 197 0
173 196 0
175 198 0
172 195 0
176 199 0
171 195 0
173 196 0
172 196 0
175 198 0
172 195 0
173 196 0
174 197 0
173 197 0
174 197 0
173 196 0
172 196 0
173 196 0
173 196 0
173 196 0
174 197 0
173 196 0
170 194 0
173 196 0
174 196 0
173 196 0
173 196 0
172 196 0
174 198 0
174 197 0
172 196 0
172 196 0
173 195 0
174 197 0
172 196 0
172 195 0
173 196 0
172 196 0
174 197 0
175 198 0
175 198 0
175 198 0
174 197 0
172 195 0
174 198 0
173 197 0
174 197 0
173 197 0
174 197 0
175 198 0
172 196 0
173 197 0
170 194 0
175 198 0
170 194 0
172 195 0
173 196 0
172 196 0
173 196 0
173 197 0
172 196 0
172 196 0
172 196 0
172 195 0
175 197 0
172 195 0
171 196 0
175 198 0
171 195 0
171 195 0
173 196 0
170 193 0
171 194 0
173 196 0
170 193 0
173 196 0
170 194 0
175 198 0
147 172 95
83 113 166
62 99 178
62 99 180
62 99 179
62 99 180
62 99 178
62 99 179
62 99 180
62 99 179
61 99 180
61 99 178
62 99 179
62 99 181
62 99 181
62 99 180
61 99 181
62 99 181
62 99 180
62 99 181
62 99 180
62 99 180
61 99 181
61 98 181
62 99 181
61 99 180
61 98 181
61 99 181
62 99 181
62 99 181
61 98 181
61 98 181
61 98 181
61 99 181
62 99 181
61 99 181
62 99 181
61 98 181
62 99 181
61 98 181
61 98 181
62 99 181
61 99 181
61 99 181
61 99 181
61 99 181
62 99 181
61 99 181
61 98 181
61 99 181
61 99 181
62 99 181
61 99 181
61 99 181
61 99 181
61 99 181
61 99 181
61 98 181
62 99 181
61 99 181
61 99 181
62 99 181
61 99 181
62 99 180
61 99 181
61 98 180
61 99 181
62 99 181
62 99 181
62 99 180
61 99 181
62 99 181
61 98 179
62 99 181
62 98 179
62 99 181
61 98 180
62 99 181
61 99 179
61 99 181
62 99 179
61 98 176
61 98 178
62 99 181
62 98 179
61 99 180
62 99 178
62 98 177
61 98 178
61 98 176
61 97 176
60 95 170
63 99 173
126 151 125
171 193 36
169 192 0
175 198 0
172 195 0
170 194 0
171 193 0
170 193 0
170 194 0
171 195 0
171 194 0
172 195 0
173 196 0
173 196 0
171 195 0
170 194 0
171 193 0
167 182 39
149 133 62
150 136 63
150 139 67
156 146 76
149 139 71
155 146 79
159 149 77
149 140 75
160 149 88
158 151 88
160 151 87
156 147 86
154 144 86
148 141 85
158 149 87
159 150 89
152 143 88
158 152 92
158 150 93
159 152 98
153 147 95
147 142 92
149 142 90
153 145 92
159 152 95
150 144 93
153 148 95
157 148 95
150 145 95
154 149 98
152 146 94
159 155 102
156 151 96
158 152 99
155 151 100
160 154 102
155 152 103
154 149 99
156 150 99
153 149 100
162 158 104
153 148 99
158 155 104
155 153 104
163 159 106
167 163 109
164 159 105
162 159 105
159 156 103
166 162 108
164 160 106
164 161 108
169 163 107
165 161 107
170 166 110
167 163 107
162 159 106
165 162 109
163 159 105
170 165 109
167 164 110
167 163 107
167 164 109
168 164 109
165 162 107
171 167 110
172 168 110
168 165 111
166 163 108
169 167 111
173 169 111
171 167 110
171 168 110
171 167 112
172 168 111
173 170 113
173 169 112
173 169 112
173 169 112
171 167 111
173 169 112
172 168 110
172 168 110
173 170 113
173 167 109
175 170 111
173 170 112
172 169 110
173 168 111
174 170 112
176 171 112
175 170 111
177 171 112
172 167 110
174 169 108
172 167 109
173 168 108
174 168 110
174 169 110
174 169 109
173 167 108
173 166 108
171 167 108
173 167 108
171 167 108
172 166 107
174 169 109
174 168 107
174 167 104
174 169 109
174 168 105
172 165 104
169 162 99
174 167 104
174 167 107
170 164 105
176 169 105
169 160 99
175 169 105
175 167 103
173 166 104
174 166 105
171 163 102
171 163 102
171 162 98
170 161 98
169 163 99
173 164 98
170 161 98
167 158 97
167 160 96
164 153 89
166 158 93
167 157 91
170 162 100
168 156 91
172 161 98
164 156 88
168 158 92
167 157 88
159 149 85
159 149 82
164 152 85
161 149 77
157 146 81
160 150 81
161 148 80
159 147 75
162 150 79
152 137 68
151 137 70
149 137 59
172 194 16
174 197 0
173 196 0
173 196 0
173 196 0
174 198 0
173 196 0
176 199 0
175 197 0
173 196 0
173 197 0
173 197 0
173 196 0
175 197 0
172 196 0
173 197 0
173 197 0
173 196 0
175 198 0
171 195 0
173 197 0
172 196 0
175 198 0
174 197 0
175 198 0
174 198 0
172 196 0
173 197 0
174 198 0
173 197 0
173 197 0
172 195 0
172 195 0
173 197 0
173 197 0
172 196 0
175 198 0
175 198 0
175 198 0
175 197 0
173 197 0
174 197 0
173 197 0
172 196 0
174 197 0
175 198 0
174 197 0
174 196 0
172 196 0
176 199 0
174 197 0
171 195 0
174 197 0
169 194 0
172 196 0
173 196 0
174 197 0
173 197 0
174 197 0
173 196 0
170 193 0
174 197 0
173 197 0
173 196 0
174 197 0
174 197 0
173 197 0
173 195 0
171 195 0
174 197 0
174 197 0
174 196 0
173 197 0
174 197 0
175 198 0
175 197 0
174 197 0
172 195 0
175 198 0
171 194 0
173 197 0
173 197 0
174 198 0
174 196 0
172 196 0
172 195 0
173 196 0
172 195 0
172 196 0
172 196 0
174 197 0
174 198 0
172 195 0
172 195 0
172 195 0
175 198 0
174 197 0
172 197 0
172 195 0
172 196 0
171 194 0
174 197 0
175 198 0
174 197 0
174 198 0
172 196 0
170 194 0
175 197 0
171 194 0
175 198 0
173 196 0
172 195 0
172 195 0
171 194 0
172 196 0
173 196 0
174 196 0
173 195 0
173 194 0
171 195 0
173 197 0
174 196 0
173 196 0
174 197 0
172 196 0
171 195 0
173 196 0
172 194 0
172 196 0
170 194 0
172 194 0
175 198 0
172 195 0
175 198 0
172 196 0
166 190 54
121 146 133
61 98 175
62 99 177
63 100 180
63 100 180
62 99 176
61 98 179
62 99 179
62 99 179
62 99 180
62 99 180
62 99 181
62 99 180
62 99 179
61 98 181
61 99 180
62 99 180
62 99 181
62 99 181
62 99 180
61 99 180
62 99 181
61 99 180
62 99 181
62 99 180
61 98 181
62 99 181
62 99 181
62 99 181
61 99 181
61 99 181
61 99 181
61 99 181
61 99 181
62 99 181
62 99 181
61 99 181
62 99 181
61 98 181
61 99 181
62 99 181
61 99 181
62 99 181
61 99 181
61 98 181
61 99 181
61 98 181
62 99 181
62 99 181
61 98 181
62 99 181
61 98 181
61 98 181
61 98 181
61 99 181
61 99 181
61 99 181
61 99 181
61 98 181
61 99 181
61 99 181
62 99 181
62 99 181
61 99 181
62 99 181
62 99 180
61 99 181
62 99 181
62 99 181
62 99 181
61 98 181
62 99 180
62 99 181
62 99 180
61 99 180
61 99 180
62 99 180
62 99 181
62 99 180
61 98 179
62 99 181
61 98 178
62 99 181
62 99 178
62 99 180
62 98 177
62 99 180
62 98 175
62 99 177
61 98 177
63 99 178
61 97 176
61 97 175
60 95 170
62 99 177
85 115 159
143 167 105
169 192 0
173 196 0
172 195 0
172 196 0
172 195 0
167 190 0
176 198 0
174 197 0
172 195 0
167 190 0
172 196 0
171 195 0
172 194 0
172 195 0
148 148 47
147 132 57
159 149 73
157 144 73
154 144 73
152 141 75
154 144 78
153 140 76
152 140 79
152 141 78
158 149 89
156 143 80
142 132 77
152 144 84
151 141 82
151 143 85
153 145 87
155 146 90
149 143 90
147 140 88
148 140 82
136 131 82
150 144 88
157 151 98
149 142 91
150 143 92
152 147 94
152 148 96
155 150 97
149 143 93
160 154 99
155 149 97
148 142 92
150 146 96
153 150 99
146 144 97
157 151 99
159 156 104
155 151 101
157 153 98
161 157 104
156 152 101
157 151 99
158 155 104
157 153 102
164 160 106
162 158 104
160 157 105
160 156 104
162 159 106
162 159 105
166 162 107
162 158 104
167 163 108
167 164 109
170 166 109
169 166 111
167 163 109
168 164 108
166 162 108
164 162 108
166 164 109
169 165 110
170 167 111
165 162 108
170 166 111
172 167 110
167 164 109
170 166 109
168 164 108
171 168 111
170 167 109
172 167 111
169 166 109
174 169 111
173 169 111
171 166 109
173 169 111
175 170 112
170 167 111
175 171 112
175 170 112
172 169 111
176 171 112
173 169 112
174 169 111
175 169 111
175 170 112
174 170 111
175 171 112
175 171 111
174 168 109
174 170 111
173 169 111
175 170 111
174 168 109
174 170 112
174 167 107
173 168 110
173 169 109
174 168 106
175 170 110
174 169 108
174 168 109
175 168 109
174 170 111
174 168 109
173 167 107
174 168 109
172 165 105
175 168 106
174 166 106
173 167 107
174 168 104
173 169 108
176 169 108
173 168 106
175 166 103
175 167 104
171 166 104
172 165 105
173 166 103
169 160 99
172 162 99
171 162 99
171 165 101
168 159 96
171 163 99
166 159 94
168 159 91
169 161 98
168 159 95
166 156 91
163 153 91
166 157 91
167 158 91
165 156 90
162 152 86
165 154 87
170 160 93
164 155 92
169 158 87
161 150 82
161 150 86
160 149 85
157 145 77
161 150 85
165 156 84
163 151 81
161 148 77
157 144 76
158 143 70
150 137 59
164 175 32
172 196 0
173 197 0
173 196 0
174 196 0
173 195 0
174 196 0
174 198 0
173 197 0
174 197 0
174 198 0
174 197 0
172 196 0
174 197 0
174 197 0
173 197 0
173 196 0
174 197 0
173 196 0
172 196 0
175 198 0
174 197 0
173 196 0
174 198 0
174 197 0
173 196 0
174 197 0
171 195 0
172 194 0
175 198 0
171 195 0
175 198 0
176 198 0
172 196 0
173 197 0
176 199 0
175 197 0
175 198 0
174 198 0
174 197 0
172 196 0
174 197 0
174 197 0
172 197 0
174 197 0
173 196 0
173 197 0
173 197 0
172 195 0
173 196 0
174 197 0
176 198 0
173 197 0
174 197 0
174 197 0
174 197 0
173 197 0
174 197 0
176 198 0
174 197 0
173 197 0
175 198 0
173 196 0
172 196 0
172 196 0
174 197 0
173 196 0
172 195 0
174 196 0
173 196 0
175 197 0
172 196 0
174 196 0
173 196 0
174 198 0
175 198 0
172 196 0
172 196 0
172 195 0
174 197 0
173 196 0
173 196 0
172 195 0
171 194 0
172 195 0
170 193 0
173 196 0
173 196 0
173 197 0
172 196 0
173 197 0
173 195 0
173 197 0
172 195 0
173 196 0
172 195 0
169 193 0
173 196 0
172 197 0
172 196 0
174 197 0
175 197 0
173 196 0
173 195 0
173 196 0
173 196 0
173 196 0
171 195 0
172 196 0
174 197 0
173 197 0
174 197 0
171 195 0
173 196 0
174 197 0
170 193 0
174 198 0
172 196 0
172 196 0
171 195 0
173 196 0
173 196 0
171 195 0
174 197 0
172 196 0
173 196 0
172 195 0
174 196 0
172 195 0
173 196 0
172 196 0
172 195 0
171 194 0
171 194 0
143 168 102
76 109 173
62 99 177
61 99 179
62 99 179
62 99 177
63 100 181
61 99 180
61 99 179
62 99 180
62 99 177
62 99 179
62 99 180
62 99 180
62 99 180
61 99 179
62 99 178
62 99 180
62 99 179
62 99 181
62 100 181
62 99 181
62 99 180
62 99 181
61 98 181
62 99 181
61 98 181
61 99 181
61 99 180
62 99 181
61 98 180
62 99 181
61 99 181
61 98 181
62 99 181
61 99 181
61 99 181
62 99 181
61 98 181
61 99 181
61 99 181
61 99 181
62 99 181
62 99 181
61 98 181
62 99 181
61 99 181
62 99 181
62 99 181
62 99 181
62 99 181
62 99 181
62 99 181
62 99 181
61 99 181
61 99 181
62 99 181
62 99 181
61 98 181
61 99 181
62 99 181
62 99 181
61 99 181
61 99 181
62 99 181
61 98 181
62 99 181
62 99 181
62 99 181
61 98 181
62 99 181
62 99 181
61 99 181
61 99 181
62 99 181
61 98 180
61 98 181
62 99 178
62 99 181
61 98 180
61 98 179
61 98 180
61 99 180
61 98 179
61 98 179
62 99 179
61 98 176
61 98 178
62 99 180
61 98 177
61 98 177
61 98 175
62 98 176
62 98 177
61 98 176
62 98 177
61 97 172
62 98 174
63 99 176
110 136 142
163 185 60
170 193 0
171 194 0
172 193 0
173 195 0
172 195 0
172 194 0
174 196 0
172 195 0
173 197 0
171 194 0
171 195 0
174 194 19
144 131 55
152 140 65
153 141 68
150 137 68
151 139 71
157 146 77
150 137 73
160 150 82
154 145 77
154 144 81
154 144 84
159 146 82
144 136 80
150 143 86
158 150 92
157 148 88
145 139 88
150 144 91
148 139 87
155 148 95
152 146 92
153 145 89
145 138 86
155 150 95
153 146 90
153 146 92
149 143 93
151 146 94
150 146 95
150 145 94
152 147 95
152 148 97
149 143 95
155 151 101
150 147 98
157 153 100
159 153 100
161 157 103
154 149 99
159 155 102
161 157 104
158 154 103
161 156 103
159 155 104
161 158 105
162 158 104
159 155 102
162 160 108
154 151 102
156 153 104
159 156 102
164 161 108
160 157 104
160 156 106
164 160 107
162 158 106
168 165 109
169 165 108
168 163 107
167 164 109
172 168 109
169 165 109
169 165 109
166 163 108
170 166 110
165 161 107
167 164 109
170 166 110
173 168 110
169 166 110
169 166 110
174 169 112
174 170 112
169 166 110
171 168 111
172 167 110
174 170 112
172 169 111
171 166 109
174 169 110
175 171 113
173 169 112
173 168 110
173 169 111
174 170 113
173 169 111
175 171 112
174 169 111
175 170 112
176 170 111
174 170 113
176 171 112
173 169 111
174 169 110
174 169 111
175 170 111
174 169 109
173 168 108
173 168 108
172 166 108
173 170 112
173 167 106
175 168 107
174 168 107
170 165 103
173 167 107
172 166 108
173 168 107
171 166 107
173 168 105
173 167 106
175 169 108
172 166 106
174 167 105
174 167 105
173 166 106
170 163 102
175 168 107
172 164 104
171 166 103
170 162 99
172 166 104
172 165 105
172 164 102
169 160 99
172 164 100
170 162 99
172 164 102
175 165 102
166 159 93
167 159 98
168 158 94
169 160 95
173 163 100
171 163 100
166 157 93
169 159 94
168 159 96
164 154 91
163 152 86
165 156 93
160 148 78
170 158 90
159 148 84
165 155 88
161 151 85
166 153 87
164 154 88
161 148 76
154 143 73
159 146 76
153 140 71
156 144 75
155 154 49
174 197 0
174 198 0
172 196 0
173 196 0
172 195 0
175 197 0
174 197 0
174 197 0
175 198 0
172 196 0
174 198 0
173 196 0
173 196 0
171 195 0
173 196 0
174 197 0
173 196 0
173 197 0
174 197 0
174 197 0
173 196 0
173 196 0
175 198 0
172 195 0
173 197 0
173 197 0
174 197 0
175 198 0
173 197 0
171 196 0
172 195 0
171 195 0
174 197 0
173 197 0
174 197 0
175 198 0
173 196 0
172 196 0
173 196 0
173 197 0
173 196 0
174 197 0
173 196 0
171 195 0
173 196 0
174 197 0
171 194 0
176 198 0
173 197 0
172 195 0
175 198 0
174 198 0
172 195 0
173 196 0
173 197 0
174 197 0
175 198 0
173 196 0
173 195 0
173 196 0
173 196 0
172 195 0
169 193 0
173 196 0
172 196 0
173 197 0
174 197 0
172 196 0
175 197 0
173 197 0
172 195 0
173 197 0
172 196 0
173 197 0
172 195 0
173 196 0
173 196 0
174 197 0
174 197 0
173 196 0
173 195 0
172 195 0
173 197 0
172 195 0
172 196 0
173 196 0
172 195 0
173 196 0
174 197 0
171 195 0
174 197 0
173 197 0
174 197 0
172 196 0
173 196 0
172 196 0
172 196 0
171 194 0
172 195 0
172 196 0
170 194 0
174 196 0
173 195 0
173 196 0
174 197 0
172 195 0
172 195 0
172 195 0
173 197 0
173 196 0
172 196 0
171 195 0
171 194 0
172 195 0
172 196 0
171 194 0
172 195 0
174 197 0
173 196 0
171 194 0
171 194 0
173 196 0
172 195 0
175 197 0
174 196 0
173 196 0
174 198 0
173 196 0
175 198 0
171 194 0
173 196 0
161 185 62
106 133 145
63 100 177
62 99 175
62 99 179
62 99 176
62 99 176
62 99 179
62 99 179
62 99 179
62 99 179
62 99 181
62 99 180
61 98 181
62 99 180
62 99 181
62 99 179
61 98 180
61 99 180
62 99 181
61 98 181
62 99 179
62 99 181
62 99 181
62 99 181
61 99 181
61 99 181
61 99 181
62 99 181
61 99 181
62 99 181
62 99 181
61 98 181
61 99 181
61 99 181
61 99 181
62 99 181
62 99 181
61 99 181
62 99 181
61 99 181
61 99 181
62 99 181
61 99 181
61 98 181
61 99 181
62 99 181
61 98 181
61 98 181
61 99 181
61 99 181
61 99 181
61 98 181
62 99 181
62 99 181
61 99 181
62 99 181
61 98 181
62 99 181
62 99 181
62 99 181
61 99 181
61 99 181
61 98 181
61 99 181
62 99 181
62 99 181
61 99 181
62 99 181
61 99 181
62 99 181
61 99 181
61 99 180
62 99 180
62 99 181
61 98 180
61 98 179
63 100 181
62 99 180
61 98 180
62 99 181
61 99 181
61 98 178
61 99 179
62 99 179
62 99 177
62 99 180
62 99 179
62 99 178
61 98 180
61 98 176
61 98 177
62 99 179
62 99 180
61 98 177
63 100 181
61 98 176
61 98 176
62 98 175
61 98 175
61 98 174
62 97 172
83 114 163
139 164 107
173 196 0
171 194 0
174 197 0
173 196 0
173 195 0
170 192 0
172 196 0
169 191 0
173 195 0
172 195 0
172 183 47
152 141 68
147 134 60
150 138 68
145 134 65
139 127 68
157 146 73
149 138 70
147 136 73
148 139 76
154 145 82
148 138 79
146 136 81
149 139 82
156 145 86
150 143 87
152 144 87
145 138 84
139 133 85
143 137 84
150 143 88
147 141 88
144 137 87
140 135 87
144 140 89
150 145 95
150 147 97
148 144 94
147 143 95
154 149 95
153 147 97
149 146 97
151 146 98
148 145 97
150 146 97
149 145 97
159 155 103
158 154 102
154 151 101
156 152 101
155 151 101
158 154 104
160 156 105
154 152 102
163 159 104
162 158 106
155 152 102
157 154 104
161 158 105
160 156 103
164 161 108
164 160 107
168 165 110
160 157 106
159 156 104
166 162 108
164 161 108
163 160 106
165 161 108
166 163 109
166 163 108
168 164 109
168 165 111
166 162 108
166 164 109
169 165 109
171 167 110
170 166 109
167 164 109
172 167 110
165 162 109
173 169 111
171 168 111
173 169 111
168 165 110
173 169 112
172 169 111
171 168 110
173 169 112
173 169 111
169 166 110
174 170 112
175 171 111
176 171 112
173 169 111
172 169 111
175 171 111
172 168 109
175 170 110
172 168 109
173 169 111
174 170 112
174 168 109
177 170 110
174 170 112
176 170 109
173 170 111
171 167 109
173 166 106
176 169 108
172 167 109
173 168 108
173 169 111
175 169 107
175 169 108
177 171 110
175 170 108
175 169 108
171 165 103
175 169 108
173 166 104
174 167 105
173 168 103
173 167 108
174 168 108
172 166 105
175 169 108
172 164 101
173 166 103
175 168 105
171 163 100
177 169 107
176 168 105
171 163 102
173 166 104
170 164 101
167 159 96
170 163 101
170 164 100
170 162 97
174 165 103
173 166 99
169 161 98
169 160 97
169 159 94
163 153 86
169 161 93
169 161 92
172 161 96
163 153 85
164 155 86
166 155 86
162 152 86
164 153 87
165 157 92
164 151 88
162 149 83
163 153 84
161 149 81
155 144 72
157 144 77
157 145 76
157 144 73
146 130 60
155 145 65
174 196 0
172 195 0
172 197 0
173 196 0
173 196 0
174 197 0
174 196 0
173 196 0
174 195 0
174 197 0
173 197 0
173 197 0
175 198 0
174 198 0
173 197 0
174 197 0
172 196 0
175 197 0
172 196 0
171 195 0
174 198 0
173 197 0
174 197 0
173 197 0
173 196 0
174 197 0
173 197 0
171 195 0
174 198 0
172 195 0
173 197 0
173 196 0
173 197 0
172 196 0
175 198 0
173 197 0
174 197 0
172 196 0
174 197 0
174 197 0
173 197 0
175 198 0
174 197 0
174 197 0
175 198 0
173 196 0
174 197 0
175 198 0
175 198 0
174 197 0
174 197 0
171 195 0
174 197 0
172 196 0
172 195 0
171 195 0
173 196 0
173 196 0
173 196 0
173 196 0
172 196 0
173 197 0
170 193 0
172 196 0
174 197 0
171 195 0
173 197 0
173 196 0
175 198 0
175 198 0
173 197 0
172 195 0
172 196 0
174 197 0
171 194 0
174 197 0
169 193 0
174 197 0
172 195 0
173 196 0
173 197 0
172 196 0
173 196 0
173 196 0
172 196 0
172 195 0
173 197 0
175 198 0
173 196 0
174 197 0
173 197 0
174 197 0
173 196 0
173 196 0
171 194 0
173 197 0
173 196 0
173 196 0
172 195 0
173 197 0
174 197 0
174 197 0
172 195 0
172 196 0
173 197 0
170 194 0
174 197 0
173 197 0
171 195 0
173 197 0
174 197 0
172 196 0
174 196 0
173 197 0
173 195 0
172 196 0
173 196 0
172 194 0
174 197 0
173 197 0
171 195 0
172 195 0
172 195 0
173 197 0
173 196 0
176 198 0
170 193 0
173 197 0
172 195 0
172 195 0
149 173 97
75 108 170
62 99 176
62 98 175
62 99 177
62 99 178
61 98 176
62 99 178
62 99 179
62 99 180
62 99 179
62 99 180
63 100 181
63 100 180
62 99 179
62 99 180
62 99 181
61 99 180
62 99 181
62 99 180
62 99 181
62 99 179
61 99 181
61 98 181
62 99 181
62 99 180
62 99 180
62 99 181
62 99 181
62 99 181
61 99 181
61 99 181
61 98 181
62 99 181
61 99 181
61 99 181
61 99 181
61 99 181
61 99 181
62 99 181
61 99 181
61 99 181
61 98 181
61 98 181
62 99 181
61 99 181
62 99 181
61 99 181
61 99 181
61 98 181
61 98 181
62 99 181
61 99 181
61 99 181
62 99 181
62 99 181
62 99 181
62 99 181
62 99 181
61 99 181
61 98 181
61 98 181
61 98 181
61 98 181
62 99 181
61 99 181
61 98 180
62 99 181
61 99 181
62 99 181
61 99 181
61 99 181
62 99 181
61 99 181
61 99 181
62 99 181
62 99 181
62 99 181
61 98 180
61 98 179
61 99 180
61 99 181
62 99 180
61 99 181
62 99 180
62 99 180
62 99 178
61 98 179
62 99 178
61 98 179
62 99 180
62 99 176
62 99 178
62 99 179
62 99 178
61 97 174
62 99 180
62 98 176
62 99 179
62 99 179
62 98 176
61 96 173
61 97 173
61 97 174
62 98 174
112 138 134
166 188 44
173 196 0
172 195 0
172 195 0
171 194 0
170 193 0
172 194 0
170 192 0
173 196 0
158 151 62
146 131 64
143 128 57
147 133 63
154 143 72
151 139 74
153 143 75
148 135 72
152 141 76
158 147 80
149 140 76
156 147 86
146 138 82
148 140 82
148 139 78
142 136 86
142 133 80
157 150 93
153 145 88
145 139 86
147 141 91
149 141 90
153 145 91
148 144 93
150 144 90
153 148 95
141 137 91
149 145 95
153 147 94
145 141 90
152 147 96
145 142 94
152 149 100
144 141 94
157 153 99
147 143 94
148 146 97
152 147 98
157 153 102
151 148 99
153 151 102
159 155 103
158 153 101
156 153 102
166 161 108
161 157 104
155 152 102
156 154 104
154 152 104
160 156 104
161 159 107
160 157 106
164 161 109
166 162 108
163 160 104
159 156 104
164 162 108
165 161 107
168 164 108
166 161 106
171 166 108
170 166 109
168 165 109
165 160 106
170 167 110
166 162 108
165 163 109
169 165 109
171 167 109
171 167 111
170 166 109
171 167 111
175 169 111
172 168 111
170 166 110
174 171 113
173 170 113
173 170 112
170 166 107
174 170 110
172 168 111
176 171 112
176 171 112
174 170 110
171 168 111
172 167 110
174 169 111
174 169 109
176 170 113
173 169 109
175 170 111
173 168 109
176 172 112
175 170 110
175 170 110
176 170 111
172 168 105
171 166 107
175 170 109
176 170 109
176 171 110
175 170 110
171 166 109
176 171 109
175 170 110
173 167 109
173 169 109
176 170 108
174 167 105
172 166 106
176 170 110
171 164 102
172 166 106
174 168 106
175 168 108
172 166 105
176 169 107
176 169 107
173 167 105
175 168 102
172 165 105
170 162 100
172 165 104
174 168 105
172 165 102
174 167 104
164 156 97
168 158 93
172 166 104
168 160 98
173 166 101
167 158 94
172 164 98
166 157 92
167 158 91
160 151 88
172 163 96
168 160 92
169 159 91
163 153 87
165 155 91
164 154 83
164 153 87
161 148 84
157 147 83
166 156 89
161 152 83
165 153 81
162 150 85
155 143 77
153 142 70
161 149 78
161 147 75
160 146 77
148 132 65
169 185 33
173 196 0
173 197 0
174 197 0
174 197 0
173 197 0
173 196 0
174 197 0
173 196 0
172 196 0
173 196 0
174 198 0
174 197 0
173 196 0
175 198 0
173 197 0
173 197 0
174 198 0
175 198 0
174 197 0
174 198 0
172 196 0
173 197 0
174 197 0
171 195 0
173 197 0
175 198 0
172 195 0
175 198 0
172 195 0
174 197 0
175 198 0
172 196 0
173 197 0
175 198 0
174 197 0
175 198 0
175 198 0
173 196 0
172 195 0
174 197 0
173 197 0
172 196 0
174 198 0
172 196 0
174 197 0
174 197 0
175 198 0
174 198 0
171 195 0
174 197 0
173 197 0
174 197 0
172 196 0
172 195 0
172 195 0
173 197 0
174 197 0
174 198 0
174 198 0
172 195 0
173 196 0
171 195 0
172 196 0
174 196 0
174 197 0
173 196 0
174 197 0
174 197 0
175 197 0
172 195 0
170 193 0
170 194 0
172 196 0
174 197 0
172 195 0
174 197 0
172 196 0
171 195 0
172 196 0
174 197 0
175 198 0
176 198 0
172 196 0
171 195 0
174 197 0
172 196 0
174 197 0
172 196 0
171 194 0
170 194 0
169 194 0
173 196 0
171 195 0
173 196 0
174 197 0
173 195 0
174 197 0
173 195 0
172 196 0
173 196 0
172 196 0
174 198 0
171 195 0
170 193 0
172 194 0
173 196 0
171 195 0
172 196 0
174 198 0
173 196 0
171 195 0
175 197 0
173 197 0
173 196 0
173 197 0
171 193 0
169 193 0
172 195 0
172 195 0
171 194 0
175 197 0
173 195 0
173 196 0
171 194 0
171 196 0
173 196 0
174 197 0
170 194 36
107 134 149
62 99 176
62 98 174
62 99 175
62 100 181
62 99 174
63 99 177
62 99 178
62 99 178
63 100 181
62 99 180
62 99 180
62 99 181
61 98 180
62 99 181
62 99 181
62 99 180
62 99 181
61 99 181
62 99 181
61 99 180
62 99 179
62 99 179
62 99 180
62 99 180
62 99 181
62 99 181
62 99 181
61 99 181
61 99 181
61 99 181
62 99 181
62 99 181
61 99 181
61 98 181
61 99 181
62 99 181
61 99 181
62 99 181
62 99 181
61 99 181
62 99 181
61 98 180
61 99 181
61 99 181
62 99 181
61 99 181
61 98 181
61 98 181
62 99 181
62 99 181
61 98 181
61 98 181
61 99 181
62 99 181
61 99 181
61 99 181
62 99 181
61 99 181
62 99 181
61 99 181
61 98 181
61 99 181
61 99 181
61 99 181
61 99 181
62 99 181
61 99 181
61 98 181
61 99 181
61 99 181
62 99 181
62 99 181
62 99 181
61 98 180
61 98 180
61 98 180
62 99 180
61 99 181
62 99 181
61 98 181
62 99 180
62 99 180
62 99 181
61 98 179
62 99 180
62 99 181
62 99 181
61 99 179
62 99 180
61 98 178
62 99 181
62 99 178
62 98 176
61 99 180
61 98 174
62 99 179
62 99 177
61 98 176
61 97 176
61 97 172
62 99 177
62 98 177
62 98 177
61 97 174
61 97 173
61 97 174
84 114 161
150 173 81
172 195 0
171 193 0
172 195 0
172 194 0
170 192 0
171 193 0
171 191 16
147 132 64
156 144 72
145 131 58
148 134 65
151 139 69
151 143 71
145 133 72
146 134 68
156 145 80
156 144 82
156 146 81
145 136 76
144 138 84
152 143 84
154 145 87
151 144 88
151 143 85
155 147 91
146 141 88
148 140 89
147 142 90
149 142 90
151 142 90
143 138 90
150 145 94
142 136 89
142 137 91
151 148 98
147 142 95
139 135 87
153 148 95
147 144 96
144 141 96
141 138 95
146 141 93
151 145 94
147 144 98
151 148 100
150 147 98
150 147 98
149 146 98
154 150 98
153 151 102
154 152 102
157 154 104
158 155 103
155 152 101
163 159 106
168 165 109
160 158 106
159 156 105
156 154 103
168 163 107
156 154 103
166 161 106
163 160 107
163 159 105
168 164 109
163 161 108
166 162 108
164 161 106
163 161 106
167 164 109
172 168 111
171 167 110
167 163 108
169 166 110
171 166 110
172 169 112
170 167 111
165 163 107
171 168 110
174 171 111
174 169 111
172 168 110
174 170 112
173 169 110
172 169 112
177 171 111
175 171 112
175 171 112
175 170 111
172 169 112
175 170 109
173 169 110
175 170 111
175 170 110
170 166 110
175 170 111
173 169 110
175 171 112
174 169 109
176 171 112
173 169 109
174 168 107
173 169 110
173 169 111
175 170 110
173 168 109
173 169 108
176 171 111
172 167 106
174 169 111
176 170 107
172 166 104
174 169 107
172 167 107
172 167 108
174 168 105
173 168 107
175 168 103
175 169 107
173 167 107
173 167 107
173 166 103
172 165 103
175 168 105
173 166 103
170 162 99
172 164 104
175 168 105
169 162 100
170 163 98
168 161 97
172 165 102
172 165 101
174 166 101
171 164 102
170 163 100
171 162 96
170 162 95
174 165 100
169 161 94
163 155 92
166 157 91
168 160 94
169 160 93
166 156 93
166 157 89
171 160 94
163 152 82
166 157 89
165 154 85
168 159 92
164 151 86
162 150 83
158 145 73
163 150 82
156 144 76
160 148 80
165 152 81
150 135 66
157 143 70
153 141 68
152 138 64
159 166 43
173 195 0
174 196 0
174 197 0
175 197 0
173 196 0
173 197 0
174 197 0
173 195 0
171 195 0
174 198 0
175 198 0
173 197 0
172 196 0
173 197 0
172 196 0
174 197 0
173 197 0
173 197 0
172 195 0
172 196 0
173 196 0
173 197 0
172 196 0
174 197 0
173 197 0
174 198 0
172 195 0
172 195 0
172 196 0
173 196 0
173 197 0
175 198 0
169 192 0
175 198 0
175 198 0
172 195 0
173 196 0
173 197 0
174 197 0
172 196 0
175 198 0
172 195 0
175 198 0
172 196 0
173 197 0
175 197 0
173 196 0
174 197 0
174 196 0
172 196 0
172 196 0
172 195 0
173 197 0
174 198 0
173 196 0
173 197 0
174 197 0
174 197 0
171 194 0
173 196 0
174 197 0
172 195 0
173 196 0
173 196 0
173 196 0
173 196 0
175 198 0
173 196 0
172 194 0
172 196 0
173 197 0
173 196 0
171 194 0
173 196 0
172 196 0
173 197 0
172 195 0
171 194 0
171 194 0
172 196 0
173 197 0
173 196 0
172 195 0
172 195 0
171 195 0
172 196 0
173 197 0
174 198 0
173 196 0
174 197 0
171 195 0
173 196 0
172 195 0
173 196 0
171 194 0
172 196 0
172 196 0
171 195 0
171 195 0
173 196 0
175 197 0
174 197 0
171 194 0
174 197 0
173 196 0
171 195 0
173 196 0
173 197 0
171 195 0
173 196 0
173 196 0
173 197 0
172 195 0
172 195 0
175 198 0
173 197 0
174 197 0
172 195 0
173 196 0
173 196 0
173 196 0
172 195 0
172 195 0
172 196 0
174 197 0
175 198 0
161 184 70
98 127 154
62 98 170
62 99 177
62 99 179
62 99 173
62 99 179
62 99 179
62 99 179
62 99 177
62 99 180
63 100 181
61 99 179
61 98 180
62 99 178
62 99 178
61 98 179
62 99 180
62 99 180
62 99 180
62 99 181
61 98 180
61 99 179
62 99 181
62 99 181
62 99 179
62 99 181
61 98 180
62 99 181
61 99 180
62 99 180
61 99 181
62 99 181
62 99 181
61 98 181
62 99 181
62 99 181
61 99 181
62 99 181
62 99 181
61 98 180
62 99 181
62 99 181
61 99 181
62 99 181
62 99 181
62 99 181
61 99 181
61 99 181
61 99 181
62 99 181
62 99 181
62 99 181
62 99 181
61 99 181
62 99 181
62 99 181
62 99 181
61 99 181
62 99 181
62 99 181
61 99 181
61 99 181
61 99 181
62 99 181
61 99 181
62 99 181
62 99 181
61 99 181
61 99 181
61 99 181
62 99 181
61 99 181
62 99 181
62 99 180
62 99 181
62 99 180
62 99 181
62 99 181
62 99 181
62 99 181
62 99 180
61 98 181
61 98 178
61 99 181
61 98 181
62 99 181
61 98 179
62 99 180
62 99 181
62 99 179
61 98 177
62 99 181
61 98 179
62 99 179
61 98 175
62 99 179
62 99 177
62 99 178
61 98 178
62 98 175
61 98 175
61 97 177
62 98 174
61 98 175
61 97 172
61 96 170
61 97 175
62 98 174
61 97 174
64 99 169
142 166 109
172 195 18
171 195 0
172 194 0
172 196 0
172 193 0
165 179 32
145 132 60
141 128 55
149 134 65
150 138 74
156 144 71
148 139 73
148 139 71
149 141 79
153 143 83
145 134 75
152 140 79
137 128 72
150 141 79
145 137 81
143 136 80
144 136 83
151 142 87
142 136 84
145 137 83
144 140 85
152 144 92
153 146 93
155 148 97
139 133 89
142 137 87
149 144 95
147 142 92
149 145 95
144 140 91
155 149 98
154 150 99
155 151 100
154 150 100
148 145 97
152 147 98
153 149 99
145 141 94
155 149 98
155 151 101
151 147 98
152 149 100
156 154 103
148 145 98
159 157 106
156 154 105
152 150 102
156 154 103
158 155 105
159 156 105
160 157 105
161 157 106
163 160 107
161 158 104
165 161 107
165 161 107
161 159 107
162 158 104
159 158 107
170 164 106
164 160 106
168 163 107
168 163 106
169 166 108
169 165 108
168 164 110
168 164 107
161 159 107
167 164 109
171 168 111
170 166 109
172 168 110
171 167 110
171 167 110
170 166 111
171 167 109
173 168 110
170 167 109
171 168 110
174 170 111
175 171 112
170 165 108
175 170 112
172 168 111
175 170 111
174 169 108
175 169 110
173 168 109
173 169 111
176 171 112
174 170 111
173 168 108
175 169 110
176 171 112
176 171 111
172 168 108
176 171 111
177 172 111
169 165 105
176 170 108
177 171 111
174 170 109
174 170 111
173 168 109
173 169 110
173 167 107
175 168 106
174 169 109
172 166 104
175 168 107
172 166 105
174 168 105
174 170 109
173 167 106
174 168 107
175 170 108
174 168 108
173 166 104
177 170 106
171 165 103
172 166 104
174 165 101
173 166 104
173 164 100
176 169 106
171 163 99
168 161 99
172 164 100
170 163 99
172 164 102
168 160 96
167 161 96
173 165 98
171 163 98
171 164 100
169 160 95
170 161 98
167 156 88
167 156 89
164 155 87
168 158 94
168 159 93
166 158 95
165 155 90
167 156 90
164 152 81
170 159 90
164 153 84
159 147 78
162 150 87
157 145 76
164 153 82
162 150 77
161 150 74
157 144 71
152 136 69
154 147 53
172 196 0
174 197 0
175 197 0
174 197 0
175 198 0
173 197 0
174 197 0
173 197 0
174 198 0
173 196 0
174 197 0
172 196 0
172 196 0
174 197 0
174 197 0
174 197 0
175 198 0
175 198 0
173 196 0
173 196 0
174 197 0
173 196 0
172 196 0
173 197 0
173 196 0
174 197 0
172 196 0
175 198 0
173 196 0
174 198 0
174 196 0
172 195 0
174 197 0
172 196 0
175 198 0
175 198 0
172 196 0
173 196 0
171 195 0
174 198 0
172 196 0
173 196 0
173 196 0
174 197 0
173 197 0
174 197 0
173 196 0
175 198 0
173 196 0
173 197 0
173 196 0
173 196 0
175 198 0
174 197 0
173 197 0
172 196 0
172 196 0
172 196 0
172 196 0
174 197 0
172 195 0
171 195 0
172 196 0
172 196 0
174 197 0
173 196 0
172 196 0
173 196 0
172 196 0
173 197 0
172 195 0
173 196 0
173 196 0
169 192 0
174 197 0
173 197 0
172 195 0
173 197 0
174 197 0
173 196 0
172 196 0
173 196 0
173 196 0
175 198 0
173 197 0
171 194 0
174 197 0
172 196 0
174 197 0
174 196 0
171 195 0
171 195 0
173 196 0
172 195 0
171 195 0
170 194 0
170 193 0
170 194 0
174 197 0
170 193 0
176 198 0
172 195 0
173 197 0
171 194 0
173 195 0
171 194 0
170 193 0
173 195 0
172 196 0
173 197 0
174 197 0
174 197 0
171 194 0
171 194 0
172 196 0
173 196 0
172 194 0
173 197 0
173 196 0
173 195 0
172 195 0
170 193 0
173 196 0
171 194 0
176 198 0
150 173 88
77 110 163
62 99 178
62 99 178
62 99 177
62 99 178
62 99 178
62 99 176
62 99 178
62 99 181
62 99 180
62 99 178
61 98 179
61 98 176
62 99 181
62 99 181
62 99 178
62 99 181
62 99 179
62 99 180
61 99 179
62 99 180
62 99 181
62 99 181
62 99 179
62 99 181
62 99 180
61 99 180
62 99 181
61 99 181
62 99 180
62 99 181
62 99 181
62 99 181
61 99 181
62 99 181
61 99 181
61 98 181
62 99 181
61 99 181
61 98 181
61 98 181
61 99 181
61 99 180
61 99 181
62 99 181
61 99 181
62 99 180
62 99 181
62 99 181
62 99 181
61 99 181
62 99 181
62 99 181
61 99 181
62 99 181
61 99 181
62 99 181
62 99 181
62 99 181
62 99 181
61 98 181
61 98 181
61 99 181
62 99 181
61 99 181
62 99 181
62 99 181
62 99 181
62 99 180
62 99 181
61 98 181
61 99 181
62 99 181
61 99 181
61 98 181
62 99 181
62 99 180
61 99 180
62 99 180
62 99 181
62 99 181
62 99 180
62 99 181
62 99 181
62 99 181
62 99 180
61 99 181
61 99 179
62 99 180
62 99 178
62 98 179
62 99 177
62 99 179
62 99 181
62 99 178
62 99 178
62 99 176
62 98 177
62 98 177
62 99 178
63 100 181
62 98 176
62 99 180
62 99 177
61 98 175
62 99 177
61 98 175
61 98 176
61 97 173
61 97 175
61 97 173
61 96 170
124 149 121
167 189 20
171 195 0
172 195 0
170 193 0
153 156 35
146 131 56
141 128 56
145 135 62
151 140 70
146 136 65
153 144 76
150 140 72
142 132 74
155 146 79
150 140 81
152 143 81
148 139 82
145 139 84
141 133 76
142 135 82
139 132 80
144 136 82
146 139 86
134 129 79
138 132 82
145 138 87
145 140 88
136 131 85
143 138 83
138 134 87
143 141 94
154 149 96
144 140 95
149 145 97
146 141 93
152 146 96
151 147 98
153 148 98
149 145 97
144 142 97
150 146 98
152 147 98
149 146 97
153 149 101
144 141 94
144 140 94
154 150 101
144 143 99
159 156 105
152 149 101
152 150 102
162 158 105
156 153 103
158 155 104
155 151 100
156 154 104
161 159 107
165 161 106
167 163 108
161 158 106
165 161 107
164 160 106
161 158 105
167 164 108
168 165 109
169 166 110
164 161 108
168 163 108
168 164 109
171 167 110
170 166 108
168 164 108
164 162 108
171 167 109
170 166 110
169 165 109
171 167 109
174 169 111
170 167 109
170 167 110
170 166 108
173 170 111
174 170 110
174 170 108
172 167 109
170 166 109
173 168 108
172 168 110
174 169 109
171 167 109
172 168 107
175 170 110
176 171 112
174 169 108
176 171 111
176 171 112
175 170 110
176 171 110
176 171 111
173 168 109
173 168 109
173 168 108
175 170 107
174 170 110
176 170 110
175 171 111
175 169 107
174 169 109
171 166 105
173 168 108
174 169 109
174 167 105
172 165 103
173 167 107
176 169 107
173 167 104
175 170 107
173 168 107
172 167 105
173 166 102
174 168 106
173 166 103
172 165 102
172 165 104
173 167 105
173 166 103
169 162 98
171 161 97
171 163 99
170 162 99
170 163 100
173 164 99
173 164 100
171 164 99
172 163 99
171 164 98
168 160 96
169 160 93
168 160 93
173 165 97
172 164 98
162 151 88
167 157 91
163 154 87
170 160 91
170 157 93
164 152 88
162 151 86
169 159 92
168 157 89
158 148 81
163 152 84
164 154 86
160 147 76
158 145 79
162 151 82
155 142 73
156 144 71
154 140 64
151 134 66
153 141 68
173 195 0
174 197 0
173 196 0
173 196 0
172 196 0
174 196 0
173 197 0
173 196 0
173 196 0
172 196 0
174 198 0
174 197 0
174 197 0
174 198 0
174 198 0
174 197 0
173 197 0
174 197 0
171 194 0
175 198 0
174 197 0
174 196 0
173 196 0
173 196 0
175 198 0
174 197 0
175 198 0
173 197 0
174 197 0
174 197 0
173 197 0
170 194 0
172 195 0
173 196 0
174 197 0
173 197 0
174 198 0
174 198 0
174 197 0
172 195 0
175 198 0
175 198 0
174 198 0
174 197 0
175 197 0
176 198 0
172 196 0
175 198 0
174 198 0
172 196 0
172 196 0
172 196 0
172 195 0
170 194 0
173 196 0
174 198 0
173 196 0
173 197 0
173 197 0
173 197 0
172 196 0
172 196 0
173 197 0
174 197 0
173 196 0
172 194 0
173 196 0
171 195 0
176 199 0
174 198 0
172 195 0
174 197 0
173 196 0
173 196 0
173 197 0
174 197 0
173 196 0
172 196 0
175 198 0
172 196 0
171 193 0
175 197 0
171 194 0
171 195 0
173 197 0
171 194 0
172 195 0
170 193 0
173 197 0
173 196 0
171 194 0
173 196 0
171 195 0
171 194 0
173 196 0
173 196 0
174 197 0
172 195 0
173 196 0
173 196 0
172 194 0
174 197 0
172 196 0
171 195 0
172 196 0
172 196 0
174 197 0
171 195 0
174 197 0
172 195 0
174 197 0
175 198 0
174 197 0
171 194 0
175 198 0
173 196 0
171 194 0
172 196 0
170 194 0
173 196 0
173 195 0
173 197 0
172 196 0
173 196 0
141 166 102
63 100 177
62 99 174
63 99 178
62 99 179
62 99 179
62 99 178
62 99 178
62 99 174
62 99 177
62 99 180
61 99 180
62 99 179
62 99 177
62 99 177
62 99 179
62 99 178
62 99 180
62 99 180
62 99 179
62 99 179
61 99 180
61 99 181
61 99 181
62 99 181
62 99 181
62 99 181
61 99 180
62 99 180
62 99 180
62 99 181
61 99 181
61 98 181
62 99 181
61 99 181
62 99 181
62 99 181
62 99 181
61 99 181
62 99 181
61 99 181
62 99 181
61 99 181
62 99 181
61 99 181
61 99 181
62 99 181
62 99 181
61 98 181
62 99 180
62 99 181
62 99 181
62 99 181
62 99 181
62 99 181
61 99 181
61 99 181
61 99 181
61 99 181
62 99 181
62 99 181
62 99 181
62 99 181
61 99 181
61 98 181
62 99 181
62 99 181
61 98 181
61 99 181
61 98 181
61 99 181
62 99 181
62 99 181
62 99 181
62 99 181
61 99 180
61 99 180
62 99 181
62 99 180
62 99 180
61 99 181
62 99 181
62 99 181
61 99 181
61 99 181
62 99 180
62 99 180
62 99 180
62 99 181
61 99 179
62 99 180
62 99 179
62 99 181
62 99 181
62 99 180
61 98 180
62 99 176
61 98 179
62 98 178
62 99 177
63 100 181
62 99 178
61 98 175
62 99 178
61 99 178
62 98 178
61 98 177
61 98 177
62 98 174
62 98 174
62 99 176
61 97 174
61 97 171
61 97 174
62 98 175
94 123 152
166 190 44
173 195 0
173 195 0
143 134 54
146 134 57
140 127 59
146 133 67
152 140 74
150 139 72
148 137 68
147 137 69
150 139 74
139 131 71
145 137 76
142 133 79
140 133 81
145 136 78
151 142 81
143 137 85
146 136 83
147 140 86
150 142 86
136 128 79
144 137 85
149 146 94
144 139 90
134 129 82
141 135 86
133 130 88
137 134 89
144 140 91
145 140 92
137 133 86
137 133 88
148 145 96
147 143 96
140 136 90
149 145 96
151 147 97
149 146 97
155 152 102
150 147 97
151 148 99
155 152 103
150 148 100
156 152 102
153 150 101
145 144 100
151 148 100
154 152 102
156 152 100
153 150 102
156 153 103
159 155 105
151 150 102
159 156 104
154 152 104
163 159 107
164 160 106
162 159 105
159 156 105
166 162 107
165 162 109
165 162 107
165 161 106
167 163 108
166 162 108
166 163 108
168 163 109
171 167 109
166 162 104
172 168 111
171 167 108
166 163 106
168 165 109
169 166 109
173 169 112
174 170 110
172 168 109
174 170 112
176 171 110
173 169 110
172 168 110
172 169 110
172 168 109
170 167 110
175 170 111
173 168 108
175 170 110
177 171 111
175 170 112
176 170 111
173 169 109
174 170 110
175 170 108
176 171 110
175 170 111
173 168 107
177 171 110
176 170 108
174 169 107
175 170 109
177 170 110
172 168 108
173 168 107
176 171 111
175 170 107
173 167 108
176 170 109
173 168 107
174 169 110
171 166 107
175 168 107
174 169 106
175 169 108
170 165 102
176 168 106
173 167 104
175 169 103
175 168 105
174 168 107
174 166 103
176 168 105
173 167 105
174 166 100
173 166 101
174 166 102
170 163 98
168 158 95
171 163 99
171 161 100
167 159 97
175 165 100
170 163 98
175 167 100
173 165 100
165 157 90
170 162 96
170 162 96
166 157 90
169 160 89
170 159 95
169 159 94
168 161 95
170 160 93
165 156 92
168 159 91
165 155 88
167 157 88
169 156 90
165 156 82
164 154 83
161 150 85
162 152 86
158 148 75
155 143 74
148 135 64
149 135 68
157 143 68
152 140 61
162 175 30
173 197 0
172 195 0
174 197 0
174 197 0
173 196 0
172 194 0
172 194 0
175 198 0
173 197 0
174 197 0
174 198 0
173 196 0
169 194 0
174 198 0
173 197 0
175 198 0
174 197 0
174 198 0
176 198 0
174 197 0
173 196 0
173 197 0
172 196 0
172 195 0
175 198 0
172 196 0
173 196 0
174 197 0
175 197 0
173 197 0
173 197 0
173 196 0
174 198 0
175 198 0
173 196 0
175 198 0
173 196 0
171 194 0
174 197 0
173 197 0
174 197 0
172 196 0
172 195 0
171 195 0
174 197 0
172 196 0
173 197 0
174 197 0
173 197 0
174 196 0
172 195 0
172 195 0
171 195 0
171 195 0
171 195 0
174 197 0
173 197 0
175 198 0
171 195 0
174 197 0
174 197 0
173 196 0
173 196 0
174 197 0
173 197 0
174 196 0
174 196 0
171 195 0
173 196 0
175 198 0
173 196 0
172 195 0
173 197 0
172 195 0
173 196 0
174 197 0
174 198 0
171 194 0
173 197 0
172 195 0
174 196 0
174 197 0
172 195 0
171 195 0
172 196 0
173 196 0
175 198 0
170 193 0
173 195 0
172 195 0
177 199 0
174 197 0
170 193 0
171 194 0
174 197 0
172 196 0
172 196 0
171 196 0
172 195 0
172 195 0
175 198 0
171 194 0
172 195 0
171 195 0
171 194 0
173 195 0
172 195 0
172 195 0
169 193 0
172 195 0
170 194 0
172 195 0
174 197 0
171 195 0
174 197 0
170 193 0
172 195 0
172 195 0
172 195 0
173 196 0
172 195 0
174 197 18
124 150 133
63 100 179
62 99 172
62 99 173
61 98 174
62 99 175
63 100 180
62 99 178
62 99 177
62 99 178
62 99 179
62 99 180
62 99 176
62 99 178
62 99 180
62 99 180
62 99 178
61 99 181
62 99 181
62 99 178
62 99 181
62 99 181
61 99 179
62 99 180
62 99 180
62 99 181
62 99 180
61 99 180
62 99 180
62 99 181
62 99 180
62 99 181
62 99 180
62 99 181
61 99 179
62 99 181
62 99 181
61 99 181
61 98 180
61 99 181
62 99 181
62 99 181
62 99 180
61 99 181
62 99 181
62 99 181
61 99 181
62 99 181
62 99 180
62 99 181
61 99 181
62 99 180
61 99 181
61 99 181
62 99 181
62 99 180
62 99 181
62 99 181
61 98 181
61 99 181
62 99 181
62 99 180
61 98 180
61 99 181
61 98 181
61 99 181
62 99 181
61 99 181
62 99 180
62 99 181
62 99 180
61 99 181
61 98 181
61 98 181
62 99 181
61 99 181
61 99 181
62 99 181
61 98 180
62 99 181
62 99 180
62 99 180
62 99 181
61 98 181
61 99 181
62 99 179
62 99 181
62 99 180
62 99 179
61 98 180
62 99 180
61 99 181
62 99 178
62 99 179
61 98 178
62 99 180
62 98 176
61 98 180
62 99 179
62 98 175
62 99 180
62 99 178
61 98 178
61 98 176
62 99 177
62 99 180
62 99 179
62 99 180
61 97 173
61 98 176
62 98 175
61 97 175
60 96 173
61 98 175
62 98 176
61 97 174
61 96 167
72 103 158
162 186 70
167 189 11
147 131 60
160 147 74
151 139 64
152 138 67
160 148 77
155 145 80
148 138 73
142 133 75
143 134 73
150 140 76
139 128 72
145 138 82
145 135 74
147 138 76
142 132 77
143 134 78
148 141 86
140 134 82
133 129 77
138 129 82
136 131 83
142 137 88
145 140 92
138 135 89
148 142 90
137 132 86
140 135 89
138 135 92
135 132 88
148 143 94
149 143 94
137 134 91
141 139 93
137 133 89
145 142 95
148 144 96
146 143 95
148 143 96
145 141 94
145 143 98
150 147 97
150 146 98
153 151 103
144 143 98
153 149 99
157 155 104
153 150 101
158 156 105
156 153 103
162 158 104
152 150 101
157 155 105
159 156 104
158 155 104
165 161 105
156 154 103
162 160 106
162 159 105
164 160 107
161 159 105
165 163 107
163 160 106
166 162 105
164 162 107
163 160 104
165 162 108
166 162 107
172 168 111
173 168 109
170 167 109
174 170 112
168 164 107
171 168 108
175 170 111
173 169 111
173 168 109
171 168 111
170 165 108
174 169 110
172 167 109
172 167 110
173 169 109
173 169 109
169 166 109
176 171 111
176 171 112
176 170 108
174 170 110
173 168 109
175 170 110
174 169 109
175 171 112
173 169 106
176 172 112
174 170 109
175 170 110
177 170 107
176 171 108
174 169 108
175 170 109
174 169 108
175 169 108
175 170 110
173 167 108
177 171 110
175 169 106
174 167 106
176 170 108
173 167 105
171 166 104
177 170 108
171 165 100
175 168 105
172 165 104
172 164 99
172 167 105
174 168 106
174 169 107
175 168 105
174 168 106
173 167 104
174 166 100
172 166 104
172 165 102
174 166 99
173 165 102
172 163 101
172 164 101
173 165 100
175 166 101
169 160 92
170 163 98
168 159 92
172 163 99
172 164 100
169 160 92
170 161 93
168 158 88
171 162 94
168 157 92
171 162 94
164 154 85
171 159 90
167 159 90
166 155 89
161 152 82
165 154 82
165 154 84
168 157 83
160 151 80
162 150 82
159 147 72
157 144 73
153 140 71
156 144 72
155 143 73
146 132 65
163 170 43
174 196 0
173 194 0
175 197 0
171 194 0
173 195 0
175 198 0
173 195 0
174 197 0
175 198 0
174 197 0
173 197 0
172 196 0
175 197 0
174 197 0
171 195 0
173 197 0
174 197 0
174 197 0
172 196 0
174 197 0
174 197 0
171 194 0
172 196 0
176 198 0
173 196 0
171 195 0
172 196 0
175 198 0
172 196 0
173 196 0
173 197 0
173 197 0
174 197 0
172 196 0
174 197 0
174 197 0
174 197 0
172 195 0
173 196 0
174 197 0
175 198 0
173 196 0
173 195 0
173 196 0
172 195 0
173 196 0
172 196 0
173 196 0
171 194 0
171 195 0
175 198 0
172 196 0
171 195 0
174 197 0
173 196 0
175 198 0
172 196 0
172 195 0
173 196 0
172 196 0
171 195 0
175 198 0
172 196 0
172 196 0
174 197 0
175 198 0
173 196 0
172 196 0
175 198 0
174 197 0
172 195 0
174 196 0
171 195 0
172 195 0
172 195 0
172 196 0
172 196 0
173 196 0
173 197 0
172 196 0
172 195 0
173 196 0
173 196 0
171 194 0
169 193 0
172 195 0
173 196 0
172 195 0
170 193 0
175 198 0
171 194 0
173 196 0
171 195 0
174 196 0
174 197 0
173 197 0
173 196 0
173 197 0
169 193 0
174 198 0
170 194 0
173 197 0
166 190 0
171 194 0
173 196 0
172 196 0
171 196 0
173 196 0
169 192 0
172 196 0
173 197 0
172 195 0
170 193 0
171 195 0
174 197 0
175 197 0
171 194 0
170 192 0
173 197 0
174 196 0
171 194 25
102 130 149
62 99 176
62 99 175
62 99 174
62 99 172
62 99 176
62 99 178
62 99 179
62 99 174
62 99 177
61 98 177
62 99 178
62 99 181
62 99 178
62 99 179
63 100 181
62 99 179
62 99 179
62 99 180
62 99 181
62 99 180
61 99 179
62 99 180
62 99 181
63 100 181
62 99 180
62 99 178
62 99 181
62 99 181
62 99 181
62 99 180
62 99 181
62 99 181
62 99 181
62 99 181
61 98 179
61 99 181
61 98 181
61 99 180
61 99 180
62 99 181
61 98 180
61 98 181
62 99 181
62 99 181
61 99 180
61 98 181
61 99 181
62 99 181
61 99 181
61 99 181
62 99 181
62 99 181
62 99 181
62 99 181
61 99 181
61 99 181
62 99 181
61 99 181
61 99 181
62 99 181
62 99 181
62 99 181
61 99 181
61 99 180
61 99 181
62 99 181
61 99 181
61 99 181
61 99 181
62 99 180
62 99 181
61 98 181
61 99 180
61 99 181
61 99 181
62 99 181
62 99 180
62 99 180
62 99 181
62 99 181
61 98 180
62 99 181
61 98 180
62 99 181
62 99 181
61 98 178
61 98 179
62 99 181
62 99 181
62 99 179
61 99 180
62 99 179
62 99 181
61 98 180
61 98 178
61 98 178
61 98 177
62 98 178
62 99 178
62 99 181
62 99 176
61 98 178
61 98 175
62 99 174
62 99 178
61 98 177
61 97 173
61 97 171
62 98 176
62 99 177
62 99 178
61 96 169
62 98 175
62 99 178
62 98 174
60 96 172
62 99 175
62 98 175
69 103 166
141 155 87
146 134 53
151 139 65
149 137 64
145 133 66
145 136 67
145 133 67
144 134 66
144 133 69
151 142 83
147 138 80
145 138 81
138 130 75
146 138 80
157 148 88
145 138 82
142 135 82
143 137 87
137 132 86
143 135 84
138 131 83
140 134 82
128 122 79
146 140 90
137 131 83
148 141 91
133 128 80
142 139 94
139 135 89
142 139 93
143 142 94
141 136 89
147 143 95
147 144 95
147 144 96
141 139 94
148 144 97
140 138 96
154 150 99
135 133 91
142 141 96
142 141 96
151 147 98
148 146 99
149 148 101
150 147 100
154 151 101
158 155 105
156 154 104
155 152 103
152 150 102
151 148 99
152 150 102
163 159 105
158 155 105
165 161 107
164 161 106
167 162 107
162 159 106
162 159 106
159 157 106
164 161 107
160 158 106
167 164 109
167 162 105
169 165 108
164 160 107
162 160 106
168 164 108
167 164 108
166 162 105
169 165 108
168 164 108
172 167 109
171 167 110
168 164 107
172 168 109
176 171 113
173 169 111
172 168 109
175 170 111
168 164 106
175 169 107
167 164 107
176 171 111
172 168 108
173 168 108
174 170 111
177 171 110
178 172 111
177 172 112
174 169 109
176 170 109
175 170 110
176 171 110
176 171 110
174 169 108
174 169 108
177 171 109
175 170 107
176 170 110
177 171 111
174 170 105
172 167 106
175 170 108
176 170 108
174 168 108
175 170 107
172 168 103
175 168 105
174 168 107
173 167 105
172 166 101
174 168 101
175 169 108
172 166 105
172 166 101
173 165 103
176 168 105
174 167 103
171 165 105
175 169 104
169 161 97
169 162 98
173 165 100
173 164 101
172 166 103
171 165 100
169 161 95
171 164 97
169 161 96
167 158 88
170 162 97
174 164 100
171 164 100
166 157 88
172 162 93
167 158 92
170 161 93
174 165 97
165 157 92
163 153 88
166 157 92
165 155 85
166 154 85
166 156 86
165 155 89
164 154 83
164 152 87
160 147 77
164 154 91
161 149 79
162 151 78
155 143 73
159 147 77
161 150 74
148 134 61
150 136 63
150 149 43
171 195 0
172 195 0
172 196 0
174 197 0
175 197 0
176 197 0
174 198 0
174 197 0
173 196 0
173 196 0
173 196 0
174 197 0
173 197 0
173 197 0
172 196 0
175 197 0
175 198 0
174 198 0
171 195 0
173 196 0
173 197 0
174 198 0
175 198 0
173 196 0
174 198 0
174 198 0
173 196 0
173 196 0
174 197 0
175 197 0
175 198 0
173 195 0
176 199 0
173 197 0
173 197 0
174 197 0
171 194 0
173 196 0
175 198 0
173 197 0
174 196 0
173 197 0
174 198 0
173 196 0
173 196 0
174 197 0
175 198 0
171 195 0
171 195 0
174 197 0
174 197 0
174 198 0
172 195 0
174 197 0
172 196 0
175 198 0
174 197 0
172 195 0
172 196 0
172 196 0
173 196 0
171 194 0
174 197 0
174 197 0
171 194 0
175 198 0
171 194 0
172 196 0
172 196 0
173 196 0
172 195 0
172 196 0
170 194 0
171 194 0
173 197 0
174 196 0
173 196 0
172 196 0
172 196 0
173 197 0
170 193 0
172 195 0
174 198 0
171 193 0
174 197 0
172 195 0
172 195 0
170 194 0
173 196 0
173 197 0
172 196 0
173 196 0
173 196 0
174 197 0
174 197 0
170 193 0
175 197 0
170 194 0
171 194 0
171 195 0
170 192 0
173 196 0
172 195 0
173 196 0
172 195 0
173 196 0
172 195 0
173 196 0
173 196 0
171 195 0
172 195 0
171 195 0
170 193 0
171 195 0
170 193 0
173 196 0
172 195 0
173 196 0
172 196 0
167 190 47
100 129 151
62 99 172
62 99 174
62 99 177
62 99 179
62 99 178
61 98 176
62 99 178
62 99 178
62 99 178
62 99 178
63 100 180
62 99 179
62 99 176
62 99 179
62 99 180
62 99 181
62 99 179
62 99 180
62 99 180
62 99 180
62 99 178
63 100 179
62 99 179
62 99 180
61 99 180
62 99 181
62 99 180
61 99 181
62 99 181
61 99 179
62 99 181
62 99 181
61 98 181
62 99 181
62 99 181
62 99 181
61 99 180
62 99 181
62 99 181
61 99 181
62 99 181
62 99 181
62 99 181
61 98 179
62 99 181
61 99 181
62 99 181
61 99 181
62 99 180
61 99 181
62 99 181
62 99 181
62 99 181
61 99 181
62 99 181
61 99 181
62 99 181
62 99 181
62 99 181
61 99 180
61 99 181
61 99 181
63 100 181
61 99 181
62 99 180
62 99 181
61 99 181
61 98 179
61 99 179
62 99 181
62 99 180
61 99 181
61 99 180
62 99 181
61 99 181
61 99 181
61 99 180
62 99 181
61 98 180
62 99 181
61 99 180
61 98 181
62 99 181
61 99 179
63 100 181
62 99 180
62 99 180
61 99 180
62 99 179
61 98 180
61 99 180
62 99 179
62 99 180
62 99 181
61 99 181
62 99 180
62 99 177
61 98 176
62 99 179
62 99 181
62 99 178
62 99 179
61 98 176
62 99 179
62 99 178
62 99 178
62 98 176
62 99 177
61 98 178
62 98 176
62 99 178
61 97 171
61 97 173
62 98 175
62 97 171
61 97 172
61 97 175
60 95 164
62 97 173
60 95 169
63 97 168
123 119 108
149 134 60
149 137 64
151 139 70
149 137 66
152 141 78
145 136 74
142 133 71
146 138 78
146 137 73
145 135 79
143 133 74
139 131 76
143 135 84
137 129 75
139 131 75
132 125 73
138 129 81
142 136 83
141 137 88
127 124 78
142 135 84
133 129 87
149 143 92
148 143 93
139 136 89
144 140 93
143 138 92
144 141 95
141 136 90
134 130 85
144 141 94
134 132 91
143 141 95
137 134 91
143 141 96
137 136 95
142 140 96
146 142 95
143 142 98
153 150 99
145 144 99
147 144 98
145 143 96
149 146 98
148 146 100
150 147 98
149 146 99
153 150 102
148 146 100
154 150 100
158 155 103
158 155 102
159 156 104
156 154 104
164 161 106
161 159 107
160 157 104
164 160 106
161 157 103
160 157 105
163 159 104
166 163 108
165 162 109
168 164 107
169 165 107
165 163 107
168 164 108
169 166 107
166 163 108
167 163 107
163 161 104
174 169 110
167 163 105
171 167 107
170 167 109
167 164 108
172 167 108
175 171 111
174 170 111
176 170 110
175 170 110
174 169 108
172 168 109
172 168 110
174 170 110
171 167 109
173 168 109
176 171 110
176 171 111
175 171 111
174 169 109
176 171 110
174 169 107
176 171 110
175 169 109
175 170 107
174 169 107
175 168 105
176 170 111
176 171 110
175 169 107
176 170 107
174 168 108
175 168 104
174 169 107
176 171 107
174 168 107
173 167 106
171 166 105
175 169 107
174 168 106
176 170 108
173 166 102
171 165 103
172 165 101
175 168 105
176 169 104
174 165 103
177 170 107
171 164 102
174 167 102
176 169 104
170 162 99
168 159 95
172 165 95
174 167 101
174 166 101
165 157 89
168 159 94
171 162 93
172 165 99
170 161 92
168 156 89
167 158 94
164 155 89
169 159 90
167 159 88
168 159 92
167 157 91
168 159 91
163 151 83
165 154 86
165 154 88
166 156 91
165 157 87
167 157 85
158 147 79
159 148 80
163 152 81
162 150 74
157 146 76
157 143 75
157 144 70
157 145 74
145 133 61
149 136 68
154 144 58
174 197 0
173 196 0
175 197 0
173 196 0
174 196 0
173 196 0
174 196 0
172 197 0
174 197 0
175 198 0
173 197 0
173 197 0
173 196 0
173 196 0
174 197 0
170 194 0
172 195 0
174 196 0
175 198 0
173 197 0
172 195 0
172 196 0
174 197 0
174 197 0
171 195 0
175 198 0
175 198 0
171 194 0
173 197 0
172 195 0
173 197 0
174 197 0
173 197 0
175 198 0
175 198 0
174 196 0
174 197 0
174 197 0
174 197 0
174 197 0
171 195 0
172 196 0
173 197 0
173 197 0
174 197 0
173 196 0
172 196 0
172 195 0
173 196 0
171 195 0
172 195 0
172 195 0
175 198 0
170 194 0
175 198 0
174 196 0
174 197 0
173 196 0
174 197 0
173 196 0
171 195 0
172 195 0
173 197 0
171 195 0
172 196 0
172 196 0
173 196 0
174 197 0
175 198 0
173 196 0
174 197 0
171 194 0
171 194 0
174 197 0
172 195 0
170 195 0
173 197 0
173 195 0
171 195 0
173 197 0
173 196 0
174 197 0
171 195 0
172 196 0
173 197 0
173 197 0
173 196 0
173 197 0
173 196 0
173 196 0
174 197 0
172 196 0
172 196 0
171 195 0
170 194 0
170 193 0
174 197 0
174 197 0
171 195 0
171 195 0
172 195 0
172 196 0
172 196 0
173 196 0
171 195 0
171 195 0
173 196 0
173 196 0
172 195 0
172 195 0
173 196 0
174 197 0
172 196 0
175 198 0
173 197 0
171 194 0
172 197 0
171 194 0
160 184 70
93 122 151
62 99 174
62 98 172
62 99 176
62 99 175
62 99 176
62 99 174
62 99 177
62 99 179
62 99 176
62 99 176
62 99 179
62 99 174
62 99 178
62 99 178
62 99 178
62 99 179
62 99 180
62 99 179
62 99 180
62 99 180
62 99 178
61 99 180
62 99 178
61 98 174
62 99 179
62 99 181
62 99 179
62 99 178
62 99 179
62 99 180
62 99 180
62 99 180
62 99 179
62 99 181
61 99 181
62 100 181
61 99 181
62 99 181
61 99 181
61 99 181
62 99 181
61 99 181
62 99 181
62 99 181
62 99 181
62 99 181
62 99 181
61 99 180
61 99 181
61 99 181
61 99 181
62 99 181
62 99 181
62 99 181
62 99 181
62 99 180
61 99 181
61 99 181
62 99 181
62 99 180
62 99 181
62 99 181
62 99 181
62 99 181
61 99 180
61 98 179
62 99 181
62 99 181
61 99 181
61 98 181
61 99 180
62 99 180
62 99 180
62 99 181
62 99 181
62 99 180
61 99 180
61 99 180
62 99 181
62 99 181
62 99 181
62 99 180
61 99 181
62 99 180
61 98 179
62 99 179
62 99 181
62 99 180
62 99 181
62 99 181
61 99 180
61 98 178
62 99 179
62 98 177
62 99 179
62 99 178
62 99 178
62 99 179
63 100 181
62 99 180
62 99 181
62 99 177
62 98 177
62 99 181
62 99 180
62 99 176
62 99 177
62 99 181
62 98 172
62 98 176
62 98 176
61 98 176
62 98 175
62 98 174
62 99 177
61 98 173
62 98 177
61 97 175
62 99 177
61 97 168
61 96 170
60 96 170
63 96 166
131 127 108
146 135 66
146 137 68
146 135 68
152 142 76
142 132 73
151 141 82
142 133 74
151 142 83
149 139 75
141 132 76
131 124 73
141 132 78
137 132 79
135 131 81
136 132 85
141 138 89
138 133 85
130 125 76
135 130 86
137 131 86
139 135 88
135 132 89
133 129 83
132 127 83
136 133 87
131 129 86
139 137 91
135 133 88
143 139 91
139 136 92
135 133 91
141 138 92
139 139 96
134 133 90
139 136 93
144 140 94
148 145 97
137 136 92
138 136 94
142 139 94
147 145 99
147 144 97
152 150 102
143 142 97
146 145 96
147 146 100
154 150 101
160 156 104
155 153 103
154 152 101
159 158 107
159 156 102
158 155 102
160 156 103
154 151 101
163 159 105
162 158 103
158 156 105
164 160 105
172 167 109
167 164 108
164 162 105
161 158 105
164 160 106
165 162 107
166 162 107
171 167 109
165 162 105
172 168 110
168 165 108
171 167 110
170 165 109
172 168 109
172 167 108
174 169 111
174 170 111
173 168 109
176 171 112
170 166 107
174 169 109
173 168 108
173 169 110
177 171 111
172 168 108
174 170 110
173 169 108
178 171 109
173 168 107
174 169 107
174 170 108
177 171 108
172 167 108
174 168 107
174 169 108
176 170 110
177 171 111
176 170 110
173 168 105
172 168 107
175 168 107
175 170 109
175 169 107
174 169 107
174 168 107
174 169 105
174 169 108
174 167 101
175 168 103
172 166 103
171 165 99
170 164 103
177 170 107
171 166 103
172 166 102
173 166 102
172 166 100
168 160 93
172 166 100
170 164 96
170 163 103
172 165 99
174 166 100
170 162 98
176 168 101
171 165 99
170 161 94
167 160 93
166 158 93
170 160 95
166 160 93
169 161 92
171 161 94
171 162 97
166 156 91
168 159 91
170 161 92
170 160 92
167 158 92
167 157 87
162 153 82
167 158 88
171 162 95
164 155 81
168 157 89
166 157 89
161 148 81
159 148 78
164 153 80
165 155 81
158 148 77
164 152 77
155 143 72
152 139 69
157 143 68
155 143 73
155 140 65
173 194 12
175 197 0
172 195 0
175 198 0
173 196 0
174 196 0
172 196 0
173 196 0
175 198 0
174 197 0
174 197 0
174 196 0
173 196 0
173 196 0
175 198 0
174 197 0
173 196 0
171 195 0
174 197 0
173 197 0
173 196 0
176 199 0
171 195 0
172 195 0
172 196 0
173 196 0
173 197 0
173 197 0
174 198 0
174 198 0
174 197 0
173 196 0
172 196 0
174 197 0
173 196 0
173 197 0
174 197 0
171 195 0
172 195 0
172 196 0
174 196 0
170 193 0
174 197 0
171 195 0
175 197 0
173 197 0
172 196 0
173 197 0
172 195 0
173 197 0
174 198 0
172 195 0
174 197 0
172 196 0
176 198 0
173 196 0
174 197 0
174 197 0
175 198 0
172 195 0
173 196 0
173 197 0
175 198 0
173 196 0
170 194 0
173 196 0
171 195 0
173 196 0
175 198 0
174 197 0
174 197 0
175 198 0
174 198 0
171 195 0
174 197 0
171 195 0
170 193 0
171 195 0
170 194 0
173 196 0
171 195 0
172 195 0
172 194 0
172 196 0
171 195 0
173 196 0
174 197 0
172 196 0
175 197 0
172 195 0
171 193 0
172 195 0
174 197 0
172 196 0
173 196 0
174 197 0
173 197 0
172 196 0
173 196 0
176 198 0
171 194 0
172 195 0
172 194 0
170 193 0
172 195 0
173 196 0
173 197 0
173 195 0
171 194 0
173 195 0
172 195 0
173 196 0
171 195 0
171 194 0
171 195 0
174 196 0
174 197 0
168 191 51
84 115 163
62 99 177
62 99 173
62 99 174
62 99 174
62 99 175
63 99 175
62 99 177
61 98 173
62 98 175
62 99 176
62 99 178
62 99 178
62 99 173
62 99 173
62 99 177
62 99 180
62 99 178
62 99 180
62 99 179
62 99 179
61 98 178
62 99 179
61 99 181
62 99 178
62 99 181
62 99 181
62 99 180
62 99 178
61 99 180
62 99 181
62 99 181
62 99 180
62 99 179
61 99 181
62 99 181
62 99 181
62 99 181
61 99 179
62 99 181
62 99 180
61 99 180
62 99 181
61 99 181
62 99 181
61 99 181
61 99 181
62 99 181
62 99 181
62 99 181
61 99 180
62 99 180
62 99 180
62 99 181
62 99 181
62 99 181
61 99 181
61 99 180
62 99 181
62 99 181
61 99 181
61 98 181
61 98 181
62 99 181
62 99 181
62 99 181
61 99 180
62 99 180
61 99 181
61 99 181
62 99 180
61 99 181
62 99 179
61 98 181
62 99 181
62 99 181
62 99 181
62 99 181
62 99 179
62 99 179
62 99 181
62 99 181
62 99 181
62 99 181
61 99 181
62 99 180
62 99 181
62 99 181
62 99 178
62 99 180
62 99 178
62 99 181
62 99 180
62 99 179
62 99 179
61 98 179
62 99 179
62 99 181
61 98 178
63 100 180
62 99 180
62 99 179
62 99 178
62 99 181
62 99 178
61 98 178
62 98 175
61 98 178
62 99 180
62 99 178
61 98 176
62 98 172
62 98 176
62 99 178
62 98 176
61 98 173
61 98 176
62 98 176
61 97 170
62 99 175
62 97 172
62 98 174
62 98 173
61 98 172
60 95 165
60 95 166
119 118 106
147 135 71
140 126 62
152 142 74
143 130 72
139 130 69
139 130 71
136 128 70
134 126 73
135 128 75
137 132 81
134 128 74
142 135 81
140 134 85
140 135 85
129 124 78
124 121 78
138 133 86
139 133 82
129 126 83
134 130 87
133 130 87
149 144 93
135 132 86
140 134 86
133 131 90
134 131 88
134 130 86
134 130 88
140 135 89
134 132 90
141 137 93
137 135 92
145 143 97
135 134 91
147 144 98
144 142 96
141 140 95
154 149 99
137 136 94
146 143 96
146 144 97
145 142 96
144 142 97
157 154 104
149 146 99
152 150 101
149 148 99
159 155 103
148 147 98
157 154 102
159 156 105
160 156 103
151 150 101
161 159 105
156 154 102
165 161 107
165 161 106
160 157 106
166 163 107
163 159 105
161 158 101
162 159 104
165 160 105
162 160 103
165 161 107
168 164 106
166 163 108
166 163 108
174 169 110
166 163 107
172 167 108
166 163 106
173 168 110
169 165 106
172 169 110
173 168 108
171 167 108
175 170 111
168 164 106
171 166 107
175 170 108
171 167 106
173 168 109
175 170 109
176 170 109
175 170 109
174 170 107
176 171 110
176 170 107
174 169 108
176 171 109
175 170 109
177 171 110
176 171 110
176 171 110
175 170 109
177 172 110
177 171 109
178 171 107
176 170 110
176 171 108
173 168 107
176 169 109
174 169 105
175 169 106
177 170 104
174 168 105
174 167 104
176 168 103
174 170 107
173 167 102
174 167 102
173 167 106
174 166 100
170 164 99
170 163 102
176 168 102
173 167 102
170 162 97
168 161 96
172 165 99
173 166 101
172 164 100
167 160 96
170 162 98
167 160 90
172 165 98
172 163 96
166 157 91
166 157 92
169 161 94
168 161 93
167 158 92
165 156 92
174 162 94
166 156 88
162 153 81
170 160 92
164 153 85
166 156 93
164 155 88
161 151 80
166 156 85
161 152 80
162 151 84
156 145 76
164 153 82
165 153 81
159 147 75
156 144 73
157 145 69
158 145 71
160 148 74
151 139 61
156 142 72
164 183 11
174 196 0
174 197 0
174 196 0
174 196 0
175 198 0
172 194 0
173 196 0
172 196 0
176 199 0
174 197 0
175 198 0
172 196 0
172 195 0
175 198 0
175 198 0
172 196 0
172 196 0
174 197 0
175 198 0
174 197 0
173 197 0
173 196 0
171 196 0
173 196 0
172 196 0
173 197 0
177 199 0
173 196 0
171 194 0
174 197 0
171 195 0
173 197 0
172 195 0
173 196 0
172 195 0
174 197 0
174 197 0
172 196 0
172 196 0
172 196 0
173 196 0
173 196 0
172 196 0
170 193 0
174 197 0
173 196 0
171 194 0
174 196 0
172 194 0
173 196 0
174 196 0
174 197 0
173 197 0
175 197 0
171 194 0
172 195 0
173 196 0
172 194 0
173 196 0
173 196 0
174 197 0
173 196 0
172 196 0
173 196 0
171 195 0
174 197 0
174 197 0
172 195 0
174 197 0
173 197 0
174 196 0
173 197 0
172 196 0
174 197 0
171 195 0
172 196 0
175 198 0
174 196 0
172 195 0
172 196 0
174 197 0
170 194 0
172 196 0
170 194 0
173 196 0
171 195 0
173 196 0
173 197 0
173 195 0
172 196 0
172 195 0
174 197 0
170 193 0
173 196 0
171 194 0
171 195 0
173 197 0
173 196 0
172 195 0
171 195 0
170 194 0
173 197 0
171 194 0
171 194 0
172 195 0
172 196 0
171 194 0
170 194 0
174 197 0
173 196 0
173 197 0
170 194 0
172 196 0
170 194 0
172 195 0
162 185 62
86 117 152
61 98 170
62 99 175
62 99 172
62 99 180
62 99 178
61 98 174
62 99 179
62 99 172
62 99 177
62 99 179
62 99 178
63 99 176
61 98 176
63 99 178
63 100 178
61 98 180
61 98 178
62 99 178
61 99 180
62 99 179
62 99 180
62 99 177
62 99 178
62 99 181
62 99 179
62 99 180
62 99 180
62 99 181
62 99 180
62 99 180
61 98 181
62 99 180
62 99 181
62 99 181
62 99 180
62 99 181
62 100 181
62 99 181
62 99 180
62 99 181
61 99 181
62 99 180
62 99 180
61 99 181
61 98 181
62 99 181
61 99 181
61 99 181
61 98 181
62 99 180
62 99 181
63 100 181
61 99 180
62 99 181
62 99 181
62 99 181
62 99 180
62 99 181
62 99 180
62 99 181
62 99 180
62 99 181
62 99 181
62 99 181
62 99 181
61 99 181
61 99 181
61 99 181
62 99 181
62 99 179
61 99 181
61 99 181
62 99 179
62 99 181
61 98 180
62 99 180
62 99 181
61 99 180
62 99 180
62 99 178
62 99 181
61 99 180
61 99 181
62 99 179
61 98 177
62 99 181
61 99 178
62 99 179
62 99 181
62 99 181
62 99 180
62 99 181
61 98 181
61 98 176
62 99 180
61 98 179
63 99 180
62 99 181
62 99 180
62 99 179
62 99 179
61 99 180
61 98 178
62 99 179
61 99 178
62 99 178
61 98 179
61 98 174
62 99 179
62 99 180
62 99 178
62 99 175
61 98 175
62 99 178
62 99 176
62 98 173
61 98 177
62 98 174
62 99 178
61 98 174
62 97 171
61 98 178
61 96 168
61 96 170
61 97 170
61 95 162
61 97 172
115 117 120
143 133 66
140 128 69
145 134 71
145 135 74
147 139 75
136 127 69
137 128 78
144 136 82
134 128 79
138 129 77
129 124 75
136 128 81
139 133 82
131 124 74
124 118 72
136 130 82
122 119 77
127 122 80
134 130 85
139 136 88
132 130 89
130 126 85
133 130 83
130 127 83
118 116 77
132 131 87
137 133 90
135 131 89
143 139 93
135 132 89
136 134 91
144 141 94
139 136 91
142 138 92
137 136 93
151 147 99
142 140 95
146 143 96
147 145 99
142 143 98
145 144 99
150 148 101
145 143 96
152 151 102
145 144 97
155 151 101
150 148 100
155 153 102
160 157 104
155 152 103
160 157 103
158 155 103
153 152 102
157 155 104
161 158 105
163 158 105
161 158 104
161 159 105
167 163 106
162 159 105
169 165 108
169 165 107
169 165 107
168 164 107
169 164 107
165 161 104
166 161 106
170 166 107
173 169 109
172 168 107
170 166 108
169 166 108
175 170 107
169 165 108
173 168 109
171 167 108
170 167 107
173 168 107
174 170 111
175 170 110
176 170 109
173 168 107
175 170 110
176 171 109
176 170 109
172 168 108
175 170 106
175 169 108
173 168 106
175 169 108
173 169 107
173 168 105
176 170 107
177 171 107
174 169 108
174 169 106
175 170 109
177 171 108
171 166 102
175 169 104
174 168 104
176 170 109
178 172 109
177 170 106
172 166 104
177 170 107
176 169 107
173 169 106
173 165 101
174 167 104
175 170 106
172 166 103
169 162 96
172 166 103
175 168 104
177 170 107
173 165 99
171 164 97
174 167 102
173 165 100
170 163 94
172 164 104
174 165 97
174 167 103
173 165 99
167 161 99
168 158 93
170 162 91
172 162 95
169 160 93
174 166 104
170 162 93
162 154 83
171 163 97
167 157 93
165 157 89
166 156 86
163 153 83
169 160 89
170 160 92
165 155 88
167 158 89
162 151 81
164 154 86
161 150 80
162 150 83
160 148 78
159 145 76
157 146 76
158 144 75
158 146 75
151 138 64
156 141 68
152 138 64
167 181 33
174 195 0
173 195 0
175 197 0
175 198 0
172 196 0
174 197 0
173 196 0
174 197 0
175 198 0
173 197 0
172 196 0
173 196 0
173 197 0
175 198 0
170 193 0
175 198 0
172 196 0
173 196 0
175 197 0
175 198 0
174 197 0
174 197 0
172 195 0
175 198 0
172 196 0
173 196 0
173 196 0
173 196 0
173 197 0
175 197 0
172 196 0
174 198 0
173 197 0
173 196 0
173 196 0
174 198 0
172 195 0
174 197 0
172 195 0
175 197 0
171 195 0
172 196 0
172 196 0
174 197 0
172 195 0
173 196 0
172 195 0
174 197 0
172 196 0
173 197 0
174 197 0
172 196 0
175 198 0
173 197 0
171 195 0
173 196 0
173 196 0
174 197 0
172 196 0
170 195 0
174 196 0
174 198 0
172 197 0
173 196 0
172 196 0
173 196 0
174 196 0
173 197 0
174 197 0
172 196 0
174 198 0
173 196 0
173 196 0
172 196 0
173 196 0
175 198 0
172 195 0
174 197 0
171 195 0
173 196 0
172 196 0
173 197 0
175 198 0
173 196 0
173 196 0
171 194 0
173 197 0
173 197 0
172 195 0
174 197 0
172 196 0
173 196 0
170 194 0
169 192 0
173 197 0
170 192 0
171 194 0
173 197 0
167 190 0
171 194 0
170 193 0
174 196 0
171 193 0
172 196 0
170 193 0
170 193 0
171 193 0
171 194 0
172 196 0
173 196 0
170 192 0
171 194 0
173 195 0
171 194 0
167 190 44
83 115 164
62 98 171
62 99 171
63 100 175
62 99 175
62 99 174
62 99 177
62 99 178
62 99 179
62 99 179
62 99 178
63 100 180
62 99 178
62 99 176
62 99 179
62 99 181
62 99 180
62 99 181
62 99 178
62 99 179
62 99 179
62 99 179
62 99 180
62 99 179
62 99 178
62 99 179
62 99 181
61 99 179
62 99 181
62 99 180
62 99 181
63 99 180
62 99 181
62 99 181
62 99 179
62 99 180
62 99 180
62 99 180
62 99 180
61 98 180
62 99 180
61 99 180
62 99 181
62 99 181
62 99 181
61 99 181
62 99 180
62 99 181
63 100 181
61 99 180
61 99 181
62 99 179
62 99 181
62 99 181
61 99 181
61 99 180
62 99 180
61 99 181
61 98 181
62 99 181
61 99 181
62 99 181
62 99 180
62 99 180
62 99 180
61 98 181
61 98 181
62 99 180
61 99 181
62 99 181
62 99 181
62 99 177
61 99 180
61 99 179
62 99 180
61 98 180
61 99 181
62 99 181
63 100 181
62 99 180
61 99 181
62 99 180
62 99 180
62 99 181
62 99 181
61 98 180
62 99 177
62 99 180
62 99 179
62 99 181
61 98 179
62 99 181
62 99 177
61 98 178
62 99 177
62 99 178
63 100 180
61 98 179
62 99 179
62 99 179
62 99 179
61 99 180
62 99 177
62 99 178
62 99 179
62 98 177
62 99 180
62 99 180
62 99 177
62 99 179
61 98 177
62 99 179
61 98 177
62 99 180
62 99 176
62 98 172
62 98 173
62 98 174
61 97 175
62 98 175
62 99 175
61 98 174
62 98 174
61 96 166
62 98 172
61 97 172
61 96 170
61 98 173
60 95 166
60 94 161
131 129 110
139 126 63
135 125 64
135 126 63
138 125 69
140 133 72
144 137 79
134 127 73
134 126 74
129 124 72
129 123 76
135 131 82
142 134 82
131 126 79
132 126 79
126 123 78
123 121 79
134 130 80
129 126 82
128 125 83
126 124 86
126 124 83
133 130 86
133 129 87
129 127 84
137 134 89
132 129 88
139 136 89
132 131 91
134 132 91
133 131 89
141 139 93
140 139 95
139 137 93
148 145 98
147 144 97
143 139 93
138 137 95
140 138 94
156 154 103
135 133 92
150 147 99
154 151 101
146 145 100
148 147 98
145 144 98
155 152 101
147 144 96
149 147 100
159 156 104
158 155 101
159 157 103
159 157 104
161 158 105
163 159 103
160 157 104
162 159 106
162 159 106
159 156 104
161 158 104
166 162 106
163 160 107
164 161 105
168 164 106
167 164 106
164 161 105
171 166 109
173 168 109
168 164 106
168 164 104
170 167 108
171 166 108
171 166 108
176 171 111
171 167 109
171 166 106
170 166 107
175 170 107
175 170 108
174 170 109
176 170 106
176 171 111
176 170 108
175 169 110
171 166 103
176 171 110
173 169 105
174 170 108
177 171 108
177 171 109
177 171 109
173 168 107
177 170 109
177 172 109
176 170 108
174 169 106
174 169 105
176 169 107
177 171 108
174 167 105
175 168 105
174 169 108
173 169 106
174 167 103
173 166 102
170 166 103
174 169 106
172 167 103
171 166 103
175 169 106
172 165 100
173 168 102
169 164 99
175 169 103
175 168 104
173 166 99
173 167 102
172 165 98
174 166 100
174 166 103
169 162 97
175 169 103
174 166 100
171 163 98
174 165 98
173 165 100
174 166 101
170 162 94
168 159 94
166 158 89
169 162 93
167 158 90
170 160 89
167 158 89
168 159 89
168 159 91
169 158 88
166 158 88
164 153 87
165 155 83
168 158 86
161 149 78
164 154 84
161 150 77
164 153 80
163 152 81
159 146 77
159 146 68
159 147 74
162 152 77
159 147 70
153 139 66
148 135 62
151 137 65
160 170 36
173 195 0
174 196 0
175 196 0
174 197 0
175 197 0
173 197 0
173 197 0
174 197 0
173 197 0
173 197 0
173 196 0
173 196 0
173 197 0
174 198 0
173 196 0
174 197 0
172 195 0
174 196 0
173 197 0
172 195 0
174 197 0
172 196 0
171 194 0
174 198 0
174 197 0
174 197 0
174 197 0
171 195 0
173 197 0
172 195 0
174 198 0
175 197 0
172 196 0
173 195 0
172 196 0
171 194 0
173 196 0
172 195 0
173 197 0
172 195 0
173 197 0
172 196 0
171 194 0
173 196 0
175 198 0
172 196 0
171 194 0
171 195 0
171 194 0
175 198 0
175 198 0
174 197 0
172 195 0
174 197 0
171 195 0
173 196 0
174 197 0
173 197 0
173 196 0
170 193 0
173 197 0
173 196 0
174 197 0
172 195 0
170 193 0
173 195 0
173 196 0
173 196 0
171 195 0
174 197 0
173 196 0
173 196 0
173 197 0
172 196 0
175 198 0
172 195 0
172 195 0
172 195 0
172 195 0
174 197 0
172 195 0
171 195 0
173 196 0
172 195 0
171 194 0
172 196 0
172 194 0
172 196 0
171 194 0
172 195 0
172 194 0
173 196 0
174 196 0
171 195 0
173 197 0
174 196 0
172 194 0
171 195 0
172 196 0
173 197 0
173 197 0
173 197 0
171 195 0
169 193 0
171 193 0
175 197 0
172 196 0
170 193 0
173 195 0
173 196 0
172 195 0
171 194 0
174 198 0
164 188 44
97 126 155
62 99 173
63 100 175
63 100 176
62 98 170
62 99 176
62 99 177
62 99 176
62 99 174
62 99 179
61 99 179
63 100 179
62 99 176
62 99 178
62 99 180
63 100 179
62 99 179
62 99 178
62 99 180
62 99 179
62 99 175
62 99 180
61 99 179
62 99 181
63 100 180
62 99 178
62 99 179
62 99 181
61 98 180
62 99 181
62 99 181
61 98 176
62 99 181
62 99 178
61 99 180
62 99 181
62 99 179
62 99 180
61 99 180
62 99 178
62 99 181
62 99 179
61 98 180
62 99 180
61 99 180
61 99 179
61 98 180
61 99 179
62 99 181
62 99 181
62 99 181
61 99 180
62 99 181
62 99 181
62 99 179
62 99 181
61 98 181
62 99 180
61 99 180
62 99 181
62 99 181
61 99 181
62 99 179
62 99 180
61 99 180
61 99 181
61 99 181
61 98 180
61 98 179
62 99 179
62 99 180
62 99 180
62 99 181
62 99 181
61 99 181
62 99 180
62 99 180
61 99 181
61 98 180
62 99 181
61 98 180
61 99 181
62 99 179
61 98 178
61 99 181
62 99 179
62 99 181
61 98 180
61 98 179
61 99 177
62 99 180
61 98 179
62 99 181
62 99 179
62 99 178
62 99 180
63 99 178
62 99 177
61 99 181
62 99 178
62 99 178
62 98 176
62 99 180
62 99 180
62 99 179
62 99 177
62 99 181
62 99 176
62 99 180
62 99 181
62 99 179
62 99 178
61 98 171
62 99 179
61 98 175
62 99 179
62 98 172
62 99 178
62 98 174
62 99 175
62 99 175
61 97 170
62 98 173
61 97 173
62 98 176
61 97 171
62 98 176
62 98 172
62 98 171
61 97 172
61 98 173
63 97 167
112 115 121
143 133 70
138 128 69
130 120 67
130 121 66
137 129 78
134 127 73
133 124 72
130 124 74
137 131 82
130 125 78
137 130 80
118 116 76
123 121 83
134 128 82
122 121 79
132 128 83
141 135 86
136 134 88
123 120 79
120 118 83
132 128 85
119 118 80
127 125 82
133 131 89
128 126 86
134 132 90
130 130 89
121 122 87
137 135 92
141 139 95
137 136 95
132 131 90
124 124 88
136 136 95
138 135 91
146 143 96
150 148 100
147 145 100
154 151 100
149 146 98
147 145 97
145 146 99
141 140 95
155 152 102
148 146 98
146 144 99
150 150 102
157 155 104
156 151 100
158 154 100
159 156 103
157 154 100
153 152 101
164 161 107
154 152 99
160 156 101
162 159 106
159 156 103
166 162 105
156 154 100
170 166 108
162 159 106
160 156 100
169 165 106
170 166 107
169 165 107
166 162 105
167 163 104
167 163 104
172 167 106
168 164 107
175 170 111
172 168 107
172 167 106
174 170 110
172 168 109
172 167 108
174 170 110
174 169 109
175 170 109
173 169 108
177 171 109
171 167 108
176 170 109
175 170 108
174 169 107
175 169 107
176 171 109
176 170 106
177 170 107
176 171 109
176 170 106
175 170 106
175 169 106
175 169 106
176 169 104
173 167 102
176 171 109
176 170 105
174 169 107
177 171 108
178 171 106
172 167 104
172 166 103
174 168 103
173 167 103
169 161 97
175 168 103
173 167 102
171 164 99
173 166 104
176 169 104
173 167 103
175 167 100
174 167 100
169 164 98
173 165 98
171 164 99
175 168 102
173 165 99
171 163 94
165 158 91
172 165 96
166 160 93
171 162 94
172 162 97
171 162 94
168 160 92
165 156 89
166 156 90
166 157 87
167 159 91
167 160 91
163 155 81
169 159 89
164 153 84
165 155 87
159 149 74
170 160 89
158 146 79
158 148 78
159 151 78
163 150 83
156 143 74
149 134 64
156 145 71
157 146 69
158 144 75
151 138 63
159 147 76
152 139 63
153 140 64
161 165 41
172 194 0
175 197 0
172 194 0
174 198 0
173 196 0
171 195 0
174 197 0
174 198 0
173 196 0
174 197 0
172 196 0
174 197 0
174 198 0
172 195 0
174 197 0
174 196 0
172 194 0
173 197 0
173 197 0
173 197 0
170 193 0
173 196 0
174 197 0
172 195 0
174 197 0
172 195 0
174 197 0
173 197 0
173 197 0
174 197 0
173 196 0
170 194 0
170 194 0
172 196 0
173 196 0
173 196 0
172 196 0
175 198 0
173 197 0
173 197 0
173 196 0
174 198 0
173 196 0
170 194 0
171 195 0
175 198 0
171 195 0
172 196 0
174 197 0
174 197 0
171 195 0
173 197 0
172 195 0
173 197 0
174 197 0
172 195 0
174 197 0
172 195 0
172 196 0
173 196 0
172 195 0
173 196 0
173 196 0
170 193 0
172 195 0
174 197 0
171 195 0
172 196 0
173 196 0
172 195 0
170 195 0
173 197 0
172 196 0
173 196 0
172 195 0
173 196 0
171 195 0
172 195 0
172 195 0
171 194 0
172 196 0
171 194 0
173 196 0
174 197 0
172 195 0
172 196 0
171 194 0
173 196 0
171 195 0
173 195 0
171 194 0
171 195 0
173 197 0
174 197 0
174 197 0
169 193 0
172 195 0
171 195 0
171 194 0
174 197 0
171 194 0
170 193 0
171 196 0
172 195 0
173 195 0
171 193 0
174 197 0
169 193 0
173 195 0
169 192 0
174 197 0
174 196 0
172 195 0
98 128 150
61 98 169
62 99 172
62 98 169
62 99 174
62 98 173
62 98 173
62 99 173
62 99 178
62 99 174
62 99 179
62 99 177
62 99 179
62 99 179
62 99 179
62 99 179
63 100 180
62 99 177
62 99 179
62 99 177
62 99 181
63 100 181
62 99 178
62 99 177
62 99 180
62 99 180
62 99 181
62 99 179
62 99 180
62 99 181
62 99 180
61 99 181
62 99 180
61 98 180
62 99 180
62 99 181
62 99 181
62 99 179
61 99 180
62 99 181
61 98 180
62 99 181
62 99 180
62 99 181
62 99 181
62 99 180
62 99 181
62 99 179
62 99 181
61 99 181
62 99 180
62 99 180
61 98 181
62 99 181
61 99 181
62 99 179
62 99 181
62 99 180
62 99 181
62 99 181
61 98 180
62 99 181
62 99 180
62 99 181
61 98 180
62 99 181
62 99 179
62 99 180
62 99 180
61 99 181
61 98 180
62 99 181
62 99 180
62 99 181
62 99 179
62 99 180
61 99 181
61 99 179
62 99 179
62 99 180
62 99 181
62 99 181
62 99 180
62 99 179
62 99 179
62 99 180
61 99 180
62 99 181
62 99 179
61 99 180
61 98 178
62 99 181
62 99 179
62 99 180
62 99 181
61 99 180
62 99 179
62 99 179
62 99 180
62 99 179
62 99 180
62 99 178
62 99 179
63 100 181
61 98 177
62 99 181
62 99 181
62 99 179
61 99 176
63 99 179
61 98 178
61 98 178
62 99 177
62 99 179
62 99 177
62 99 174
62 98 177
63 99 178
61 98 178
62 98 175
62 98 174
61 98 175
61 97 171
62 98 175
62 98 171
62 97 171
61 97 172
61 97 171
61 97 169
60 96 167
61 97 173
61 96 166
61 96 170
61 94 164
127 124 106
138 126 69
138 130 69
136 129 75
126 118 70
138 130 76
127 120 72
119 115 65
132 125 78
130 123 77
124 120 75
131 123 76
133 129 81
127 121 79
120 118 79
123 120 79
126 122 80
120 119 80
131 128 87
135 130 85
133 129 85
140 137 92
128 125 85
128 126 86
135 132 88
134 132 92
131 129 88
130 128 86
138 136 92
121 120 84
137 136 92
136 135 91
136 135 92
132 131 89
141 139 94
141 139 95
140 138 93
144 142 95
143 141 95
148 145 98
145 144 97
143 141 97
147 145 97
154 151 99
148 145 96
148 147 99
150 149 100
153 150 98
154 152 100
157 153 102
155 152 101
157 155 104
161 157 104
160 156 102
161 157 104
163 159 102
161 158 106
165 161 103
166 162 106
159 156 102
168 164 108
166 162 104
168 163 105
167 164 106
169 165 105
163 160 102
170 166 107
172 168 109
171 167 108
173 168 107
165 162 105
171 166 106
172 168 108
169 165 106
171 167 104
172 168 110
174 169 108
173 168 106
172 168 107
175 170 109
174 170 109
172 167 104
173 169 107
173 169 110
175 170 109
174 168 102
173 169 107
175 169 108
177 171 107
175 169 105
176 170 103
175 169 106
175 170 106
176 170 106
175 169 105
174 169 103
174 169 103
177 171 108
173 168 104
173 166 102
176 169 105
176 171 109
173 168 102
176 170 106
174 168 103
173 166 100
175 168 103
174 168 103
174 167 102
176 168 101
177 169 104
175 167 99
172 166 102
176 169 105
171 164 96
174 167 100
174 165 99
172 164 99
173 164 100
175 166 100
174 166 100
171 164 96
166 157 88
172 162 98
170 163 97
167 158 90
174 165 95
168 159 90
168 159 92
166 157 84
169 159 89
173 163 93
167 158 88
168 158 90
170 161 96
164 155 88
167 157 85
167 158 87
159 150 79
166 156 86
166 156 86
165 154 83
168 158 87
165 152 78
159 145 73
165 155 79
157 147 71
158 144 75
163 153 76
155 141 67
154 141 65
155 140 64
157 158 46
173 196 0
174 197 0
174 197 0
173 197 0
172 196 0
173 195 0
171 195 0
174 198 0
173 195 0
172 195 0
173 196 0
173 197 0
173 197 0
173 197 0
170 194 0
174 197 0
172 195 0
171 194 0
170 194 0
174 198 0
176 198 0
173 196 0
173 197 0
174 197 0
175 198 0
173 195 0
172 196 0
172 196 0
175 198 0
175 198 0
173 197 0
173 197 0
172 196 0
172 196 0
172 196 0
174 198 0
172 195 0
175 198 0
171 194 0
174 197 0
171 195 0
172 195 0
171 194 0
173 196 0
174 197 0
174 197 0
172 195 0
171 195 0
172 196 0
174 197 0
172 196 0
173 197 0
173 197 0
172 195 0
174 197 0
173 196 0
170 194 0
173 197 0
170 194 0
173 196 0
173 197 0
172 194 0
175 197 0
169 193 0
172 196 0
171 195 0
172 196 0
173 196 0
170 194 0
172 196 0
173 196 0
173 196 0
172 196 0
171 195 0
171 194 0
170 194 0
168 191 0
173 196 0
172 196 0
171 195 0
173 196 0
171 194 0
173 196 0
172 194 0
175 198 0
174 196 0
174 196 0
172 195 0
173 196 0
173 196 0
171 195 0
172 195 0
172 196 0
171 194 0
173 197 0
171 195 0
171 195 0
171 195 0
170 193 0
171 195 0
172 195 0
174 197 0
174 197 0
170 193 0
172 194 0
167 191 0
173 196 0
172 196 0
172 195 0
171 195 0
172 195 0
170 194 18
118 144 133
63 99 172
62 99 173
63 99 176
62 99 176
62 99 172
62 99 174
62 99 175
62 99 179
63 100 179
62 99 176
62 99 176
63 100 178
62 99 180
62 99 180
62 99 176
62 99 179
62 99 180
61 99 180
63 99 179
62 99 178
62 99 176
62 99 180
62 99 178
62 99 178
62 99 181
61 98 177
62 99 181
62 99 179
62 99 178
61 99 180
61 99 180
61 99 181
62 99 181
61 98 177
62 99 180
61 98 181
62 99 181
62 99 180
61 99 180
61 99 180
62 99 181
62 99 181
62 99 181
61 98 180
61 99 179
62 99 179
62 99 180
62 99 180
62 99 181
62 99 181
62 99 181
62 99 181
62 99 181
61 99 180
62 99 181
62 99 181
61 98 180
61 98 181
62 99 181
62 99 180
62 99 180
61 98 180
62 99 181
62 99 180
61 99 180
62 99 180
62 99 180
62 99 181
61 99 181
62 99 179
61 98 181
62 99 180
62 99 180
62 99 181
63 100 180
62 99 181
62 99 181
61 98 180
62 99 177
62 99 181
62 99 180
62 99 180
62 99 180
61 98 179
61 99 181
62 99 181
62 99 179
62 99 181
61 99 179
63 100 179
62 99 180
62 99 180
62 99 180
62 99 180
61 99 181
62 99 178
62 99 179
61 98 175
61 99 179
62 99 179
61 99 179
62 99 178
62 99 173
62 99 181
62 99 181
62 99 177
62 99 179
62 99 181
62 99 179
61 98 174
61 98 176
62 98 177
62 98 174
61 98 176
61 98 172
62 98 175
62 99 176
62 98 174
62 99 175
61 98 175
62 98 174
62 99 176
61 98 174
62 99 175
62 97 172
61 97 169
61 97 174
62 99 176
62 98 172
62 98 175
61 98 174
61 96 166
60 96 167
61 95 163
72 100 159
116 115 89
127 119 63
140 131 75
133 125 73
139 132 78
129 122 72
131 123 75
136 129 76
125 119 74
127 122 78
122 115 70
121 116 70
124 119 78
127 122 79
126 123 83
128 124 84
128 125 85
116 115 79
129 127 85
112 110 74
131 129 81
125 123 83
123 122 82
122 121 80
138 134 88
133 131 88
128 129 91
130 127 85
135 134 92
138 136 93
137 135 92
137 136 91
136 134 89
131 131 93
142 140 95
143 140 95
141 140 96
144 143 97
137 135 90
140 139 93
148 146 99
149 147 99
147 145 97
148 146 97
155 152 101
146 145 99
142 141 94
155 152 101
145 144 97
156 154 102
155 152 100
149 148 99
162 159 104
162 159 105
161 158 103
163 160 107
163 160 101
159 157 103
154 152 96
171 166 104
166 162 105
173 169 109
165 161 101
168 164 104
166 163 106
165 161 102
168 163 105
171 166 107
167 164 105
170 166 106
170 166 106
171 167 109
172 168 107
172 168 105
173 168 106
177 171 109
169 166 104
173 169 106
175 170 107
175 170 107
173 168 105
177 171 107
177 171 106
175 169 107
172 168 105
173 168 102
171 167 103
176 171 108
178 172 108
179 171 105
178 171 109
176 170 104
176 169 105
177 171 108
175 169 103
179 172 108
174 169 102
177 170 103
176 170 105
174 169 107
173 165 102
175 169 105
178 171 104
174 169 103
171 165 100
174 167 100
174 168 104
171 166 99
173 166 101
174 167 98
176 169 103
172 165 98
171 164 102
173 165 97
175 168 102
168 162 94
173 166 101
172 165 94
174 165 99
175 168 100
174 165 98
173 166 100
174 165 97
173 165 95
174 166 96
170 164 96
169 164 94
172 164 94
167 157 86
168 161 89
166 159 91
171 162 93
162 152 83
166 159 85
166 157 89
160 149 76
170 161 93
170 160 86
168 158 89
168 159 87
168 158 87
163 152 80
163 152 79
160 149 77
159 147 71
159 145 68
153 139 69
161 147 73
155 143 62
148 133 60
153 140 64
147 138 50
174 197 0
173 196 0
173 195 0
176 198 0
173 196 0
174 196 0
172 196 0
172 196 0
172 196 0
171 195 0
174 198 0
175 198 0
173 196 0
172 195 0
171 196 0
173 197 0
172 196 0
173 197 0
174 197 0
172 195 0
174 197 0
173 197 0
171 194 0
171 194 0
173 197 0
173 196 0
172 195 0
172 196 0
173 197 0
173 197 0
172 195 0
173 197 0
172 195 0
172 196 0
172 196 0
170 194 0
173 197 0
172 196 0
170 194 0
173 197 0
169 193 0
175 198 0
172 195 0
173 196 0
174 197 0
172 195 0
172 196 0
173 197 0
173 196 0
173 196 0
171 195 0
172 195 0
175 198 0
172 195 0
171 195 0
174 198 0
173 196 0
172 195 0
172 196 0
173 197 0
173 197 0
173 197 0
170 193 0
171 195 0
172 194 0
175 198 0
172 197 0
171 195 0
175 197 0
171 195 0
173 196 0
174 196 0
173 196 0
175 198 0
172 195 0
171 195 0
174 197 0
172 196 0
172 194 0
172 195 0
172 196 0
169 194 0
172 196 0
171 195 0
171 194 0
174 196 0
171 194 0
171 195 0
172 196 0
172 196 0
172 196 0
171 193 0
174 197 0
174 198 0
172 195 0
172 194 0
170 193 0
173 196 0
173 196 0
171 194 0
171 194 0
169 192 0
172 196 0
172 196 0
170 195 0
173 196 0
169 192 0
173 196 0
170 194 0
173 196 0
170 193 0
133 157 114
62 98 166
63 99 173
62 99 177
62 99 173
63 99 176
62 99 177
63 100 177
62 99 174
62 99 176
63 99 174
62 99 176
61 98 173
61 98 172
62 99 178
62 99 178
62 99 175
62 99 179
62 99 181
62 99 180
62 99 178
62 99 178
62 99 177
62 99 177
61 99 181
62 99 179
61 98 177
62 99 177
62 99 181
62 99 180
62 99 180
61 99 181
62 99 178
63 99 178
62 99 181
62 99 180
62 99 180
62 99 181
62 99 180
62 99 180
62 99 180
62 99 179
62 99 177
62 99 180
62 99 180
62 99 180
62 99 180
62 99 181
61 98 179
62 99 181
62 99 179
62 99 181
61 99 180
61 99 180
61 99 181
62 99 181
62 99 181
62 99 180
62 100 181
62 99 180
62 99 181
62 99 180
62 99 181
62 99 181
62 99 181
62 99 180
62 99 180
62 99 180
62 99 179
62 99 178
62 99 181
62 99 180
61 98 179
62 99 181
62 99 181
61 99 180
61 99 179
62 99 179
61 99 180
62 99 180
62 99 179
62 99 180
62 99 180
61 98 179
62 99 181
62 99 181
62 99 179
61 99 179
62 99 179
62 99 178
62 99 181
62 99 178
62 99 181
61 99 181
62 99 178
62 99 179
61 99 180
62 99 179
62 99 179
62 99 180
62 99 179
62 99 179
62 99 176
62 99 178
62 99 181
62 99 177
62 99 179
62 99 177
62 99 178
62 99 178
62 99 176
62 99 176
62 99 179
62 98 174
61 98 179
61 98 176
62 99 179
62 98 174
63 99 177
62 99 174
62 99 180
62 98 177
62 98 174
61 98 173
62 98 174
63 99 176
62 98 172
62 98 173
62 98 174
61 97 171
62 99 176
62 98 170
61 96 167
61 97 170
62 97 170
60 95 167
60 94 162
66 95 152
124 120 77
130 120 66
131 125 72
123 117 69
125 117 65
125 120 73
126 121 75
134 128 78
125 119 71
125 118 74
127 121 76
113 110 71
121 118 74
124 121 80
125 122 79
124 121 81
104 103 71
127 123 80
120 119 83
122 120 82
131 130 89
130 128 87
114 115 81
132 130 89
121 121 84
127 126 87
131 129 88
132 130 90
121 122 85
130 130 88
133 132 91
133 131 91
139 137 93
146 146 99
130 130 90
142 140 96
149 146 98
142 141 96
153 150 101
137 136 93
145 143 95
147 145 99
142 141 94
148 147 98
159 155 102
158 156 105
152 150 99
149 147 95
164 161 106
153 151 100
159 155 102
155 152 100
157 154 101
158 155 101
159 156 100
158 154 97
167 163 106
163 160 104
161 158 99
165 162 105
168 163 106
168 164 102
165 161 106
168 163 103
166 161 101
165 161 102
171 167 104
170 166 104
169 165 104
174 169 108
172 167 106
170 167 104
172 167 106
169 165 103
173 168 105
172 167 105
174 169 106
172 168 104
175 169 104
172 168 104
174 169 108
173 169 104
175 170 107
174 169 107
173 168 107
172 167 104
176 169 104
175 170 106
175 170 109
174 169 104
174 169 104
176 168 105
176 170 109
177 171 106
176 170 106
173 167 103
176 169 104
176 169 107
174 168 103
173 168 107
176 169 103
173 167 103
173 167 102
173 165 99
172 166 102
174 168 103
174 168 100
173 166 99
171 164 97
173 167 100
174 167 101
171 164 97
169 160 96
173 166 99
174 166 95
169 162 95
172 164 98
168 159 89
171 165 95
171 162 96
174 165 99
168 160 94
168 158 94
172 165 96
171 163 93
168 159 87
172 163 94
166 158 89
166 156 85
170 162 89
167 157 91
169 159 91
167 158 86
168 159 91
168 158 90
172 163 92
166 156 83
163 151 81
159 147 81
161 151 80
162 152 81
158 147 76
152 139 69
162 149 75
159 146 70
160 150 73
154 143 71
158 145 73
159 144 72
148 134 59
146 136 45
173 196 0
174 197 0
173 196 0
172 195 0
172 194 0
173 196 0
172 196 0
173 197 0
175 198 0
173 196 0
174 198 0
172 195 0
172 195 0
170 194 0
171 195 0
175 197 0
170 194 0
171 195 0
171 195 0
174 197 0
174 197 0
173 197 0
171 193 0
171 194 0
175 198 0
173 196 0
172 196 0
174 197 0
172 196 0
172 197 0
173 196 0
172 195 0
175 197 0
171 195 0
174 198 0
172 196 0
174 197 0
174 197 0
173 196 0
172 195 0
173 197 0
171 194 0
176 199 0
173 195 0
175 198 0
172 195 0
172 196 0
171 195 0
172 196 0
171 195 0
173 197 0
173 197 0
172 196 0
174 197 0
172 196 0
172 196 0
173 196 0
173 196 0
175 198 0
173 195 0
170 193 0
173 196 0
172 196 0
170 193 0
174 197 0
170 194 0
172 196 0
172 196 0
171 195 0
172 196 0
173 196 0
171 194 0
172 195 0
175 198 0
173 196 0
170 193 0
172 195 0
172 196 0
175 198 0
173 197 0
175 198 0
172 196 0
173 196 0
174 197 0
168 192 0
172 195 0
171 194 0
170 194 0
172 196 0
173 195 0
171 195 0
174 197 0
172 196 0
171 194 0
170 194 0
173 196 0
170 194 0
173 196 0
169 192 0
174 198 0
174 197 0
170 193 0
174 197 0
173 196 0
170 194 0
173 197 0
170 193 0
173 197 0
173 197 0
173 196 0
145 170 92
62 98 169
63 99 173
63 99 169
62 99 172
62 99 173
62 99 179
62 99 178
62 99 173
62 98 173
62 99 179
61 98 174
62 98 173
63 100 176
62 99 178
62 99 177
62 99 173
62 99 179
63 100 179
62 99 179
61 99 178
62 99 178
62 99 181
62 99 179
62 99 177
62 99 181
62 99 179
62 99 180
62 99 177
62 99 179
62 99 180
62 99 181
61 99 180
62 99 179
62 99 179
62 99 180
62 99 180
62 99 180
62 99 181
62 99 180
62 99 181
61 99 178
61 99 178
62 99 179
63 100 181
62 99 181
62 99 181
62 99 179
61 99 179
62 99 181
62 99 181
62 99 180
61 98 180
62 99 181
62 99 180
62 99 181
61 98 179
62 99 181
62 99 180
62 99 177
61 99 180
62 99 180
62 99 180
62 99 181
62 99 180
61 98 181
61 99 180
62 99 181
62 99 179
62 99 179
62 99 181
62 99 181
62 99 181
62 99 181
62 99 181
62 99 181
62 99 180
62 99 179
62 99 180
62 99 179
62 99 181
62 99 180
62 99 181
62 99 181
61 99 179
62 99 180
61 98 179
62 99 180
62 99 179
61 99 179
62 99 179
61 98 179
62 99 179
62 99 179
62 99 181
62 99 180
62 99 178
61 98 175
62 99 179
61 99 180
61 99 180
61 98 178
62 99 176
62 99 177
62 99 179
62 99 179
62 99 178
62 99 178
62 99 177
62 99 178
62 99 175
62 99 180
62 99 177
62 99 178
62 99 179
63 100 179
61 98 174
62 98 173
62 99 180
61 98 173
63 99 177
61 98 177
62 98 176
62 98 177
61 98 172
62 99 177
62 99 174
61 98 170
61 98 174
61 97 174
61 96 168
62 98 168
61 97 169
62 98 173
61 98 172
61 96 167
61 96 170
61 96 165
61 96 166
79 102 149
122 115 63
134 127 76
130 123 66
128 123 71
128 125 75
127 121 76
114 111 72
126 123 76
129 123 77
116 113 74
120 115 76
116 113 75
105 105 74
111 109 69
117 114 76
127 123 81
122 120 82
114 115 80
117 114 77
121 121 83
131 127 84
117 117 82
119 116 79
131 130 87
118 118 83
132 130 87
130 128 86
136 134 91
137 134 90
129 130 88
129 129 91
142 140 94
142 141 96
134 133 91
137 136 92
141 140 96
142 140 94
147 145 96
145 141 92
149 148 98
149 147 96
143 142 96
150 147 97
145 143 97
161 157 104
155 152 100
157 154 100
156 153 102
160 156 102
160 156 102
164 161 105
158 155 101
156 154 102
157 154 101
161 159 101
160 157 103
153 151 99
159 157 100
167 162 105
160 157 104
165 162 106
166 161 105
169 165 104
165 161 104
167 163 102
168 163 103
169 165 103
176 170 110
173 168 107
173 168 108
173 167 106
170 166 105
172 167 104
175 170 107
172 167 105
173 169 104
171 166 104
171 167 101
175 170 106
174 169 106
176 170 107
173 168 105
176 170 106
178 171 110
173 168 102
177 171 108
174 169 107
174 169 104
179 172 109
175 169 107
179 172 107
174 169 105
176 169 103
177 170 105
173 167 104
176 168 103
174 168 101
174 168 102
174 168 104
177 170 103
176 169 104
174 168 104
175 170 107
173 167 101
173 166 98
174 167 100
176 168 102
173 165 98
172 163 97
173 166 101
172 164 91
172 165 101
170 161 97
173 166 97
166 160 92
170 164 92
172 163 99
173 165 98
173 164 96
168 159 88
168 160 91
169 160 91
169 161 95
166 158 89
172 163 95
170 159 93
173 164 95
168 158 86
172 164 94
168 159 89
170 161 92
163 154 82
167 156 90
165 157 86
161 150 78
162 153 76
163 152 78
161 151 83
166 153 82
159 148 79
161 150 78
167 155 82
159 146 74
155 142 66
156 142 63
153 142 68
155 141 64
157 143 66
152 139 53
148 136 60
171 195 0
173 196 0
173 195 0
173 197 0
173 196 0
174 196 0
171 195 0
173 197 0
170 195 0
170 194 0
174 198 0
174 197 0
172 195 0
173 197 0
171 195 0
174 196 0
172 196 0
175 198 0
173 197 0
174 197 0
173 196 0
174 196 0
172 196 0
173 197 0
173 196 0
173 197 0
173 197 0
173 196 0
174 197 0
174 197 0
176 199 0
174 197 0
174 198 0
174 197 0
175 198 0
172 195 0
173 196 0
171 194 0
173 196 0
173 196 0
173 196 0
173 197 0
176 199 0
172 195 0
174 197 0
174 197 0
172 195 0
174 196 0
172 196 0
171 195 0
174 197 0
174 197 0
173 197 0
173 196 0
174 197 0
174 197 0
172 195 0
172 195 0
173 196 0
173 195 0
172 195 0
172 196 0
169 193 0
174 196 0
170 192 0
171 194 0
173 196 0
171 195 0
174 197 0
171 194 0
172 195 0
172 196 0
173 196 0
172 195 0
171 195 0
173 196 0
173 196 0
172 195 0
171 194 0
171 194 0
171 194 0
174 198 0
173 197 0
172 195 0
172 196 0
170 194 0
171 195 0
173 196 0
173 196 0
173 197 0
173 196 0
173 197 0
170 193 0
172 195 0
172 196 0
173 196 0
169 192 0
170 193 0
172 195 0
173 197 0
172 196 0
169 193 0
175 198 0
173 196 0
173 195 0
173 196 0
172 196 0
170 194 0
173 196 0
150 174 88
70 105 171
62 99 174
62 98 172
62 98 167
62 98 170
63 99 176
62 99 176
63 99 171
63 99 177
62 99 176
62 98 172
63 99 174
62 99 175
63 100 179
62 99 177
63 99 177
62 99 177
62 99 179
62 99 177
62 99 174
62 99 177
62 99 180
62 99 178
63 99 179
63 100 180
62 99 181
62 99 179
62 99 181
62 99 181
62 99 181
62 99 178
62 99 178
62 99 181
62 99 179
62 99 181
61 98 178
62 99 180
62 99 181
62 99 179
62 99 180
63 100 181
62 99 181
63 100 181
61 98 179
62 99 181
62 99 181
62 99 181
62 99 180
62 99 180
62 99 181
62 99 180
61 99 180
62 99 181
62 99 179
62 99 181
62 99 180
62 99 181
62 99 180
61 98 178
62 99 178
62 99 181
62 99 181
62 99 180
62 99 181
62 99 181
62 99 179
61 99 179
62 99 180
61 99 180
62 99 180
62 99 181
62 99 180
62 99 181
61 98 180
62 99 181
62 99 180
62 99 180
62 99 181
61 98 176
62 99 180
62 99 181
62 99 180
62 99 177
61 98 178
61 99 181
62 99 179
62 99 180
62 99 181
62 99 180
62 99 180
61 98 178
62 99 180
62 99 180
62 99 180
61 99 181
62 99 177
62 99 180
62 99 180
62 99 179
62 99 179
63 100 179
61 98 177
62 99 180
62 99 180
63 99 179
62 99 181
61 98 177
62 99 178
62 99 177
62 99 179
61 98 179
62 99 179
62 99 181
62 99 175
62 98 175
61 98 177
62 98 175
62 99 178
63 99 178
62 98 170
61 98 176
61 97 173
62 99 176
62 98 171
62 98 176
63 99 178
62 98 174
62 98 174
61 98 174
62 98 172
61 97 169
62 98 173
61 97 170
62 98 174
60 94 160
61 97 171
61 96 166
61 96 167
61 96 166
61 96 164
101 110 127
122 115 65
124 118 73
117 110 67
122 116 67
124 118 73
118 114 73
123 120 78
120 116 77
114 112 72
114 112 69
123 118 73
113 109 73
106 106 73
113 114 79
105 104 71
124 119 77
120 120 83
123 121 82
128 125 84
111 111 79
107 108 78
120 118 80
113 112 79
125 124 84
128 128 89
134 132 89
131 131 91
136 132 87
129 128 88
132 130 87
137 136 92
137 136 94
132 131 92
140 138 93
143 141 97
134 134 91
145 144 97
141 140 96
144 143 94
141 141 93
149 146 99
149 149 100
148 146 96
161 158 102
154 152 102
151 149 99
162 159 104
150 148 95
162 158 98
156 152 99
151 149 100
157 154 101
154 152 100
158 156 100
162 159 102
166 161 104
165 161 105
166 162 106
157 154 98
168 164 107
165 161 103
164 161 104
163 160 102
168 163 101
175 170 107
172 166 106
173 168 108
170 165 104
170 165 103
174 169 107
175 169 106
173 168 106
172 168 108
173 168 105
174 170 108
176 170 109
172 167 102
177 171 109
171 166 103
172 168 105
177 171 107
176 170 102
176 170 106
176 170 103
176 171 108
175 169 104
174 168 108
177 171 106
175 168 103
178 171 107
177 170 107
175 169 104
176 171 106
175 169 104
175 169 102
177 170 103
176 169 104
173 168 103
174 168 102
177 170 105
172 166 99
175 169 103
172 166 100
175 168 101
170 164 96
173 166 98
172 164 98
172 166 99
173 168 101
175 166 97
171 165 94
174 167 102
174 164 99
172 165 99
171 164 96
174 166 99
169 162 96
170 162 97
173 166 97
174 166 99
172 164 94
168 159 88
172 164 96
171 162 95
173 164 96
165 155 85
165 156 84
166 157 84
170 161 90
171 162 91
171 160 89
169 158 86
166 157 87
168 159 88
170 161 90
163 154 80
169 160 86
162 151 76
168 158 85
155 143 75
167 155 85
162 150 75
157 145 75
152 138 65
156 146 67
159 146 71
155 143 73
150 135 62
148 136 53
174 197 0
175 196 0
171 193 0
173 195 0
172 196 0
172 194 0
172 195 0
173 197 0
174 197 0
175 198 0
172 196 0
173 196 0
174 197 0
172 196 0
174 197 0
173 197 0
174 197 0
172 197 0
171 196 0
172 196 0
175 198 0
173 196 0
174 197 0
173 196 0
171 194 0
170 194 0
170 194 0
174 197 0
171 195 0
174 197 0
173 196 0
173 196 0
170 193 0
168 193 0
172 196 0
170 193 0
174 197 0
172 196 0
171 194 0
171 195 0
172 197 0
173 197 0
174 197 0
175 198 0
171 194 0
173 196 0
173 195 0
169 193 0
171 194 0
173 196 0
171 194 0
172 195 0
175 198 0
171 194 0
173 196 0
174 197 0
173 197 0
169 193 0
172 196 0
170 194 0
173 196 0
170 194 0
172 195 0
170 194 0
173 195 0
171 195 0
171 195 0
173 196 0
173 196 0
175 198 0
170 193 0
173 196 0
174 197 0
172 196 0
172 196 0
170 193 0
172 196 0
172 195 0
171 194 0
170 193 0
169 193 0
174 197 0
171 195 0
173 197 0
173 196 0
173 196 0
172 196 0
171 194 0
171 195 0
172 196 0
173 195 0
171 194 0
174 197 0
169 191 0
172 195 0
172 195 0
174 197 0
171 193 0
171 194 0
170 194 0
173 195 0
175 198 0
172 194 0
172 195 0
175 197 0
170 193 0
172 196 0
171 193 0
163 187 57
87 117 157
63 99 173
62 99 171
62 98 174
62 99 173
62 99 173
62 98 173
62 99 177
62 99 171
62 99 175
63 100 177
63 99 178
62 99 172
62 99 178
63 99 178
63 100 178
62 99 177
62 99 178
62 99 177
62 99 177
62 99 177
62 99 176
62 99 180
62 99 178
62 99 177
61 99 180
62 99 181
62 99 179
62 99 179
62 99 180
63 100 179
62 99 179
62 99 179
62 99 178
62 99 179
62 99 181
63 100 180
62 99 180
62 99 181
62 99 181
62 99 177
62 99 179
62 99 179
62 99 180
62 99 180
61 98 176
61 98 180
62 99 180
62 99 179
61 99 180
63 100 180
62 99 181
62 99 181
62 99 181
62 99 181
62 99 180
62 99 180
61 99 181
62 99 181
62 99 180
62 99 181
62 99 180
62 99 181
62 99 179
62 99 180
62 99 180
62 99 181
62 99 180
61 99 176
62 99 178
62 99 181
62 99 181
62 99 181
62 99 179
62 99 181
62 99 181
61 99 180
62 99 180
62 99 179
62 99 180
62 99 179
62 99 179
62 99 177
62 99 180
62 99 179
61 99 179
62 99 180
62 99 179
62 99 180
62 99 179
62 99 178
62 99 178
62 99 180
62 99 180
62 99 180
62 99 179
62 99 179
62 99 179
61 98 176
62 99 177
62 99 177
63 100 180
62 99 180
61 98 177
61 99 177
62 99 178
62 99 180
62 99 180
62 99 180
62 99 176
61 98 174
61 98 178
63 99 178
62 98 173
62 99 179
62 99 175
62 99 173
62 98 175
63 100 177
61 98 173
62 99 176
62 99 175
62 99 177
62 99 180
61 97 170
62 98 169
61 98 172
61 98 172
62 98 173
63 99 173
61 98 175
61 97 168
62 98 168
62 98 173
62 98 172
62 98 170
61 96 172
62 98 171
61 96 168
61 96 167
61 97 168
58 91 152
98 107 124
120 115 70
123 119 75
125 117 72
128 120 72
115 111 70
125 120 74
113 108 68
126 121 80
114 111 73
121 115 73
118 115 76
103 102 68
104 101 70
116 114 76
125 123 84
107 107 76
110 109 73
105 107 77
109 111 79
124 123 87
117 119 85
126 127 89
118 117 82
127 127 87
117 118 82
127 127 87
118 119 84
133 132 90
135 134 91
140 138 92
132 131 91
135 134 92
127 126 87
137 136 94
140 138 93
140 138 94
159 155 103
144 143 96
136 136 95
134 134 92
152 150 95
149 147 97
151 149 96
157 154 103
153 151 101
149 147 97
157 154 99
146 145 94
159 155 98
161 157 101
157 154 100
161 158 104
165 161 104
162 160 103
162 159 104
164 161 106
161 158 102
162 158 100
167 162 103
167 163 104
166 162 103
170 166 106
165 161 104
166 163 102
170 165 102
170 165 103
166 162 104
166 162 102
167 162 103
173 167 105
173 168 102
175 170 107
170 166 103
178 172 107
175 169 106
176 169 107
172 167 102
170 166 101
174 169 107
174 169 105
172 168 104
175 169 105
175 169 102
174 169 104
174 168 101
175 170 103
175 169 103
175 169 106
177 172 107
179 172 105
179 172 105
177 169 99
177 170 104
174 169 106
175 169 102
175 168 102
176 170 104
173 167 97
176 168 100
170 164 99
175 168 103
171 166 101
176 169 105
175 168 104
172 165 96
174 167 101
172 164 94
174 166 102
173 166 97
175 166 101
171 164 93
171 165 96
168 160 98
173 165 93
169 161 95
173 166 99
170 163 92
168 160 91
175 167 99
168 160 94
169 161 92
177 167 97
171 162 91
177 167 99
168 159 87
169 160 92
168 159 92
166 156 89
164 155 88
166 155 83
168 159 90
165 154 85
171 161 89
167 157 82
160 149 76
164 153 83
162 152 80
163 151 78
169 159 86
164 153 82
156 144 70
154 144 67
157 145 72
154 142 68
158 143 70
159 147 70
152 138 62
149 135 56
172 193 11
173 196 0
173 196 0
174 197 0
174 196 0
173 196 0
173 197 0
173 196 0
173 197 0
172 196 0
175 198 0
173 197 0
173 196 0
172 196 0
173 197 0
173 196 0
172 197 0
172 196 0
173 197 0
172 196 0
173 196 0
172 196 0
172 195 0
174 198 0
171 195 0
172 196 0
176 198 0
171 194 0
171 195 0
174 197 0
176 198 0
173 196 0
173 196 0
174 197 0
175 198 0
173 196 0
170 193 0
171 194 0
172 195 0
173 196 0
172 196 0
174 198 0
172 195 0
174 197 0
170 193 0
173 197 0
170 193 0
171 195 0
171 195 0
173 196 0
174 197 0
172 196 0
174 197 0
172 196 0
172 196 0
174 197 0
172 196 0
172 195 0
174 197 0
173 197 0
175 198 0
171 195 0
170 192 0
171 195 0
171 195 0
171 194 0
171 195 0
169 192 0
173 197 0
170 194 0
172 194 0
171 195 0
172 195 0
174 197 0
172 195 0
171 195 0
176 198 0
171 194 0
171 195 0
171 194 0
169 193 0
171 195 0
174 198 0
169 193 0
174 196 0
172 196 0
169 193 0
170 194 0
171 194 0
172 195 0
173 195 0
174 196 0
170 193 0
171 194 0
170 192 0
170 193 0
172 196 0
171 195 0
169 192 0
170 193 0
171 194 0
172 196 0
169 193 0
171 194 0
170 193 0
172 195 0
173 196 0
171 194 0
108 135 142
61 97 164
62 98 170
62 99 175
62 98 168
62 99 170
63 99 175
62 99 175
62 99 175
61 99 176
62 99 177
62 98 167
62 99 173
62 99 176
62 99 175
62 99 176
63 99 175
62 99 178
63 99 175
62 99 177
62 99 179
62 99 175
62 99 178
62 99 179
62 99 176
62 99 181
62 99 181
62 99 181
62 99 178
62 99 178
62 99 180
62 99 179
62 99 180
62 99 179
62 99 176
62 99 177
62 99 181
62 99 179
62 99 180
62 99 181
62 99 178
62 99 179
62 99 180
62 99 181
62 99 180
62 99 181
62 99 180
62 99 181
62 99 179
61 98 180
62 99 179
62 99 178
62 99 180
62 99 179
62 99 181
62 99 180
62 99 181
62 99 181
62 99 179
62 99 180
61 99 181
61 98 181
62 99 180
61 99 181
62 99 180
62 99 180
61 99 179
62 99 181
62 99 180
62 99 181
62 99 179
62 99 180
62 99 180
61 98 180
62 99 181
62 99 179
62 99 179
61 99 179
62 99 180
62 99 180
62 99 181
62 99 180
62 99 180
62 99 180
62 99 180
62 99 179
63 100 181
62 99 180
62 99 179
62 99 181
62 99 179
61 99 179
62 99 180
62 99 176
62 99 179
62 99 180
61 99 178
62 99 179
61 99 179
62 99 178
62 99 180
61 98 177
61 98 176
62 99 180
62 99 178
62 99 178
62 99 177
62 98 173
62 99 177
62 99 179
62 99 179
62 99 178
61 98 173
62 99 178
62 99 176
63 99 179
62 99 179
62 99 176
62 99 180
61 98 176
61 98 175
62 99 178
62 98 175
62 99 176
60 97 172
62 99 174
61 98 172
61 98 175
62 98 171
61 98 175
62 98 174
61 97 169
61 98 172
62 99 175
62 97 172
61 96 169
61 98 174
62 98 170
61 96 166
62 98 169
61 95 164
60 95 164
60 95 163
62 93 151
122 121 94
126 120 76
122 117 73
120 117 72
112 108 67
121 115 75
114 111 72
111 110 76
107 105 71
107 104 71
115 113 74
116 112 72
101 99 66
108 106 73
114 113 77
122 121 82
119 118 83
117 116 80
115 114 80
118 119 83
127 126 86
123 123 86
128 127 87
118 119 84
128 127 88
121 121 84
134 134 92
134 133 93
136 135 91
139 137 92
142 139 94
131 130 89
143 141 96
143 141 92
128 130 92
139 137 92
148 146 97
145 142 93
148 145 94
150 148 100
142 141 96
147 145 98
149 147 96
148 146 95
156 152 97
158 155 100
160 157 105
156 153 101
157 155 102
157 155 99
163 160 105
154 151 97
160 156 101
157 155 101
157 154 100
155 154 101
162 158 101
161 158 99
164 161 105
166 162 106
169 165 101
168 164 106
169 164 99
166 162 101
166 163 103
166 161 101
165 162 101
164 161 101
172 167 104
172 167 102
173 167 101
171 167 107
172 167 105
173 168 103
172 167 104
174 169 105
174 169 105
172 167 105
172 167 102
173 168 103
170 165 101
176 170 105
178 171 108
172 168 103
175 169 103
175 169 104
175 170 105
174 169 104
176 170 106
177 170 106
173 168 105
173 168 101
175 169 99
172 166 98
175 170 104
176 170 106
175 167 98
179 172 106
175 169 105
175 168 99
172 166 98
177 169 102
173 166 97
169 163 96
174 165 100
177 169 102
177 169 104
176 169 100
173 167 96
175 168 101
169 163 99
171 162 92
175 167 103
171 163 92
173 166 98
171 160 90
172 163 97
171 161 92
177 168 99
169 160 92
168 158 90
172 163 94
167 158 85
165 155 85
169 159 88
168 159 90
167 158 86
172 163 93
165 156 87
172 163 95
162 149 78
162 150 79
163 154 84
157 147 79
168 157 87
165 154 83
161 151 75
157 147 71
165 153 81
160 150 77
158 147 69
155 143 67
161 149 77
153 142 64
155 141 69
149 136 57
149 136 60
147 134 58
167 186 17
172 196 0
173 196 0
174 197 0
174 197 0
172 194 0
173 197 0
174 197 0
172 196 0
175 198 0
173 197 0
174 197 0
173 196 0
174 197 0
172 195 0
174 196 0
174 197 0
175 198 0
172 195 0
172 195 0
172 196 0
172 196 0
172 196 0
171 195 0
174 198 0
172 195 0
173 197 0
174 197 0
174 198 0
176 199 0
172 196 0
174 197 0
172 195 0
174 197 0
174 197 0
174 197 0
173 197 0
175 197 0
169 193 0
171 194 0
173 197 0
173 196 0
174 198 0
174 196 0
172 195 0
173 196 0
171 195 0
175 198 0
173 196 0
170 195 0
172 196 0
170 193 0
173 197 0
173 196 0
170 194 0
173 196 0
170 193 0
172 196 0
173 197 0
173 196 0
173 197 0
170 194 0
172 196 0
172 195 0
171 195 0
173 197 0
173 196 0
173 196 0
174 196 0
173 196 0
171 195 0
169 193 0
173 196 0
173 196 0
172 195 0
173 197 0
172 195 0
174 197 0
171 195 0
172 196 0
170 194 0
172 195 0
171 194 0
174 197 0
172 196 0
169 191 0
170 194 0
172 195 0
170 194 0
172 195 0
174 197 0
172 194 0
170 193 0
168 191 0
173 196 0
171 194 0
173 196 0
172 195 0
170 193 0
170 194 0
171 194 0
174 197 0
174 196 0
173 197 0
172 195 0
171 194 0
173 197 0
136 161 108
63 99 171
62 99 168
62 99 174
63 99 171
62 98 171
62 99 170
62 99 174
62 99 177
62 99 174
62 99 178
62 99 177
62 99 173
63 100 179
62 99 175
62 99 173
62 99 176
62 99 179
62 99 174
62 99 172
62 99 178
62 99 176
62 99 177
61 98 178
62 99 179
62 99 178
62 99 178
62 99 178
62 99 178
62 99 177
62 99 179
62 99 181
62 99 178
62 99 177
62 99 180
62 99 179
62 99 176
62 99 178
62 99 179
62 99 180
61 99 178
62 99 178
62 99 180
62 99 180
62 99 180
62 99 180
63 100 181
62 99 181
62 99 180
62 99 181
62 99 181
62 99 181
62 99 181
62 99 181
61 99 179
61 99 180
62 99 179
61 98 178
62 99 180
61 99 179
61 98 179
62 99 181
62 99 176
62 99 181
62 99 180
62 99 181
62 99 181
62 99 178
62 99 180
62 99 180
62 99 181
62 99 180
62 99 181
62 99 177
62 99 179
62 99 181
61 98 178
62 99 180
61 98 179
62 99 181
62 99 177
62 99 179
63 99 178
62 99 181
62 99 178
62 99 179
62 99 177
62 99 180
61 99 178
62 99 178
62 99 179
62 99 178
62 99 179
62 99 177
61 99 180
62 99 176
62 99 178
62 99 176
62 99 180
61 98 177
62 99 180
62 99 179
62 99 177
62 99 178
62 99 178
62 99 180
62 99 176
62 99 178
62 98 178
61 98 176
61 98 176
62 99 176
62 99 179
63 99 177
62 99 178
63 99 179
62 99 179
62 98 176
62 99 172
62 99 176
62 99 176
61 98 176
62 99 175
61 98 173
62 99 176
62 99 175
62 99 177
62 99 176
62 99 175
62 99 176
62 99 175
62 98 175
63 100 176
62 98 173
62 98 172
61 97 170
61 97 168
62 97 170
61 96 168
61 97 171
61 97 167
61 96 169
61 96 164
60 96 167
61 96 166
71 97 151
106 104 81
119 113 71
110 108 67
122 115 72
109 108 72
118 112 71
105 100 62
100 99 67
109 106 67
112 109 71
109 107 73
124 121 80
116 114 79
119 116 78
110 108 74
111 109 76
116 116 80
110 109 74
118 118 82
122 121 85
117 117 82
123 122 83
127 126 86
115 115 79
114 115 82
135 134 91
132 131 89
126 124 83
127 128 90
139 136 90
140 138 95
132 131 88
133 133 90
145 144 96
129 129 90
142 139 94
140 139 91
141 139 91
147 145 96
149 146 95
140 139 93
143 141 94
156 153 99
144 143 91
147 145 94
150 148 96
151 148 96
154 153 101
158 154 101
158 154 99
159 155 98
157 154 101
162 158 101
161 158 103
155 152 98
155 154 100
160 157 99
165 161 104
169 165 102
164 160 103
171 167 110
171 166 102
170 165 106
170 165 100
166 162 101
167 163 103
169 165 102
168 164 103
173 168 105
171 166 103
169 165 104
171 165 104
173 168 100
173 167 102
173 168 106
173 169 105
173 168 104
177 170 106
173 168 105
173 168 101
176 170 105
175 169 102
174 169 104
172 167 101
177 170 104
175 170 104
176 170 106
172 167 100
175 168 100
174 168 103
174 168 101
179 171 107
175 169 101
176 170 102
177 169 104
175 169 100
176 169 102
169 163 94
174 169 101
172 165 97
171 164 99
176 170 99
175 167 98
174 168 99
172 165 98
174 167 101
172 165 96
176 169 98
175 168 99
173 165 97
172 164 95
174 167 97
173 165 96
168 160 92
173 166 98
172 163 92
172 165 96
171 162 95
174 165 99
168 159 90
170 161 93
164 153 84
166 158 86
171 161 91
165 158 93
166 157 83
172 163 93
172 162 90
165 157 82
172 163 90
167 156 86
163 153 79
168 160 88
163 153 84
161 150 75
165 156 79
156 146 69
160 149 70
162 153 74
156 145 69
158 146 74
155 143 69
158 145 72
159 147 71
154 143 67
155 140 71
156 143 63
168 185 17
173 197 0
171 194 0
174 196 0
171 193 0
174 196 0
173 197 0
174 198 0
173 197 0
172 196 0
172 195 0
174 196 0
172 196 0
174 197 0
171 195 0
174 198 0
171 195 0
173 197 0
173 197 0
173 196 0
174 196 0
173 196 0
172 195 0
173 197 0
172 195 0
173 197 0
172 196 0
173 196 0
171 195 0
173 196 0
174 197 0
173 196 0
172 195 0
170 193 0
173 196 0
174 197 0
171 195 0
172 196 0
173 195 0
169 192 0
172 195 0
173 196 0
174 197 0
172 195 0
172 195 0
172 195 0
171 195 0
172 195 0
172 196 0
170 194 0
172 195 0
171 195 0
171 194 0
172 196 0
172 196 0
173 196 0
169 191 0
172 196 0
172 196 0
172 195 0
173 196 0
174 196 0
166 190 0
172 195 0
173 196 0
172 196 0
175 198 0
170 194 0
171 193 0
169 194 0
170 194 0
172 196 0
171 195 0
171 194 0
172 195 0
175 197 0
173 196 0
173 195 0
172 196 0
170 194 0
171 194 0
171 195 0
169 193 0
174 197 0
173 196 0
173 196 0
172 194 0
168 191 0
169 192 0
173 196 0
170 193 0
174 197 0
172 194 0
172 196 0
171 194 0
173 196 0
173 196 0
171 195 0
171 195 0
171 196 0
174 196 0
172 195 0
172 195 0
174 198 0
170 194 0
172 194 0
157 181 74
63 99 165
62 98 171
62 99 172
63 99 171
62 98 173
62 99 170
62 99 175
62 99 177
62 99 171
62 99 176
62 99 175
63 99 174
62 99 175
62 99 179
62 99 175
61 98 173
62 99 174
62 99 176
62 99 179
61 98 176
62 99 177
63 100 180
62 99 179
63 100 180
63 99 179
62 99 177
62 99 180
62 99 176
61 99 178
63 100 181
62 99 181
62 99 179
62 99 176
62 99 180
62 99 176
62 99 180
62 99 178
62 99 177
62 99 180
62 99 180
62 99 179
62 99 179
62 99 179
62 99 181
62 99 178
62 99 181
63 100 180
62 99 179
62 99 179
62 99 181
62 99 181
62 99 180
62 99 181
62 99 180
62 99 181
62 99 179
61 99 180
61 99 180
61 99 179
62 99 180
62 99 180
62 100 181
62 99 181
61 98 181
62 99 179
62 99 180
62 99 180
62 99 180
62 99 181
61 99 181
62 99 180
62 99 179
61 99 180
62 99 177
61 99 178
62 99 178
61 98 176
61 98 178
61 99 180
62 99 181
62 99 178
62 99 180
62 99 178
62 99 178
61 99 177
62 99 179
61 99 180
62 99 181
62 99 179
63 100 180
61 98 178
62 99 179
61 98 176
63 99 179
62 99 178
62 99 179
61 99 178
62 99 180
62 99 181
62 99 177
62 99 177
62 99 178
61 98 176
62 99 176
62 99 178
62 99 177
61 98 174
62 99 179
62 99 176
62 99 177
62 99 177
62 99 178
62 99 179
62 99 179
63 100 181
62 99 177
63 99 178
62 99 176
62 99 179
62 98 172
62 99 174
62 99 178
61 98 170
62 99 178
62 99 177
61 97 168
62 99 175
62 98 169
62 99 175
61 97 170
62 98 173
62 98 176
62 98 174
62 98 173
61 97 169
62 98 170
62 98 172
61 96 166
61 97 171
61 97 171
61 96 166
61 97 169
60 95 163
61 96 165
60 95 159
61 95 164
85 99 127
120 115 70
111 108 71
105 101 65
116 112 70
98 96 63
110 104 64
117 114 74
105 100 64
119 117 78
107 106 71
117 116 78
108 104 69
123 122 81
111 110 75
110 110 77
108 107 75
115 114 79
125 124 83
111 112 79
124 122 83
116 115 79
127 127 85
124 122 83
118 118 82
118 118 83
137 135 92
128 129 87
133 132 90
132 129 87
135 135 90
126 126 87
133 132 89
133 133 92
135 134 89
135 134 92
142 140 95
146 144 100
145 143 94
146 143 93
148 146 95
159 155 100
153 150 97
154 152 97
152 150 98
149 147 97
157 154 100
153 151 98
156 153 99
152 150 96
156 153 95
152 150 95
156 153 98
160 156 100
162 159 101
163 158 101
161 158 103
168 164 103
162 158 102
165 162 99
165 161 101
170 166 103
170 165 104
166 162 103
167 163 103
168 164 105
170 166 103
171 167 105
171 166 102
172 168 107
176 170 106
173 168 103
171 166 102
173 168 104
174 168 103
172 166 99
173 167 102
172 167 105
175 170 108
173 168 103
174 168 102
178 171 106
176 169 99
173 168 101
178 171 105
177 170 102
176 169 102
176 170 103
175 168 99
176 169 103
176 169 103
177 170 105
174 167 99
176 169 99
171 165 91
173 167 98
178 171 105
174 168 99
174 168 103
174 168 98
175 169 103
172 165 97
175 168 102
175 167 98
175 166 96
176 168 98
171 164 95
173 165 97
171 164 96
171 164 96
175 168 98
170 163 94
169 161 93
175 169 102
169 161 89
170 163 92
169 161 92
168 160 90
171 162 94
172 163 94
171 162 91
169 161 88
166 159 85
169 160 86
167 157 88
169 159 89
164 154 82
165 156 83
168 158 82
163 153 84
167 159 80
164 155 79
169 159 87
161 150 77
161 150 79
158 147 71
163 151 76
163 152 78
159 148 71
160 149 73
162 150 78
152 139 68
151 137 63
159 146 67
162 149 75
149 134 55
144 129 53
167 185 11
172 196 0
173 196 0
174 195 0
174 196 0
172 196 0
172 196 0
173 197 0
174 198 0
174 197 0
173 196 0
175 197 0
174 197 0
172 195 0
171 195 0
175 197 0
173 197 0
171 194 0
173 197 0
171 194 0
170 194 0
172 196 0
173 196 0
173 197 0
173 196 0
174 196 0
176 198 0
174 197 0
172 196 0
172 195 0
171 194 0
175 198 0
171 194 0
173 196 0
174 197 0
173 197 0
174 197 0
173 196 0
174 196 0
173 196 0
172 196 0
171 194 0
173 196 0
170 193 0
174 196 0
173 196 0
173 195 0
174 198 0
171 193 0
174 197 0
173 197 0
173 196 0
175 197 0
169 194 0
173 196 0
171 195 0
174 197 0
171 195 0
174 197 0
173 197 0
172 195 0
173 197 0
171 195 0
170 194 0
172 194 0
172 195 0
171 195 0
168 192 0
170 193 0
172 195 0
175 198 0
173 196 0
172 196 0
171 195 0
171 195 0
171 194 0
172 195 0
174 197 0
172 194 0
171 194 0
174 197 0
170 194 0
172 194 0
172 196 0
172 195 0
170 194 0
170 194 0
173 197 0
173 196 0
171 195 0
171 195 0
172 195 0
170 193 0
169 192 0
173 196 0
172 196 0
170 192 0
172 195 0
170 194 0
172 195 0
170 194 0
172 195 0
174 197 0
170 193 0
172 196 0
167 190 47
103 131 145
62 99 173
62 99 169
63 100 176
63 99 172
62 99 172
62 99 175
62 98 169
62 98 171
63 99 176
62 99 173
61 98 175
61 98 174
62 99 173
62 99 175
62 99 177
62 99 181
62 99 175
62 99 180
62 99 176
63 100 178
62 99 178
62 99 181
62 99 180
62 99 176
62 99 176
62 99 175
61 98 178
62 99 179
62 99 178
62 99 176
61 99 178
62 99 180
62 99 179
62 99 179
62 99 177
61 99 180
62 99 178
61 99 180
62 99 180
62 99 178
63 100 179
62 99 177
62 99 180
62 99 179
61 98 176
62 99 181
62 99 179
62 99 181
62 99 179
62 99 181
62 99 180
62 99 181
62 99 179
62 99 181
62 99 179
62 99 181
62 99 180
61 99 180
62 99 180
62 99 180
62 99 179
62 99 179
61 99 180
61 98 178
62 99 180
62 99 180
62 99 179
62 99 181
62 99 180
62 99 180
62 99 180
62 99 179
61 99 180
62 99 178
62 99 179
62 99 179
62 99 177
61 98 178
62 99 178
62 99 180
62 99 178
62 99 181
61 99 178
61 98 175
62 99 179
62 99 180
62 99 180
62 99 178
61 99 180
63 100 180
62 99 177
62 99 179
62 99 179
61 98 180
62 99 180
62 99 181
62 99 178
62 99 178
62 99 179
62 99 178
62 99 178
62 99 176
62 99 177
62 99 177
62 99 180
61 98 177
62 99 177
62 99 176
62 99 178
62 99 178
62 99 178
62 99 177
62 99 179
61 98 174
62 99 175
63 99 176
62 99 176
62 99 176
62 99 177
62 98 173
62 99 176
62 99 176
62 98 174
62 98 172
62 99 177
62 99 176
62 98 173
62 99 178
62 99 170
61 98 175
62 99 174
61 97 171
62 98 174
62 99 176
63 99 172
62 98 171
61 97 168
62 98 170
61 97 167
62 98 168
61 97 170
61 97 166
62 97 170
61 96 166
61 97 166
61 96 171
60 94 155
105 108 104
124 118 68
102 100 64
111 106 70
103 99 62
105 103 66
112 108 68
106 103 67
100 97 64
104 103 68
100 102 71
102 102 71
116 114 76
109 107 74
107 106 71
122 120 81
104 107 76
117 117 80
112 113 79
123 122 84
121 120 81
117 117 81
125 124 84
122 121 85
121 123 84
127 128 88
118 119 86
125 126 89
125 125 87
133 132 91
133 132 91
143 140 94
141 138 94
136 135 91
133 134 92
151 147 97
143 142 95
144 141 93
139 138 90
153 150 99
141 140 94
151 149 97
144 142 93
151 149 94
152 150 99
155 152 101
145 143 93
161 157 100
152 150 96
157 154 97
160 156 96
161 157 97
160 158 100
165 161 102
164 161 99
168 163 102
166 161 103
163 159 101
160 157 98
174 168 103
163 159 95
171 166 106
170 165 103
171 166 103
164 161 101
173 168 104
170 165 99
173 167 106
172 167 103
171 166 100
169 163 100
171 166 102
173 168 101
173 169 103
173 167 102
171 166 100
170 166 100
177 170 105
173 167 103
173 167 99
179 171 106
175 169 101
178 171 106
173 167 103
175 168 105
172 166 95
173 167 97
175 169 101
175 169 103
174 168 97
175 170 103
174 168 99
175 169 103
175 169 104
172 166 94
174 166 91
173 166 100
170 164 96
172 167 98
174 166 96
172 166 97
178 170 102
177 169 98
175 168 104
176 168 97
176 168 98
173 165 97
171 164 97
172 165 94
173 166 96
170 162 90
174 166 97
170 162 91
172 165 95
170 161 92
171 164 90
170 162 87
172 164 94
170 162 89
167 158 88
170 161 91
163 153 82
166 158 86
165 156 89
167 158 87
160 150 82
163 154 78
165 157 81
164 155 81
158 148 80
164 155 77
164 154 77
165 156 79
163 154 81
163 152 80
161 150 78
163 152 78
157 148 64
157 144 72
161 150 76
155 143 68
158 147 73
155 143 64
145 128 49
153 139 59
147 132 60
169 188 24
173 195 0
173 196 0
174 196 0
173 197 0
173 196 0
172 196 0
173 196 0
173 197 0
172 196 0
172 196 0
173 197 0
174 198 0
174 198 0
175 198 0
172 196 0
172 195 0
170 194 0
173 196 0
175 198 0
174 197 0
174 197 0
172 195 0
172 196 0
172 195 0
171 195 0
172 196 0
173 196 0
173 196 0
171 194 0
173 196 0
172 196 0
174 197 0
173 197 0
169 193 0
172 195 0
173 195 0
174 197 0
171 195 0
174 197 0
172 195 0
171 195 0
174 197 0
173 196 0
171 195 0
173 197 0
172 195 0
173 196 0
173 195 0
173 196 0
171 194 0
171 194 0
173 196 0
171 193 0
173 197 0
173 196 0
173 196 0
173 197 0
170 193 0
170 194 0
171 195 0
171 194 0
174 197 0
173 196 0
171 195 0
174 197 0
172 195 0
172 194 0
174 197 0
174 197 0
171 195 0
174 197 0
173 197 0
173 196 0
170 194 0
171 195 0
173 197 0
174 197 0
170 194 0
170 193 0
169 193 0
174 196 0
171 192 0
168 192 0
171 194 0
168 192 0
174 197 0
173 196 0
170 193 0
174 197 0
167 190 0
174 198 0
172 195 0
172 196 0
172 195 0
166 189 0
169 192 0
170 194 0
172 196 0
170 193 0
173 196 0
169 192 0
172 196 0
173 197 0
169 193 0
121 147 129
63 99 172
62 99 174
62 99 173
62 99 172
61 98 164
62 99 171
62 99 171
62 99 175
61 98 173
62 99 176
62 99 177
62 99 174
62 98 176
63 99 176
63 100 176
62 99 174
62 99 176
62 99 174
61 98 167
63 99 179
62 99 175
62 99 175
63 99 177
61 99 179
62 99 178
63 100 179
62 99 178
62 99 179
62 99 178
62 98 175
62 99 180
62 99 179
62 99 177
62 99 178
62 99 179
62 99 179
62 99 179
62 99 180
62 99 179
62 99 178
61 98 177
62 99 177
63 100 180
62 99 179
62 99 180
62 99 180
62 99 180
61 99 177
63 100 179
62 99 180
62 99 181
62 99 181
62 99 180
62 99 179
62 99 180
62 99 181
61 99 180
62 99 179
61 99 177
62 99 181
62 99 180
62 99 181
62 99 181
62 99 179
62 99 178
62 99 180
62 99 179
62 99 181
63 100 180
62 99 180
62 99 180
61 98 180
62 99 178
61 98 179
62 99 180
63 100 181
63 99 178
62 99 180
62 99 179
62 99 179
62 99 179
62 99 180
62 99 179
61 98 177
62 99 181
62 99 180
61 98 179
62 99 178
62 99 181
62 99 178
63 100 180
61 98 176
62 99 177
63 99 180
62 99 178
63 100 178
63 100 181
62 99 177
62 99 178
61 99 177
62 99 180
62 99 178
62 99 176
62 99 179
62 99 179
62 99 178
61 98 176
61 98 176
62 99 179
62 99 177
62 99 178
63 100 179
62 99 179
62 99 180
61 98 175
63 99 175
62 99 179
62 99 175
62 99 173
63 99 177
62 99 173
62 98 170
62 99 176
62 99 178
62 99 176
62 99 174
61 98 173
62 98 175
63 99 177
62 98 172
62 99 174
62 99 178
62 99 175
62 99 172
62 99 171
62 98 169
61 97 174
61 98 171
62 97 167
62 98 171
62 98 171
61 97 170
61 96 163
61 95 163
61 96 166
60 95 162
60 94 160
60 94 160
62 92 151
121 116 85
102 96 62
100 99 65
102 101 65
114 110 70
103 99 64
104 102 69
107 105 71
113 111 74
104 103 72
114 113 77
102 104 72
103 102 69
99 100 72
112 111 75
104 102 69
119 118 81
109 108 77
115 114 77
111 113 79
115 116 83
108 108 77
120 120 82
126 125 85
132 131 90
127 125 83
132 132 91
126 125 86
131 131 90
140 139 94
143 141 94
123 124 85
137 136 91
135 134 90
149 147 97
141 140 93
136 135 88
138 138 92
137 136 92
150 147 93
147 145 94
148 147 95
142 141 93
161 157 99
159 156 102
157 153 97
158 155 98
155 153 97
147 146 96
159 155 99
155 152 96
158 154 98
162 158 98
163 159 99
163 159 99
159 156 98
163 159 96
166 162 102
168 164 103
167 163 101
170 164 100
169 164 99
167 163 103
170 165 104
166 162 101
166 162 102
173 167 101
168 164 101
174 168 104
170 164 101
172 167 103
171 166 100
175 169 101
175 170 104
176 169 102
174 168 100
174 169 103
176 171 105
176 170 101
178 171 104
175 169 102
174 168 102
174 169 104
175 168 98
175 169 103
173 167 98
175 169 101
176 169 101
175 168 100
175 169 98
176 169 100
173 167 98
173 167 101
173 167 101
174 167 99
174 167 97
173 166 97
179 169 100
176 169 98
170 164 91
171 164 92
175 168 99
175 168 101
173 166 101
174 167 99
172 165 96
174 166 98
170 164 96
176 168 96
173 167 97
169 160 89
170 161 94
171 164 95
171 164 92
171 163 88
171 163 95
168 159 84
168 160 86
164 153 84
173 164 94
167 159 84
167 158 83
168 160 84
169 161 88
165 155 80
166 159 79
166 156 88
166 156 83
165 156 86
164 154 78
165 155 80
164 153 77
164 155 78
164 153 80
159 147 72
156 144 67
161 150 74
158 146 72
155 142 65
151 139 59
152 140 62
157 145 74
154 141 67
157 144 67
147 132 52
165 184 1
174 196 0
174 195 0
174 196 0
175 196 0
174 197 0
172 195 0
173 196 0
173 196 0
173 196 0
173 196 0
173 196 0
170 193 0
174 197 0
172 196 0
174 197 0
171 195 0
172 195 0
172 196 0
173 196 0
173 197 0
171 194 0
172 196 0
172 196 0
172 197 0
173 196 0
171 195 0
172 196 0
175 198 0
174 197 0
172 196 0
171 194 0
171 195 0
175 198 0
172 196 0
171 195 0
170 193 0
173 197 0
172 195 0
175 198 0
171 194 0
174 198 0
172 196 0
171 195 0
172 196 0
173 197 0
172 195 0
171 195 0
169 191 0
174 197 0
173 197 0
167 191 0
173 196 0
174 198 0
173 195 0
175 198 0
173 197 0
172 196 0
172 195 0
172 195 0
173 197 0
172 195 0
172 196 0
173 196 0
173 195 0
171 195 0
170 193 0
173 196 0
173 196 0
172 196 0
169 192 0
172 195 0
172 196 0
172 195 0
171 194 0
170 194 0
175 198 0
171 194 0
169 193 0
172 196 0
175 198 0
171 194 0
173 196 0
172 194 0
171 194 0
172 195 0
173 196 0
173 195 0
168 190 0
172 195 0
172 195 0
170 193 0
174 197 0
173 196 0
172 195 0
173 196 0
172 195 0
170 193 0
175 198 0
171 195 0
172 195 0
171 195 0
171 194 0
169 192 0
154 178 80
61 98 166
62 99 170
62 99 168
62 98 168
62 98 169
62 98 171
62 99 172
62 98 169
62 99 173
62 99 173
62 99 173
62 98 168
62 99 170
62 99 175
63 100 178
63 99 178
62 99 177
62 99 177
62 99 178
63 100 178
61 99 177
62 99 178
63 100 179
63 100 180
62 99 175
61 99 177
62 99 177
63 99 180
62 99 177
62 99 178
61 99 178
62 99 178
62 99 178
62 99 177
62 99 178
62 99 177
62 98 174
62 99 180
62 99 178
62 99 180
63 100 180
62 99 179
62 99 180
62 99 181
62 99 181
62 99 179
62 99 181
62 99 178
61 99 181
62 99 178
62 99 179
62 99 181
62 99 177
62 99 180
62 99 179
62 99 178
62 99 180
62 99 180
62 99 181
62 99 179
62 99 180
62 99 178
62 99 179
62 99 179
61 99 179
62 99 179
62 99 177
62 99 177
62 99 180
62 99 179
61 99 178
62 99 179
61 99 179
62 99 178
63 100 180
62 99 178
62 99 180
62 99 179
62 99 179
62 99 180
62 99 177
62 99 177
62 99 179
62 99 181
61 98 178
62 99 180
63 99 179
63 99 179
62 99 179
62 99 178
62 99 177
62 99 178
61 98 177
62 99 177
61 99 179
62 99 178
62 99 179
63 99 180
62 99 178
61 98 178
62 99 179
61 98 174
62 99 175
62 99 176
62 99 174
62 99 180
62 99 178
62 99 177
61 98 178
62 99 177
62 99 175
62 98 173
62 99 177
62 99 179
63 99 176
62 99 175
62 99 176
63 99 179
62 99 176
62 99 176
62 99 173
62 99 175
62 98 172
61 98 171
63 99 176
62 98 172
61 98 174
61 98 174
62 98 174
62 99 176
62 99 171
63 99 174
63 99 174
61 98 171
62 98 174
62 98 171
62 98 171
61 98 171
62 98 173
62 98 173
62 98 166
61 97 170
62 98 172
62 98 173
61 96 167
60 95 163
61 96 166
60 95 162
61 96 164
60 94 157
75 94 131
108 104 68
99 96 62
106 103 61
109 107 70
96 93 60
100 97 66
102 100 66
112 109 71
98 96 64
105 101 67
116 113 76
98 97 68
111 110 74
100 102 73
110 109 74
112 111 77
110 109 74
113 114 80
104 106 73
115 115 80
120 121 84
114 115 79
114 115 81
136 133 90
130 128 85
120 122 87
118 119 82
139 138 93
126 126 88
132 131 87
134 133 89
135 135 91
135 134 92
136 135 88
138 136 89
137 137 91
156 152 98
154 151 99
140 139 91
149 147 94
146 143 93
146 144 94
151 149 93
155 153 96
161 157 102
151 149 95
148 147 92
149 147 93
157 154 98
158 155 94
157 155 98
168 163 105
163 159 100
164 159 97
167 162 102
159 156 95
162 158 100
161 158 98
170 165 102
173 168 103
162 158 98
170 166 107
170 165 98
171 166 101
174 168 103
170 165 102
171 166 103
171 167 101
174 168 102
177 170 104
174 168 102
171 166 99
177 170 102
171 166 100
174 167 102
173 168 98
175 169 102
173 168 103
174 169 104
175 169 104
172 166 101
173 167 101
173 167 101
175 169 104
172 167 99
175 169 98
176 169 101
175 169 103
174 168 100
175 168 102
174 167 97
174 167 97
173 167 100
174 167 98
174 166 98
173 167 99
175 167 97
174 166 99
172 165 97
175 168 99
170 164 97
176 167 97
175 168 98
172 164 95
174 167 95
172 165 91
173 165 94
170 162 93
168 161 88
172 164 91
169 162 85
172 164 95
170 162 89
167 160 89
173 163 95
167 159 90
169 161 92
167 158 88
170 161 91
165 157 81
169 162 88
166 158 83
164 155 80
165 156 81
163 154 80
169 160 89
167 158 84
166 156 79
161 150 75
162 152 74
168 156 89
159 148 75
163 152 74
163 150 77
154 141 68
158 147 69
154 141 66
159 146 77
156 144 68
155 144 60
156 145 67
154 139 65
146 130 50
145 129 61
169 189 22
172 194 0
173 196 0
172 193 0
171 194 0
171 194 0
174 197 0
174 197 0
173 196 0
172 196 0
172 195 0
172 196 0
174 197 0
172 196 0
172 196 0
174 197 0
172 196 0
173 197 0
173 196 0
173 196 0
172 197 0
172 195 0
173 196 0
172 196 0
173 196 0
173 196 0
170 194 0
173 197 0
173 197 0
172 195 0
174 196 0
173 196 0
173 196 0
173 196 0
171 195 0
170 194 0
172 196 0
174 197 0
172 195 0
174 197 0
173 196 0
173 195 0
174 197 0
171 195 0
170 193 0
172 195 0
174 197 0
174 197 0
172 196 0
174 197 0
172 195 0
173 196 0
171 195 0
173 197 0
173 196 0
172 196 0
173 197 0
172 195 0
174 197 0
173 196 0
170 192 0
173 196 0
172 195 0
169 193 0
171 194 0
172 195 0
172 195 0
173 196 0
171 195 0
172 194 0
172 194 0
170 194 0
171 194 0
174 197 0
172 196 0
171 194 0
170 193 0
174 197 0
173 197 0
171 194 0
171 194 0
172 195 0
170 194 0
170 193 0
169 192 0
172 196 0
172 195 0
169 192 0
173 196 0
172 195 0
174 196 0
170 193 0
171 195 0
172 195 0
170 193 0
170 193 0
170 193 0
173 195 0
173 196 0
173 196 0
173 195 0
170 193 0
172 195 0
168 191 31
88 119 151
62 98 165
63 99 173
62 99 174
63 99 172
62 99 175
62 99 172
62 99 175
62 98 171
62 99 176
63 100 179
62 99 178
62 99 179
62 99 174
61 98 169
62 99 177
62 98 172
63 99 174
61 98 175
62 99 177
62 99 176
62 99 174
62 99 179
61 99 178
62 99 180
63 99 176
62 98 177
62 99 181
63 99 177
63 100 180
62 99 176
62 99 179
62 99 181
61 98 176
63 100 181
61 98 178
61 98 176
62 99 176
63 100 179
63 100 177
62 99 181
62 99 179
62 99 180
63 100 181
62 99 176
63 100 181
62 99 179
63 100 180
62 99 180
61 98 177
62 99 177
62 99 179
62 99 180
62 99 178
62 99 179
62 99 180
62 99 179
62 99 181
62 99 180
62 99 179
62 99 180
61 99 180
61 99 179
62 99 180
62 99 177
62 99 179
62 99 181
63 100 180
62 99 179
61 98 176
62 99 179
62 99 179
62 99 178
62 99 180
62 99 180
62 99 181
62 99 180
61 99 180
62 99 180
62 99 179
62 99 179
63 100 180
62 99 177
61 98 175
62 99 180
62 99 176
62 99 178
61 98 172
62 99 173
62 99 179
62 99 180
62 99 177
62 99 179
61 98 176
62 99 179
62 99 177
62 99 178
63 99 178
62 99 178
62 99 178
62 99 178
61 98 175
62 99 177
62 99 179
62 99 176
61 99 179
62 99 174
62 99 180
62 99 177
62 99 177
62 99 178
61 99 178
61 98 175
62 99 174
63 100 177
63 99 177
62 99 175
62 99 175
62 98 171
62 99 176
63 100 176
62 99 176
62 99 176
62 99 173
63 99 175
62 99 175
63 99 179
62 99 175
62 99 177
62 98 172
62 99 176
62 99 173
62 98 172
62 98 172
62 99 175
62 98 170
62 98 168
63 99 174
61 98 166
62 98 172
61 98 173
62 98 174
62 98 170
62 98 169
62 98 172
61 97 171
61 96 170
61 97 168
60 93 155
61 96 163
60 94 158
59 92 151
80 91 109
91 89 61
106 100 62
94 93 64
101 99 65
107 103 69
92 91 65
102 99 69
105 103 69
91 91 65
103 101 70
111 108 70
102 101 67
99 100 70
112 111 77
107 108 74
100 103 73
115 114 76
118 117 81
116 114 77
107 107 74
113 114 79
116 117 81
113 112 78
122 122 81
121 122 84
127 127 88
124 125 83
129 130 86
129 128 86
145 143 93
139 137 89
135 134 88
129 128 81
130 131 92
142 140 91
143 141 92
145 142 92
139 137 88
140 139 93
146 145 93
154 152 96
148 145 95
154 151 95
149 147 96
154 151 96
159 156 98
148 146 94
158 155 99
157 154 100
155 152 92
164 159 100
155 152 98
159 156 98
158 155 98
162 158 96
162 159 97
159 157 101
163 160 101
170 165 100
166 161 98
169 164 101
173 168 107
168 163 104
166 162 98
171 166 99
173 167 100
167 163 99
173 167 103
168 162 97
170 165 101
176 170 102
176 169 100
173 168 105
173 167 100
174 168 103
169 165 100
177 170 102
175 169 101
173 168 100
177 170 104
171 166 101
173 167 100
176 169 100
173 166 98
177 170 105
174 168 102
175 168 102
178 171 103
174 167 98
176 170 99
172 165 95
173 167 98
175 168 97
173 167 97
174 168 99
174 167 99
171 164 93
170 163 93
173 165 96
173 165 95
173 165 98
174 167 97
171 163 93
166 159 88
171 164 95
170 163 92
171 163 91
171 162 92
173 163 93
171 162 94
165 156 87
169 160 93
174 165 93
166 159 86
169 160 88
170 161 89
172 163 92
162 152 81
168 161 86
166 158 86
173 163 94
168 159 84
169 158 81
166 156 83
161 153 78
166 156 82
166 157 77
166 156 77
163 153 79
162 154 74
166 155 79
164 153 76
166 154 75
167 156 79
163 151 77
159 148 75
154 142 67
156 145 65
157 144 69
156 142 69
150 138 55
150 137 58
137 123 42
172 192 16
174 196 0
172 194 0
175 197 0
172 196 0
173 195 0
174 197 0
173 196 0
174 197 0
172 195 0
171 194 0
173 197 0
174 197 0
172 195 0
173 197 0
173 197 0
174 197 0
174 197 0
174 197 0
174 197 0
171 195 0
173 196 0
175 198 0
171 195 0
173 196 0
172 196 0
173 196 0
174 197 0
173 197 0
173 196 0
169 193 0
172 195 0
174 197 0
168 192 0
173 196 0
171 195 0
172 196 0
174 197 0
171 195 0
174 196 0
172 195 0
170 194 0
175 198 0
173 196 0
174 197 0
171 194 0
173 197 0
174 197 0
173 197 0
172 196 0
175 198 0
172 196 0
174 197 0
172 196 0
170 194 0
174 197 0
174 197 0
171 194 0
174 196 0
172 195 0
174 197 0
172 196 0
172 196 0
169 192 0
172 195 0
169 192 0
170 194 0
170 194 0
170 192 0
172 195 0
170 193 0
172 195 0
173 196 0
170 193 0
170 193 0
172 195 0
173 195 0
172 195 0
172 196 0
172 195 0
170 193 0
168 192 0
169 192 0
174 197 0
173 196 0
172 195 0
174 196 0
171 195 0
173 196 0
172 196 0
172 194 0
171 195 0
171 194 0
171 194 0
173 196 0
169 192 0
171 194 0
170 193 0
171 194 0
172 196 0
172 195 0
172 195 0
168 192 0
126 152 122
63 99 169
61 98 167
62 99 171
62 99 171
62 99 172
62 98 171
62 99 176
62 99 172
62 99 170
62 99 175
62 99 177
62 99 177
63 100 177
62 99 176
62 99 177
61 98 176
63 100 174
63 99 179
62 99 178
62 99 174
62 99 180
63 99 177
62 99 177
62 99 173
61 98 175
63 100 179
62 99 176
63 99 176
62 99 179
62 99 178
62 99 179
62 99 177
62 99 179
62 99 180
62 99 180
62 99 178
63 99 179
62 99 178
62 99 179
62 99 180
62 99 179
62 99 179
62 99 178
62 99 180
62 99 178
62 99 179
62 99 181
62 99 176
62 99 180
62 99 181
62 99 180
62 99 176
62 99 180
62 99 179
62 99 180
62 99 177
63 99 180
62 99 180
62 99 178
62 99 179
62 99 179
62 99 180
62 99 179
62 99 176
62 99 179
62 99 178
62 99 179
62 99 178
62 99 179
62 99 180
62 99 179
62 99 179
63 100 180
62 99 177
63 99 178
61 99 179
62 99 178
62 99 179
61 99 179
62 99 179
62 99 180
63 100 180
62 99 181
61 99 177
62 99 179
61 98 175
61 99 178
61 99 177
62 99 180
62 99 178
63 99 178
62 99 180
62 99 180
62 99 178
62 99 180
61 98 176
62 99 178
62 99 178
61 98 179
62 99 178
62 99 177
61 99 177
62 99 181
61 98 178
62 99 174
62 99 177
62 99 178
62 99 177
63 100 178
62 99 178
62 99 175
62 99 176
61 98 176
62 99 178
62 99 177
62 99 179
61 98 175
62 99 174
62 99 175
62 99 180
62 99 173
62 99 178
62 99 175
62 99 178
62 99 176
62 99 177
62 99 178
60 97 168
61 98 167
61 98 171
62 99 175
62 99 172
62 99 176
63 99 176
62 98 172
62 98 172
62 98 172
62 98 167
62 98 173
62 97 170
63 98 169
61 97 164
61 98 174
62 98 170
62 97 169
62 98 169
61 97 164
60 95 164
61 97 170
61 96 163
61 96 160
60 94 157
68 95 152
109 106 73
100 98 63
99 94 63
103 99 65
89 85 55
108 105 72
102 100 67
99 97 66
85 86 61
102 98 65
95 96 69
93 94 67
107 108 75
90 90 65
107 107 75
101 103 73
105 105 74
112 113 77
106 105 70
113 114 79
111 113 80
109 110 75
124 124 83
128 128 86
120 122 85
121 121 82
127 127 85
122 122 86
141 138 90
126 126 85
131 129 85
137 136 93
133 132 88
143 142 93
138 137 88
133 132 88
154 152 96
142 141 90
147 145 94
135 134 85
153 150 99
148 145 94
149 147 94
146 144 88
153 150 95
154 151 95
157 154 96
147 146 96
158 155 102
161 156 99
165 161 98
166 161 97
161 157 97
160 158 99
167 162 99
164 160 99
165 161 98
164 159 98
168 164 103
172 167 103
167 162 101
166 161 98
172 166 100
165 161 96
165 161 97
172 167 104
172 167 100
172 166 105
170 166 103
171 166 101
175 168 102
170 165 97
173 167 97
172 165 102
174 168 98
172 166 100
174 169 99
171 166 99
169 164 93
172 166 98
173 168 104
176 170 104
176 170 100
175 169 103
173 166 100
171 165 91
174 168 102
175 169 102
174 167 99
174 167 99
173 166 96
171 164 93
174 167 96
174 166 97
172 165 97
178 170 100
174 168 100
172 165 93
173 167 94
174 168 99
175 167 95
171 164 95
171 163 93
169 163 94
171 164 95
174 166 94
173 164 95
171 163 94
169 162 91
168 160 93
171 163 93
173 164 90
169 161 87
169 161 86
170 161 91
169 160 88
175 166 94
174 165 97
170 162 91
166 156 85
168 159 85
170 160 85
166 155 83
164 153 82
168 157 87
168 158 83
167 157 85
162 153 76
168 158 84
158 148 72
160 149 76
165 154 81
156 145 67
159 149 71
156 145 72
160 148 73
158 148 66
161 150 74
156 145 63
152 140 60
154 140 63
151 137 65
149 135 48
173 194 0
173 195 0
172 195 0
173 196 0
174 196 0
173 195 0
173 196 0
171 195 0
172 195 0
171 194 0
175 198 0
171 195 0
170 193 0
171 195 0
173 197 0
173 196 0
174 197 0
174 197 0
172 195 0
172 194 0
171 194 0
172 195 0
174 197 0
174 197 0
171 194 0
174 198 0
172 196 0
173 197 0
173 196 0
172 195 0
170 194 0
174 198 0
173 196 0
172 195 0
173 197 0
176 198 0
173 197 0
174 197 0
174 198 0
173 197 0
170 193 0
171 195 0
171 195 0
171 194 0
172 195 0
174 197 0
173 196 0
170 193 0
171 195 0
172 195 0
172 196 0
174 197 0
173 197 0
169 193 0
174 197 0
172 196 0
174 197 0
173 196 0
170 194 0
173 196 0
173 196 0
172 196 0
173 196 0
171 194 0
170 194 0
170 195 0
174 197 0
172 195 0
172 196 0
171 195 0
171 195 0
171 193 0
169 193 0
170 193 0
172 195 0
173 196 0
172 196 0
170 194 0
172 195 0
172 195 0
170 193 0
172 195 0
171 195 0
172 194 0
172 195 0
172 195 0
170 193 0
171 194 0
173 195 0
171 194 0
173 197 0
171 193 0
173 195 0
170 194 0
172 196 0
170 194 0
169 193 0
171 193 0
169 192 0
172 196 0
170 194 0
169 192 0
166 189 47
71 105 157
62 98 162
62 98 165
62 99 167
62 98 164
63 99 168
62 98 162
62 99 175
60 97 164
62 99 172
63 100 178
62 99 173
62 99 173
62 98 171
62 99 175
62 99 176
61 98 177
62 99 170
62 99 176
62 99 174
63 99 176
62 99 178
61 98 174
62 99 176
62 99 176
63 100 179
62 99 178
62 99 176
62 99 179
62 99 179
62 99 176
62 99 176
62 99 178
62 99 175
62 98 174
62 99 177
62 99 178
62 99 176
62 99 181
62 99 180
62 99 177
62 99 176
62 99 180
62 99 179
62 99 178
61 98 179
61 99 178
62 99 179
62 99 179
61 99 180
62 99 181
62 99 181
63 100 179
63 100 179
62 99 181
62 99 179
62 99 178
62 99 180
62 99 177
62 99 178
62 99 179
62 99 180
62 99 179
62 99 175
62 99 180
62 99 180
62 99 180
62 99 176
62 99 181
62 99 177
63 100 181
62 99 178
62 99 179
62 99 180
62 99 179
62 99 178
61 99 178
61 98 176
61 98 177
62 99 177
62 99 180
62 99 181
62 99 179
62 99 177
62 99 178
63 100 177
63 100 177
62 99 177
62 99 181
61 98 178
61 98 173
62 99 178
62 99 180
62 99 178
62 99 179
61 99 177
62 99 176
62 99 175
62 99 176
62 99 177
62 99 177
62 99 177
62 99 176
62 99 179
62 99 180
62 99 178
62 99 179
61 98 177
62 99 177
62 99 176
62 98 174
61 98 175
61 99 176
62 99 179
62 98 173
63 99 173
62 99 177
63 99 178
61 98 174
62 99 177
62 98 171
62 99 173
62 99 177
62 98 172
61 98 171
62 99 179
63 99 175
62 99 173
62 99 174
62 99 176
62 99 175
62 99 176
62 99 174
62 98 170
62 98 169
62 99 176
61 98 172
62 97 171
62 99 176
62 98 170
62 98 172
61 97 167
61 97 171
62 99 173
62 98 169
61 97 167
62 97 167
62 98 169
61 96 161
62 97 168
60 95 160
62 98 174
60 93 154
61 95 159
77 93 123
97 93 58
94 91 60
101 99 66
92 90 58
92 93 63
100 100 70
101 100 68
99 99 67
101 99 68
96 99 71
96 94 62
96 98 70
94 95 70
104 104 70
106 105 73
110 110 75
113 112 78
104 106 75
108 109 77
110 110 77
125 125 83
119 118 81
114 115 80
123 123 82
124 124 84
120 120 82
134 134 92
136 135 91
128 127 83
123 124 87
118 119 83
142 141 91
134 132 86
135 135 90
144 143 93
144 141 94
143 141 89
138 138 89
147 144 93
148 146 93
147 145 90
153 150 93
151 149 92
147 145 91
153 149 93
156 153 95
155 151 94
159 156 97
154 152 97
160 156 94
156 154 98
167 162 102
163 159 99
160 156 97
165 161 100
165 161 97
166 161 98
163 159 101
163 159 97
168 164 102
172 166 100
170 164 97
170 165 100
164 158 91
171 166 96
170 165 99
170 164 95
169 164 98
172 166 101
170 165 96
174 168 99
176 170 100
172 166 100
173 168 101
174 168 101
171 164 93
171 166 98
172 166 97
173 167 103
174 169 103
174 167 98
173 168 98
174 167 96
175 169 101
172 166 93
174 168 98
175 168 98
173 166 100
173 167 95
173 166 94
174 168 98
173 167 93
175 168 99
170 162 95
171 165 91
173 166 95
173 166 95
170 163 91
172 164 93
173 165 96
175 166 97
171 164 92
176 169 97
177 168 100
170 162 89
171 163 91
170 162 93
172 165 95
175 167 98
171 164 94
165 157 87
173 165 95
170 161 90
167 160 84
172 162 89
167 158 81
170 162 89
169 159 87
167 158 84
171 162 90
164 154 79
168 158 83
168 159 89
164 153 81
164 153 79
168 157 83
166 156 78
166 156 79
164 152 76
162 150 77
164 155 81
161 152 70
159 146 73
150 140 65
155 144 65
158 145 71
162 151 73
156 145 62
155 144 65
151 139 64
148 133 56
152 141 57
173 195 0
173 195 0
172 194 0
173 196 0
172 194 0
173 196 0
172 196 0
170 193 0
174 197 0
173 196 0
172 196 0
173 196 0
169 194 0
172 196 0
173 197 0
173 196 0
173 197 0
174 196 0
173 196 0
171 194 0
171 194 0
174 197 0
171 194 0
173 197 0
175 198 0
173 196 0
174 197 0
172 195 0
175 198 0
174 198 0
172 196 0
174 197 0
172 196 0
173 196 0
170 194 0
172 196 0
172 195 0
172 196 0
172 195 0
174 197 0
173 196 0
176 199 0
172 195 0
173 196 0
171 195 0
173 196 0
172 195 0
172 197 0
173 196 0
173 196 0
170 193 0
172 195 0
171 194 0
171 195 0
170 193 0
171 195 0
173 196 0
172 195 0
175 197 0
173 197 0
170 194 0
170 194 0
173 196 0
171 193 0
172 195 0
172 195 0
171 194 0
173 197 0
170 194 0
172 196 0
173 196 0
173 196 0
170 195 0
170 193 0
172 196 0
171 195 0
169 192 0
171 194 0
170 193 0
172 196 0
172 195 0
172 195 0
175 198 0
168 191 0
172 196 0
171 195 0
171 194 0
171 194 0
172 195 0
173 196 0
171 194 0
173 196 0
172 195 0
173 197 0
170 194 0
169 192 0
169 192 0
168 192 0
171 195 0
168 191 0
172 196 0
169 192 0
108 135 144
63 99 173
63 99 169
62 99 169
62 98 170
62 98 168
62 98 171
63 99 173
62 99 169
63 99 174
62 99 171
62 99 173
62 99 176
61 98 172
62 99 176
62 99 177
62 99 176
61 98 174
62 99 177
62 99 176
62 99 175
62 99 179
63 100 175
63 99 175
62 99 176
63 100 177
62 98 175
63 99 175
62 99 180
62 99 180
62 99 175
62 99 176
62 98 176
62 99 180
62 99 177
61 98 175
62 99 178
62 99 179
62 99 179
62 99 177
62 99 179
63 100 179
62 99 176
62 99 180
62 99 175
62 99 177
62 99 179
62 99 179
63 100 180
62 99 179
62 99 181
61 99 180
62 99 181
62 99 178
62 99 177
62 99 180
62 99 181
62 99 178
62 99 179
62 99 179
62 99 180
62 99 178
62 99 179
62 99 179
62 99 179
62 99 179
62 100 181
62 99 178
62 99 177
62 99 178
61 98 180
62 99 180
62 99 176
62 99 180
62 99 180
62 99 180
62 99 179
62 99 181
61 99 180
62 99 177
62 99 181
62 99 176
62 99 176
62 99 179
62 98 175
62 99 179
62 99 179
63 100 180
62 99 178
61 98 179
62 99 180
62 98 175
62 99 178
62 99 177
63 100 179
62 99 179
62 99 179
62 99 179
61 98 175
62 99 176
62 99 179
62 99 180
62 99 181
62 99 178
62 99 176
62 99 178
61 98 176
63 100 179
62 99 175
62 99 177
62 99 175
62 99 179
62 99 176
62 98 173
62 99 179
62 99 176
63 100 179
62 99 179
62 99 175
62 99 174
62 99 173
62 99 177
62 99 177
62 99 177
63 100 179
62 99 174
63 99 180
62 98 175
62 99 171
62 99 175
62 99 173
61 98 176
62 99 174
62 99 172
61 98 174
62 99 170
62 99 173
62 98 173
62 98 173
62 99 172
61 98 172
62 98 170
62 98 171
62 98 173
62 98 169
62 99 174
61 97 168
62 98 168
60 96 168
61 96 163
62 97 168
61 97 163
61 96 166
59 93 155
60 94 154
59 93 152
94 96 87
88 87 54
95 91 61
96 93 62
101 98 66
97 96 65
92 90 60
102 103 71
85 86 61
103 102 69
90 91 63
92 95 66
91 92 65
100 102 73
101 105 78
94 95 68
102 103 72
103 105 71
109 110 78
105 106 71
120 117 80
110 112 79
119 120 83
112 112 72
120 121 85
129 127 83
122 122 77
120 122 83
133 132 86
131 131 88
131 129 86
131 131 88
139 136 89
140 139 93
137 136 91
144 142 93
138 136 90
150 147 93
153 149 94
149 147 92
147 146 92
150 147 93
145 143 91
152 149 96
151 148 90
157 153 94
150 148 93
156 153 96
153 150 92
161 157 99
154 152 91
160 156 92
163 159 97
164 159 97
166 162 101
168 163 98
171 165 104
163 159 97
165 162 101
168 163 97
166 161 101
172 167 104
163 158 90
169 165 97
170 165 102
170 164 96
170 165 98
175 169 104
171 166 98
171 165 103
174 168 102
171 166 97
175 169 101
173 167 99
172 166 97
169 164 98
171 166 94
173 168 98
175 169 100
175 168 98
174 168 100
174 167 100
173 167 99
174 168 100
172 164 95
173 167 97
176 169 99
175 169 98
176 170 99
174 168 101
173 167 95
170 164 90
171 165 91
172 164 90
173 166 98
175 167 94
170 163 91
172 165 93
171 164 97
173 167 99
175 167 98
170 164 92
173 166 98
171 163 94
170 161 92
173 166 96
175 167 96
171 162 92
172 164 93
171 163 90
168 159 85
166 158 82
167 158 86
168 160 82
164 155 76
174 165 92
169 162 86
168 159 86
172 163 90
169 161 90
164 155 79
165 157 84
161 150 80
165 156 79
168 158 81
163 151 82
168 157 81
166 156 76
157 146 73
160 150 73
158 144 73
162 152 73
158 146 70
157 145 67
157 146 70
161 149 76
156 144 72
153 140 63
157 147 70
148 133 58
150 137 58
154 146 53
174 195 0
174 194 0
173 195 0
174 196 0
173 194 0
172 194 0
173 196 0
174 198 0
174 197 0
172 196 0
174 198 0
173 196 0
172 196 0
175 198 0
172 196 0
174 197 0
172 195 0
173 196 0
172 195 0
171 195 0
173 197 0
173 196 0
172 196 0
171 195 0
174 197 0
174 197 0
171 194 0
175 198 0
174 197 0
172 196 0
174 197 0
174 197 0
171 194 0
172 196 0
172 195 0
173 197 0
171 195 0
169 193 0
170 193 0
172 194 0
174 197 0
171 194 0
172 195 0
172 196 0
172 194 0
172 195 0
172 196 0
170 194 0
173 196 0
173 197 0
173 196 0
172 195 0
172 196 0
173 195 0
171 195 0
171 195 0
170 193 0
171 194 0
174 198 0
173 197 0
171 194 0
171 194 0
173 196 0
173 196 0
172 196 0
171 194 0
171 194 0
169 192 0
173 196 0
171 195 0
173 196 0
171 194 0
169 193 0
169 193 0
172 195 0
174 197 0
173 196 0
171 194 0
171 194 0
170 192 0
171 195 0
171 195 0
170 194 0
168 192 0
172 195 0
172 196 0
172 195 0
170 194 0
172 195 0
174 197 0
168 193 0
169 192 0
171 195 0
167 190 0
172 195 0
168 191 0
175 197 0
173 195 0
172 196 0
164 186 0
172 195 0
146 171 92
62 98 166
62 99 168
62 98 169
61 98 166
62 99 171
62 99 172
62 98 170
63 99 172
62 98 170
62 98 169
62 99 172
62 98 169
63 99 173
62 99 178
62 98 174
63 100 178
62 98 173
62 99 173
61 98 170
63 99 175
62 99 178
62 99 176
62 99 176
62 99 177
62 99 175
62 99 173
63 99 175
63 99 177
63 99 177
62 99 178
62 99 177
62 99 175
62 99 175
62 99 178
62 99 176
62 99 180
62 99 178
62 98 175
62 99 178
63 99 179
62 99 178
62 99 179
62 99 180
62 99 175
62 99 177
62 99 178
63 100 181
62 99 177
63 99 179
62 99 177
62 99 179
62 99 177
62 99 178
61 99 179
62 99 177
62 99 180
62 99 177
62 99 179
62 99 176
62 99 179
62 99 179
63 100 179
63 100 179
62 99 179
62 99 180
62 99 179
62 99 179
62 99 178
62 99 178
62 99 181
61 98 176
62 99 177
62 99 180
62 99 178
62 99 180
62 99 178
62 99 180
62 99 178
62 99 177
62 99 181
62 99 175
61 99 179
62 99 179
62 99 178
63 100 180
62 99 178
63 100 179
63 100 178
62 99 180
62 99 180
62 99 180
61 98 175
62 99 178
62 99 179
62 99 176
62 99 179
61 98 175
62 99 175
62 99 178
63 99 179
62 99 177
62 99 176
61 98 176
62 99 176
62 99 176
63 99 179
62 99 175
61 98 176
62 99 174
62 99 178
62 99 173
62 99 177
62 99 179
62 99 179
62 99 175
62 98 174
62 99 176
62 99 172
61 98 171
62 99 171
62 98 172
62 99 176
62 99 176
62 98 173
63 100 175
62 99 173
62 99 177
61 98 172
61 98 170
62 99 172
61 98 170
62 99 173
61 98 170
62 99 178
62 98 176
62 99 174
62 99 172
62 99 174
62 99 170
61 98 172
61 97 168
61 97 171
62 98 170
61 97 170
62 97 169
62 98 174
61 97 165
61 97 169
62 97 171
61 97 165
62 98 169
62 98 167
62 97 163
62 96 169
62 96 166
59 91 148
73 93 130
98 95 60
90 88 57
95 94 61
83 83 57
83 81 54
86 86 62
95 95 66
88 89 62
82 85 62
93 92 64
92 92 65
101 102 68
96 98 68
95 97 67
107 108 75
114 114 79
115 113 77
112 110 73
111 111 77
114 112 74
110 109 75
105 107 74
126 126 84
133 132 89
122 122 85
129 128 86
126 124 77
126 126 84
120 121 80
136 134 89
142 141 89
133 131 85
146 144 94
136 134 83
142 140 91
138 136 86
144 142 92
147 145 92
142 141 92
146 144 89
148 146 90
153 150 91
156 152 95
154 150 91
153 150 93
154 151 94
154 150 93
159 155 99
150 146 93
160 156 95
160 155 94
159 155 94
161 157 99
162 158 95
164 159 96
166 161 99
165 160 99
165 160 92
163 159 92
166 162 99
171 166 100
169 164 99
169 163 96
166 162 97
172 166 97
170 164 99
177 169 101
176 169 99
174 168 97
172 167 101
172 166 99
175 169 105
174 168 101
175 168 101
176 169 101
172 165 96
175 168 100
172 166 98
174 167 99
173 167 94
171 165 95
174 167 95
173 167 97
175 167 97
173 167 96
167 160 87
174 168 100
175 167 97
175 168 96
173 166 94
175 167 98
175 168 95
174 167 96
170 162 91
173 166 94
176 168 95
173 166 92
172 164 94
173 166 95
168 161 88
173 164 91
174 166 93
170 162 88
174 166 95
167 160 85
173 165 95
170 162 92
170 160 90
167 159 87
170 161 93
171 163 90
167 158 84
168 158 89
172 162 87
173 164 92
168 158 87
160 151 75
167 159 88
166 158 85
169 159 85
166 156 83
160 151 79
169 158 87
168 159 84
162 150 74
160 151 71
165 154 80
157 147 73
160 151 76
158 145 72
159 147 77
155 143 69
161 151 75
157 144 68
161 151 75
157 146 66
154 140 63
155 142 66
153 139 56
159 146 66
160 157 44
171 193 0
174 196 0
173 196 0
175 197 0
173 196 0
172 195 0
174 197 0
174 197 0
172 195 0
172 196 0
173 197 0
173 195 0
171 195 0
173 196 0
172 196 0
173 196 0
172 195 0
173 197 0
173 196 0
173 196 0
172 196 0
171 195 0
172 195 0
172 196 0
173 196 0
172 195 0
170 193 0
175 198 0
174 197 0
171 194 0
173 197 0
170 194 0
169 192 0
171 195 0
172 196 0
174 196 0
173 196 0
172 195 0
173 196 0
170 193 0
174 197 0
170 193 0
172 196 0
171 195 0
173 196 0
172 195 0
174 197 0
173 197 0
173 196 0
173 196 0
172 195 0
173 197 0
170 194 0
170 193 0
172 195 0
173 196 0
170 193 0
170 194 0
169 193 0
171 195 0
172 196 0
173 196 0
174 198 0
172 196 0
174 196 0
172 196 0
172 194 0
172 195 0
168 192 0
174 197 0
172 196 0
174 197 0
171 194 0
172 196 0
171 194 0
172 196 0
171 196 0
170 194 0
167 190 0
169 191 0
172 196 0
173 196 0
171 194 0
172 196 0
172 195 0
172 196 0
169 192 0
169 193 0
169 193 0
173 196 0
171 195 0
170 193 0
170 194 0
173 196 0
171 195 0
168 191 0
171 195 0
171 194 0
171 194 0
166 190 0
170 193 0
102 130 140
63 99 171
61 98 163
62 99 171
62 99 173
62 99 174
62 98 170
62 99 171
62 99 172
62 99 171
63 100 179
63 100 174
62 98 170
62 99 174
62 99 174
62 98 171
62 99 174
63 99 175
63 100 178
62 99 177
62 99 175
62 99 176
63 99 175
63 99 175
62 99 179
62 99 179
62 99 175
62 99 179
62 99 178
62 99 178
62 99 178
62 99 178
62 99 177
62 99 174
62 99 177
62 99 178
62 99 178
62 99 173
62 99 177
62 99 179
62 99 180
62 99 177
61 98 179
62 99 177
62 99 180
62 99 179
61 98 176
62 99 179
62 99 178
63 100 179
63 100 178
63 100 180
62 99 174
62 99 179
62 99 173
62 99 175
62 99 179
61 98 175
62 99 178
62 99 179
62 99 177
62 99 180
62 99 176
62 99 179
63 100 181
61 98 175
62 99 179
62 99 178
62 99 176
61 99 178
62 99 178
62 99 180
62 99 177
62 99 177
62 99 178
62 99 177
62 99 179
62 99 180
62 99 179
62 99 176
62 99 179
62 99 176
62 99 179
62 99 178
62 99 178
61 98 175
61 98 175
62 99 178
62 99 177
62 99 177
62 99 176
62 99 176
61 98 176
63 100 180
63 100 180
63 99 176
62 99 175
61 98 178
62 99 179
63 99 178
62 99 175
63 99 178
61 98 172
62 99 179
62 99 178
61 98 176
62 99 177
62 99 177
62 99 178
62 99 177
62 99 177
62 98 174
63 100 176
62 99 174
62 99 177
62 99 177
62 99 175
62 99 175
62 98 171
62 99 176
61 98 173
61 98 172
62 99 172
62 99 174
61 98 172
63 99 176
62 99 178
62 99 172
62 99 176
62 99 174
62 98 170
63 99 174
62 98 170
61 98 173
62 98 173
62 98 171
62 98 167
63 100 175
62 98 171
62 99 167
62 98 171
62 98 169
62 98 171
62 98 172
61 97 169
61 97 168
61 96 164
62 98 170
62 97 167
62 98 167
61 97 170
61 97 165
61 96 169
61 96 164
61 96 165
62 97 165
59 91 150
60 94 161
82 89 99
91 88 59
100 96 59
92 91 59
83 84 58
80 83 60
81 79 52
95 96 68
89 90 64
104 101 67
85 86 62
96 96 67
107 106 73
89 93 70
104 104 70
105 106 75
104 104 69
104 104 71
103 106 74
123 122 78
110 111 76
121 121 83
110 111 77
123 122 76
120 121 82
122 122 82
122 122 80
134 132 87
134 133 85
126 126 83
132 131 86
135 133 85
134 132 88
131 131 83
141 140 89
147 144 90
143 141 91
146 143 93
146 143 91
152 149 96
139 139 89
147 144 92
150 147 88
151 148 92
147 146 90
159 155 93
149 146 93
152 149 91
158 155 95
151 148 91
158 154 95
158 154 93
161 157 97
160 155 94
163 158 94
160 157 94
161 157 88
166 161 95
168 164 102
163 159 93
163 159 93
157 154 92
169 165 103
173 167 101
175 169 103
170 165 100
170 164 93
171 165 99
172 166 104
169 164 97
172 166 96
174 168 100
176 168 97
174 168 98
172 166 97
177 169 100
173 167 98
174 167 98
172 167 97
175 168 104
171 166 95
175 168 96
174 168 98
169 162 91
172 166 95
175 167 94
176 170 101
169 162 86
175 169 99
175 168 96
169 163 91
173 167 97
170 164 89
175 168 94
169 163 93
175 167 96
173 166 93
174 166 99
170 163 91
172 163 94
176 168 97
172 164 91
173 164 93
174 167 96
168 160 88
173 165 91
168 159 88
174 164 93
173 165 92
167 160 86
166 157 83
170 163 90
168 159 80
170 161 86
168 160 89
168 158 83
168 159 83
168 156 85
169 160 85
163 154 79
164 154 80
161 152 72
164 154 75
166 156 81
165 156 83
161 151 66
167 157 82
168 157 82
165 155 80
158 149 69
166 155 78
160 149 72
162 150 75
162 151 79
159 147 71
155 141 71
152 141 64
153 140 64
146 130 56
155 142 62
146 145 38
169 191 0
170 192 0
173 195 0
171 193 0
171 193 0
174 196 0
171 195 0
173 196 0
173 196 0
173 197 0
172 196 0
173 196 0
170 194 0
169 193 0
172 195 0
173 197 0
174 197 0
170 194 0
172 196 0
173 197 0
173 195 0
172 195 0
174 197 0
174 198 0
173 196 0
169 193 0
173 195 0
173 196 0
171 195 0
174 197 0
173 196 0
172 195 0
171 195 0
171 195 0
172 196 0
170 193 0
172 196 0
173 196 0
172 196 0
171 195 0
175 198 0
171 195 0
172 196 0
171 194 0
173 197 0
172 196 0
171 195 0
173 196 0
175 197 0
169 192 0
172 196 0
171 194 0
170 193 0
173 195 0
173 196 0
174 197 0
171 195 0
173 196 0
170 193 0
171 194 0
172 196 0
172 195 0
172 195 0
171 195 0
173 196 0
171 194 0
175 197 0
167 190 0
172 196 0
171 193 0
170 195 0
173 196 0
172 195 0
169 192 0
170 193 0
170 193 0
171 194 0
173 195 0
171 194 0
172 196 0
169 193 0
167 189 0
172 195 0
171 194 0
173 197 0
172 195 0
169 191 0
168 191 0
170 193 0
172 195 0
173 196 0
174 197 0
167 192 0
172 196 0
168 192 0
171 194 0
173 197 0
170 193 0
170 193 0
172 196 0
153 177 74
63 99 168
62 98 168
61 98 165
62 98 171
62 98 165
63 99 173
61 98 162
61 98 169
62 98 172
62 98 169
62 99 165
62 98 171
62 98 172
61 98 174
62 99 176
61 98 174
62 99 173
62 99 172
63 99 172
63 99 176
62 99 176
63 99 176
63 99 174
62 99 176
61 98 175
62 99 176
62 99 176
63 99 176
61 99 177
62 99 175
61 98 172
62 99 179
61 98 177
62 99 175
62 99 179
63 99 177
63 99 178
62 99 177
61 98 176
62 99 179
62 99 176
63 99 180
63 100 178
62 99 178
62 99 180
62 99 178
63 99 178
62 99 179
62 99 176
62 99 179
62 99 179
62 99 180
61 98 180
62 99 179
62 99 180
63 99 180
62 99 179
62 99 180
62 99 179
63 99 179
62 99 179
62 99 180
61 98 178
62 99 178
63 99 178
62 99 179
62 99 178
62 99 178
62 99 179
61 99 178
62 99 179
62 99 177
63 100 179
61 99 178
62 99 179
62 99 177
62 99 179
62 99 178
62 99 179
62 99 179
62 99 178
63 100 179
62 99 178
62 99 180
62 99 178
61 98 176
62 99 177
62 99 178
62 99 178
62 99 175
61 98 175
61 98 174
62 99 177
62 99 178
62 99 176
62 99 178
62 99 176
62 99 181
61 98 174
63 100 179
62 99 177
62 99 176
62 99 179
62 99 178
62 99 177
62 99 175
61 99 178
62 98 173
62 99 180
62 99 176
62 99 175
62 99 175
62 99 176
62 99 175
62 99 174
62 99 175
62 99 174
62 99 173
62 99 173
63 99 178
62 99 175
63 99 173
62 98 172
62 99 175
63 100 178
62 99 176
62 99 173
62 99 177
63 99 174
63 99 172
62 99 177
62 99 179
61 98 170
62 99 171
62 99 172
61 98 167
61 98 171
62 99 178
62 99 171
61 98 170
62 98 170
61 97 168
62 98 170
62 98 170
61 98 168
62 97 167
62 98 169
62 99 173
61 97 165
61 97 166
62 98 168
62 97 166
61 96 162
62 97 167
60 96 165
60 95 161
60 94 158
59 93 160
59 87 138
84 83 57
82 80 53
82 81 54
88 86 53
77 78 56
83 82 56
81 82 56
89 90 66
94 91 61
82 84 58
86 89 64
90 91 64
104 105 73
100 100 68
106 108 76
113 113 77
97 98 68
114 113 79
100 102 70
98 100 71
102 104 71
111 112 78
120 119 77
114 116 81
131 130 84
123 123 80
135 134 89
125 126 84
131 130 83
130 128 81
132 132 84
127 127 82
128 127 82
136 134 81
141 140 92
145 142 86
141 139 89
138 137 87
147 145 90
147 144 85
150 147 92
147 144 86
147 146 95
151 148 90
157 153 94
152 149 88
152 150 89
156 153 94
158 155 97
162 158 97
162 157 95
152 149 89
161 157 98
165 160 95
165 160 96
163 159 96
160 157 91
169 164 103
166 160 97
167 162 95
169 164 98
169 164 96
167 162 96
170 164 99
173 167 102
175 168 96
168 163 93
169 165 99
167 161 93
174 168 100
176 169 100
170 164 92
174 167 98
172 167 98
175 168 100
175 169 102
173 167 95
173 167 95
175 168 97
170 164 95
173 166 95
175 169 99
172 166 94
175 168 97
173 166 96
175 167 95
176 169 100
175 168 95
174 167 96
175 168 97
175 167 93
174 166 93
173 166 91
173 165 92
173 166 90
174 166 91
171 163 90
173 164 92
169 161 82
172 165 97
172 165 94
172 164 91
175 166 95
170 161 85
168 160 84
171 164 86
171 163 89
172 163 89
171 162 85
171 162 84
167 158 80
171 161 87
172 162 89
167 158 82
164 155 78
164 156 79
169 159 82
167 155 84
162 153 77
159 149 69
165 155 74
164 154 84
164 154 80
161 152 76
161 150 71
160 150 68
162 151 79
159 147 70
158 150 67
153 142 64
163 152 73
156 143 68
150 139 63
155 143 63
151 138 58
153 139 59
153 141 66
146 132 65
147 132 58
162 165 44
172 193 0
172 194 0
174 197 0
174 196 0
174 197 0
170 192 0
174 197 0
171 194 0
173 197 0
169 193 0
170 194 0
172 196 0
173 196 0
173 197 0
174 197 0
173 196 0
173 196 0
171 195 0
173 197 0
173 197 0
173 196 0
172 196 0
174 197 0
171 195 0
173 196 0
170 194 0
172 195 0
171 194 0
173 196 0
173 196 0
172 196 0
172 196 0
173 196 0
172 196 0
170 194 0
170 194 0
171 195 0
171 195 0
171 195 0
172 195 0
174 197 0
171 194 0
174 198 0
173 196 0
174 198 0
174 197 0
172 196 0
174 197 0
172 196 0
172 196 0
173 195 0
172 195 0
172 196 0
174 196 0
172 195 0
172 196 0
168 192 0
173 195 0
170 193 0
170 193 0
171 195 0
172 196 0
171 195 0
172 196 0
173 196 0
172 196 0
172 195 0
174 197 0
171 193 0
170 194 0
169 193 0
174 197 0
173 196 0
170 194 0
168 192 0
171 195 0
173 195 0
170 193 0
169 192 0
170 193 0
166 190 0
173 197 0
171 195 0
172 195 0
172 195 0
172 196 0
173 196 0
173 196 0
170 193 0
173 196 0
172 195 0
169 193 0
169 192 0
171 194 0
171 193 0
172 196 0
172 195 0
170 193 0
169 193 0
168 191 18
90 120 143
62 98 165
62 98 164
62 99 165
62 99 172
62 98 170
62 99 170
62 99 172
62 99 171
63 100 175
62 98 166
62 98 173
63 99 171
62 98 170
61 98 167
62 98 172
62 99 174
63 99 176
62 99 173
61 98 168
63 99 177
63 99 174
62 99 172
62 99 173
62 99 175
62 99 175
61 98 174
63 100 179
62 99 177
63 100 180
62 99 177
62 98 173
61 98 174
62 99 179
62 99 177
62 99 178
61 98 173
63 100 179
62 98 172
62 99 180
62 99 176
62 99 174
62 99 178
62 99 178
62 99 179
62 99 178
61 99 178
62 99 177
62 99 178
62 99 181
61 98 177
62 99 179
63 99 178
61 98 176
63 99 176
62 99 181
62 99 180
62 99 179
62 99 179
62 99 177
62 99 180
62 99 178
62 99 177
62 99 179
62 99 178
63 99 178
62 99 179
62 99 178
62 99 179
62 99 179
61 98 175
62 99 175
62 99 177
62 99 178
62 99 178
62 99 177
62 99 180
61 99 178
62 99 177
62 99 179
62 99 178
62 99 177
62 99 176
62 100 181
62 99 178
62 99 177
62 99 178
63 99 177
63 100 178
62 99 180
62 99 178
62 99 179
62 99 180
62 99 177
62 99 177
62 99 178
62 99 180
62 99 175
61 98 178
62 99 176
62 99 178
62 99 180
61 99 177
62 99 179
62 98 172
63 99 176
62 99 176
62 99 175
62 99 178
62 99 176
61 99 178
62 99 176
62 99 177
62 99 177
62 99 174
62 99 180
62 99 179
62 99 174
63 100 177
62 99 173
62 99 175
62 99 175
62 99 172
63 99 176
62 99 174
62 99 175
62 99 175
63 99 176
62 99 173
61 98 170
62 99 178
63 99 174
62 98 174
61 98 172
62 99 174
61 97 166
62 99 171
62 98 170
63 99 178
62 98 171
62 99 174
62 98 168
62 98 171
62 99 170
62 98 173
62 99 175
61 97 167
61 97 165
62 97 164
62 97 166
61 97 167
61 97 165
62 98 168
61 96 162
61 96 163
61 96 163
61 96 163
61 95 162
57 89 142
60 94 152
63 80 113
75 76 53
67 66 45
82 81 56
87 85 59
76 74 50
78 80 58
88 90 63
76 78 57
89 91 64
94 94 63
89 90 61
82 84 60
100 103 73
98 100 70
98 100 70
100 102 74
104 105 72
116 116 76
125 124 84
111 110 72
121 120 76
114 113 75
109 111 76
127 126 83
128 127 81
130 130 85
125 125 79
129 129 82
127 127 80
130 130 83
125 125 84
137 136 89
145 142 89
141 138 83
144 143 88
139 137 86
148 145 92
148 145 90
150 146 88
149 146 87
152 148 92
152 149 93
154 150 94
149 147 92
162 157 100
153 150 90
150 147 82
162 157 90
164 159 97
162 158 94
165 160 97
162 158 93
157 153 92
160 155 97
164 159 93
174 167 99
168 162 99
167 162 97
165 161 96
171 166 98
169 164 99
169 163 99
165 161 93
175 168 100
170 164 95
171 165 95
165 160 97
170 165 99
172 165 95
173 166 96
172 165 96
173 167 96
175 169 100
170 165 96
171 166 97
178 171 101
171 165 94
174 167 99
174 167 96
172 166 94
171 164 92
173 166 98
175 169 100
173 166 95
172 166 95
176 168 96
170 164 91
166 161 88
178 170 101
173 164 94
173 166 92
173 166 93
172 165 90
170 162 91
171 164 93
173 166 93
170 163 93
172 163 92
169 160 88
178 169 94
173 166 93
171 163 92
170 162 82
171 162 87
168 161 92
170 163 86
170 162 88
170 161 88
168 159 88
170 161 86
170 161 87
167 157 81
168 160 84
167 159 83
169 160 85
171 162 84
169 160 82
170 159 87
159 149 73
163 154 76
161 150 75
164 154 75
164 154 79
159 148 71
166 154 77
160 151 67
164 154 76
164 154 72
161 152 74
159 146 66
157 147 66
156 145 66
159 147 67
157 144 73
155 144 65
154 142 63
145 131 54
146 132 58
165 173 29
173 197 0
172 195 0
173 196 0
173 194 0
171 193 0
172 194 0
172 195 0
172 196 0
173 196 0
172 195 0
173 196 0
171 195 0
170 194 0
173 196 0
173 197 0
172 195 0
172 196 0
169 194 0
173 196 0
174 197 0
170 193 0
173 196 0
172 196 0
172 196 0
172 194 0
171 195 0
171 194 0
174 197 0
175 198 0
172 195 0
173 196 0
170 194 0
172 195 0
171 194 0
173 195 0
170 194 0
173 196 0
168 191 0
174 197 0
173 196 0
171 195 0
172 195 0
171 193 0
172 196 0
171 194 0
173 196 0
170 194 0
172 196 0
173 197 0
168 191 0
172 195 0
170 194 0
171 193 0
171 194 0
172 196 0
171 195 0
174 198 0
173 196 0
169 193 0
170 194 0
172 195 0
172 195 0
170 193 0
172 195 0
172 195 0
172 195 0
173 195 0
170 194 0
170 194 0
173 195 0
171 195 0
173 196 0
172 195 0
174 196 0
171 194 0
165 188 0
172 195 0
170 193 0
171 195 0
168 192 0
171 195 0
170 193 0
169 192 0
173 196 0
169 193 0
173 196 0
169 192 0
172 195 0
172 195 0
171 195 0
170 194 0
168 193 0
170 193 0
171 195 0
172 194 0
171 194 0
171 194 0
170 195 0
170 194 0
146 171 90
62 99 167
61 98 161
62 98 165
62 99 169
61 98 166
62 99 171
63 99 172
62 98 169
62 99 175
61 98 167
62 99 170
62 99 175
61 98 171
62 99 172
62 99 171
62 99 173
62 99 175
62 99 174
63 99 178
62 99 173
62 99 178
62 99 175
62 98 170
61 98 169
63 99 172
62 98 170
62 99 177
63 100 178
62 99 173
63 99 177
62 99 177
63 100 179
62 99 176
62 99 175
62 99 177
63 100 177
62 98 171
62 99 177
62 99 180
62 99 179
62 99 178
62 99 175
62 98 175
62 99 175
61 99 179
62 99 176
62 99 179
62 99 179
62 99 179
62 99 180
62 99 177
62 99 179
62 99 177
62 99 179
63 100 180
62 99 177
62 99 176
62 99 177
62 99 178
62 99 179
62 99 178
62 99 176
62 99 174
62 99 177
62 99 179
61 98 177
62 99 181
63 100 181
62 99 178
62 99 177
63 99 176
62 99 179
62 99 181
62 99 177
62 99 178
62 98 173
62 99 178
62 99 174
62 99 177
62 98 174
62 99 177
61 99 178
61 98 176
62 99 178
62 99 178
63 99 176
61 98 174
62 99 179
62 99 179
62 99 178
62 99 178
62 99 177
61 99 177
62 99 176
61 98 176
62 99 177
62 99 177
62 99 178
62 99 176
62 99 178
63 100 181
63 100 180
62 99 178
63 100 178
62 99 178
62 99 178
62 99 179
62 99 177
62 99 176
62 99 178
62 99 179
62 99 173
63 99 175
62 99 178
62 99 180
63 100 178
62 99 175
62 99 177
62 99 174
62 99 177
62 99 175
62 99 176
62 98 172
62 99 178
62 99 172
62 99 174
62 99 172
63 100 177
62 99 174
62 99 173
62 99 177
62 99 170
62 99 174
62 99 172
62 99 174
62 98 165
62 98 167
63 99 174
61 98 170
63 99 174
62 98 172
62 98 172
62 98 170
61 97 165
62 99 174
62 98 169
62 98 171
61 97 164
62 97 166
62 98 169
62 97 168
62 97 168
62 98 168
62 98 171
60 96 166
61 97 168
62 97 168
61 95 160
60 94 157
58 90 148
59 91 152
82 81 57
76 76 51
84 82 57
80 82 57
66 68 49
77 78 57
80 81 57
88 86 55
88 86 56
83 83 57
94 96 66
89 92 68
95 95 67
94 98 68
90 93 64
106 107 73
100 101 66
110 109 71
118 116 77
109 110 72
112 113 75
107 109 72
121 119 71
121 121 80
122 122 83
116 116 76
123 124 85
134 133 87
130 129 80
126 126 82
131 130 83
138 136 87
136 134 84
141 139 86
139 137 86
136 135 86
140 139 90
146 143 90
145 143 86
143 142 88
157 152 94
153 149 91
148 145 88
150 148 86
152 149 92
153 150 88
153 150 89
156 152 93
156 153 91
159 155 96
158 154 94
154 150 90
158 154 92
163 158 95
165 160 95
164 159 97
165 160 98
169 164 94
161 157 93
167 163 93
163 158 92
159 156 88
165 160 93
170 164 93
170 164 97
169 163 95
169 163 94
167 162 99
175 168 98
170 164 95
168 162 94
171 164 95
170 164 93
167 162 93
177 170 100
176 168 96
171 166 96
171 165 91
170 164 93
172 165 94
170 165 94
171 164 90
173 167 96
175 168 94
175 167 97
173 166 90
168 161 87
170 163 89
173 166 94
176 168 96
170 162 94
169 163 88
171 163 88
171 163 95
171 165 91
174 166 93
177 169 101
169 162 84
173 165 93
172 164 92
171 162 87
169 161 87
168 160 85
169 161 88
169 160 83
171 164 91
168 161 88
173 165 91
172 163 93
171 163 92
169 161 85
170 161 82
169 161 85
165 156 77
170 161 91
163 154 82
167 158 82
164 156 80
161 150 74
162 152 78
165 155 76
161 152 71
162 152 75
160 149 74
167 158 77
159 150 68
162 151 77
163 149 71
162 150 75
158 147 70
151 139 66
163 150 76
155 143 61
154 141 66
153 139 61
149 136 56
159 148 68
144 130 48
166 180 20
171 194 0
170 193 0
171 192 0
175 197 0
173 195 0
171 194 0
174 197 0
172 196 0
172 196 0
172 195 0
174 197 0
174 197 0
174 197 0
173 196 0
171 195 0
172 196 0
173 197 0
173 196 0
174 197 0
174 196 0
171 195 0
172 196 0
175 198 0
170 195 0
172 195 0
171 194 0
172 196 0
172 196 0
172 195 0
172 196 0
173 196 0
174 197 0
172 195 0
172 196 0
172 195 0
172 196 0
174 196 0
174 197 0
171 195 0
173 196 0
170 194 0
171 195 0
171 194 0
171 194 0
172 195 0
172 195 0
173 196 0
172 196 0
173 196 0
175 198 0
170 193 0
172 195 0
169 193 0
171 195 0
171 195 0
171 195 0
167 191 0
169 192 0
171 194 0
173 196 0
173 196 0
172 195 0
174 197 0
169 193 0
172 195 0
174 197 0
174 196 0
170 194 0
171 194 0
170 193 0
173 196 0
172 195 0
171 194 0
172 196 0
170 194 0
170 192 0
170 194 0
172 195 0
172 194 0
163 185 0
174 196 0
172 196 0
171 195 0
173 196 0
174 197 0
172 195 0
172 195 0
169 192 0
173 195 0
173 196 0
173 196 0
171 194 0
175 197 0
174 197 0
170 192 0
172 195 0
170 193 0
171 194 0
169 193 18
89 120 150
61 97 158
62 99 167
62 99 165
62 98 166
62 99 173
62 99 173
62 98 160
63 99 168
63 99 169
62 99 173
62 99 170
62 98 169
62 99 174
61 98 173
62 99 174
61 98 174
62 99 173
62 99 173
62 99 172
62 99 179
62 99 177
63 99 177
62 99 175
62 99 173
62 99 174
62 99 178
63 99 177
62 99 173
63 99 175
62 99 176
63 100 178
62 99 172
62 98 173
62 99 180
62 99 179
62 99 175
62 99 179
62 99 178
62 99 178
62 99 177
62 99 177
62 99 174
63 99 177
62 99 172
61 99 178
61 98 178
62 99 178
63 100 180
62 99 180
62 99 178
62 99 175
62 99 178
62 99 174
62 99 180
62 99 177
62 99 177
62 99 177
62 99 179
62 99 178
63 100 179
62 99 178
62 99 178
62 99 177
62 99 177
62 99 179
62 99 180
61 98 177
62 99 179
62 99 176
62 99 179
63 100 180
63 100 180
62 99 180
63 100 179
62 99 176
63 99 179
62 99 176
62 99 177
62 99 179
62 99 177
62 99 177
62 99 177
62 99 178
62 99 177
62 99 179
62 99 179
62 99 177
63 99 177
63 100 177
62 99 177
62 99 175
62 98 174
62 99 179
62 99 178
62 99 176
62 99 176
62 99 180
62 99 177
61 98 176
63 99 176
62 99 177
62 99 176
62 99 177
61 98 176
62 99 177
62 98 170
63 99 172
61 98 175
62 99 176
62 99 178
62 99 176
62 99 177
62 99 174
62 99 172
62 99 174
62 99 176
61 98 173
63 99 174
62 99 176
62 99 174
61 98 173
62 98 168
62 99 177
63 99 177
62 99 173
62 99 178
62 98 172
62 99 175
62 99 179
62 99 173
61 98 170
62 99 171
63 100 177
62 99 171
62 99 173
61 98 169
62 99 173
62 98 168
62 98 170
62 98 172
62 99 178
62 99 172
62 98 168
62 98 167
62 98 171
61 98 166
62 99 172
62 98 173
62 98 164
62 97 165
62 98 166
62 97 162
62 97 163
61 97 161
61 97 167
60 95 156
60 95 158
61 94 157
61 96 168
60 94 153
59 93 158
76 84 97
83 81 53
81 80 55
72 72 49
89 89 61
71 73 53
84 81 54
85 87 61
90 91 62
93 94 65
94 95 66
78 82 59
93 95 67
99 99 66
89 92 66
96 97 67
100 102 71
110 111 75
108 110 75
118 116 74
104 106 69
116 115 76
108 110 74
127 126 81
115 116 72
115 115 77
101 104 67
123 123 79
127 126 78
128 128 80
134 133 87
131 129 76
137 136 86
137 136 88
150 146 93
146 144 91
147 144 85
136 134 84
143 140 85
150 147 89
143 141 85
144 143 91
147 146 90
147 144 89
152 149 88
154 151 90
149 146 92
157 152 91
149 145 88
159 155 94
163 158 99
167 161 95
163 158 96
158 154 89
164 160 95
166 161 94
164 159 92
169 164 96
165 160 97
168 162 95
162 157 87
166 162 96
172 165 97
171 164 92
165 160 91
168 162 90
172 166 98
166 160 95
174 168 99
170 164 96
169 164 94
173 167 98
167 160 92
171 165 95
168 162 90
175 169 99
170 163 93
173 166 95
172 166 94
169 163 91
171 165 91
175 169 98
174 167 93
171 164 90
173 167 93
174 167 94
173 165 92
171 165 90
172 165 94
172 166 91
172 163 90
170 162 89
169 162 84
171 163 85
168 160 86
172 163 90
171 164 91
173 164 91
173 165 91
169 162 89
173 166 88
171 163 89
175 167 94
167 158 82
170 162 84
173 164 91
166 158 81
163 156 80
170 161 85
172 163 84
170 161 90
163 154 83
169 160 84
164 155 82
168 160 81
162 152 73
168 159 86
164 155 80
157 148 71
162 151 79
165 155 71
156 146 69
167 155 81
163 151 78
161 151 73
160 150 73
159 147 70
162 151 72
164 154 71
160 151 73
150 137 60
156 141 70
153 143 60
155 143 73
154 142 61
151 139 57
147 134 55
148 135 53
170 190 1
172 194 0
172 194 0
171 193 0
173 194 0
174 195 0
172 195 0
171 194 0
173 196 0
172 195 0
173 196 0
173 196 0
176 199 0
170 194 0
173 196 0
171 195 0
173 197 0
170 193 0
173 196 0
176 198 0
173 196 0
171 195 0
174 197 0
173 196 0
173 197 0
175 197 0
172 196 0
172 195 0
174 197 0
170 193 0
171 195 0
172 195 0
172 195 0
174 197 0
173 196 0
175 198 0
170 194 0
172 195 0
169 192 0
173 196 0
174 197 0
169 192 0
171 194 0
174 197 0
173 196 0
170 194 0
171 194 0
169 192 0
173 196 0
174 197 0
172 196 0
173 197 0
171 195 0
173 197 0
173 197 0
171 195 0
172 195 0
173 196 0
173 196 0
173 197 0
169 192 0
174 197 0
173 196 0
170 194 0
170 192 0
172 196 0
171 194 0
170 192 0
170 193 0
173 196 0
171 194 0
171 194 0
170 193 0
172 195 0
171 194 0
173 196 0
172 196 0
174 197 0
173 196 0
171 193 0
170 193 0
174 197 0
173 197 0
172 195 0
171 195 0
170 194 0
172 194 0
171 195 0
172 196 0
167 190 0
171 194 0
174 197 0
170 194 0
174 197 0
170 194 0
173 195 0
170 193 0
170 193 0
171 194 0
138 163 102
62 98 161
62 98 165
61 98 166
61 97 164
62 99 170
62 98 168
63 99 166
63 99 173
62 99 169
63 99 174
62 98 168
62 98 166
62 98 167
62 98 173
62 99 172
62 99 174
63 99 171
63 100 172
62 99 174
63 99 176
63 100 178
61 98 172
62 99 174
62 99 171
62 99 172
62 99 174
63 99 176
61 99 177
62 99 177
62 99 178
63 99 177
62 99 179
62 99 178
62 99 174
62 99 174
63 99 178
63 99 180
61 98 171
62 99 177
62 99 177
62 99 177
61 98 178
62 99 175
63 100 179
63 100 179
62 99 176
62 99 175
63 100 178
63 100 179
62 99 177
62 99 176
63 100 178
62 99 176
62 99 177
63 99 177
62 99 179
62 99 180
62 99 177
62 99 175
62 99 179
62 99 176
62 99 178
62 99 179
62 99 177
62 99 178
61 98 176
63 99 179
63 99 176
62 99 175
62 99 176
62 99 177
62 99 176
62 99 177
62 99 179
62 99 177
61 98 173
62 99 181
62 99 180
62 99 178
62 99 175
63 100 176
62 99 178
62 99 176
62 99 176
62 99 174
62 99 177
62 99 176
62 99 177
62 99 178
63 99 178
62 99 178
63 99 176
62 99 177
61 98 175
62 99 178
62 99 175
62 98 173
62 99 176
62 99 176
63 99 175
62 99 177
61 98 175
62 99 180
61 98 176
62 99 176
61 98 172
62 99 176
62 99 178
63 99 175
62 99 175
62 99 177
63 99 178
63 100 180
62 99 177
62 99 178
62 98 173
61 98 170
63 99 174
63 99 176
62 99 175
62 99 175
63 99 172
62 98 170
62 98 174
62 99 177
62 99 175
62 99 174
62 99 172
63 99 173
62 99 173
63 99 173
62 99 174
62 99 173
62 98 174
62 98 170
63 99 173
62 99 169
62 98 171
62 98 172
63 99 178
63 99 174
62 98 169
62 98 171
61 98 168
61 97 169
62 99 171
61 98 166
62 98 168
62 98 170
62 98 167
62 98 166
62 98 170
61 97 161
62 98 170
62 98 171
61 96 155
61 97 166
61 96 164
60 95 162
61 95 157
61 96 164
60 93 155
69 93 139
75 72 46
72 71 48
76 78 55
87 85 56
78 76 47
65 69 53
75 76 53
78 79 52
94 92 59
94 96 65
86 86 58
96 95 63
94 92 64
104 104 70
96 97 67
103 104 70
106 106 72
107 108 69
104 105 70
108 109 73
103 104 73
107 107 71
118 119 76
113 113 71
124 124 79
114 115 76
129 127 83
118 118 76
125 125 81
126 125 80
139 136 84
137 136 78
141 139 87
133 133 84
138 135 83
140 137 84
146 144 87
143 142 88
147 143 87
134 133 80
145 143 89
150 146 86
151 148 89
155 151 89
155 152 92
149 146 86
157 153 96
157 154 93
159 155 94
158 154 92
161 156 91
158 153 93
164 161 96
163 158 89
163 159 93
166 160 93
168 162 95
164 160 94
165 160 93
166 160 95
169 162 94
169 164 95
173 166 100
171 165 95
171 165 94
170 164 94
174 167 96
169 163 91
170 164 92
165 160 90
169 163 91
171 164 95
169 163 96
172 165 95
175 168 98
174 167 96
173 166 91
170 164 91
173 166 97
174 166 91
174 167 94
174 166 92
171 165 91
172 165 89
172 165 90
170 162 92
167 161 84
175 166 90
175 167 93
173 164 91
173 166 91
173 165 94
174 165 95
173 163 95
169 162 87
173 164 92
167 159 87
174 166 95
172 166 93
171 162 85
169 161 89
171 163 90
167 159 85
168 161 83
166 157 83
164 155 80
171 162 83
166 157 82
165 158 83
167 158 79
167 156 77
165 156 77
171 161 86
170 161 87
160 150 71
169 159 84
163 153 75
161 152 73
162 153 75
167 158 81
159 150 70
163 152 78
164 155 77
158 146 69
160 148 70
160 148 65
159 149 71
160 151 72
156 144 69
157 145 64
153 141 65
155 146 63
154 144 61
146 132 59
155 142 61
139 121 45
147 137 47
172 194 0
172 194 0
172 193 0
172 193 0
171 194 0
172 197 0
173 196 0
172 196 0
169 191 0
172 195 0
171 194 0
172 194 0
173 196 0
173 197 0
172 196 0
173 197 0
172 196 0
171 194 0
171 194 0
173 196 0
168 192 0
174 197 0
172 195 0
172 195 0
173 197 0
171 195 0
174 197 0
173 196 0
172 196 0
172 196 0
172 196 0
171 195 0
173 197 0
173 197 0
170 194 0
172 196 0
174 198 0
172 195 0
173 196 0
171 194 0
172 195 0
170 194 0
173 196 0
171 193 0
172 196 0
171 194 0
173 196 0
173 197 0
169 192 0
171 195 0
170 195 0
175 197 0
172 194 0
174 197 0
171 195 0
172 195 0
171 194 0
171 195 0
174 198 0
171 195 0
171 195 0
169 193 0
173 196 0
173 196 0
172 195 0
170 193 0
171 195 0
171 194 0
173 196 0
171 195 0
173 196 0
173 196 0
169 191 0
172 195 0
168 192 0
172 195 0
171 194 0
169 193 0
169 192 0
172 195 0
172 194 0
171 195 0
172 195 0
173 196 0
171 194 0
172 195 0
170 193 0
171 194 0
171 193 0
169 192 0
170 193 0
168 190 0
169 192 0
168 191 0
170 194 0
169 192 0
171 195 0
167 190 0
167 190 0
93 122 152
63 99 164
62 98 163
61 97 164
63 99 168
61 97 164
62 99 173
63 99 169
62 99 168
63 99 174
62 99 169
63 99 169
62 99 173
63 100 177
61 98 172
61 98 176
63 100 180
62 99 174
62 98 174
62 99 175
62 99 175
63 100 175
62 99 176
62 99 173
62 99 175
62 99 173
62 99 172
62 99 173
62 99 174
62 98 171
62 99 174
62 99 177
63 99 178
62 99 175
62 99 177
63 99 177
62 99 176
63 100 178
62 99 178
62 99 178
62 99 178
62 99 178
63 100 181
62 99 172
62 99 178
62 99 177
63 99 176
62 99 175
61 98 176
62 99 178
62 99 180
62 99 176
62 99 176
62 99 173
62 99 174
62 99 177
62 99 176
62 99 178
62 99 178
62 99 177
61 98 177
63 100 180
63 99 177
63 99 178
62 99 177
63 99 178
62 99 177
62 99 179
62 99 177
62 99 180
63 100 180
61 98 176
62 99 177
62 99 177
62 99 178
62 99 176
62 99 177
62 99 178
61 98 174
63 99 178
62 99 178
62 99 173
62 98 174
61 98 177
62 98 172
62 99 176
62 99 179
62 99 175
62 99 175
63 99 176
63 100 179
62 99 177
62 99 180
62 99 180
62 99 176
62 99 173
62 99 178
62 99 174
62 99 176
62 99 178
62 99 177
62 99 175
61 98 172
62 99 175
62 99 177
62 99 178
62 99 173
62 99 177
62 99 177
62 99 175
63 99 174
62 99 175
62 99 180
62 98 171
62 98 169
62 99 177
63 99 179
62 99 172
63 99 174
62 99 174
63 99 172
61 98 172
63 100 178
62 98 169
63 99 176
62 98 172
62 99 174
63 100 172
63 99 174
62 98 172
62 99 171
62 98 172
62 99 174
62 99 174
62 99 176
62 98 173
62 99 173
61 98 174
62 99 173
62 98 171
62 99 175
62 99 172
63 99 171
62 98 171
61 98 168
61 97 165
62 99 175
62 98 172
61 97 167
63 99 175
62 98 166
61 97 169
62 98 172
62 98 169
62 98 168
61 96 169
61 97 165
61 96 161
61 97 164
61 95 161
60 95 160
61 96 160
62 96 162
60 94 154
64 75 98
65 64 44
71 68 42
69 69 48
63 68 52
81 82 55
80 81 54
85 86 58
87 90 60
89 89 61
77 78 56
91 91 63
93 95 67
93 94 66
104 104 69
86 90 64
97 99 68
107 107 69
116 116 75
114 116 79
110 112 76
113 114 73
119 118 77
117 116 76
112 114 70
124 124 81
115 115 73
126 126 74
126 126 80
135 132 85
145 142 89
133 132 82
136 136 81
137 136 83
144 142 88
138 137 81
144 141 90
143 141 85
149 146 88
153 150 89
153 149 92
147 144 92
147 143 84
149 146 89
147 145 87
151 149 90
155 152 92
154 150 90
156 153 93
163 158 88
157 153 91
155 151 83
168 162 96
159 154 88
164 159 101
160 156 93
167 162 93
164 159 88
170 164 98
162 158 95
160 156 84
166 161 97
164 159 93
168 162 94
175 168 98
172 166 96
169 163 92
170 163 88
174 167 97
170 164 86
173 166 96
173 165 96
172 165 95
176 168 93
173 167 93
169 163 85
173 167 95
171 163 91
174 167 96
174 167 95
172 166 96
172 166 92
171 164 94
171 164 91
170 162 85
168 161 82
171 164 90
173 165 90
173 166 93
170 164 92
170 162 87
173 165 95
169 164 90
171 162 88
170 162 86
167 159 84
172 164 88
171 164 90
175 167 93
167 160 83
171 163 87
170 163 90
172 164 87
172 165 90
169 160 85
170 162 86
169 160 85
170 162 86
162 154 77
164 156 82
164 155 75
167 157 81
164 157 77
167 159 81
166 158 84
165 157 80
163 153 77
166 156 79
167 157 80
166 156 76
163 153 72
165 155 73
157 147 69
159 148 73
160 149 67
155 143 68
165 155 74
152 141 61
157 147 61
157 147 63
152 141 65
151 140 60
152 141 59
153 139 64
146 134 43
156 142 66
158 157 46
174 195 0
170 191 0
173 195 0
172 193 0
172 195 0
173 196 0
174 196 0
172 195 0
173 196 0
171 194 0
172 196 0
170 194 0
171 194 0
171 195 0
173 195 0
174 197 0
172 197 0
168 193 0
172 196 0
172 196 0
171 195 0
171 195 0
172 195 0
172 196 0
172 195 0
172 196 0
173 196 0
172 196 0
171 195 0
173 197 0
174 197 0
172 196 0
173 196 0
172 195 0
173 196 0
171 194 0
171 194 0
172 196 0
172 195 0
175 198 0
172 194 0
173 196 0
173 197 0
171 195 0
175 198 0
173 196 0
172 195 0
169 192 0
172 196 0
173 196 0
170 194 0
171 195 0
173 196 0
171 194 0
169 193 0
171 194 0
173 196 0
168 192 0
173 196 0
171 194 0
172 195 0
167 191 0
170 193 0
167 191 0
172 195 0
174 196 0
171 194 0
170 193 0
170 194 0
172 194 0
171 194 0
170 194 0
168 191 0
171 195 0
170 193 0
164 187 0
173 197 0
170 193 0
171 195 0
173 196 0
171 194 0
172 196 0
173 196 0
171 194 0
170 193 0
168 191 0
168 192 0
171 195 0
169 192 0
170 193 0
168 192 0
170 194 0
173 196 0
169 193 0
171 194 0
169 191 0
173 196 0
173 197 0
154 178 62
62 99 166
62 99 166
62 98 163
62 98 165
63 99 170
62 98 164
63 99 171
62 98 167
61 98 162
62 99 169
62 99 168
62 99 170
63 99 174
63 99 172
62 99 172
62 98 170
62 99 171
62 99 173
62 98 173
62 99 174
62 99 175
62 99 172
62 99 173
62 99 174
62 99 178
63 99 175
62 99 178
61 98 175
63 99 178
62 99 177
62 99 176
62 99 174
63 99 176
63 100 178
62 99 177
62 99 179
62 98 175
62 99 179
63 99 176
62 99 177
63 100 180
62 99 177
61 98 174
62 99 177
62 99 173
62 99 174
62 99 173
61 98 174
62 99 179
62 99 179
62 99 176
62 99 178
62 99 177
62 99 176
62 99 174
62 99 173
63 100 180
62 99 175
62 99 177
62 99 177
63 100 179
62 99 177
62 99 178
62 99 178
63 99 176
62 99 180
62 99 174
62 99 179
62 99 178
62 99 179
62 99 178
62 99 175
61 99 177
62 99 176
62 99 177
62 99 175
63 100 181
62 99 178
62 99 181
62 99 180
62 99 175
62 99 176
62 99 177
62 99 177
63 100 180
62 99 175
62 99 178
62 99 179
61 98 173
62 99 174
62 99 176
63 99 175
62 99 176
62 99 178
62 99 176
62 99 173
62 98 174
62 99 176
62 99 179
62 98 171
62 99 179
62 99 176
62 99 171
61 98 172
62 99 175
62 99 177
62 99 179
62 99 177
62 99 172
62 99 178
61 98 175
62 99 177
63 99 173
62 99 175
62 99 170
63 99 178
63 99 178
63 99 176
62 99 178
62 99 175
63 99 176
62 99 177
62 98 174
62 99 176
62 98 171
62 99 177
63 99 175
63 99 175
62 99 178
62 98 172
62 99 173
63 100 175
62 99 172
62 99 170
62 99 176
63 99 173
62 98 169
62 98 165
62 99 172
63 99 173
62 99 172
62 98 169
62 98 168
61 97 174
61 98 170
62 98 170
62 98 167
61 97 168
62 99 174
61 98 166
62 98 166
62 98 166
61 97 163
61 97 162
61 97 169
62 97 168
61 96 163
61 96 159
61 96 160
60 94 152
62 97 165
61 95 163
60 93 155
60 94 150
60 87 136
69 72 50
65 66 43
67 68 47
71 73 54
81 81 54
74 74 50
70 73 53
78 78 52
87 87 56
83 84 56
88 88 58
85 85 59
78 82 56
88 88 60
105 106 70
110 111 71
104 105 64
110 112 73
112 112 73
108 108 71
107 108 68
107 107 68
120 120 75
117 116 72
116 115 70
133 131 81
124 124 77
132 131 80
130 129 79
136 135 84
130 129 79
141 138 86
140 138 85
137 135 79
138 136 84
143 141 85
147 143 90
145 142 83
142 140 87
156 151 88
146 144 84
150 148 85
151 147 85
156 152 92
153 150 88
153 149 89
156 152 90
157 153 88
162 157 94
162 157 88
161 156 91
163 158 91
150 147 86
161 157 86
167 163 92
153 150 84
163 159 88
164 159 95
165 160 89
164 160 89
163 158 90
168 163 92
168 162 92
169 162 96
168 163 93
169 164 88
171 164 95
165 160 88
168 161 86
173 166 90
171 164 89
174 166 92
172 165 88
168 161 83
169 162 87
173 166 93
174 169 101
169 162 87
171 164 88
168 162 85
172 165 93
172 165 89
172 163 87
174 166 93
175 167 94
172 165 93
171 164 88
172 164 87
170 164 88
171 164 90
169 160 86
170 162 90
172 163 88
172 165 91
173 165 90
167 160 85
170 162 87
171 163 87
167 161 86
170 163 86
166 158 79
169 161 85
172 164 84
169 160 83
170 162 86
171 163 84
167 157 85
169 160 86
168 160 86
168 159 83
170 161 87
166 157 84
166 155 81
163 154 75
167 158 86
167 157 82
166 156 80
162 152 75
158 147 69
162 153 74
159 150 70
164 155 74
164 153 77
161 150 73
159 148 72
157 146 67
158 149 67
158 145 70
146 133 52
155 142 66
148 133 61
151 139 57
145 131 59
149 136 55
142 127 45
160 160 37
173 196 0
171 192 0
171 193 0
174 196 0
173 194 0
172 192 0
172 194 0
172 196 0
171 194 0
172 195 0
173 197 0
169 193 0
170 194 0
173 196 0
172 196 0
171 195 0
172 196 0
173 197 0
172 196 0
172 195 0
172 195 0
174 198 0
172 196 0
174 197 0
171 195 0
174 197 0
173 196 0
174 197 0
171 195 0
173 197 0
173 195 0
174 197 0
173 197 0
171 194 0
172 194 0
173 196 0
168 191 0
169 192 0
173 196 0
172 194 0
172 196 0
171 195 0
171 195 0
175 198 0
175 197 0
169 192 0
174 197 0
173 197 0
171 195 0
174 196 0
171 194 0
173 197 0
173 197 0
172 195 0
168 192 0
172 195 0
171 194 0
172 195 0
169 193 0
171 195 0
171 195 0
174 197 0
173 197 0
172 195 0
171 194 0
171 194 0
171 194 0
173 196 0
164 187 0
169 192 0
173 196 0
169 192 0
173 196 0
170 194 0
171 194 0
170 194 0
171 194 0
170 193 0
169 191 0
168 191 0
172 195 0
171 194 0
169 191 0
171 194 0
171 193 0
172 195 0
169 193 0
172 195 0
166 190 0
171 193 0
169 193 0
173 195 0
172 195 0
174 197 0
169 192 0
168 191 0
170 194 0
168 191 0
112 139 135
63 99 166
61 97 158
62 98 166
61 98 164
63 99 173
62 99 168
62 98 163
61 98 167
61 98 169
63 99 172
63 99 173
63 99 170
63 100 175
62 99 175
62 99 172
62 98 172
62 99 175
62 99 170
63 99 169
62 99 171
62 98 170
63 100 177
61 98 175
63 99 171
62 99 177
62 98 172
62 99 173
62 99 174
62 99 173
61 99 178
63 99 175
62 99 176
63 100 178
62 99 181
62 99 176
62 99 175
63 100 180
62 99 175
62 99 176
62 99 177
62 99 178
62 99 176
63 99 175
62 99 176
61 98 175
62 99 177
62 99 178
62 99 179
61 99 179
62 99 176
62 99 178
62 99 180
62 99 178
63 100 179
61 98 173
62 98 175
62 99 176
62 99 181
62 98 174
62 99 178
62 99 179
62 98 175
62 99 174
62 99 178
62 99 176
63 100 177
62 99 175
61 98 177
63 99 175
62 99 177
62 99 175
62 99 174
63 100 179
62 99 176
63 99 179
62 99 176
62 99 175
62 99 173
62 99 177
62 99 176
62 99 178
62 99 176
62 99 176
62 99 178
62 99 174
62 99 178
62 99 177
62 99 177
62 99 175
62 99 176
63 99 179
61 98 172
63 100 178
62 99 175
63 100 180
62 99 179
62 99 180
62 99 177
62 99 173
62 99 178
62 98 169
62 99 176
62 99 177
61 98 177
62 99 175
62 99 174
62 99 176
62 99 174
62 99 175
63 100 175
63 99 176
62 99 174
62 99 175
62 99 175
62 98 173
62 98 172
62 99 177
62 99 174
62 99 178
62 99 174
62 99 171
62 99 175
62 99 177
62 99 173
63 99 173
62 99 174
62 99 176
62 99 175
62 99 175
62 99 173
62 98 170
62 99 176
62 99 170
61 98 168
61 98 173
62 99 170
61 97 168
61 98 169
62 99 171
62 98 170
62 98 174
61 97 166
62 99 173
62 98 170
62 98 170
62 98 171
62 98 167
63 99 174
62 98 164
62 98 169
62 98 167
62 98 170
62 98 168
61 97 163
62 98 169
61 97 169
62 97 163
61 96 162
62 98 164
61 97 163
61 97 169
61 95 157
60 94 157
61 96 160
59 91 147
67 69 70
67 66 42
57 60 42
75 71 44
76 76 51
69 71 54
77 79 52
89 90 59
75 74 44
84 85 55
93 92 63
87 89 63
91 93 61
95 96 65
84 85 60
108 107 69
105 105 68
103 105 69
107 107 67
108 110 74
105 105 67
114 114 72
118 116 73
108 108 69
120 118 74
123 123 75
128 127 83
114 113 69
126 125 74
125 124 76
136 133 81
138 135 81
138 135 76
139 136 83
147 145 89
141 138 82
143 141 81
146 143 86
161 157 94
145 142 84
147 143 84
152 147 86
152 148 89
158 154 94
154 152 87
155 151 88
150 147 88
160 155 93
157 153 94
162 157 91
155 151 83
163 158 90
158 154 88
159 155 89
159 153 87
161 157 88
163 157 89
168 162 92
169 162 95
166 161 89
173 167 92
167 161 93
162 157 84
166 159 94
168 162 89
168 162 89
169 163 92
167 162 91
166 160 84
167 160 93
170 163 90
169 161 88
171 165 93
171 165 92
174 167 96
171 166 90
169 162 84
174 166 95
175 168 93
171 164 91
173 167 91
174 167 91
174 166 90
170 163 88
172 165 88
172 165 89
173 166 91
172 164 89
171 163 88
171 163 87
172 165 92
173 165 90
172 164 93
172 163 86
171 162 86
169 162 85
172 164 87
174 165 92
165 159 81
170 160 86
167 159 88
169 159 86
169 161 84
170 163 82
163 155 78
168 158 82
171 161 85
169 161 80
170 161 83
166 155 82
164 154 77
166 156 79
168 157 79
169 159 83
158 149 75
171 160 82
165 156 80
157 146 71
163 153 71
158 149 64
160 150 72
161 150 71
161 150 73
158 145 69
155 142 60
160 149 68
153 140 60
157 146 64
153 142 60
154 142 63
148 136 52
156 142 65
152 143 51
148 135 55
149 133 51
166 179 28
171 191 0
173 195 0
172 194 0
172 194 0
172 196 0
171 192 0
173 195 0
170 194 0
173 196 0
174 197 0
172 195 0
170 193 0
173 196 0
172 195 0
172 196 0
173 197 0
172 195 0
174 198 0
173 197 0
172 196 0
175 198 0
172 196 0
171 195 0
174 196 0
171 194 0
171 194 0
173 196 0
174 197 0
172 195 0
171 194 0
172 196 0
171 194 0
172 195 0
173 197 0
173 195 0
169 192 0
171 195 0
170 194 0
174 197 0
172 195 0
171 195 0
170 194 0
173 196 0
168 191 0
174 197 0
169 192 0
170 194 0
171 194 0
172 195 0
173 195 0
170 193 0
171 193 0
174 198 0
175 197 0
171 194 0
171 194 0
168 191 0
170 193 0
169 192 0
171 194 0
172 194 0
171 194 0
171 194 0
171 195 0
171 195 0
170 193 0
166 190 0
171 194 0
169 192 0
170 194 0
169 192 0
170 193 0
172 195 0
171 194 0
170 194 0
174 198 0
170 192 0
172 195 0
170 194 0
171 195 0
170 194 0
174 197 0
170 194 0
171 195 0
172 195 0
167 190 0
169 192 0
172 195 0
170 193 0
169 192 0
167 191 0
172 195 0
168 190 0
172 196 0
171 194 0
170 192 0
170 193 0
165 188 54
61 97 153
63 99 170
62 98 168
62 98 165
62 97 157
62 99 172
62 99 170
63 99 171
62 99 170
62 98 166
62 99 171
62 98 167
62 98 168
61 97 163
62 99 175
62 99 174
62 99 172
62 98 172
61 98 172
62 99 176
62 99 173
62 98 169
62 99 174
62 98 171
62 99 177
62 99 173
62 99 177
62 98 176
62 99 177
62 99 176
62 99 172
62 98 170
62 98 175
62 99 173
62 99 175
62 99 177
62 99 175
62 99 178
63 99 174
62 99 176
61 98 171
62 99 177
62 99 177
62 99 175
62 99 177
62 99 177
62 99 174
62 99 178
62 99 178
62 99 179
62 99 180
62 99 175
62 99 176
62 99 174
62 99 180
62 99 177
62 99 179
62 99 177
62 99 178
62 98 171
61 98 174
62 99 179
62 99 179
62 99 173
62 99 178
63 99 175
62 99 177
62 99 178
62 99 179
62 99 178
62 99 178
62 99 176
62 99 176
62 99 177
62 99 175
62 99 173
62 99 176
62 99 178
61 98 177
62 99 176
62 99 180
62 99 174
62 99 175
62 99 173
62 99 176
63 99 175
62 99 174
62 99 175
62 99 175
62 99 174
62 99 178
62 99 178
63 100 179
62 99 179
63 100 178
62 98 172
62 99 178
62 99 178
62 99 178
62 99 174
62 99 177
62 99 171
62 99 172
62 99 177
61 98 172
62 99 177
62 98 172
62 99 176
62 99 173
62 99 177
62 99 172
61 98 172
63 100 179
62 99 173
62 99 175
62 99 176
62 99 176
63 99 171
63 99 175
62 98 174
62 98 171
62 99 174
62 99 174
62 99 171
62 99 177
61 98 168
62 99 176
63 99 170
62 98 169
62 98 172
62 99 173
62 99 174
62 99 175
62 98 170
62 98 170
62 99 172
63 99 175
62 99 171
62 99 174
63 99 168
62 99 174
62 98 167
61 98 167
62 98 169
61 98 168
62 99 173
62 98 169
63 99 171
62 98 168
62 98 169
61 97 168
62 98 169
61 97 165
63 99 172
61 97 166
61 96 156
61 97 166
62 98 165
63 100 176
62 97 167
60 95 160
60 95 158
60 94 155
60 95 161
60 94 159
61 96 158
64 84 123
74 70 44
67 61 37
77 75 46
73 74 50
56 59 42
78 79 53
80 79 52
76 77 50
86 86 58
86 88 58
72 76 50
92 92 58
97 98 63
100 101 64
86 90 65
91 91 59
114 112 71
109 109 71
100 103 70
111 113 74
118 118 75
106 108 68
118 118 75
108 109 67
119 120 78
124 123 75
124 123 77
131 129 79
127 126 81
123 122 75
125 123 73
127 125 75
149 145 87
136 134 80
138 137 83
140 138 84
142 140 83
147 144 87
154 150 87
163 157 94
143 141 81
148 145 79
138 135 77
155 152 89
150 147 88
151 147 84
147 145 80
157 152 83
155 151 88
154 150 84
157 154 88
156 152 88
162 157 92
158 154 94
163 158 91
161 156 88
171 164 94
169 163 95
163 158 87
169 163 90
169 163 93
164 159 85
162 157 88
176 169 96
173 166 94
171 164 92
168 162 90
172 166 91
170 164 88
173 167 93
176 169 97
173 166 99
174 166 96
168 162 91
172 166 93
174 167 96
171 164 89
171 164 90
173 166 91
170 164 89
173 166 89
171 163 88
169 161 86
170 163 91
165 158 83
170 163 89
172 164 89
170 163 92
175 167 96
174 166 89
171 162 89
173 165 94
170 162 85
167 160 79
171 163 84
170 161 83
171 162 83
169 161 87
168 160 85
164 156 78
171 163 86
169 161 87
170 161 83
172 163 86
168 159 79
166 158 79
165 156 76
165 157 78
167 157 82
167 158 76
169 161 84
162 155 75
170 160 83
159 149 71
160 152 72
164 154 67
163 155 72
158 149 70
162 153 71
161 150 73
160 150 68
160 147 74
165 154 76
151 141 57
155 144 61
161 150 72
146 135 61
153 140 66
156 143 65
159 146 66
154 142 64
149 137 51
146 131 54
146 132 49
169 186 21
172 194 0
170 192 0
170 192 0
173 195 0
173 195 0
172 195 0
171 193 0
173 196 0
171 194 0
171 195 0
172 196 0
174 197 0
175 198 0
169 192 0
172 195 0
173 197 0
171 195 0
172 194 0
172 196 0
170 194 0
171 196 0
172 196 0
172 195 0
173 197 0
173 195 0
173 196 0
174 197 0
172 196 0
172 195 0
175 197 0
168 192 0
172 195 0
170 194 0
174 197 0
172 195 0
171 195 0
172 194 0
172 196 0
171 193 0
171 195 0
173 196 0
173 197 0
173 197 0
173 196 0
171 194 0
169 192 0
174 197 0
172 195 0
168 192 0
174 197 0
171 194 0
171 195 0
173 196 0
171 195 0
173 196 0
169 192 0
170 194 0
171 195 0
171 194 0
173 197 0
173 196 0
168 192 0
169 193 0
172 195 0
173 197 0
172 196 0
173 196 0
169 191 0
170 194 0
170 194 0
169 192 0
168 191 0
170 193 0
171 195 0
171 194 0
168 190 0
171 194 0
167 189 0
169 192 0
170 193 0
170 194 0
169 192 0
171 194 0
171 194 0
171 194 0
172 195 0
165 189 0
168 192 0
171 194 0
171 195 0
172 195 0
172 196 0
171 195 0
170 193 0
171 194 0
173 195 0
171 194 0
138 163 99
61 97 153
62 98 160
63 99 168
62 98 166
62 98 165
61 98 163
62 98 161
62 98 166
62 98 167
62 98 168
62 99 169
62 99 173
62 99 167
62 99 171
63 99 170
62 98 170
62 98 169
62 99 173
62 98 168
62 99 169
63 99 172
61 98 171
62 98 172
63 100 176
62 99 173
62 99 171
62 99 175
63 99 175
62 99 176
63 99 172
62 99 174
62 99 176
62 99 176
61 98 167
62 99 176
63 99 176
62 99 171
62 99 176
63 100 179
62 99 176
62 99 177
63 100 179
62 99 176
62 99 178
62 99 176
62 99 174
62 99 177
62 99 180
62 99 177
62 99 178
63 100 178
61 98 172
62 99 178
62 99 175
62 99 178
62 99 178
63 99 178
62 99 175
63 99 178
62 99 179
62 99 180
61 98 173
62 99 176
62 99 176
61 98 176
62 99 179
61 98 177
61 98 174
62 99 172
62 99 179
63 99 179
62 99 177
62 99 176
63 100 181
62 99 176
62 99 176
62 99 177
62 98 172
62 99 174
62 99 174
62 99 175
63 100 178
62 99 177
62 99 178
62 99 176
62 99 175
62 99 176
61 98 178
61 98 177
62 99 173
61 98 173
62 99 178
62 99 172
62 99 176
62 99 174
62 99 176
62 99 176
63 99 176
62 99 176
62 99 174
62 99 174
62 99 174
62 99 176
62 98 174
62 99 176
62 99 178
63 99 178
62 99 173
61 98 170
62 99 173
63 100 178
62 99 176
62 99 174
63 100 178
62 98 172
63 100 177
62 99 173
62 99 173
61 98 172
61 98 168
63 100 176
62 98 170
62 98 170
61 98 173
63 100 178
62 99 175
62 98 172
62 99 174
62 99 176
62 98 168
61 98 173
63 99 172
61 98 171
62 99 170
63 99 173
62 98 170
63 99 168
62 99 171
62 99 174
62 99 171
61 97 165
62 98 168
62 99 168
63 100 172
62 99 171
62 98 165
63 99 173
62 99 167
61 98 169
62 98 167
62 98 165
63 99 170
62 97 165
62 98 165
61 97 161
62 99 173
62 97 167
61 96 158
61 96 164
62 98 162
61 97 161
61 97 163
61 95 157
61 95 159
59 93 152
61 95 161
59 91 149
61 66 55
64 66 47
60 59 37
59 62 46
66 67 49
81 82 56
69 70 48
75 77 51
83 85 58
78 80 54
83 85 57
81 83 55
87 90 59
96 98 63
92 95 64
103 104 67
106 105 60
101 102 68
101 100 62
101 102 58
112 111 72
115 115 71
118 118 74
117 117 76
125 125 77
124 125 80
119 118 70
129 127 79
123 123 74
140 138 75
138 136 84
140 138 83
135 133 79
140 138 85
133 132 75
145 142 88
147 143 89
138 135 80
150 147 91
152 149 87
141 138 86
146 143 84
154 151 86
153 148 87
151 147 81
153 149 81
154 150 88
156 151 86
157 152 88
154 151 84
162 157 89
164 159 90
160 155 88
158 154 87
164 159 91
165 159 91
161 156 87
166 159 92
162 157 85
161 158 87
166 161 87
167 160 84
169 163 91
167 160 90
163 159 85
166 160 86
171 164 95
175 167 93
172 165 94
167 162 85
171 165 89
168 162 87
173 166 94
171 164 87
173 166 89
173 166 88
170 162 88
166 160 77
169 162 91
171 164 87
171 164 87
170 163 87
173 166 93
175 167 93
168 161 80
167 160 83
167 160 89
175 167 92
168 161 81
171 163 87
168 162 82
169 161 83
170 162 87
171 163 88
172 163 94
173 165 89
169 160 82
171 163 88
170 162 86
171 163 91
165 157 82
166 157 84
166 158 82
167 158 79
166 157 79
166 159 79
169 160 80
167 158 81
165 156 78
158 149 69
163 153 73
167 158 78
166 157 78
161 148 71
166 156 81
163 151 71
163 151 73
163 153 76
163 155 77
158 148 69
156 143 61
165 155 75
162 153 67
159 147 65
157 147 64
155 142 61
153 141 63
156 144 68
153 139 54
143 130 50
156 145 59
151 138 54
147 135 52
151 144 47
170 190 0
173 195 0
170 191 0
172 194 0
173 195 0
170 192 0
171 191 0
173 195 0
172 196 0
173 196 0
172 196 0
170 194 0
173 197 0
174 197 0
173 196 0
175 198 0
171 195 0
171 195 0
170 194 0
173 196 0
173 197 0
168 192 0
173 196 0
172 195 0
172 195 0
172 196 0
172 195 0
172 195 0
170 194 0
172 196 0
170 193 0
172 195 0
170 193 0
171 194 0
173 197 0
170 193 0
171 195 0
170 192 0
173 196 0
172 195 0
171 195 0
174 197 0
172 196 0
171 194 0
170 193 0
167 190 0
172 195 0
169 192 0
170 193 0
171 195 0
172 194 0
172 195 0
169 193 0
171 193 0
170 193 0
172 195 0
174 197 0
171 193 0
171 194 0
174 197 0
167 190 0
171 194 0
171 194 0
172 196 0
173 196 0
172 196 0
172 195 0
168 192 0
168 192 0
168 192 0
170 193 0
167 190 0
170 194 0
170 193 0
171 194 0
169 193 0
171 194 0
171 195 0
169 192 0
171 194 0
174 196 0
167 191 0
169 192 0
172 195 0
170 194 0
170 195 0
174 197 0
172 195 0
173 196 0
171 193 0
167 190 0
169 193 0
168 191 0
170 193 0
170 193 0
167 189 0
169 191 0
170 191 0
87 117 147
63 99 168
63 99 164
61 97 159
62 98 160
62 98 165
63 99 172
62 99 169
62 99 168
62 98 166
63 99 175
62 99 174
62 99 171
62 99 168
62 98 168
63 99 173
63 99 175
62 99 170
61 97 163
61 98 171
61 98 169
62 99 174
62 99 172
62 99 171
62 99 176
62 99 171
61 98 172
62 99 172
62 99 173
62 99 171
62 98 170
63 99 171
62 99 173
62 99 175
61 98 173
63 100 178
62 99 175
62 99 174
62 99 172
62 99 177
62 99 174
62 98 177
62 99 176
62 99 175
61 98 178
62 98 172
62 99 177
63 99 178
62 99 178
62 99 180
63 100 180
63 100 176
62 99 175
62 99 177
62 99 176
61 98 176
63 99 178
62 99 178
62 99 176
62 99 175
62 99 175
62 99 179
62 98 175
62 99 175
62 99 177
62 99 177
63 99 177
62 99 176
62 99 180
63 100 179
61 98 176
62 99 176
61 98 178
62 98 174
62 99 177
62 99 177
61 99 177
62 99 176
62 99 175
62 99 179
61 98 175
63 99 180
62 99 176
62 99 172
62 99 175
62 99 175
62 99 176
62 99 175
62 99 181
63 100 179
62 99 178
62 99 176
62 99 175
62 99 177
62 99 181
63 100 177
62 99 175
62 99 175
62 99 175
62 99 177
61 98 173
62 99 178
62 99 174
62 99 175
62 99 175
62 99 178
62 98 172
62 99 176
62 99 176
62 99 174
62 99 176
63 99 175
62 99 176
62 99 179
63 99 173
62 99 176
62 99 171
61 98 169
62 99 173
63 99 172
62 99 172
62 99 172
62 99 172
62 99 173
62 98 166
62 98 168
62 98 168
62 99 169
63 100 176
62 99 172
62 98 172
62 99 172
62 99 172
62 98 172
63 99 175
62 99 174
62 99 171
62 98 169
62 99 172
62 99 174
61 98 168
62 98 168
62 99 175
62 98 170
62 98 171
62 99 172
61 97 161
62 98 171
62 98 171
63 99 169
62 97 164
62 98 170
61 98 167
63 99 166
62 98 163
62 98 167
62 98 168
62 97 162
63 99 169
62 98 168
60 95 153
63 98 166
60 94 152
61 97 160
61 96 157
59 94 152
59 93 153
60 93 149
57 69 82
53 56 39
73 72 48
58 61 42
78 77 49
74 73 48
69 72 50
82 80 50
78 80 49
84 86 55
91 90 58
86 87 57
91 94 62
89 89 57
83 86 61
103 104 62
100 100 64
106 107 68
108 108 68
114 114 73
113 112 70
114 114 68
108 109 60
124 122 78
118 117 71
121 121 74
134 132 81
120 120 72
123 121 71
137 134 74
138 136 76
135 133 78
132 131 79
134 132 80
138 136 80
133 132 74
134 131 75
137 136 78
148 145 82
149 145 85
148 145 83
146 143 79
149 146 87
147 144 83
157 153 83
157 154 81
158 153 83
164 160 94
153 149 89
151 148 80
151 147 83
162 158 92
164 159 91
160 155 87
162 157 84
160 154 83
166 161 87
165 159 82
165 159 84
159 155 84
162 156 89
169 163 92
166 161 90
170 163 90
171 164 87
171 165 91
173 166 90
169 163 86
171 164 90
173 166 92
169 163 93
166 159 88
172 164 91
174 166 95
172 165 93
172 165 89
171 163 91
170 164 88
176 168 95
171 164 85
176 167 95
172 165 83
173 166 93
169 162 89
170 162 88
172 163 90
172 164 85
170 161 86
171 163 87
170 162 81
173 166 93
174 166 94
170 162 85
169 163 84
172 164 89
172 163 89
170 163 83
169 161 85
167 158 77
170 163 85
169 162 83
168 158 78
160 152 71
168 159 89
163 154 76
170 160 85
166 157 77
169 159 78
163 154 81
162 154 74
163 155 77
165 153 78
163 153 73
163 154 79
160 151 70
157 145 65
159 150 73
164 155 74
160 149 69
161 151 71
165 155 79
162 152 70
160 150 67
156 144 66
152 141 62
155 144 63
154 143 63
160 147 68
149 137 52
149 134 51
147 134 56
148 134 55
147 131 49
159 164 40
172 192 0
172 194 0
172 193 0
174 195 0
172 194 0
171 194 0
173 194 0
172 193 0
172 195 0
172 195 0
173 196 0
173 196 0
174 198 0
173 197 0
171 195 0
173 196 0
172 195 0
174 197 0
173 196 0
172 196 0
172 196 0
172 195 0
173 196 0
171 194 0
171 195 0
171 195 0
170 195 0
167 191 0
171 195 0
174 197 0
169 192 0
168 191 0
174 196 0
169 192 0
172 196 0
172 195 0
172 195 0
172 194 0
170 194 0
170 194 0
172 196 0
172 195 0
174 197 0
173 196 0
173 196 0
172 195 0
173 197 0
171 194 0
170 194 0
174 197 0
171 195 0
169 193 0
172 196 0
169 193 0
169 194 0
171 195 0
171 194 0
169 193 0
169 193 0
170 193 0
174 197 0
169 192 0
171 194 0
172 195 0
170 193 0
170 194 0
172 194 0
172 195 0
171 195 0
171 195 0
169 191 0
170 193 0
172 195 0
167 191 0
169 192 0
168 192 0
173 196 0
168 191 0
172 195 0
170 193 0
168 191 0
173 196 0
172 195 0
172 195 0
170 193 0
169 192 0
171 194 0
170 192 0
169 193 0
167 190 0
169 192 0
172 196 0
171 194 0
170 194 0
169 193 0
171 195 0
171 194 0
145 170 72
61 96 148
62 98 161
62 98 161
62 98 160
62 99 169
61 97 152
62 99 169
61 98 161
62 98 162
62 99 172
62 98 168
62 99 169
62 98 168
62 98 172
61 98 171
62 99 174
62 99 173
62 99 170
62 99 173
63 99 175
63 99 175
63 99 176
62 98 169
62 99 173
62 99 172
61 98 170
62 98 172
62 99 175
62 99 173
63 100 178
62 99 175
62 99 172
63 99 176
63 100 176
62 99 175
62 99 173
62 99 176
62 99 177
62 99 179
62 99 175
62 99 178
62 98 174
62 99 175
63 99 177
62 99 175
62 99 176
62 99 173
62 99 179
62 99 177
63 100 178
62 99 176
61 98 175
63 99 176
63 99 175
63 99 178
63 99 175
62 99 176
61 98 173
62 99 173
61 98 169
62 98 175
62 99 175
62 99 176
63 99 174
62 99 173
62 99 180
62 99 176
62 99 176
63 99 175
62 99 174
63 100 178
62 99 177
61 98 174
62 99 177
62 99 179
63 99 175
63 99 178
62 99 176
62 99 175
62 99 179
62 99 173
62 99 176
62 99 175
61 98 170
62 99 176
62 99 173
62 99 176
62 99 176
62 99 175
62 99 177
62 99 175
62 99 178
62 99 178
63 100 178
61 98 172
63 99 178
62 99 178
62 98 175
62 99 177
61 98 175
62 99 174
62 98 174
62 99 176
63 99 176
61 98 173
62 99 177
62 98 174
62 99 174
62 99 178
62 99 172
61 98 167
62 98 171
62 99 175
62 98 172
62 98 173
62 99 174
62 98 170
62 99 175
62 99 173
62 99 174
62 99 174
62 99 172
62 99 174
62 98 172
62 99 173
62 99 173
61 98 173
63 100 175
63 99 173
62 98 171
62 99 176
61 98 165
61 98 170
62 99 175
62 99 169
63 99 171
62 98 169
62 98 171
62 98 172
62 98 176
62 98 166
62 98 171
62 99 172
62 99 171
62 98 168
62 98 168
63 99 171
61 97 164
62 99 171
62 99 169
62 98 170
62 98 166
62 97 165
62 98 163
62 98 167
62 97 165
61 95 159
61 97 164
61 97 166
61 97 161
61 97 164
61 97 163
62 97 161
60 95 156
61 96 162
62 97 163
59 93 151
60 93 152
57 82 127
53 54 34
68 66 44
61 63 39
76 75 46
68 72 47
70 71 43
75 75 43
72 75 50
76 80 54
80 81 49
90 91 59
78 82 52
89 90 57
94 93 58
97 98 59
102 103 59
99 101 60
106 106 69
109 107 63
106 107 65
119 119 75
103 105 64
123 122 75
110 110 67
128 127 79
136 134 79
118 117 71
125 125 71
136 132 79
133 131 72
132 130 77
134 131 72
128 127 75
139 136 71
138 137 75
148 145 85
147 144 85
145 142 82
145 141 83
151 148 86
142 139 82
144 142 78
145 142 83
151 146 84
150 147 84
150 146 86
158 152 89
159 154 87
155 151 81
153 148 76
152 148 83
155 151 84
160 156 82
161 157 84
161 155 83
167 161 94
162 157 91
172 165 96
165 158 89
168 162 91
168 162 89
170 164 92
158 154 80
168 162 86
164 159 87
172 166 93
175 167 96
170 163 91
166 160 81
167 161 83
169 163 89
170 164 87
170 164 92
172 165 88
167 161 84
172 164 90
170 162 85
172 165 90
169 163 84
169 162 88
172 165 85
174 165 92
168 162 85
172 165 85
170 162 85
168 160 85
174 166 88
170 163 87
167 160 77
172 164 86
168 162 78
171 165 88
168 159 81
170 159 83
170 162 88
170 162 85
164 157 76
167 159 82
166 158 81
171 162 83
170 161 82
161 153 73
171 161 84
167 158 84
166 158 77
169 159 83
170 160 83
162 154 77
160 151 75
167 156 74
166 158 80
163 152 72
166 157 75
162 154 73
155 146 62
163 152 72
159 148 64
155 144 62
155 143 62
154 142 70
151 141 63
159 148 66
155 146 63
155 143 63
154 142 59
153 139 62
154 143 66
160 149 66
151 139 57
152 140 59
150 137 56
149 133 54
161 170 30
171 193 0
171 191 0
172 193 0
173 195 0
171 193 0
174 196 0
172 193 0
171 194 0
171 195 0
175 198 0
172 194 0
174 197 0
171 194 0
173 196 0
172 195 0
171 195 0
170 194 0
174 198 0
173 196 0
173 196 0
173 196 0
172 195 0
175 198 0
171 195 0
172 197 0
171 194 0
171 195 0
172 195 0
171 195 0
170 194 0
174 197 0
175 198 0
171 194 0
172 196 0
172 195 0
171 195 0
174 197 0
172 195 0
172 196 0
173 196 0
173 196 0
171 196 0
173 196 0
172 195 0
168 191 0
174 197 0
174 197 0
172 196 0
166 190 0
170 194 0
168 191 0
172 195 0
175 197 0
173 197 0
173 196 0
170 193 0
172 195 0
171 193 0
171 195 0
171 194 0
168 192 0
171 195 0
171 194 0
172 194 0
173 196 0
173 196 0
172 195 0
167 190 0
171 194 0
170 193 0
170 194 0
170 194 0
169 193 0
172 196 0
171 195 0
172 196 0
170 192 0
171 195 0
169 192 0
168 191 0
170 193 0
170 193 0
172 195 0
172 194 0
170 193 0
169 192 0
172 194 0
171 194 0
171 195 0
170 193 0
170 193 0
165 188 0
172 194 0
170 194 0
171 195 0
167 189 0
172 195 0
114 141 113
63 98 161
61 97 161
62 99 166
63 99 164
61 97 159
62 98 167
62 98 166
63 99 170
63 100 174
62 98 164
62 98 166
62 99 174
62 98 169
62 99 175
62 98 173
62 99 169
62 98 168
62 98 169
62 98 169
62 99 171
61 98 170
62 99 175
61 97 168
62 98 168
61 98 168
62 99 171
62 98 168
62 98 171
62 99 176
63 99 177
63 99 175
62 98 171
62 99 176
62 99 172
63 100 176
63 99 176
61 98 173
62 99 175
62 99 173
63 100 180
62 99 176
62 99 172
62 99 175
61 98 174
62 99 176
61 98 168
62 98 173
62 99 176
62 99 178
62 99 176
63 99 178
62 99 174
62 98 175
62 98 174
62 99 174
62 99 179
62 99 179
61 98 165
62 99 177
62 99 177
62 99 175
63 99 178
62 99 179
62 99 176
62 99 176
62 99 172
62 99 175
62 99 178
63 99 177
62 99 174
62 99 177
62 98 172
62 99 170
62 99 175
62 99 175
62 99 176
63 99 177
62 98 171
62 99 178
62 99 174
62 99 177
62 99 178
63 99 177
62 99 176
63 100 180
62 99 173
63 100 177
62 99 175
62 99 176
62 99 176
62 99 175
62 99 174
63 99 173
62 99 178
62 99 175
63 100 177
62 99 174
62 99 174
62 99 173
62 99 172
62 99 174
61 98 175
62 98 171
62 99 175
62 99 177
62 98 173
62 99 180
62 99 174
62 98 173
63 99 174
62 98 172
62 99 177
62 99 176
61 98 173
62 99 169
62 98 172
62 99 176
62 99 175
62 99 176
61 98 174
63 99 174
62 98 172
62 99 169
63 99 174
62 99 173
62 99 172
62 99 174
62 99 175
62 99 176
63 99 174
62 98 168
62 99 172
62 98 169
62 98 169
62 99 172
63 99 168
62 99 169
62 99 168
61 97 166
62 99 172
61 97 161
62 99 173
62 98 169
62 98 167
62 98 171
62 98 169
62 99 172
61 97 167
62 98 161
61 97 162
62 99 169
61 97 166
61 96 159
62 98 171
62 97 160
61 97 162
62 98 166
62 97 166
61 97 160
62 97 161
61 96 159
62 97 163
60 95 155
62 97 162
61 96 158
60 95 154
60 94 156
61 95 154
59 92 144
65 71 68
57 57 38
70 68 40
58 61 38
71 73 52
73 75 49
82 82 52
72 75 50
71 73 48
81 83 50
77 80 54
79 81 50
83 88 61
83 88 57
86 88 59
90 93 58
91 94 60
109 108 65
106 107 66
110 111 67
106 107 61
112 112 68
123 121 69
115 115 73
115 115 69
124 123 73
128 126 74
128 127 70
122 122 71
137 134 77
136 134 74
136 135 79
131 129 75
134 131 74
141 139 84
148 143 83
145 141 77
147 142 82
136 134 81
149 146 82
149 146 81
145 143 85
144 141 80
153 148 82
155 150 84
155 151 83
161 155 93
155 151 86
157 153 85
159 154 85
156 153 84
160 155 86
156 152 79
157 153 79
159 154 83
162 156 80
168 162 89
168 161 88
163 157 86
163 158 84
171 164 95
166 160 88
164 158 84
167 161 91
163 158 84
167 162 86
168 161 90
167 161 86
172 164 95
175 168 91
170 164 91
169 162 90
171 164 89
171 163 92
171 165 91
164 158 82
169 162 86
170 163 90
173 165 91
170 161 87
172 164 88
166 159 82
172 164 88
172 164 87
171 165 82
167 158 82
167 159 86
166 159 80
168 160 84
167 160 80
166 158 80
165 157 76
171 163 83
165 159 81
166 158 81
170 163 87
168 160 83
169 161 82
165 156 73
173 163 85
162 154 72
169 160 84
167 158 80
167 156 85
161 151 77
161 152 73
161 152 72
161 151 69
162 153 69
165 156 75
165 155 74
162 151 74
161 153 71
163 154 69
162 153 72
161 151 66
160 149 68
160 150 65
160 151 65
164 153 72
154 142 66
153 143 58
156 144 66
152 141 60
154 143 61
148 137 56
150 138 55
159 147 70
152 139 62
147 133 51
147 133 52
141 125 39
171 191 16
173 194 0
171 193 0
172 194 0
170 193 0
172 193 0
172 196 0
171 193 0
171 191 0
172 195 0
172 196 0
173 197 0
173 196 0
172 195 0
171 195 0
171 195 0
170 194 0
173 197 0
172 195 0
171 195 0
172 196 0
173 196 0
175 198 0
171 195 0
171 194 0
172 195 0
170 194 0
172 195 0
173 197 0
171 194 0
174 197 0
174 197 0
172 195 0
176 199 0
172 196 0
171 194 0
171 194 0
174 198 0
173 196 0
173 197 0
172 196 0
172 195 0
171 194 0
175 198 0
173 196 0
171 195 0
170 193 0
170 195 0
171 195 0
174 197 0
170 194 0
169 194 0
171 195 0
171 195 0
171 195 0
170 193 0
174 197 0
171 194 0
170 194 0
170 193 0
168 191 0
173 196 0
172 195 0
172 195 0
169 192 0
170 193 0
173 195 0
170 193 0
172 195 0
167 191 0
170 194 0
171 195 0
172 195 0
170 192 0
170 193 0
169 192 0
167 190 0
170 193 0
171 195 0
173 195 0
172 195 0
170 192 0
170 192 0
170 193 0
171 194 0
171 194 0
171 194 0
173 195 0
167 190 0
171 194 0
170 193 0
171 195 0
170 194 0
172 194 0
170 192 0
170 193 0
165 188 0
164 188 44
73 106 156
62 98 164
62 98 161
62 98 162
62 98 167
63 99 168
63 99 168
62 99 167
62 98 159
62 98 163
62 99 175
62 99 171
62 99 175
62 99 174
61 98 170
62 98 169
62 99 168
61 98 174
61 98 167
63 99 169
61 98 167
61 98 166
62 99 174
62 99 171
62 98 177
61 98 172
62 99 174
62 99 177
62 99 174
62 99 173
62 99 175
62 98 170
62 99 176
62 99 175
62 98 172
63 99 177
62 99 173
63 100 179
61 98 175
62 99 175
62 99 175
63 99 177
62 99 174
62 99 175
62 99 174
62 99 176
62 99 179
62 99 179
62 99 172
62 99 179
62 99 175
62 99 175
62 99 177
62 98 174
62 99 173
62 99 175
62 98 173
62 98 171
63 99 173
62 99 174
62 99 176
62 99 176
61 99 178
62 99 176
62 99 175
62 98 169
62 99 174
62 99 174
61 98 173
62 99 175
62 99 173
63 99 175
62 98 172
62 99 176
62 99 178
61 98 175
62 99 174
62 99 178
62 99 177
62 99 174
62 99 175
62 99 177
62 99 175
61 98 172
62 99 176
61 98 173
62 99 175
62 99 174
63 99 174
62 99 174
63 99 178
62 99 173
61 99 176
62 99 175
62 99 174
62 99 174
62 99 179
62 99 175
62 99 175
61 98 173
62 99 175
62 99 171
62 99 174
62 98 173
62 99 171
62 98 169
62 99 173
62 99 173
61 98 170
62 99 174
62 99 174
63 99 174
62 98 173
62 99 177
63 99 175
62 99 171
62 99 174
62 99 173
63 99 174
63 100 180
62 98 169
62 99 170
62 98 171
62 98 169
61 98 168
63 99 174
62 99 171
62 98 167
62 99 169
62 99 171
62 98 163
62 99 170
62 99 173
62 98 166
62 99 174
63 99 172
62 99 173
62 99 170
62 99 175
62 98 167
62 99 173
62 99 170
61 98 169
62 99 170
62 98 166
62 98 166
63 99 165
62 98 168
61 97 164
62 98 168
62 98 165
62 98 172
63 99 170
61 96 158
62 98 167
62 98 170
62 98 161
61 97 165
62 98 166
61 97 162
62 96 163
61 95 159
61 97 158
62 97 165
61 97 166
61 96 159
60 94 152
61 95 154
59 92 155
58 91 148
53 72 102
68 66 32
65 63 43
63 61 41
68 66 36
70 71 39
71 71 39
74 73 45
83 82 49
77 79 51
86 85 53
75 79 52
87 90 51
98 98 59
80 84 54
101 100 62
90 93 58
104 103 66
94 95 56
110 110 62
105 105 63
118 113 67
117 116 69
114 114 67
125 124 74
126 124 71
115 116 72
118 120 73
120 120 70
134 132 84
138 135 79
129 127 65
138 135 73
142 139 77
139 136 77
141 138 77
136 134 79
141 137 76
144 141 78
146 141 78
156 151 89
151 146 86
147 144 82
152 148 86
152 147 83
152 147 85
148 144 78
162 156 94
150 146 84
158 152 84
163 158 89
159 154 87
160 155 79
162 157 88
155 150 78
166 160 89
165 160 85
161 155 83
163 157 79
166 159 92
158 153 82
164 157 86
167 160 86
169 162 87
166 160 86
165 157 80
168 161 91
172 165 91
168 162 90
165 158 81
174 167 94
171 165 91
167 160 85
172 165 85
167 161 88
168 161 82
169 162 81
170 163 85
171 163 87
168 162 79
173 165 86
172 164 86
172 163 87
168 160 83
169 161 87
172 163 85
169 161 81
168 161 79
165 157 82
170 162 83
170 161 82
170 161 83
169 160 81
170 161 86
165 157 73
164 156 72
167 159 81
162 154 82
166 156 81
168 160 80
166 158 77
166 158 77
164 156 76
168 159 84
166 157 80
163 154 72
164 154 70
165 155 75
163 154 76
161 152 72
163 155 75
164 155 74
158 149 61
160 150 69
159 148 67
162 152 73
161 151 71
166 156 75
159 148 69
155 143 58
153 141 64
156 146 67
153 142 59
160 149 67
151 141 64
154 144 59
154 142 61
152 138 52
149 137 56
147 136 47
149 137 52
147 141 40
171 193 0
172 194 0
170 189 0
170 191 0
172 194 0
173 193 0
173 195 0
174 194 0
171 194 0
173 196 0
170 193 0
172 195 0
173 197 0
168 192 0
171 196 0
172 195 0
170 193 0
170 193 0
171 193 0
171 195 0
173 196 0
172 194 0
171 195 0
169 193 0
171 194 0
172 195 0
169 192 0
171 194 0
167 190 0
172 196 0
171 194 0
170 195 0
172 196 0
173 196 0
174 197 0
170 194 0
171 194 0
175 198 0
174 197 0
173 196 0
172 196 0
173 195 0
170 194 0
170 194 0
170 193 0
170 192 0
172 196 0
172 196 0
172 196 0
171 194 0
171 194 0
172 194 0
171 195 0
168 191 0
173 196 0
173 196 0
170 194 0
171 194 0
170 193 0
168 192 0
172 195 0
169 191 0
169 192 0
173 196 0
171 193 0
172 195 0
168 191 0
169 192 0
172 196 0
170 193 0
171 194 0
169 193 0
169 192 0
172 195 0
169 193 0
169 193 0
170 193 0
172 195 0
168 191 0
171 194 0
170 192 0
173 194 0
169 193 0
171 194 0
171 194 0
171 194 0
167 191 0
171 194 0
170 192 0
169 193 0
169 192 0
169 193 0
168 192 0
174 197 0
170 193 0
169 192 0
171 195 0
141 165 94
62 98 158
62 98 155
61 97 157
62 98 166
62 98 161
63 99 166
62 98 164
63 99 175
62 98 162
62 99 169
61 98 165
62 98 167
62 99 168
62 99 173
62 98 163
63 99 172
62 98 171
63 99 170
61 98 167
63 99 176
62 99 173
62 98 170
62 99 168
63 99 168
63 99 169
62 99 170
62 99 170
62 99 178
63 99 174
62 99 175
62 98 169
62 99 174
62 99 175
62 99 172
62 99 172
62 99 174
62 99 176
62 98 170
63 99 176
63 100 179
62 99 176
62 99 176
63 99 176
62 99 177
62 99 172
63 99 173
62 99 177
62 99 177
63 99 176
63 99 174
61 98 176
62 99 171
62 99 177
62 99 178
62 99 177
63 99 175
62 98 172
61 98 176
63 99 177
62 99 175
61 98 173
62 99 180
62 99 176
62 98 171
62 99 177
62 99 175
62 99 177
62 99 170
62 99 176
62 99 174
61 98 174
62 99 178
62 99 175
62 99 174
63 100 180
61 98 170
63 100 179
62 99 173
62 99 178
62 99 174
62 99 176
63 99 174
62 99 173
62 99 175
62 98 173
62 99 174
62 99 175
62 99 179
61 99 178
63 99 174
62 98 172
62 99 174
61 98 176
62 99 177
62 99 173
62 98 169
62 99 171
61 99 177
62 99 173
62 99 173
62 99 177
62 99 177
62 99 176
62 98 171
62 98 170
63 99 177
62 98 173
62 99 176
62 99 173
62 99 175
62 99 171
62 99 173
63 99 176
61 99 177
62 99 174
62 98 170
61 98 172
63 99 174
62 98 170
62 99 175
62 99 173
62 98 171
62 99 172
61 98 170
62 99 173
62 98 169
62 99 176
62 99 172
63 99 174
62 99 173
62 98 169
62 98 172
63 100 177
62 99 172
62 99 174
62 98 169
61 98 165
62 98 169
62 98 170
63 99 170
63 99 168
62 98 166
62 98 168
61 97 167
62 98 169
63 99 174
63 99 172
62 98 171
61 98 170
61 96 161
61 98 166
61 97 163
62 98 167
62 99 172
63 99 168
61 96 163
62 98 163
61 96 156
62 98 163
62 98 170
61 97 162
62 97 158
61 97 160
62 96 161
61 96 160
61 96 161
60 95 157
61 95 152
61 95 160
60 93 145
62 87 135
66 64 36
64 62 35
61 63 37
52 58 38
71 70 40
70 69 40
67 66 36
72 74 44
74 76 47
93 92 56
84 85 52
81 84 54
84 87 58
95 96 58
89 91 56
104 102 59
102 101 57
94 95 55
93 95 57
114 114 72
103 104 66
118 117 65
113 114 68
114 115 68
115 115 64
123 122 75
120 121 69
128 126 71
127 126 70
122 122 67
133 132 70
141 138 82
142 139 77
135 133 71
141 138 77
135 133 78
146 142 77
141 138 83
145 142 77
148 144 82
144 141 79
151 147 81
148 145 80
149 145 77
153 149 83
155 151 86
153 149 88
158 154 83
151 146 77
155 150 86
155 150 84
163 158 87
155 150 76
165 160 84
163 157 87
160 154 85
163 156 89
161 156 85
157 152 82
167 160 86
168 162 88
169 162 88
164 158 88
166 159 82
167 161 83
168 161 84
167 160 80
164 158 83
169 162 86
170 163 90
170 163 87
168 161 87
166 160 76
167 160 80
171 163 85
170 162 90
172 164 89
166 159 78
172 165 87
167 160 86
171 164 86
171 163 86
168 161 84
167 159 84
168 161 79
170 162 89
164 158 79
162 154 75
170 163 82
170 161 84
168 161 79
169 161 84
165 158 77
165 157 81
167 159 78
165 158 76
164 156 75
163 156 73
169 161 83
169 161 78
166 159 80
167 157 79
161 155 78
162 154 71
161 152 72
162 153 72
170 161 80
164 155 73
160 151 63
163 152 75
164 154 78
168 159 79
165 156 77
159 148 67
164 155 77
164 153 75
156 143 62
158 149 70
155 143 63
159 149 70
160 148 66
153 142 58
158 147 61
153 141 55
153 140 59
150 137 59
145 131 53
148 135 55
146 133 52
147 133 51
159 163 33
171 192 0
171 193 0
170 188 0
172 194 0
169 191 0
170 189 0
168 190 0
168 191 0
172 194 0
171 195 0
174 197 0
170 194 0
169 193 0
170 194 0
171 195 0
171 194 0
171 194 0
171 194 0
174 196 0
173 196 0
172 195 0
170 194 0
174 197 0
169 193 0
170 194 0
171 194 0
173 196 0
172 195 0
171 194 0
170 195 0
172 195 0
173 197 0
172 196 0
174 197 0
170 193 0
172 195 0
173 197 0
169 192 0
171 194 0
172 195 0
170 193 0
168 193 0
173 196 0
173 196 0
170 193 0
170 193 0
172 195 0
173 195 0
172 196 0
174 196 0
171 195 0
171 193 0
168 192 0
170 193 0
171 195 0
172 194 0
173 195 0
170 194 0
174 196 0
173 196 0
170 193 0
171 195 0
172 195 0
169 192 0
169 193 0
170 194 0
169 193 0
169 193 0
170 194 0
171 195 0
172 195 0
174 197 0
171 194 0
169 193 0
171 193 0
169 192 0
169 193 0
168 191 0
171 195 0
162 185 0
167 191 0
170 194 0
168 191 0
171 195 0
170 193 0
171 194 0
167 191 0
170 193 0
167 191 0
168 191 0
172 195 0
168 192 0
170 194 0
167 189 0
164 187 0
168 192 0
171 194 0
115 142 129
61 97 151
62 98 165
62 98 163
62 98 166
62 98 161
61 98 166
62 98 165
62 98 160
63 99 171
62 99 170
62 98 165
61 97 163
61 98 165
62 98 166
61 98 163
62 99 171
62 98 171
62 99 171
63 99 174
62 98 168
62 99 173
62 99 172
62 98 168
62 99 177
63 99 176
62 99 172
62 99 175
62 99 171
62 99 174
61 97 168
62 99 174
63 99 175
62 99 175
62 99 178
61 98 175
61 98 169
62 99 172
62 99 174
62 99 174
62 98 171
62 99 174
62 99 176
62 99 174
62 99 175
62 99 171
63 99 173
62 99 177
61 98 174
63 99 179
62 99 174
62 98 173
62 99 174
62 99 175
62 99 172
62 99 173
62 99 176
62 99 177
62 99 175
62 99 176
62 99 175
62 98 174
62 99 175
62 99 175
62 99 177
62 99 175
62 99 172
62 99 173
62 99 176
62 99 175
62 99 176
63 100 176
62 99 175
62 99 177
62 99 174
62 99 176
62 99 178
62 99 175
62 99 174
62 99 172
62 99 178
63 100 177
62 99 174
62 99 173
63 100 178
62 99 178
62 99 177
61 98 173
62 99 177
62 99 177
62 99 179
62 99 174
63 99 176
63 100 177
62 99 175
63 99 174
63 100 180
62 99 173
62 98 169
62 99 174
62 99 177
63 99 178
62 99 177
62 99 175
62 99 174
62 99 177
62 98 173
63 100 180
62 99 176
62 99 173
63 99 173
62 99 176
62 99 174
62 99 174
62 99 175
62 99 167
63 100 176
63 100 172
61 98 168
62 99 175
64 100 173
62 98 173
62 99 176
61 98 174
62 99 177
62 98 170
62 98 166
62 99 172
62 98 171
62 99 178
61 97 162
62 98 171
61 98 166
62 99 172
63 99 170
61 98 163
61 97 167
62 98 167
61 98 168
62 99 168
62 98 169
62 98 167
62 98 170
62 98 169
62 98 170
62 98 170
63 99 169
63 99 168
61 97 164
63 99 170
62 98 165
62 99 173
62 98 167
61 97 162
63 99 171
61 98 167
61 96 165
61 97 157
61 97 160
62 97 162
62 97 163
62 98 166
62 98 165
61 97 166
61 97 162
61 96 159
61 96 157
61 96 156
60 93 151
60 94 155
60 95 158
60 93 152
63 64 47
61 61 35
63 62 35
60 58 35
68 69 34
67 70 43
72 73 38
77 77 46
76 77 47
89 91 50
70 72 48
83 86 52
73 76 50
88 90 54
96 98 58
86 88 49
100 103 57
93 94 56
98 100 62
104 105 57
113 111 65
117 117 72
119 117 62
117 117 65
115 115 70
117 116 66
133 131 78
128 126 74
122 122 71
132 128 74
132 130 71
136 133 75
124 123 65
146 142 83
142 139 82
148 144 87
147 143 83
140 136 76
150 145 83
148 144 77
146 142 81
145 141 77
150 146 79
154 149 85
164 158 88
160 155 85
159 153 84
159 154 85
156 151 81
158 152 80
160 154 87
153 148 79
160 154 81
151 147 76
164 159 84
164 158 86
156 151 74
164 158 86
166 159 89
163 157 80
164 158 81
168 161 88
167 160 84
163 157 84
167 161 87
164 157 84
166 160 83
168 161 90
164 158 81
168 161 82
168 161 83
167 160 81
169 161 85
168 161 81
165 158 78
169 162 85
169 162 85
169 161 87
170 162 87
169 162 88
168 160 82
168 160 83
170 163 81
165 157 79
166 158 82
172 163 87
165 157 76
166 158 80
168 159 82
165 157 76
168 161 83
168 160 80
165 155 78
167 160 77
165 157 79
169 161 85
167 159 75
167 158 77
167 160 79
165 157 75
167 159 80
163 153 68
163 156 72
159 150 64
162 154 77
165 157 75
157 145 67
161 153 71
166 157 73
164 153 75
161 150 68
161 151 66
156 145 68
159 149 63
157 148 67
161 151 68
155 146 55
153 141 61
156 145 64
154 143 65
151 141 61
151 138 56
154 143 61
153 140 59
145 133 45
153 143 58
152 139 58
151 138 54
143 131 46
140 126 40
167 183 16
172 192 0
171 192 0
172 193 0
171 192 0
171 191 0
169 192 0
169 191 0
170 192 0
172 191 0
173 197 0
171 194 0
171 194 0
173 196 0
172 196 0
173 196 0
173 196 0
172 195 0
171 195 0
171 195 0
172 195 0
175 198 0
172 196 0
170 193 0
172 196 0
169 192 0
170 193 0
171 194 0
175 198 0
170 194 0
171 195 0
171 195 0
173 197 0
174 197 0
175 197 0
171 195 0
170 193 0
168 192 0
168 191 0
175 198 0
174 197 0
170 193 0
174 197 0
170 194 0
170 194 0
169 192 0
170 193 0
174 197 0
171 194 0
170 192 0
171 195 0
170 192 0
170 193 0
170 193 0
172 196 0
170 193 0
170 193 0
173 196 0
171 193 0
171 194 0
171 193 0
171 195 0
170 192 0
173 196 0
170 194 0
173 197 0
168 191 0
173 196 0
170 192 0
168 190 0
171 195 0
170 193 0
170 192 0
168 192 0
170 194 0
172 194 0
172 195 0
170 192 0
168 191 0
169 193 0
169 192 0
168 192 0
172 195 0
167 190 0
170 192 0
171 195 0
173 195 0
167 191 0
169 192 0
170 193 0
168 191 0
169 193 0
172 195 0
170 192 0
170 192 0
170 193 0
169 191 0
165 189 18
77 110 159
62 98 160
62 98 158
62 98 154
62 98 159
62 98 164
62 98 162
63 99 166
61 97 157
61 97 163
62 98 163
62 98 160
62 98 163
61 98 165
62 98 166
61 98 166
62 99 169
62 98 169
63 99 175
62 99 173
62 98 171
63 100 174
62 98 172
62 99 174
62 99 177
62 99 168
62 99 171
63 99 174
62 99 175
61 98 164
62 98 166
62 99 173
62 98 171
62 99 174
62 98 171
62 99 173
62 98 173
63 100 180
62 99 172
62 98 173
62 99 173
62 99 173
62 99 175
61 98 174
62 99 174
62 98 172
62 99 172
62 98 171
62 99 177
62 99 173
62 99 175
62 99 175
62 99 175
62 99 176
63 99 177
63 100 179
62 99 176
63 99 177
62 99 176
63 99 174
63 100 177
61 98 172
62 99 173
62 99 177
62 99 172
62 99 178
62 99 178
62 99 176
62 99 177
62 99 177
62 99 176
62 99 177
62 99 178
62 99 175
62 99 173
63 100 179
62 99 173
62 98 173
61 98 177
62 99 172
62 99 173
62 99 173
62 98 172
62 99 171
63 99 176
62 99 177
63 100 176
62 99 172
62 99 174
62 99 175
61 98 175
62 99 176
62 98 173
62 99 175
62 99 173
62 98 173
61 98 169
61 98 174
62 99 170
62 99 173
62 99 175
62 99 171
62 99 177
61 98 171
62 99 171
62 98 171
63 100 178
62 99 175
62 99 168
62 98 170
62 98 169
63 99 174
62 99 169
62 99 172
62 99 174
62 99 173
62 99 173
62 98 170
63 99 175
62 99 173
62 98 171
62 99 172
63 99 176
62 99 171
62 98 171
61 98 168
62 99 174
63 99 171
62 98 170
62 98 164
62 98 164
62 99 169
62 99 173
63 99 171
61 98 167
62 98 168
62 98 169
62 99 169
61 98 164
61 98 170
62 98 164
61 98 167
63 99 174
62 98 172
61 98 168
62 98 168
62 98 169
61 98 170
62 98 168
62 99 175
62 98 168
62 98 171
62 98 168
61 97 164
61 97 161
63 99 168
62 98 165
61 96 165
62 97 159
61 97 156
61 96 161
61 96 160
62 98 165
61 96 158
61 96 158
61 96 161
61 97 160
60 95 151
60 94 154
61 95 157
59 93 147
59 92 145
64 80 102
54 52 30
70 67 35
66 66 39
77 74 42
74 73 42
66 68 39
76 76 49
76 77 38
70 73 42
73 75 47
76 80 49
95 95 58
98 98 47
99 99 56
101 100 59
94 97 58
104 104 57
106 106 65
116 116 65
106 107 57
114 115 66
104 105 63
105 105 58
116 116 69
134 132 75
126 125 69
126 124 67
130 126 63
136 133 75
125 124 70
130 127 67
129 129 70
144 140 79
143 138 73
143 140 78
137 135 67
148 144 82
142 139 74
143 139 79
149 145 81
145 142 77
152 147 76
150 145 80
156 152 87
157 152 80
152 147 76
149 145 71
156 150 76
157 152 84
157 152 80
154 148 79
166 160 92
158 153 77
160 154 81
164 158 84
158 153 79
166 159 86
162 156 81
161 155 76
165 160 89
165 159 91
163 157 81
162 157 82
165 160 80
166 160 84
166 160 83
169 163 87
166 159 81
169 162 84
168 161 83
170 163 81
166 160 80
166 160 87
171 163 84
168 161 83
166 159 77
172 165 86
169 162 84
166 158 84
165 157 76
167 161 82
166 158 76
167 160 80
169 161 84
167 159 76
167 159 78
171 162 89
170 161 83
163 156 77
171 163 86
168 161 84
164 156 70
168 160 82
166 158 73
168 159 82
164 154 75
170 159 85
165 157 77
159 151 70
168 158 82
167 158 81
159 151 73
165 157 70
164 156 72
168 158 75
166 158 71
162 153 70
163 152 69
164 154 74
165 155 72
161 152 71
157 148 65
150 140 62
160 148 71
159 147 63
161 149 73
161 151 70
160 151 63
155 146 60
151 140 51
157 147 65
159 150 62
158 147 58
147 134 50
150 137 55
154 141 59
140 127 46
142 128 45
147 137 37
173 193 0
170 191 0
174 195 0
172 192 0
171 193 0
174 196 0
172 194 0
170 190 0
172 192 0
169 190 0
174 196 0
172 195 0
172 195 0
171 194 0
172 196 0
171 194 0
171 194 0
174 197 0
172 194 0
172 196 0
172 196 0
170 193 0
173 196 0
171 194 0
173 197 0
172 196 0
172 196 0
172 196 0
170 193 0
172 194 0
172 195 0
172 195 0
172 195 0
171 194 0
169 193 0
168 191 0
173 196 0
170 193 0
170 193 0
172 196 0
169 192 0
172 196 0
167 190 0
171 194 0
172 196 0
170 194 0
170 194 0
170 193 0
174 197 0
170 193 0
172 195 0
168 191 0
174 197 0
171 195 0
171 194 0
171 195 0
170 194 0
170 193 0
169 192 0
173 197 0
169 193 0
169 193 0
170 193 0
172 195 0
174 197 0
171 195 0
168 191 0
174 197 0
167 190 0
171 194 0
169 192 0
171 194 0
170 193 0
171 194 0
170 193 0
168 191 0
173 196 0
168 191 0
170 194 0
174 196 0
170 194 0
171 195 0
170 193 0
172 196 0
170 194 0
171 194 0
169 191 0
172 194 0
169 193 0
171 194 0
168 192 0
173 196 0
169 193 0
169 192 0
168 191 0
169 193 0
169 193 0
160 181 62
61 97 161
63 99 162
62 98 164
63 99 164
62 99 168
62 98 165
62 98 160
61 98 165
62 98 166
62 98 163
62 98 169
62 98 166
61 98 164
61 98 166
62 98 166
62 99 171
62 99 171
62 98 169
61 97 164
62 99 168
62 99 166
62 98 173
62 99 173
62 99 173
63 99 171
62 99 172
62 99 176
62 99 173
62 98 170
62 99 169
62 99 175
62 99 174
62 98 171
62 99 173
62 99 172
62 99 172
62 99 173
62 99 175
62 99 174
63 99 173
63 99 176
62 99 174
62 98 175
62 99 178
62 98 172
62 99 174
62 99 175
62 99 178
62 99 176
62 99 177
63 99 175
62 99 169
62 99 174
63 99 174
62 99 175
62 99 173
62 99 172
62 99 176
62 99 178
62 99 171
63 100 177
61 98 172
62 99 170
62 99 174
63 99 178
62 98 172
62 99 172
62 99 174
62 98 175
62 99 173
62 99 179
62 99 172
62 99 176
62 99 174
62 98 170
62 98 168
62 99 176
63 100 179
62 99 174
63 100 180
62 99 173
62 99 173
62 99 176
62 99 173
63 99 175
61 98 178
62 99 175
62 99 176
63 100 177
63 99 174
62 99 167
62 99 172
62 98 171
61 98 173
61 98 171
62 99 172
62 99 177
62 99 177
63 99 175
62 99 176
63 99 174
63 99 174
62 98 174
61 98 174
62 99 178
61 98 175
62 98 171
62 99 170
62 99 175
63 100 177
62 99 173
62 99 174
62 99 175
62 99 175
63 99 170
63 99 172
62 99 173
63 99 176
61 98 166
62 98 170
62 99 173
62 99 179
62 99 174
62 99 178
62 99 173
62 98 169
63 99 172
62 98 167
62 99 173
62 98 169
62 99 170
62 99 173
62 98 170
62 99 172
62 99 174
62 98 167
62 99 174
62 98 167
62 99 172
61 98 167
63 99 175
62 98 167
62 98 166
62 98 163
62 98 170
63 99 170
63 99 172
62 98 169
60 96 162
62 98 166
62 97 160
62 98 170
62 98 165
62 97 166
62 98 165
61 97 162
62 97 162
61 96 162
62 98 167
61 97 162
61 97 162
61 96 156
61 97 163
61 96 158
61 97 161
60 95 161
62 97 160
61 94 154
60 94 143
60 95 152
61 96 155
60 92 153
58 80 112
56 55 26
54 56 28
65 62 31
70 69 35
72 73 38
66 67 41
68 70 42
72 75 43
94 93 48
80 82 52
88 88 54
77 80 40
89 91 57
95 94 49
97 96 58
93 95 53
97 100 59
108 106 56
105 107 65
114 114 61
109 108 57
110 110 66
122 121 66
116 115 67
119 117 66
125 124 68
119 118 67
124 122 68
124 123 71
127 125 68
128 125 67
129 126 68
120 120 68
142 139 77
151 147 77
137 135 71
137 134 74
139 136 72
143 140 78
155 150 83
153 148 81
149 145 78
150 146 82
152 147 84
153 148 76
151 145 73
154 149 79
154 150 72
155 149 83
152 147 81
163 157 84
159 153 79
165 159 84
165 158 87
162 157 83
165 159 89
162 156 84
168 162 89
162 157 78
167 159 88
164 158 81
161 156 74
168 161 89
170 163 84
168 160 84
165 158 83
163 158 79
170 163 87
171 164 87
169 162 82
171 163 88
168 161 81
168 160 86
168 161 83
164 157 77
164 158 79
169 161 82
171 163 82
168 161 82
165 159 74
169 160 83
165 157 73
168 159 80
168 160 82
168 161 86
171 163 85
170 162 85
171 164 85
169 161 82
169 160 84
170 162 84
163 155 68
162 156 75
167 157 76
170 162 84
166 157 73
160 150 74
167 159 79
165 157 77
167 159 83
163 154 73
166 156 78
163 154 75
159 151 71
162 154 71
159 149 69
162 154 72
165 154 75
162 153 68
156 145 67
165 156 74
159 149 69
156 145 66
159 151 65
158 148 66
156 144 61
154 144 59
157 148 65
158 146 63
158 147 60
152 138 61
154 144 59
152 141 50
148 136 57
146 135 48
144 130 41
148 137 48
142 129 43
163 172 37
172 192 0
172 193 0
170 190 0
170 190 0
171 192 0
170 191 0
173 195 0
171 193 0
171 191 0
172 193 0
174 197 0
174 198 0
173 196 0
172 196 0
173 196 0
171 194 0
173 196 0
174 197 0
172 195 0
171 195 0
168 191 0
171 195 0
169 192 0
172 194 0
173 196 0
170 195 0
171 195 0
174 197 0
171 194 0
172 196 0
171 194 0
171 194 0
172 195 0
170 194 0
170 192 0
169 192 0
173 196 0
173 195 0
171 193 0
173 196 0
170 194 0
172 195 0
171 195 0
171 195 0
170 193 0
173 197 0
167 191 0
169 194 0
170 194 0
171 196 0
171 195 0
171 195 0
172 195 0
169 192 0
172 196 0
172 195 0
172 195 0
168 191 0
170 194 0
168 191 0
170 194 0
171 195 0
172 195 0
174 197 0
171 195 0
170 193 0
171 195 0
167 190 0
174 197 0
171 194 0
172 196 0
169 192 0
171 195 0
168 191 0
168 190 0
172 196 0
167 191 0
171 194 0
169 192 0
172 196 0
172 196 0
168 191 0
169 191 0
171 194 0
169 193 0
169 192 0
168 190 0
167 192 0
170 193 0
170 193 0
171 194 0
170 193 0
171 195 0
172 195 0
168 190 0
173 196 0
169 193 0
137 160 92
62 98 164
62 98 163
62 98 168
62 98 156
62 98 163
61 96 153
62 98 171
62 98 158
62 98 165
61 98 162
63 99 173
63 100 172
62 98 165
61 97 162
62 98 166
62 98 169
62 98 167
61 97 167
62 98 168
62 98 169
62 98 170
63 99 172
62 99 172
62 99 174
62 98 168
63 99 172
61 98 168
62 98 175
63 99 173
62 99 169
62 99 174
62 99 171
62 99 172
63 99 174
61 98 170
63 99 172
62 98 172
62 99 174
63 99 172
62 99 175
62 99 175
63 99 176
62 99 175
61 98 173
62 99 176
62 99 175
62 99 171
63 99 176
61 98 172
62 99 171
62 99 176
62 99 173
62 99 174
62 99 174
62 98 173
62 99 175
62 99 172
62 99 175
62 99 177
62 99 172
62 99 175
62 99 173
62 98 175
62 98 172
63 100 178
62 99 175
62 99 177
62 99 175
62 99 173
61 98 172
62 99 173
61 98 170
62 99 176
62 98 173
62 98 169
61 98 173
61 98 171
63 99 174
62 99 176
62 99 177
62 99 178
62 99 171
62 99 175
62 99 170
62 99 175
63 100 179
62 99 172
63 99 175
63 99 176
63 99 174
62 98 173
63 99 171
63 99 175
61 98 170
62 99 172
62 99 177
63 100 178
62 99 173
62 99 172
62 99 175
62 99 174
63 100 176
62 99 175
62 99 174
62 99 174
61 98 169
62 99 172
62 99 171
62 98 175
62 99 175
63 100 175
62 98 165
62 99 175
63 99 174
62 99 171
62 99 177
63 99 172
63 99 174
62 99 173
62 98 167
62 98 169
62 99 170
62 99 171
62 99 171
61 98 171
62 99 177
61 98 165
61 98 170
62 99 174
62 99 170
62 98 169
62 99 166
62 98 167
62 98 165
63 99 175
61 97 165
62 98 165
62 99 169
63 99 170
62 98 170
61 98 166
62 99 168
62 98 166
61 98 167
61 98 161
62 98 166
62 99 168
62 98 168
62 98 166
62 98 165
62 98 166
62 98 168
61 97 164
62 99 169
62 99 167
62 97 161
62 98 168
62 98 166
61 97 161
61 97 158
62 98 162
61 97 162
61 96 163
61 96 162
62 97 163
62 96 160
61 96 159
61 96 162
61 95 156
61 96 158
59 92 148
60 94 152
58 91 148
57 60 53
63 63 32
61 66 40
63 63 37
63 65 33
69 67 33
66 69 37
80 83 42
75 77 41
82 84 48
76 77 46
77 77 47
86 87 50
92 92 50
96 94 46
104 105 59
98 99 55
118 115 62
97 98 60
114 112 62
103 103 56
114 112 64
121 121 68
120 118 64
126 126 65
121 119 67
125 124 71
122 121 72
129 125 67
137 134 74
126 123 66
134 130 71
136 133 75
140 136 74
136 133 72
139 135 72
133 129 67
142 139 74
148 144 76
148 144 74
152 148 77
151 148 80
148 143 77
158 152 77
150 146 74
149 145 72
154 149 76
156 150 80
159 153 82
164 157 85
156 151 79
153 148 84
158 152 76
161 155 84
165 158 83
163 158 81
158 152 76
166 160 84
164 158 86
163 157 83
162 157 72
167 160 83
169 162 85
167 160 87
165 158 81
165 158 79
169 162 84
170 162 81
161 156 74
166 159 80
165 159 78
167 160 80
167 160 82
168 160 85
169 162 82
172 164 83
166 160 79
169 161 82
165 159 79
168 160 76
165 157 76
168 159 78
166 159 75
170 163 82
169 162 85
166 158 81
170 162 84
163 155 71
162 155 73
162 152 68
169 160 79
173 164 84
169 160 83
164 156 79
167 158 84
167 158 79
167 158 77
165 158 78
166 158 77
160 151 69
169 159 81
166 157 79
163 152 70
165 156 73
170 161 80
164 154 71
159 149 66
161 152 67
162 153 71
158 147 64
157 147 68
160 150 71
162 152 65
158 147 64
158 148 68
156 147 59
154 143 62
154 144 66
152 141 51
152 141 57
155 142 57
148 138 54
153 141 59
150 139 54
148 135 55
149 137 51
146 132 53
141 126 39
167 186 12
171 191 0
169 189 0
172 192 0
169 191 0
172 194 0
171 191 0
169 191 0
174 195 0
173 194 0
173 194 0
172 196 0
173 196 0
172 195 0
175 197 0
173 196 0
172 195 0
171 195 0
171 194 0
174 197 0
172 195 0
173 197 0
170 194 0
174 197 0
171 193 0
171 195 0
174 197 0
168 192 0
172 195 0
173 195 0
172 195 0
171 194 0
174 196 0
170 194 0
170 194 0
172 195 0
171 195 0
172 196 0
172 195 0
172 196 0
168 191 0
171 195 0
173 196 0
166 189 0
173 197 0
173 196 0
173 196 0
169 192 0
170 194 0
173 196 0
173 196 0
171 195 0
167 191 0
170 193 0
170 193 0
171 194 0
174 197 0
165 187 0
174 197 0
172 194 0
167 190 0
170 193 0
173 197 0
167 190 0
168 191 0
173 196 0
171 193 0
173 195 0
172 195 0
170 193 0
171 194 0
170 193 0
172 195 0
172 196 0
170 192 0
170 193 0
167 191 0
168 191 0
170 192 0
171 194 0
169 193 0
168 190 0
170 192 0
169 193 0
169 192 0
171 194 0
169 191 0
166 189 0
172 195 0
169 192 0
168 192 0
171 193 0
167 190 0
170 193 0
167 190 0
170 193 0
171 194 0
170 193 0
106 133 124
62 98 163
62 98 160
61 97 157
61 98 162
62 98 161
62 98 166
61 97 157
62 98 162
61 97 161
62 98 167
63 99 171
62 98 165
62 99 172
62 99 171
62 98 165
62 99 167
61 98 167
61 98 163
63 99 168
62 99 173
62 99 167
62 98 170
63 99 173
62 99 176
62 98 172
62 99 173
62 99 170
62 98 170
62 99 170
63 99 173
61 98 174
63 99 173
62 99 171
62 99 176
62 99 171
62 98 168
62 99 172
63 99 175
62 99 173
62 99 173
62 99 174
62 99 177
62 99 174
63 99 175
62 99 174
63 100 177
62 99 175
62 99 172
62 99 174
62 99 173
62 99 175
62 99 177
62 98 174
62 99 177
62 99 174
62 99 174
62 99 173
62 99 175
62 99 174
62 99 173
62 99 176
62 99 176
61 98 172
63 99 177
62 99 175
63 100 178
62 99 175
62 98 173
63 99 177
62 99 176
63 100 178
62 98 173
62 99 174
62 99 178
62 99 174
62 99 173
62 99 178
62 99 177
62 99 173
62 99 174
61 98 172
63 100 177
62 99 176
62 98 170
62 99 175
62 99 170
62 99 176
62 99 176
62 99 173
62 99 176
62 99 173
62 99 177
62 99 174
63 99 178
63 100 175
62 99 170
62 99 170
62 98 171
62 99 172
62 99 176
62 98 168
62 99 173
63 99 171
61 98 169
62 99 169
62 99 175
62 99 172
62 99 174
62 99 171
62 99 174
62 99 169
63 99 175
61 98 167
62 99 171
62 99 172
62 99 169
62 98 174
62 98 172
61 98 163
62 99 176
63 99 175
62 99 173
62 98 171
62 98 166
62 99 171
62 99 173
63 99 171
63 99 173
63 99 173
62 99 169
61 98 174
62 98 170
62 99 173
62 99 168
62 99 175
62 99 171
63 100 174
62 98 162
62 98 173
61 97 165
61 97 167
62 99 169
62 98 169
61 98 164
62 98 164
63 99 169
62 99 169
61 97 162
63 99 171
62 98 165
62 99 169
63 99 172
62 98 168
62 98 167
63 99 163
61 97 160
62 98 164
61 96 163
60 96 159
62 98 167
62 97 164
61 97 159
61 96 155
61 96 156
61 96 157
60 95 154
61 96 162
61 95 155
62 97 159
60 93 151
60 93 147
60 94 152
59 92 145
69 78 80
63 60 32
60 62 37
50 55 28
66 67 41
63 65 39
79 79 45
81 82 41
75 77 45
84 86 49
85 87 49
91 91 54
97 97 51
93 95 51
97 97 54
101 100 55
94 96 51
106 104 52
107 106 61
115 114 63
107 107 63
109 110 54
107 106 54
122 120 64
114 114 66
121 118 61
119 118 65
125 122 67
134 130 72
131 129 78
137 135 77
140 136 65
132 130 73
130 128 67
141 138 67
144 139 78
145 142 79
150 145 77
135 133 71
146 141 80
147 142 75
152 146 76
154 148 76
144 140 72
157 151 81
154 148 80
149 145 79
153 146 79
151 144 69
153 149 82
156 151 78
153 148 73
162 154 81
155 150 76
158 153 80
159 153 77
166 160 88
162 156 81
160 154 76
161 155 83
161 155 76
163 156 78
164 158 82
163 157 74
160 153 81
170 163 86
165 159 82
166 159 81
162 155 77
167 159 80
172 164 84
168 160 82
169 161 89
170 161 80
170 162 84
167 161 78
168 161 84
166 160 73
169 160 79
170 162 78
168 161 81
170 162 86
168 161 78
171 163 83
162 155 77
163 155 74
166 157 77
163 154 75
164 155 73
167 160 79
165 156 72
163 154 70
169 161 83
166 157 73
165 158 76
162 153 66
164 157 77
165 156 75
161 152 70
164 155 79
165 156 75
165 156 70
162 151 72
159 149 69
164 156 70
162 151 67
164 155 76
167 158 80
159 149 72
163 154 70
156 144 64
156 145 66
162 151 68
157 148 66
155 144 57
157 146 67
158 147 64
155 143 59
156 145 59
156 145 61
152 138 53
158 149 67
152 141 52
148 134 58
150 137 52
145 131 47
147 131 55
151 148 39
172 193 0
171 191 0
170 191 0
171 193 0
172 193 0
169 189 0
171 194 0
169 189 0
170 192 0
171 191 0
172 193 0
173 195 0
171 195 0
174 197 0
173 197 0
172 195 0
173 196 0
172 195 0
169 192 0
170 193 0
174 197 0
172 196 0
172 194 0
172 194 0
172 196 0
171 195 0
170 194 0
170 194 0
171 194 0
171 195 0
170 194 0
172 196 0
171 195 0
167 191 0
171 195 0
170 193 0
172 196 0
169 193 0
174 197 0
172 196 0
170 193 0
170 193 0
168 192 0
172 195 0
170 193 0
169 192 0
170 193 0
174 197 0
169 193 0
172 195 0
173 197 0
173 196 0
170 194 0
167 190 0
171 194 0
166 189 0
172 196 0
166 190 0
174 198 0
176 198 0
170 194 0
172 195 0
170 193 0
165 189 0
172 195 0
171 194 0
170 194 0
167 191 0
172 195 0
169 193 0
171 194 0
171 195 0
172 195 0
171 194 0
165 189 0
170 193 0
169 192 0
169 193 0
171 193 0
170 193 0
170 193 0
173 196 0
170 193 0
168 192 0
170 194 0
171 194 0
169 193 0
167 191 0
167 189 0
167 192 0
173 195 0
171 193 0
171 194 0
166 190 0
171 194 0
171 194 0
168 191 0
167 190 18
65 100 162
61 97 156
61 97 153
61 97 158
63 99 168
62 98 157
62 98 163
62 98 162
61 98 163
61 98 168
62 98 168
63 99 169
63 99 171
62 98 169
62 99 170
62 98 168
62 98 166
61 98 167
62 98 171
62 99 168
62 98 167
62 99 174
62 98 168
62 98 169
63 99 177
62 99 170
63 99 171
62 99 172
62 98 168
63 99 174
62 98 167
61 98 169
62 98 171
62 98 172
62 98 169
62 98 172
62 99 172
61 98 167
63 99 175
62 98 172
62 99 177
62 99 170
62 99 173
62 99 172
62 98 168
62 98 171
62 99 175
63 99 175
63 99 175
62 99 173
62 99 173
62 99 175
62 99 175
62 98 174
62 99 175
62 99 176
62 98 169
62 99 174
61 98 175
62 98 174
62 98 171
62 98 168
62 99 175
62 99 174
62 98 172
62 99 176
62 99 173
62 99 173
63 99 178
63 100 178
63 99 175
61 98 171
63 100 177
62 99 177
62 99 174
62 98 173
62 99 173
63 99 175
62 99 175
63 100 177
62 99 172
63 99 172
62 98 172
62 99 170
63 99 177
62 99 173
62 99 173
62 99 174
62 98 170
63 99 173
62 98 172
62 99 174
62 98 171
63 99 175
62 98 168
61 98 168
62 99 174
61 98 172
62 99 172
61 98 172
62 99 177
62 99 173
62 99 175
61 98 170
62 99 175
62 99 170
62 99 175
62 99 174
62 98 173
62 99 170
61 98 166
63 99 177
63 99 174
62 99 174
62 99 173
63 99 172
61 98 164
62 98 171
63 99 170
62 99 173
62 99 173
62 99 174
62 99 170
62 99 168
63 99 173
62 98 169
62 98 169
62 98 167
62 99 169
62 99 168
63 99 170
62 98 166
62 99 169
64 100 173
62 98 168
62 98 170
62 98 171
62 98 168
61 98 168
63 100 173
62 98 170
62 98 166
62 98 171
62 98 162
63 99 173
62 99 171
62 98 162
63 99 174
61 98 166
62 99 169
61 98 169
62 99 169
62 98 161
63 99 165
61 97 162
62 98 164
62 98 166
61 96 157
61 97 162
62 97 162
62 98 164
61 97 167
62 98 164
60 95 150
61 97 157
62 98 164
60 95 157
62 96 154
60 95 157
60 94 162
59 94 148
60 94 151
59 93 149
60 94 152
63 79 108
63 58 30
68 67 29
64 64 36
63 64 33
71 70 37
80 80 37
84 82 42
73 74 45
83 82 44
79 82 52
81 83 49
94 93 51
84 82 39
95 94 47
95 95 57
92 94 56
104 103 61
98 100 57
98 100 52
105 103 48
111 112 57
117 115 57
126 123 64
124 121 63
116 116 61
123 122 67
124 123 65
116 116 64
135 132 74
130 128 68
135 132 70
136 133 69
138 134 70
132 130 67
142 139 71
142 139 67
146 142 80
153 148 82
142 139 73
148 144 75
140 137 72
153 149 81
148 143 73
147 145 75
154 148 82
152 147 71
154 149 79
153 148 79
158 152 79
157 152 78
151 147 75
160 155 81
156 151 79
160 153 75
158 153 73
163 156 82
159 153 82
162 155 76
164 158 77
163 157 77
162 155 81
159 154 75
165 158 88
167 160 80
169 162 84
167 160 81
165 159 80
167 160 85
164 157 80
169 161 80
168 160 79
167 160 81
165 158 78
165 157 76
163 155 77
169 161 81
167 159 74
168 160 82
167 159 76
161 154 69
165 156 76
167 159 76
168 160 79
168 161 80
166 158 70
166 159 81
165 157 74
167 157 77
163 156 73
162 152 68
168 159 76
167 157 78
163 155 74
161 155 67
161 152 73
163 155 71
165 155 76
167 158 77
163 154 73
161 154 66
157 147 69
169 159 81
161 150 69
168 157 77
162 155 70
156 147 62
162 156 72
161 153 67
159 148 70
161 150 67
165 154 74
158 146 66
162 150 68
156 146 63
152 141 60
151 140 60
151 140 54
157 147 64
154 141 56
155 143 52
146 133 53
156 143 55
149 137 51
148 135 49
153 139 56
152 137 57
158 165 23
171 192 0
171 193 0
171 193 0
171 191 0
173 194 0
169 190 0
173 194 0
172 191 0
173 195 0
170 192 0
171 193 0
171 195 0
172 196 0
173 197 0
174 197 0
173 196 0
173 196 0
169 193 0
172 196 0
170 194 0
173 196 0
173 197 0
170 193 0
172 195 0
173 196 0
171 194 0
172 195 0
172 195 0
173 196 0
167 191 0
171 194 0
171 195 0
171 194 0
173 196 0
170 194 0
172 195 0
172 196 0
171 195 0
174 197 0
171 194 0
173 197 0
171 194 0
172 195 0
173 197 0
172 195 0
173 197 0
170 194 0
168 190 0
170 193 0
170 193 0
171 194 0
173 196 0
170 193 0
170 193 0
170 193 0
173 196 0
172 195 0
173 195 0
171 194 0
172 194 0
171 195 0
170 194 0
169 192 0
170 193 0
172 195 0
169 193 0
168 192 0
169 192 0
169 193 0
170 193 0
172 196 0
169 192 0
169 193 0
167 190 0
172 196 0
169 192 0
175 198 0
171 193 0
170 192 0
169 192 0
170 194 0
167 190 0
169 193 0
167 191 0
167 190 0
168 190 0
168 191 0
170 194 0
168 191 0
170 193 0
172 195 0
170 193 0
169 192 0
171 194 0
169 192 0
170 192 0
167 191 0
147 170 82
62 97 154
62 98 162
61 97 160
61 96 148
62 98 164
63 99 162
62 98 161
61 98 160
62 99 166
63 99 171
61 97 164
62 99 170
63 99 169
62 99 166
62 99 174
61 98 167
62 99 173
61 98 163
62 98 168
62 99 169
62 98 174
61 98 168
62 99 175
62 98 171
63 99 171
61 98 170
62 98 170
62 99 175
62 99 175
61 98 169
62 99 171
62 98 167
62 99 171
61 98 163
62 99 172
62 99 176
62 98 171
62 98 169
61 98 168
62 99 175
62 99 175
62 98 171
62 99 171
63 100 177
62 98 173
62 99 173
62 99 174
62 99 173
62 99 174
62 99 175
63 99 174
62 99 173
63 99 177
62 99 176
62 99 174
62 99 176
61 98 174
63 100 177
61 98 175
62 98 171
62 99 176
62 99 176
62 99 173
63 100 178
62 99 168
62 98 170
62 99 174
63 99 170
62 98 171
62 99 174
62 99 173
62 99 170
61 98 171
62 99 168
62 99 174
62 99 173
62 99 173
62 98 174
62 99 171
62 99 173
63 99 175
62 99 176
62 99 175
62 98 173
62 99 171
62 99 173
62 99 176
61 98 171
62 99 172
63 99 178
62 99 168
61 98 171
62 99 172
62 99 171
62 99 174
62 99 172
63 99 173
62 99 169
62 99 175
62 99 172
62 99 172
62 98 172
62 99 171
63 99 176
62 98 169
63 99 173
62 98 170
63 99 174
63 99 172
62 98 169
62 98 172
62 99 170
62 99 175
62 99 175
62 99 170
62 99 169
62 99 169
62 99 175
61 98 170
62 98 172
63 99 172
62 98 162
62 99 171
62 99 170
63 99 175
63 99 174
62 99 170
62 99 174
61 98 170
61 98 165
62 99 170
63 99 174
62 98 171
63 100 177
63 99 172
63 99 170
62 98 164
62 99 169
62 99 169
62 99 168
62 99 172
62 99 167
62 98 169
62 99 172
61 98 164
61 98 166
62 98 170
61 97 163
61 97 159
62 98 166
62 98 164
61 96 157
62 98 164
62 98 166
63 99 168
62 98 162
62 98 167
62 98 162
62 98 165
62 97 164
61 97 161
62 98 161
60 95 155
61 97 162
61 96 158
62 98 163
60 94 154
61 94 158
60 94 151
62 97 162
59 93 147
59 93 148
59 92 149
59 92 140
61 89 138
62 60 26
55 58 30
71 71 31
69 66 28
68 67 34
77 76 39
75 74 39
77 77 36
77 75 31
82 82 44
80 80 46
100 98 49
88 89 48
90 89 46
97 96 45
109 109 54
86 88 50
96 97 56
106 104 52
108 107 53
108 109 55
112 110 55
116 115 57
127 124 69
115 114 60
119 117 63
122 120 62
128 126 63
132 129 69
126 123 63
131 129 66
136 132 67
136 132 71
140 135 73
137 133 73
149 143 73
145 141 75
146 141 71
146 141 66
134 132 67
147 143 69
154 149 82
148 144 78
151 146 79
141 137 74
156 151 78
146 142 65
153 148 70
154 148 74
157 153 76
157 152 76
158 153 75
162 156 78
159 154 83
157 151 78
165 158 84
164 157 75
163 157 79
161 155 82
162 156 82
169 160 83
160 155 78
167 160 76
162 156 83
167 160 85
170 163 81
163 156 80
163 156 69
163 155 77
165 158 77
163 157 70
168 161 79
165 158 76
168 161 80
168 160 77
166 159 77
164 158 82
165 155 70
166 158 82
170 161 81
169 160 79
164 157 75
165 158 75
165 157 75
163 156 72
167 158 76
166 158 77
167 159 77
165 156 76
169 160 79
165 156 73
167 158 75
163 154 66
160 152 65
158 150 65
162 152 69
167 157 78
163 155 67
162 154 72
161 153 64
163 154 69
164 155 70
162 153 69
162 153 72
159 149 62
159 148 68
156 145 65
156 145 56
157 148 64
164 154 71
159 148 65
156 147 57
157 148 64
159 150 62
156 148 58
155 145 57
158 146 64
151 139 58
152 139 53
148 136 54
146 133 47
153 141 57
144 132 50
145 130 48
146 134 45
146 137 42
171 190 0
171 191 0
171 193 0
174 194 0
169 189 0
170 191 0
172 193 0
170 190 0
170 191 0
170 191 0
171 190 0
173 194 0
172 195 0
171 195 0
171 194 0
173 196 0
170 193 0
172 195 0
175 198 0
170 194 0
171 195 0
175 198 0
171 194 0
170 194 0
170 194 0
173 196 0
169 193 0
173 196 0
169 192 0
172 196 0
169 193 0
171 194 0
172 194 0
170 193 0
174 196 0
173 196 0
173 196 0
172 196 0
170 193 0
168 192 0
173 197 0
170 194 0
170 194 0
172 195 0
172 195 0
168 192 0
173 196 0
171 194 0
171 194 0
170 193 0
173 197 0
171 194 0
169 193 0
169 192 0
172 195 0
171 194 0
173 196 0
172 195 0
171 194 0
170 194 0
168 192 0
171 193 0
171 195 0
173 196 0
166 190 0
169 191 0
165 187 0
166 190 0
166 188 0
168 192 0
167 191 0
170 194 0
167 190 0
170 193 0
170 193 0
166 189 0
167 191 0
168 192 0
167 191 0
169 191 0
169 193 0
167 190 0
169 191 0
169 192 0
170 193 0
168 191 0
168 192 0
170 194 0
166 190 0
168 191 0
168 191 0
161 184 0
170 194 0
173 196 0
165 188 0
164 186 0
166 189 0
170 194 0
136 159 94
62 98 159
62 98 162
62 97 152
61 97 155
62 98 163
61 96 151
63 99 163
61 97 160
63 99 166
62 98 167
63 100 173
61 97 158
62 98 166
62 98 167
62 98 164
62 98 169
62 98 169
62 98 162
62 98 166
63 99 168
62 99 169
62 99 174
62 98 172
63 99 172
61 98 170
62 99 170
61 98 168
62 99 173
62 99 172
62 99 176
61 97 166
62 99 174
61 98 174
62 99 171
62 99 174
62 99 169
62 98 172
62 99 173
62 98 169
62 99 175
62 99 176
62 99 177
62 98 170
62 99 177
62 99 179
63 99 168
62 98 167
62 99 174
62 99 172
62 98 174
62 98 172
62 98 172
62 99 175
62 99 174
62 98 170
62 98 173
62 99 173
62 99 171
62 99 174
62 99 173
61 98 170
62 99 174
61 98 166
62 99 172
62 99 174
62 99 172
62 99 172
62 99 174
62 99 174
61 98 176
62 99 174
62 98 172
62 98 172
62 99 172
62 98 169
62 99 172
63 100 176
62 99 174
62 99 174
62 99 175
62 98 171
62 99 171
62 99 175
61 98 174
62 99 177
62 99 173
62 99 169
62 99 179
62 99 175
62 99 169
62 98 170
62 99 171
61 98 170
62 98 171
62 99 174
63 99 175
63 99 173
63 99 173
62 99 171
62 99 172
62 99 169
62 99 173
62 99 174
62 99 173
62 98 170
62 98 171
62 99 173
62 99 172
61 98 173
62 99 174
62 99 174
62 99 173
63 99 171
63 100 178
62 99 173
63 99 172
62 99 170
63 99 166
62 99 171
62 99 175
62 99 171
63 99 174
62 99 173
62 98 173
62 99 174
63 99 175
62 99 171
62 99 170
61 98 168
61 98 170
61 98 168
62 98 168
63 99 173
62 99 174
62 99 169
62 99 164
62 98 163
63 99 170
62 98 162
62 99 173
62 98 167
62 99 170
63 99 171
62 98 165
61 98 167
62 98 166
62 98 170
62 98 167
62 98 164
61 97 161
62 98 165
62 98 161
61 97 160
61 97 163
62 98 165
62 97 158
62 98 162
61 97 162
62 98 164
62 98 166
62 97 160
63 99 166
61 96 161
61 97 160
60 95 152
61 97 155
61 97 165
62 97 163
59 94 155
61 95 156
60 95 156
61 95 151
59 92 151
60 94 151
59 91 137
72 77 70
62 62 30
62 62 30
74 73 38
69 68 25
63 66 33
83 84 40
69 71 39
74 75 42
75 76 46
83 82 40
85 86 44
99 98 48
83 84 39
102 102 54
94 94 49
90 91 50
113 111 58
107 105 54
99 98 54
108 109 57
114 113 59
121 120 63
121 119 57
117 115 64
124 120 64
131 127 67
121 119 64
128 125 71
130 127 68
122 120 60
136 132 68
136 133 71
138 135 65
141 136 71
144 140 70
146 142 76
149 144 74
135 130 66
144 141 71
142 137 67
148 144 76
145 141 64
145 141 78
144 141 69
151 146 70
160 154 80
159 154 77
145 139 69
154 148 74
152 147 70
165 158 81
155 149 75
157 151 78
159 153 76
167 160 84
157 151 73
153 148 73
166 159 79
156 151 74
160 153 72
159 153 72
162 155 76
165 158 78
170 163 87
165 159 76
167 160 78
166 158 81
162 156 71
163 155 73
166 159 76
163 156 76
164 157 80
165 158 78
165 158 80
167 160 78
167 159 76
161 154 71
172 163 82
168 159 78
170 162 79
169 160 78
160 153 71
169 161 75
165 158 73
168 160 77
167 160 78
166 158 74
167 160 73
161 153 68
164 156 71
168 158 79
165 157 72
163 154 71
164 156 68
163 155 68
160 153 65
166 158 77
164 155 68
163 155 72
159 151 62
163 154 70
159 150 61
157 147 62
162 151 68
157 145 70
159 151 66
159 151 63
159 151 66
164 154 72
162 151 68
153 144 61
161 151 72
154 144 61
149 137 50
154 142 61
152 142 60
149 137 51
149 140 50
155 143 59
150 136 50
148 137 44
152 140 50
139 126 42
145 132 46
157 163 20
170 192 0
173 193 0
171 193 0
171 192 0
168 189 0
171 192 0
170 191 0
168 189 0
172 193 0
168 188 0
171 194 0
169 189 0
170 194 0
170 194 0
174 197 0
170 194 0
172 194 0
172 195 0
170 194 0
170 194 0
172 195 0
172 196 0
172 195 0
170 193 0
170 194 0
170 194 0
170 193 0
171 195 0
171 194 0
174 196 0
171 194 0
172 195 0
170 194 0
169 192 0
169 192 0
169 192 0
170 194 0
170 193 0
173 196 0
172 196 0
173 196 0
170 194 0
171 193 0
169 193 0
169 193 0
174 197 0
170 194 0
172 196 0
170 193 0
172 194 0
170 193 0
171 195 0
170 193 0
170 194 0
173 196 0
173 196 0
168 191 0
171 195 0
169 192 0
171 194 0
167 190 0
171 195 0
172 196 0
173 195 0
171 195 0
170 193 0
172 196 0
170 193 0
170 193 0
171 195 0
173 197 0
170 194 0
171 194 0
170 193 0
171 193 0
168 192 0
167 191 0
171 194 0
169 192 0
171 194 0
170 192 0
171 194 0
171 195 0
167 191 0
167 191 0
170 192 0
170 194 0
167 190 0
169 191 0
164 187 0
171 194 0
170 194 0
171 194 0
170 194 0
165 187 0
171 194 0
167 190 0
170 193 0
99 126 135
63 99 160
62 97 153
61 97 155
62 98 162
62 99 167
62 98 162
62 98 160
62 99 170
63 99 171
62 98 167
62 98 160
61 98 160
62 98 166
62 98 165
62 99 170
61 97 166
62 98 166
61 97 160
61 97 165
62 98 166
62 98 167
60 97 168
62 99 171
62 98 170
62 98 168
62 98 168
63 99 172
62 98 166
63 99 170
62 98 172
62 98 171
62 99 171
62 98 170
62 98 172
63 100 173
62 98 169
62 98 172
62 99 172
62 99 168
62 98 175
62 98 170
61 98 172
62 99 172
63 99 175
61 98 175
62 98 170
62 99 174
63 99 169
62 99 177
62 99 176
62 99 177
62 98 171
62 99 175
62 99 174
62 98 174
62 99 173
63 99 176
62 98 170
61 98 177
63 99 176
62 98 174
62 99 178
62 99 179
62 99 176
61 97 164
62 99 173
62 99 173
62 99 174
63 99 173
62 98 171
62 99 172
62 99 174
62 99 173
62 98 172
62 99 174
62 99 173
62 99 174
62 99 177
63 99 174
62 98 168
62 98 172
63 99 177
62 99 171
61 98 174
62 98 171
63 99 174
62 99 175
62 99 178
62 98 166
62 99 175
62 99 172
63 99 175
62 98 170
62 99 172
63 100 177
63 99 176
62 99 170
62 99 171
62 99 174
63 100 178
62 99 171
62 99 170
63 99 173
63 100 173
62 99 171
63 99 174
62 99 169
62 98 168
62 99 171
62 99 170
62 99 170
62 98 170
63 100 174
61 98 171
62 98 168
62 99 168
62 99 175
62 98 171
62 99 172
62 98 173
62 99 173
63 99 173
61 97 166
63 99 169
63 99 174
62 98 171
61 98 166
62 98 167
63 99 171
62 98 168
62 98 169
61 98 165
63 99 171
62 98 168
61 98 166
63 99 168
62 99 169
62 98 169
63 99 170
62 98 163
62 98 169
62 98 164
62 98 165
63 99 173
62 98 166
62 99 169
62 99 169
61 98 161
61 98 163
62 98 167
63 99 166
61 98 167
61 97 163
61 97 161
62 98 161
62 98 166
62 98 165
62 97 163
62 97 160
61 97 159
61 97 158
62 97 161
60 96 156
61 97 157
62 97 162
61 97 159
61 96 155
61 97 156
61 97 161
61 95 156
61 95 152
59 92 150
61 95 154
58 91 142
58 91 142
68 77 77
69 64 26
73 72 34
73 73 33
72 72 34
80 78 28
82 79 32
76 78 33
76 74 32
93 91 47
86 87 43
90 90 48
87 87 44
101 99 45
101 100 51
92 93 47
102 102 48
103 104 54
112 111 62
112 111 53
107 106 55
109 109 61
110 109 62
125 122 63
121 119 62
118 116 55
126 123 64
132 128 65
138 134 62
126 123 58
132 128 64
144 139 75
130 129 64
140 136 71
137 133 71
138 134 66
137 134 70
140 137 68
141 137 62
140 137 67
147 142 79
150 144 77
148 144 70
140 136 75
152 148 75
156 150 75
148 145 68
149 144 70
159 153 73
158 153 76
150 146 65
156 149 69
159 153 75
161 155 78
159 153 77
165 159 84
164 157 82
159 152 72
165 159 74
163 157 77
160 155 71
164 157 78
164 158 76
166 159 80
166 160 75
166 158 79
161 154 75
166 158 78
167 158 82
169 162 81
164 157 78
168 160 82
175 166 90
162 154 73
160 155 70
167 160 77
161 155 73
167 160 77
166 158 76
168 160 76
164 157 74
162 156 74
163 156 69
166 156 75
163 155 72
162 154 71
169 159 79
164 153 69
161 153 74
166 157 75
166 157 75
165 156 76
164 157 74
160 153 62
163 155 73
159 150 66
161 153 71
170 160 78
162 151 67
164 153 72
163 155 73
163 155 68
164 156 68
159 150 68
156 145 63
156 147 59
161 150 70
158 146 61
154 143 59
157 146 61
157 146 56
156 144 67
155 144 64
147 136 55
157 144 63
152 138 54
151 142 52
153 144 53
149 137 53
148 136 49
150 139 51
142 128 48
140 125 44
143 126 48
146 133 50
164 180 13
168 188 0
171 191 0
172 192 0
169 189 0
172 191 0
169 187 0
170 192 0
170 191 0
170 190 0
172 192 0
171 192 0
172 192 0
170 193 0
172 194 0
171 195 0
167 191 0
172 196 0
172 196 0
171 195 0
173 196 0
173 196 0
170 195 0
173 197 0
171 195 0
171 194 0
172 195 0
172 196 0
167 191 0
173 196 0
171 195 0
170 193 0
172 195 0
170 193 0
172 196 0
174 197 0
173 196 0
170 193 0
173 196 0
170 194 0
172 195 0
173 196 0
170 194 0
171 193 0
171 194 0
168 191 0
174 196 0
172 194 0
171 194 0
170 193 0
171 195 0
171 194 0
169 192 0
171 194 0
174 197 0
169 191 0
169 192 0
174 197 0
168 192 0
165 189 0
168 192 0
174 197 0
169 193 0
171 194 0
173 196 0
173 195 0
172 195 0
168 190 0
169 192 0
170 193 0
170 193 0
173 194 0
170 194 0
174 197 0
170 194 0
168 192 0
170 194 0
174 197 0
168 192 0
167 190 0
169 193 0
169 192 0
169 193 0
166 189 0
170 193 0
165 188 0
169 193 0
168 190 0
173 195 0
172 195 0
164 187 0
171 192 0
171 195 0
168 191 0
166 189 0
172 195 0
167 191 0
164 187 0
166 189 25
77 109 150
61 97 157
61 97 156
62 98 158
62 98 163
62 98 161
62 98 164
62 98 164
62 97 160
62 99 172
62 98 162
63 99 168
62 99 168
62 98 168
62 98 170
61 98 162
61 97 166
62 98 166
62 99 174
62 99 169
62 99 165
61 98 166
62 99 169
61 98 167
62 99 174
62 99 169
63 99 172
61 98 170
62 98 167
62 98 170
62 99 175
62 99 173
63 99 173
62 98 175
61 97 168
63 99 174
62 99 174
61 98 171
62 99 172
62 99 172
62 99 174
61 98 167
61 98 169
62 99 175
62 99 167
62 99 178
62 99 176
63 99 172
62 99 172
62 99 171
62 98 172
63 99 176
62 98 169
61 98 172
63 99 171
62 99 172
62 98 169
62 99 173
62 99 172
62 99 171
62 99 176
62 98 169
61 98 168
61 98 172
62 98 170
61 98 175
63 100 179
62 98 169
62 99 173
62 99 173
63 99 176
61 98 168
62 99 173
62 99 176
63 99 171
62 98 170
62 99 174
62 99 174
62 99 174
62 99 171
63 99 175
62 99 173
62 99 176
62 99 176
62 99 174
62 99 172
62 99 174
62 99 171
63 99 175
62 98 171
62 98 166
62 99 175
63 99 174
62 98 170
62 98 172
62 98 165
62 99 172
62 98 168
62 98 169
62 99 168
62 99 172
62 99 176
62 98 170
62 99 174
62 99 172
62 98 170
63 99 174
63 100 177
62 98 166
62 98 169
63 99 170
62 99 169
62 98 164
62 99 170
63 99 166
63 99 172
61 98 170
62 99 166
63 100 174
62 98 168
62 98 164
61 98 169
63 99 171
62 99 170
62 99 171
62 99 169
62 98 170
62 98 164
62 99 170
62 98 164
62 99 169
63 99 173
62 98 168
62 99 169
62 99 169
62 98 166
61 98 167
62 99 169
62 99 168
62 98 165
62 99 171
62 99 168
62 98 167
62 98 162
62 98 169
61 98 160
61 97 162
62 98 164
62 99 167
63 99 168
61 97 165
62 97 164
62 98 166
62 98 163
62 99 168
62 98 165
62 99 169
61 98 164
61 97 159
61 96 156
61 97 157
62 97 159
62 97 163
62 97 158
62 97 157
62 97 160
60 95 154
61 96 158
61 96 156
61 96 158
61 95 158
59 92 148
59 93 141
59 93 149
58 91 142
59 92 145
56 75 101
69 68 29
71 70 31
80 77 34
66 66 31
71 69 26
72 71 32
87 87 35
83 80 43
74 77 38
88 88 35
82 83 43
98 97 46
83 84 41
90 89 40
83 85 48
101 101 57
104 102 51
101 100 50
109 107 57
104 105 60
113 111 61
111 111 62
112 111 57
120 120 54
124 122 58
122 120 62
126 122 59
133 130 70
126 123 61
127 125 65
129 127 58
137 133 65
134 131 62
132 128 63
138 135 69
142 138 63
136 132 61
150 145 73
141 137 73
142 138 67
151 145 75
141 138 63
160 152 74
154 149 71
150 145 70
150 145 71
150 145 69
152 147 73
153 147 72
154 149 75
153 148 69
155 148 76
155 149 75
166 159 81
160 154 73
161 154 74
161 155 78
161 155 71
166 158 81
161 155 75
165 158 80
161 154 74
163 157 69
162 156 75
164 159 73
168 162 76
163 156 72
164 154 74
161 155 71
162 155 74
171 161 79
167 158 75
167 159 79
164 155 76
168 160 83
166 158 77
167 157 76
162 154 73
165 157 70
167 159 75
164 156 75
167 160 75
166 157 77
166 157 75
161 154 66
162 154 69
166 159 74
158 149 68
162 154 69
166 158 77
163 153 67
154 146 61
167 159 76
165 155 74
163 155 66
156 147 61
162 152 67
160 151 66
163 154 65
160 152 63
155 144 59
156 146 64
157 149 65
160 150 58
158 150 64
162 153 63
151 139 58
156 145 65
153 143 58
158 147 62
155 146 61
156 145 54
154 144 62
157 145 58
151 139 56
154 145 53
152 139 61
152 142 51
152 139 53
154 142 57
146 130 48
151 138 50
146 130 50
151 153 29
167 185 0
172 192 0
169 189 0
170 190 0
169 190 0
172 192 0
170 190 0
171 192 0
172 191 0
171 192 0
172 192 0
172 192 0
172 195 0
174 197 0
170 194 0
172 195 0
173 196 0
172 195 0
169 193 0
171 195 0
169 192 0
171 195 0
173 196 0
170 194 0
171 194 0
170 193 0
167 190 0
172 196 0
170 193 0
174 198 0
172 196 0
174 198 0
172 195 0
172 195 0
171 195 0
171 195 0
171 194 0
171 194 0
174 197 0
166 189 0
170 194 0
171 195 0
170 194 0
170 194 0
170 193 0
171 194 0
171 194 0
172 195 0
172 196 0
171 194 0
170 194 0
170 194 0
171 194 0
172 196 0
173 195 0
170 193 0
170 193 0
168 191 0
171 195 0
171 195 0
169 193 0
172 196 0
171 194 0
169 192 0
170 194 0
172 195 0
169 193 0
168 191 0
171 195 0
169 192 0
169 192 0
170 193 0
169 192 0
169 191 0
170 193 0
172 195 0
170 194 0
172 195 0
170 193 0
170 193 0
168 191 0
172 195 0
171 194 0
166 190 0
170 194 0
166 189 0
167 191 0
167 190 0
169 192 0
171 194 0
170 193 0
167 190 0
171 194 0
170 193 0
166 190 0
169 192 0
169 192 0
166 190 0
157 180 57
62 97 154
62 98 158
62 98 158
62 97 154
61 97 156
62 98 163
62 98 160
61 97 153
62 98 161
62 99 170
61 97 159
62 98 163
62 98 163
62 98 165
62 98 161
62 98 163
62 99 167
62 98 166
62 99 168
62 98 161
62 98 168
62 98 171
63 99 174
62 98 169
61 98 166
62 99 171
62 99 169
62 99 173
63 99 171
62 99 176
62 98 171
63 99 170
62 98 169
62 99 174
63 99 175
61 98 166
61 98 169
62 99 169
61 98 172
62 99 174
62 98 173
62 99 175
62 99 173
62 98 175
62 99 172
62 99 176
62 98 172
62 99 174
62 98 171
61 98 171
62 99 171
62 99 175
62 99 173
61 98 172
62 99 174
62 99 171
63 99 174
62 99 174
62 99 174
62 99 177
63 99 177
62 99 175
62 99 178
63 99 172
62 99 173
62 99 173
62 99 173
63 99 173
62 99 173
62 99 175
62 99 177
63 100 174
63 99 171
62 99 173
63 99 173
62 99 173
62 98 169
62 99 171
62 98 173
62 98 169
62 98 171
62 99 175
62 98 170
62 99 172
62 99 173
62 99 175
62 98 170
62 99 173
62 99 176
63 100 179
62 99 169
62 99 168
62 99 172
62 99 175
62 99 174
62 98 169
62 99 171
62 98 168
62 99 173
61 98 168
62 99 173
63 99 175
62 99 174
62 99 171
62 99 170
62 98 168
62 99 176
63 99 172
62 99 171
63 99 171
62 99 172
62 98 170
62 99 172
62 99 169
62 98 169
62 99 172
62 99 174
62 99 174
63 99 172
63 100 178
62 99 171
62 98 168
62 99 168
61 97 162
62 99 172
62 99 173
62 99 168
62 99 171
62 98 167
61 97 165
63 99 172
62 99 171
62 99 172
62 99 169
61 97 165
62 98 164
62 99 171
62 99 168
62 98 163
62 98 166
62 99 170
62 98 162
61 98 168
61 98 167
62 98 163
62 98 167
62 98 167
61 97 167
62 98 168
62 98 166
62 98 162
61 97 158
61 97 161
62 98 161
63 99 169
62 98 161
62 98 170
62 98 165
63 98 166
62 98 165
61 97 159
62 97 159
63 98 160
61 97 160
61 96 158
61 97 163
61 97 159
61 97 164
61 95 154
61 96 152
59 94 149
60 94 151
60 93 146
60 95 150
60 94 152
59 92 141
64 85 117
71 69 26
74 70 33
75 75 38
72 72 22
72 72 33
72 72 33
67 65 32
88 85 39
75 75 38
87 86 35
89 89 47
83 84 39
99 99 43
93 93 46
101 100 50
98 98 50
93 96 54
109 106 54
109 106 54
100 101 48
103 101 53
108 106 53
119 119 62
121 118 56
125 122 56
126 123 56
125 122 56
127 123 65
134 131 67
130 127 62
126 124 61
141 138 60
126 123 55
137 134 61
142 137 67
142 139 66
135 131 65
146 142 73
137 134 61
143 138 70
151 145 69
144 140 66
151 145 66
157 151 77
151 146 71
145 141 69
151 146 76
157 151 73
153 146 74
163 157 78
153 149 72
155 149 78
158 152 73
158 151 75
156 150 71
156 150 68
161 155 78
163 156 78
160 153 74
164 156 71
159 153 75
157 151 68
161 154 75
158 151 64
165 157 85
163 155 74
167 159 82
166 158 77
167 158 79
167 159 80
164 157 74
166 158 77
164 155 73
167 159 75
167 159 75
165 156 76
164 156 74
161 154 75
161 152 67
165 157 75
161 154 68
166 159 68
164 155 70
164 157 72
164 157 77
156 149 64
163 154 72
158 151 66
161 152 68
163 154 72
159 150 61
164 155 70
163 154 71
163 153 68
163 153 69
165 155 72
161 152 68
162 154 74
160 153 62
163 153 72
160 150 68
160 150 66
159 148 58
160 152 67
160 149 68
159 148 58
158 146 65
155 144 61
153 144 57
159 149 55
160 149 63
159 148 62
152 141 57
154 142 59
154 141 57
152 141 57
147 134 45
155 143 68
146 132 47
147 132 45
143 131 43
137 124 31
144 130 44
163 174 21
170 190 0
169 188 0
171 192 0
168 187 0
167 188 0
171 193 0
170 192 0
173 194 0
170 189 0
168 188 0
168 189 0
171 193 0
172 192 0
173 197 0
171 195 0
172 195 0
173 197 0
171 195 0
172 196 0
174 197 0
168 192 0
169 193 0
172 195 0
170 194 0
171 195 0
171 195 0
170 193 0
170 193 0
170 194 0
172 196 0
171 195 0
170 194 0
170 195 0
170 193 0
173 197 0
169 192 0
172 196 0
167 191 0
173 196 0
171 195 0
172 195 0
170 194 0
169 192 0
171 195 0
172 195 0
169 191 0
170 193 0
169 192 0
171 194 0
172 194 0
168 191 0
168 192 0
166 190 0
172 195 0
168 191 0
170 193 0
173 195 0
166 189 0
168 191 0
170 193 0
171 194 0
169 191 0
171 194 0
171 195 0
170 193 0
171 194 0
170 193 0
173 196 0
171 194 0
171 195 0
168 191 0
171 194 0
167 190 0
168 191 0
170 193 0
170 193 0
169 192 0
168 192 0
168 191 0
170 193 0
168 191 0
171 195 0
170 193 0
168 191 0
167 190 0
173 196 0
169 192 0
170 194 0
167 190 0
170 194 0
169 192 0
166 188 0
164 187 0
166 189 0
170 193 0
165 188 0
169 191 0
169 191 0
141 164 86
60 96 150
62 98 157
62 98 157
62 98 163
62 98 163
61 97 155
62 98 159
62 98 163
61 98 160
62 98 165
61 97 153
62 99 164
61 97 160
61 97 160
62 98 167
61 98 171
62 98 167
62 98 167
62 98 163
61 98 166
62 99 173
62 98 171
62 98 166
61 98 171
61 98 168
62 98 165
62 98 164
62 98 168
62 98 170
62 99 173
62 98 172
62 99 173
62 99 170
61 97 166
62 98 173
61 98 171
63 99 175
62 98 173
62 98 167
62 99 171
62 99 176
62 99 173
62 99 173
62 99 171
62 98 170
61 98 171
62 98 168
62 99 169
62 98 173
62 98 172
62 99 173
62 99 173
62 99 175
62 99 173
62 98 171
62 99 175
62 99 176
62 99 171
62 98 167
62 99 172
62 98 170
62 99 169
62 99 174
62 98 174
62 99 177
62 99 172
62 99 173
62 99 174
62 99 169
62 99 170
62 98 173
62 99 172
63 99 174
62 99 171
61 98 169
63 99 172
62 98 169
62 99 172
63 99 173
62 98 165
62 99 172
62 99 173
61 98 170
62 99 171
61 98 170
61 98 167
62 99 172
62 98 170
62 99 171
62 99 172
61 98 167
62 98 166
61 98 168
63 99 172
62 99 176
62 98 169
63 99 175
62 98 173
62 99 174
62 99 174
62 99 171
62 99 171
62 98 171
62 99 169
62 98 173
62 99 172
63 99 173
63 99 170
62 99 174
62 99 169
62 98 169
62 98 168
62 99 172
62 98 168
62 98 165
62 98 169
62 98 170
62 98 170
62 99 171
62 99 168
61 98 167
62 98 170
61 98 164
62 99 173
63 99 172
62 99 171
62 98 163
63 99 170
62 98 168
62 98 164
62 98 167
63 100 174
62 99 170
63 99 169
62 98 166
62 98 173
62 98 166
62 99 171
62 98 167
62 99 166
62 99 167
63 99 168
62 98 168
61 97 163
62 99 166
63 99 168
62 97 164
62 98 164
62 98 169
62 98 165
62 99 169
62 98 167
61 97 163
62 98 167
61 97 156
62 98 164
62 98 168
62 97 159
62 98 161
62 98 165
61 98 165
62 98 164
62 97 160
61 97 161
61 97 159
61 96 152
62 97 158
61 96 157
61 95 156
61 96 157
61 97 158
61 96 155
60 95 155
61 96 158
60 93 147
59 92 147
56 86 127
71 68 24
67 66 32
70 68 27
75 72 28
78 76 32
71 68 29
84 80 38
89 87 33
93 90 39
84 83 38
81 83 32
96 93 45
95 93 48
89 90 43
92 91 48
104 103 53
107 104 45
98 98 46
106 105 53
109 107 55
114 114 54
113 110 54
108 109 54
115 113 58
113 112 56
129 126 64
130 125 62
134 131 68
128 125 63
132 129 60
137 132 63
125 122 61
131 128 59
136 132 70
141 136 62
132 128 59
141 136 65
137 133 65
142 137 62
130 126 59
141 136 64
145 141 73
152 147 76
147 142 65
151 146 67
146 141 70
151 146 76
154 149 67
152 147 71
155 149 74
160 154 77
158 152 70
149 144 70
158 152 75
158 152 75
155 148 72
163 156 77
163 156 75
160 154 71
161 155 70
158 152 67
163 156 73
162 154 76
162 155 69
162 156 74
166 157 80
162 154 76
163 156 74
162 155 65
165 159 70
163 156 71
163 156 76
160 152 67
162 154 71
166 159 77
162 154 73
166 158 75
162 155 66
163 155 74
165 157 74
169 161 82
168 160 81
167 157 74
164 155 63
165 158 67
161 153 67
166 158 70
168 157 78
160 153 71
165 156 74
156 148 62
165 156 69
161 151 66
164 155 70
162 153 68
160 149 66
160 151 65
156 145 63
155 146 62
155 146 61
160 150 66
156 148 61
158 148 64
157 147 59
155 147 56
161 150 63
158 147 63
154 144 56
152 140 56
164 155 63
157 148 62
157 147 56
154 143 59
154 142 53
154 142 56
152 140 57
150 139 51
149 137 49
152 139 53
149 136 45
144 127 44
142 129 44
151 148 37
169 187 0
172 193 0
170 191 0
172 191 0
172 193 0
171 190 0
170 189 0
171 192 0
170 191 0
170 191 0
170 190 0
170 192 0
167 186 0
172 192 0
170 194 0
170 194 0
173 197 0
173 197 0
174 197 0
174 197 0
174 196 0
170 194 0
174 197 0
171 195 0
172 196 0
171 194 0
171 195 0
171 194 0
171 194 0
171 195 0
172 195 0
170 193 0
168 192 0
169 193 0
172 195 0
169 193 0
173 196 0
168 192 0
171 194 0
172 195 0
174 197 0
172 196 0
170 193 0
174 198 0
171 195 0
172 195 0
167 191 0
169 192 0
170 194 0
173 197 0
172 195 0
171 194 0
171 195 0
168 191 0
169 193 0
170 193 0
171 194 0
169 193 0
171 194 0
171 194 0
170 193 0
171 194 0
170 195 0
170 193 0
169 193 0
169 192 0
168 192 0
169 193 0
170 194 0
169 191 0
165 188 0
168 192 0
170 193 0
170 194 0
168 191 0
172 196 0
172 195 0
169 194 0
170 194 0
168 191 0
167 191 0
168 191 0
169 192 0
164 188 0
170 192 0
170 193 0
171 194 0
171 194 0
166 189 0
169 192 0
171 195 0
170 193 0
172 195 0
169 192 0
163 185 0
167 190 0
168 191 0
167 191 0
171 194 0
126 150 111
61 96 152
62 98 161
59 95 140
61 97 151
60 96 156
61 97 153
61 97 161
61 97 150
62 98 162
61 97 161
62 98 165
62 99 167
62 98 164
62 98 160
61 97 155
61 98 169
63 99 167
62 98 167
61 97 163
62 98 164
63 99 171
62 98 165
62 99 169
62 98 169
62 98 167
61 97 164
61 98 168
62 98 170
62 99 174
61 98 168
62 98 167
61 98 166
62 99 169
62 99 172
62 99 169
62 99 173
62 98 164
61 98 167
62 99 172
62 99 174
61 97 166
62 98 171
61 98 174
62 98 167
62 98 169
63 99 174
62 98 167
61 98 172
63 99 176
62 98 168
62 98 173
63 99 177
62 98 168
62 99 170
62 99 176
62 99 174
63 99 173
61 98 172
63 99 175
62 98 165
62 99 175
62 98 172
62 99 172
62 99 174
62 99 174
62 98 171
62 99 171
62 99 171
62 99 176
62 98 173
62 99 172
62 99 171
63 99 170
62 99 170
62 98 169
62 98 169
63 99 172
62 99 174
62 99 173
62 98 171
62 99 173
62 98 169
64 100 177
62 99 176
62 99 175
62 98 166
62 99 171
62 99 173
62 99 171
62 99 171
62 99 173
63 100 178
62 98 167
62 99 173
62 99 173
62 99 172
62 99 169
62 99 173
62 98 166
62 98 168
62 99 174
62 98 169
63 99 171
62 99 171
62 99 172
63 99 174
62 98 169
62 98 170
62 98 165
62 98 171
62 98 163
62 99 175
62 98 170
62 99 170
62 98 169
62 99 167
62 99 170
62 99 173
63 99 172
62 98 167
62 99 174
61 98 168
62 98 166
61 98 162
61 98 165
63 99 171
63 99 169
62 98 169
62 98 163
62 98 167
62 98 165
62 98 167
62 98 164
62 99 171
63 99 171
62 99 171
62 98 165
63 99 171
62 98 165
62 98 164
62 98 166
62 98 166
61 97 164
62 98 166
63 99 169
61 98 164
62 98 169
62 98 163
62 98 166
62 98 164
61 98 162
61 97 159
62 98 164
61 97 165
63 98 164
62 98 164
63 99 166
63 99 169
63 98 163
62 98 165
62 97 164
63 98 163
60 96 158
61 97 159
62 98 164
61 96 159
61 97 159
61 96 153
61 96 154
60 95 154
61 95 151
61 96 154
60 94 142
62 96 158
59 91 141
60 93 140
60 93 146
80 78 55
62 59 23
81 77 35
81 77 30
75 72 26
86 80 31
87 85 33
69 72 37
85 85 33
94 93 43
92 93 46
87 87 39
91 91 34
96 95 39
95 94 42
102 100 47
101 99 45
104 103 44
111 107 46
101 102 43
120 118 54
111 109 51
115 113 49
122 120 55
125 121 58
126 122 60
124 122 57
118 116 56
120 117 59
123 121 54
131 128 59
126 123 60
130 125 58
132 130 57
132 128 58
135 132 58
132 130 59
141 136 71
143 138 66
148 143 70
146 141 65
147 142 62
139 134 61
154 147 69
157 149 74
155 150 75
158 151 79
157 150 75
149 143 74
153 147 67
147 143 67
156 150 71
155 149 73
156 150 71
157 150 71
158 151 72
153 147 59
157 150 69
159 153 80
155 149 68
162 155 72
159 152 71
162 155 75
164 157 69
158 153 66
157 150 61
164 156 71
157 152 69
161 155 66
159 154 66
162 155 69
163 157 73
166 158 80
160 154 62
166 159 73
158 150 63
166 158 70
165 158 75
166 157 79
163 155 68
166 158 76
164 156 75
165 157 71
162 153 71
162 155 67
162 154 69
164 155 68
163 155 69
162 154 70
163 155 67
154 145 59
161 152 72
161 152 71
160 151 68
161 150 68
162 154 70
162 153 68
158 151 58
160 152 68
154 146 58
153 144 59
160 149 66
162 152 68
161 152 67
156 147 63
152 142 59
156 147 64
154 142 56
152 141 50
157 145 54
158 146 64
156 143 61
153 140 59
153 143 57
152 140 52
149 138 49
145 135 47
148 135 46
147 135 49
142 130 39
148 133 45
139 127 35
164 179 12
169 188 0
169 189 0
169 186 0
169 187 0
170 188 0
171 192 0
170 189 0
170 189 0
168 188 0
169 190 0
171 192 0
172 192 0
170 190 0
173 196 0
169 193 0
172 195 0
174 197 0
174 197 0
168 191 0
171 195 0
172 196 0
169 193 0
171 194 0
171 194 0
174 197 0
174 197 0
168 192 0
173 196 0
171 195 0
170 193 0
172 196 0
171 195 0
170 193 0
172 195 0
171 195 0
171 195 0
171 195 0
172 195 0
172 194 0
171 195 0
170 193 0
170 194 0
170 193 0
170 194 0
170 193 0
172 195 0
170 193 0
169 193 0
172 195 0
172 195 0
170 192 0
173 196 0
171 194 0
166 190 0
173 195 0
171 194 0
170 194 0
171 194 0
174 196 0
168 192 0
168 192 0
173 196 0
167 191 0
170 193 0
171 195 0
170 194 0
170 194 0
170 193 0
167 190 0
171 194 0
172 196 0
168 191 0
169 193 0
168 191 0
170 194 0
168 191 0
169 192 0
167 190 0
166 190 0
168 191 0
167 190 0
173 196 0
168 192 0
171 193 0
166 190 0
170 192 0
172 196 0
169 193 0
170 194 0
168 191 0
167 190 0
167 190 0
169 193 0
166 189 0
166 189 0
166 189 0
168 191 0
170 194 0
168 191 0
111 138 120
62 98 155
62 97 150
61 97 158
61 97 153
61 97 161
62 98 164
62 97 156
62 98 163
62 98 166
61 97 159
62 99 167
61 98 166
61 97 160
62 98 164
62 98 164
61 97 159
62 98 160
62 99 169
61 97 160
62 98 167
62 99 163
62 98 166
62 98 171
61 97 166
63 99 170
62 98 170
62 99 170
62 99 176
61 98 168
62 99 170
61 97 162
62 98 169
62 98 166
62 99 176
62 98 166
62 99 171
61 98 167
62 98 171
63 99 174
62 99 171
62 99 173
62 98 175
61 98 171
62 99 175
62 98 167
63 99 174
62 99 173
62 99 173
63 99 173
62 99 168
62 98 172
62 99 170
63 99 173
61 98 168
62 99 173
62 98 170
62 98 169
62 99 176
62 99 171
62 98 171
62 99 171
62 99 175
62 99 173
62 99 173
61 98 172
62 98 169
62 98 169
63 100 175
62 99 173
62 98 169
61 98 167
62 99 170
62 98 165
63 99 173
62 99 170
62 99 174
62 99 172
61 98 169
62 98 166
62 99 174
62 99 170
62 99 173
61 98 166
62 98 166
61 98 172
62 99 170
62 99 176
61 98 171
61 98 170
62 99 173
61 98 172
62 98 169
61 98 168
62 99 167
61 98 166
62 99 175
62 99 171
62 98 169
61 98 168
62 98 167
62 98 167
62 98 166
62 98 169
63 99 172
62 99 173
62 99 174
62 98 166
62 99 172
62 99 168
62 98 167
63 99 169
62 99 169
62 99 168
63 99 171
62 98 168
62 99 171
61 98 165
63 99 172
62 98 168
62 99 173
62 98 165
61 98 167
61 97 166
62 98 170
62 98 163
62 99 169
62 99 169
62 98 167
63 99 169
61 97 163
63 99 174
63 99 170
62 99 167
62 99 170
62 99 167
62 98 167
62 99 169
61 98 164
62 98 162
63 99 169
62 98 168
63 99 171
62 98 165
63 99 169
63 99 166
63 99 168
63 99 167
61 97 163
62 98 164
61 97 157
62 98 167
62 99 167
61 97 161
62 98 163
62 98 162
62 99 170
61 97 161
62 97 160
61 96 155
62 97 162
61 96 159
62 98 162
62 98 162
62 98 164
62 97 160
61 96 157
61 96 153
62 97 161
61 96 154
62 97 159
60 95 154
60 95 151
61 95 153
61 95 152
59 93 149
59 93 148
59 91 141
69 73 65
80 72 20
79 73 29
77 74 28
79 78 30
81 80 38
73 76 33
73 74 38
81 78 38
90 88 35
98 95 29
95 93 43
91 89 38
104 100 50
93 93 47
88 90 41
93 92 43
103 100 49
120 117 56
105 105 45
110 109 55
113 111 45
111 108 56
102 102 49
122 118 54
120 118 52
122 117 55
124 122 55
127 125 57
131 127 61
131 128 63
139 134 62
138 132 59
139 134 61
136 131 64
134 130 58
135 131 58
141 136 66
146 141 67
134 131 60
144 139 69
141 136 65
139 135 59
146 141 72
146 142 60
156 149 69
155 149 73
157 151 74
150 145 63
150 144 72
161 153 75
158 151 75
158 152 69
154 148 69
153 147 70
164 157 83
154 148 67
154 148 75
156 150 74
166 159 80
158 151 73
160 153 69
156 151 66
164 157 69
159 151 67
162 155 69
164 157 74
165 156 69
157 152 62
167 160 80
164 157 73
161 155 72
158 151 61
163 154 74
167 158 74
163 154 70
158 151 65
158 151 68
160 153 62
164 156 74
164 156 76
164 157 73
168 159 72
166 158 70
162 153 64
160 152 61
161 154 66
165 156 69
160 152 63
163 155 67
160 149 64
163 153 69
160 151 63
160 151 67
152 143 51
154 144 53
158 149 64
160 152 64
157 149 61
158 148 56
160 150 65
155 146 61
159 150 66
160 151 61
154 145 53
153 143 57
151 140 53
155 147 56
153 144 51
153 143 56
155 143 59
155 144 54
145 134 52
149 139 46
147 135 50
156 144 60
158 145 64
150 135 48
152 139 58
144 131 43
141 128 39
151 150 35
169 189 0
171 192 0
171 191 0
170 190 0
168 187 0
169 189 0
170 192 0
171 190 0
172 194 0
173 192 0
172 192 0
170 190 0
169 189 0
170 190 0
168 189 0
173 196 0
171 194 0
173 196 0
171 195 0
169 193 0
171 194 0
174 197 0
172 196 0
174 196 0
169 192 0
169 193 0
171 195 0
172 196 0
168 192 0
173 196 0
169 193 0
174 197 0
172 195 0
171 195 0
170 194 0
170 193 0
173 197 0
171 195 0
171 194 0
168 191 0
170 194 0
170 193 0
167 190 0
172 195 0
170 194 0
171 194 0
171 195 0
169 192 0
172 194 0
170 193 0
170 194 0
171 194 0
170 194 0
169 193 0
172 195 0
171 193 0
168 191 0
171 193 0
174 197 0
169 192 0
169 192 0
167 191 0
169 193 0
169 193 0
170 192 0
171 194 0
174 197 0
171 194 0
173 196 0
170 193 0
166 190 0
170 194 0
167 191 0
172 195 0
173 196 0
168 191 0
167 191 0
166 190 0
168 191 0
166 190 0
169 193 0
168 191 0
166 190 0
171 194 0
166 189 0
171 194 0
171 195 0
167 191 0
170 194 0
169 192 0
167 190 0
167 190 0
169 192 0
170 193 0
168 191 0
165 188 0
170 193 0
170 192 0
168 191 0
169 192 0
89 118 141
61 97 154
62 98 158
63 98 157
62 97 155
61 97 151
61 98 162
61 97 156
61 98 164
62 98 162
62 98 159
61 97 153
62 98 161
61 97 163
62 98 165
63 99 172
61 97 165
63 99 166
61 97 160
63 99 175
62 98 164
62 98 162
62 99 168
62 98 171
62 98 166
62 98 168
62 98 171
62 98 166
62 99 172
63 99 169
61 97 163
62 99 172
63 99 171
63 99 170
62 98 172
63 99 173
62 99 168
62 99 172
62 99 173
62 98 165
61 98 165
62 99 172
62 98 162
61 98 167
61 98 171
61 97 165
62 98 166
63 99 176
62 98 168
62 98 169
63 99 174
62 98 172
62 99 174
62 99 171
62 99 174
62 98 171
63 99 174
62 98 169
62 99 172
61 98 170
63 100 180
63 99 171
63 100 176
62 99 175
62 99 173
62 99 172
62 98 171
62 99 174
61 98 172
63 99 169
62 99 172
62 99 173
63 100 171
62 99 174
62 99 169
62 99 172
63 99 172
62 99 173
61 98 167
62 98 166
62 98 168
62 98 167
62 99 171
62 99 172
63 99 178
62 99 174
62 99 171
63 99 171
62 99 173
62 98 170
63 99 173
62 99 173
62 99 173
62 99 173
62 99 175
63 99 170
62 99 171
61 98 170
63 99 170
63 100 172
62 99 172
62 98 166
62 99 170
62 99 171
62 98 162
62 99 172
62 98 170
62 99 170
62 98 167
62 99 170
62 98 166
63 99 173
61 98 171
63 99 174
62 98 170
62 99 174
63 99 168
62 99 171
62 99 167
63 99 171
62 99 170
62 99 171
62 99 169
62 98 167
62 98 165
62 98 167
62 99 168
62 98 166
62 98 168
61 98 168
62 98 169
62 98 165
62 99 170
62 98 169
62 98 164
62 99 170
62 98 164
62 99 167
62 98 166
62 99 167
62 98 164
62 98 161
61 97 157
62 98 162
62 98 168
62 98 159
62 99 166
62 98 163
61 97 161
62 98 164
62 99 165
62 98 162
62 98 166
62 98 165
61 98 160
62 98 160
62 98 164
61 97 161
62 97 160
62 98 166
62 97 152
61 97 160
62 98 160
63 99 170
61 97 161
61 97 151
62 98 162
62 97 158
62 98 162
62 97 159
61 96 158
62 98 163
61 96 156
60 94 145
60 94 141
59 93 149
60 94 154
59 93 148
69 79 84
83 79 22
74 72 21
79 75 28
78 75 23
85 82 33
87 82 25
79 78 33
85 85 44
91 89 34
95 92 30
87 88 37
89 90 41
105 103 46
98 96 40
101 99 42
103 103 46
99 99 41
114 111 45
111 110 50
113 110 56
106 104 53
117 115 48
116 113 55
111 109 53
123 120 53
123 119 52
125 122 55
125 122 60
127 125 56
138 135 63
136 131 64
135 131 55
124 121 60
133 130 57
137 133 61
137 131 63
129 124 55
143 138 59
141 137 57
149 144 71
144 139 65
142 138 58
155 148 74
149 144 63
150 144 60
157 150 76
148 144 65
153 146 62
152 148 72
159 151 72
155 149 71
154 147 73
158 150 74
155 149 65
163 156 78
159 151 64
160 154 73
156 149 68
163 156 75
164 156 81
163 156 73
158 150 67
158 152 64
160 152 71
163 155 72
161 153 69
166 157 74
161 154 68
165 156 75
160 152 69
162 153 73
164 156 70
161 154 65
162 154 66
168 161 75
161 153 65
162 154 64
160 154 62
162 154 66
163 154 63
162 153 67
160 152 67
164 156 68
164 155 74
165 156 67
159 149 67
157 149 58
166 157 75
160 150 66
162 153 66
159 149 64
159 151 65
158 150 64
156 148 57
155 146 59
156 147 57
165 155 72
159 151 62
150 140 54
158 148 68
160 152 59
158 148 55
160 150 64
155 145 58
155 143 63
156 146 59
154 143 55
155 145 48
139 127 46
151 138 52
154 143 53
151 140 49
156 145 59
152 141 46
152 138 56
144 133 43
146 132 42
148 136 52
148 133 44
139 125 46
169 187 11
169 188 0
169 187 0
168 188 0
170 190 0
168 186 0
170 189 0
170 189 0
168 189 0
172 193 0
169 189 0
173 192 0
169 189 0
170 191 0
171 190 0
171 192 0
172 196 0
173 196 0
169 193 0
170 194 0
172 195 0
169 192 0
172 196 0
172 195 0
168 192 0
172 196 0
171 195 0
174 197 0
171 194 0
168 190 0
169 193 0
170 194 0
170 193 0
170 193 0
168 192 0
170 193 0
170 193 0
171 193 0
174 198 0
166 190 0
169 192 0
170 193 0
170 194 0
173 196 0
173 196 0
170 194 0
173 196 0
171 195 0
169 193 0
173 196 0
167 191 0
171 195 0
171 194 0
170 193 0
170 194 0
171 194 0
170 192 0
172 196 0
170 193 0
171 195 0
166 191 0
170 192 0
171 194 0
170 193 0
170 193 0
167 191 0
173 195 0
171 194 0
170 194 0
168 191 0
171 195 0
171 194 0
168 192 0
170 194 0
170 194 0
166 189 0
167 191 0
166 188 0
170 192 0
167 190 0
169 193 0
169 194 0
167 190 0
168 191 0
165 188 0
167 191 0
170 193 0
171 195 0
173 195 0
170 192 0
167 191 0
169 192 0
169 191 0
166 190 0
169 192 0
166 189 0
164 186 0
169 192 0
167 188 0
170 193 0
173 195 0
68 102 154
61 97 151
62 98 160
61 97 154
60 96 150
61 97 155
62 98 158
62 98 161
62 98 164
62 98 159
62 98 164
61 97 157
63 99 166
61 97 155
62 98 162
61 97 162
62 98 158
62 98 167
62 98 167
62 98 163
62 99 165
62 98 165
62 98 169
61 97 166
62 98 160
61 98 165
62 99 169
63 99 169
62 99 169
62 98 164
61 98 165
62 98 165
61 98 165
62 98 167
61 98 164
62 98 169
62 99 172
62 98 168
62 98 166
62 99 169
62 99 175
62 98 173
62 99 173
61 98 171
62 99 173
62 99 171
63 99 169
62 99 170
62 98 174
62 99 173
62 99 168
62 99 176
62 98 168
63 99 178
63 99 175
62 99 174
62 98 173
62 98 176
62 98 170
62 99 171
61 98 166
63 99 172
62 99 173
62 99 173
62 99 169
62 98 165
62 99 173
62 99 172
62 99 173
63 99 174
62 99 170
62 99 167
63 100 176
62 99 173
62 99 171
62 99 171
62 98 171
62 99 176
63 99 171
62 99 173
62 98 169
62 98 172
63 99 173
61 98 166
62 99 175
62 98 170
62 99 173
63 100 173
62 99 174
63 99 174
63 99 174
62 99 169
62 99 169
62 99 167
61 98 167
62 98 168
62 99 172
62 99 167
62 98 170
62 98 170
62 98 167
62 98 166
62 98 168
63 99 170
62 99 173
62 98 165
62 98 166
62 99 169
62 99 173
62 99 169
62 98 163
62 99 172
62 98 171
62 99 172
62 99 173
62 98 166
61 98 164
62 98 168
62 99 170
61 98 168
61 98 171
62 98 170
62 98 165
62 99 168
61 97 155
62 99 173
61 98 167
62 98 166
62 98 168
63 99 173
62 98 166
62 99 173
62 98 167
63 99 170
62 99 167
63 99 165
63 99 166
61 98 160
62 99 164
62 98 168
62 98 164
62 99 170
62 98 164
62 98 163
62 98 165
62 99 166
63 99 165
63 99 170
62 98 166
61 97 163
62 99 166
61 98 163
62 98 165
62 98 163
62 98 166
62 98 157
62 97 156
62 98 161
61 97 154
61 97 163
61 97 158
61 98 166
62 98 161
61 97 159
62 98 163
62 98 162
62 97 161
61 97 160
61 95 147
62 98 161
62 96 152
61 96 156
61 95 156
61 95 155
61 95 151
59 93 136
59 91 141
58 90 134
66 82 96
72 69 23
68 66 27
72 70 21
78 74 27
92 89 31
89 85 30
79 77 25
89 86 35
94 92 31
79 81 31
91 91 29
94 89 37
88 87 36
97 97 42
95 94 36
101 100 43
102 102 49
108 105 45
114 112 51
111 108 43
112 110 58
125 121 56
122 119 54
114 114 54
120 118 51
123 119 59
127 123 59
122 120 57
123 119 55
125 120 52
131 127 61
129 124 49
135 130 62
139 133 63
130 127 56
132 130 55
137 133 57
141 136 62
132 129 56
146 141 65
139 134 59
146 138 61
148 143 55
149 144 65
149 144 61
159 152 69
151 145 69
142 138 57
149 144 61
146 140 56
152 146 68
149 143 62
158 151 71
151 146 60
160 153 74
159 153 71
159 153 66
151 147 71
160 153 73
157 150 66
155 148 68
159 153 67
157 150 66
164 156 73
156 151 61
162 155 60
162 155 66
169 159 80
155 148 64
162 154 64
161 153 67
161 154 64
155 146 62
163 154 69
160 153 69
166 157 71
164 156 72
166 158 72
160 152 64
160 152 61
159 150 63
161 154 63
162 154 64
159 151 64
158 149 64
156 150 60
161 154 64
165 155 75
162 154 66
164 154 71
159 150 63
157 148 60
163 154 66
155 146 60
162 151 70
155 146 57
160 151 65
161 150 65
154 144 60
161 150 64
153 143 57
158 148 55
155 146 49
152 142 59
153 143 56
154 143 64
153 145 50
154 143 51
149 136 53
153 142 56
148 138 42
155 143 52
158 147 63
146 132 48
148 136 52
148 136 53
148 134 51
144 130 33
143 130 47
157 162 36
171 191 0
167 184 0
169 188 0
167 187 0
168 185 0
171 191 0
169 189 0
171 191 0
171 192 0
169 189 0
167 186 0
171 193 0
170 187 0
171 191 0
171 193 0
170 190 0
172 196 0
170 193 0
171 194 0
172 195 0
172 194 0
173 196 0
174 198 0
170 194 0
172 196 0
173 195 0
170 193 0
172 196 0
172 195 0
172 196 0
170 193 0
171 195 0
169 192 0
170 193 0
170 193 0
174 197 0
171 194 0
172 195 0
173 196 0
169 192 0
174 196 0
171 194 0
168 192 0
170 193 0
169 192 0
170 194 0
172 196 0
170 193 0
171 194 0
171 195 0
170 192 0
171 193 0
165 189 0
169 192 0
169 192 0
167 191 0
168 192 0
169 192 0
171 195 0
171 194 0
167 191 0
168 192 0
174 197 0
170 194 0
169 193 0
172 195 0
171 195 0
168 191 0
167 191 0
172 195 0
171 194 0
169 192 0
169 192 0
170 192 0
166 189 0
170 193 0
169 192 0
170 193 0
169 193 0
169 193 0
165 189 0
168 192 0
173 195 0
170 194 0
171 194 0
169 192 0
169 191 0
167 190 0
165 188 0
166 188 0
170 192 0
170 194 0
166 190 0
164 188 0
163 187 0
167 190 0
167 190 0
164 186 0
169 193 0
167 190 0
160 184 51
61 96 148
61 97 148
61 96 147
61 97 151
61 97 158
62 98 158
63 99 163
60 96 151
61 97 155
62 98 162
61 97 157
62 99 168
62 98 161
62 98 166
61 97 157
62 98 162
62 98 165
61 98 164
62 98 162
61 97 166
62 98 167
61 97 160
62 99 172
61 98 165
62 98 167
62 98 170
62 98 168
62 99 170
62 99 168
61 97 164
62 99 169
62 98 167
62 99 171
62 99 173
61 98 166
61 97 164
62 99 174
62 99 174
62 98 168
61 98 167
62 98 171
62 99 178
62 99 173
62 99 173
62 98 168
61 97 166
62 98 164
62 99 173
62 98 173
62 98 169
61 98 167
63 99 174
62 99 175
61 97 169
62 98 166
62 99 175
62 99 174
62 99 174
62 99 171
63 99 175
62 99 168
62 99 171
62 98 168
61 98 169
61 97 168
62 99 172
61 98 171
63 99 172
62 99 173
63 99 175
62 99 171
62 99 171
62 99 169
62 99 170
62 98 170
62 98 166
63 99 172
62 99 177
63 100 174
62 99 172
62 99 176
62 99 171
63 99 173
62 98 170
62 99 174
62 98 164
62 99 175
62 98 168
62 98 168
62 98 166
62 99 169
61 98 167
61 98 169
62 98 166
62 98 171
63 99 172
62 99 170
62 99 172
61 98 170
62 99 170
62 98 169
61 98 166
63 99 169
62 99 167
63 99 175
62 99 172
62 99 171
62 99 172
62 98 170
63 99 174
62 99 172
62 98 162
63 99 172
61 98 169
63 99 171
61 98 168
63 99 167
61 98 167
63 99 170
62 98 170
62 99 171
62 99 167
61 98 165
62 99 176
62 99 171
62 98 168
63 99 171
62 98 168
63 99 167
62 99 168
62 99 168
62 98 166
62 98 164
62 98 166
62 98 163
63 99 169
62 98 166
62 99 168
61 98 163
63 99 169
61 98 163
62 98 167
62 98 162
62 98 166
62 98 163
61 97 158
61 98 163
62 98 166
62 98 160
63 99 167
63 100 173
62 98 164
61 97 158
62 98 168
62 98 162
63 99 167
62 98 160
61 97 162
61 97 155
61 97 162
62 98 159
60 96 159
62 98 165
61 97 159
61 97 160
61 96 156
61 96 156
61 96 149
62 97 156
61 96 162
62 98 162
62 97 156
62 96 160
60 94 149
61 94 152
60 94 150
61 95 148
58 89 138
71 88 106
88 83 23
87 80 26
74 71 24
88 86 29
84 80 24
95 91 32
90 87 31
82 77 24
77 73 26
99 97 40
95 94 38
113 107 40
93 93 38
102 100 43
102 96 43
100 99 48
104 101 32
106 105 43
110 107 39
103 103 52
117 114 45
113 111 48
115 112 43
115 113 50
119 117 52
121 118 54
131 125 48
124 122 52
129 125 57
131 127 64
132 129 56
135 131 60
133 130 59
139 134 65
134 129 65
139 135 58
137 132 58
149 143 68
134 130 58
147 141 64
141 135 56
145 139 65
144 138 64
146 140 61
146 142 63
148 141 56
149 143 57
144 138 60
152 148 70
146 141 61
152 146 62
152 146 60
159 152 66
154 148 67
154 149 70
154 147 65
152 147 62
161 154 71
157 151 61
154 148 60
155 149 66
156 149 62
154 147 60
159 152 71
155 147 61
156 148 63
165 157 71
166 157 73
157 151 61
160 151 69
164 157 70
163 154 68
162 154 67
161 153 69
159 151 61
155 146 59
160 150 61
159 152 59
162 154 65
158 151 67
159 150 56
157 148 61
164 157 71
158 149 60
164 153 69
158 150 62
162 153 68
162 155 64
159 151 64
155 145 61
163 153 63
162 151 66
157 147 60
155 146 64
157 148 56
159 149 59
154 145 56
157 149 57
157 149 61
159 148 62
160 150 59
150 139 53
159 149 56
159 149 60
154 144 56
154 142 53
155 145 58
156 145 57
152 141 57
149 137 49
150 140 47
152 141 49
140 126 46
148 136 42
148 139 47
144 130 47
147 133 47
143 131 40
145 133 30
168 185 1
170 188 0
170 191 0
168 189 0
170 189 0
169 189 0
167 185 0
167 186 0
169 189 0
172 192 0
171 191 0
170 190 0
170 189 0
168 187 0
171 191 0
171 191 0
170 190 0
171 193 0
172 195 0
172 195 0
174 197 0
170 193 0
171 195 0
174 196 0
172 195 0
171 195 0
172 196 0
173 196 0
172 195 0
172 195 0
173 197 0
172 196 0
173 196 0
171 195 0
172 195 0
172 195 0
167 192 0
169 192 0
170 193 0
170 194 0
171 195 0
171 194 0
169 193 0
169 192 0
170 194 0
167 192 0
169 193 0
170 194 0
170 193 0
169 193 0
170 194 0
169 192 0
167 190 0
168 191 0
172 195 0
171 194 0
167 191 0
168 192 0
170 193 0
171 194 0
173 196 0
167 190 0
172 194 0
172 195 0
167 191 0
167 190 0
171 194 0
168 191 0
169 193 0
172 195 0
169 193 0
171 194 0
167 190 0
169 192 0
173 196 0
170 194 0
168 191 0
170 194 0
170 193 0
169 191 0
168 192 0
170 194 0
163 187 0
169 192 0
166 190 0
167 191 0
168 191 0
167 191 0
169 193 0
167 190 0
169 191 0
171 194 0
168 191 0
165 188 0
171 194 0
168 191 0
167 190 0
167 189 0
167 189 0
167 191 0
168 191 0
145 169 76
62 97 154
61 97 148
62 98 162
61 97 155
62 98 160
61 97 155
61 97 157
63 99 166
62 98 163
61 97 156
61 97 163
61 96 151
61 97 159
62 98 163
60 96 154
62 98 162
61 98 165
61 97 165
61 98 165
63 99 169
62 98 160
62 98 169
62 98 169
62 98 166
62 98 163
62 98 169
62 98 167
62 98 167
60 96 160
62 98 167
61 98 173
62 98 168
62 98 164
62 98 168
61 98 168
62 99 170
61 97 166
63 99 172
61 97 171
62 99 170
61 97 164
62 98 167
62 98 171
61 98 168
61 98 167
62 99 174
61 98 168
61 97 165
62 99 173
62 98 168
62 99 173
61 98 169
63 99 169
62 98 171
63 99 170
61 98 168
62 98 166
61 97 165
61 98 171
62 98 168
63 99 171
62 98 169
62 99 172
63 99 171
62 99 173
62 98 161
62 99 173
62 99 172
62 99 168
62 99 170
62 98 171
62 99 172
62 99 172
62 99 174
62 98 171
62 99 169
61 98 167
62 98 169
62 99 172
62 98 167
62 98 169
62 99 170
63 100 174
62 98 170
61 98 168
62 98 166
62 99 171
62 99 171
62 98 166
63 99 173
61 98 167
62 99 174
62 98 169
62 98 168
62 98 164
62 99 172
62 99 168
62 98 166
62 99 168
62 99 168
62 99 169
62 99 173
63 99 175
63 99 169
62 99 169
61 98 165
62 99 172
62 99 172
62 99 173
63 99 172
62 98 172
61 98 166
61 97 162
61 98 168
62 99 168
61 98 168
62 99 167
62 98 167
63 99 171
62 98 166
62 99 168
62 98 167
62 98 166
62 98 166
62 98 165
62 98 169
61 98 166
62 98 167
62 99 170
62 98 163
62 99 167
62 98 169
62 98 163
62 98 162
62 98 166
62 98 168
62 98 162
62 98 164
63 99 172
63 99 171
62 98 163
61 98 163
62 98 164
61 96 153
62 98 161
62 98 169
62 98 166
62 99 172
62 98 164
62 98 161
62 98 166
62 98 161
62 97 159
62 98 162
62 99 167
62 98 156
61 97 158
62 98 159
62 98 158
61 96 156
62 97 163
61 96 157
61 96 149
61 96 157
63 99 168
62 98 167
62 97 164
62 97 155
62 97 154
61 96 156
59 93 144
62 96 157
61 96 158
59 94 140
61 95 147
61 95 154
59 92 138
59 93 137
63 86 118
69 66 26
81 79 23
90 86 20
85 78 20
82 78 25
79 80 23
78 76 27
88 86 25
93 90 38
78 79 32
93 91 35
92 90 35
108 105 46
105 100 36
104 101 40
109 106 50
105 104 46
98 98 43
95 94 42
116 113 42
107 105 40
115 111 49
112 110 43
116 113 52
119 116 57
124 120 51
129 126 55
122 119 51
131 126 61
130 125 55
123 120 50
125 120 55
133 128 56
133 128 54
142 138 59
142 137 59
132 128 48
139 135 56
141 136 64
138 134 54
137 134 55
145 140 62
138 133 59
150 144 57
148 143 58
144 138 56
155 149 63
152 146 61
155 148 65
153 147 68
154 148 63
155 148 65
154 149 67
150 144 60
158 150 62
147 141 58
154 148 65
151 143 60
154 148 65
160 153 71
161 151 70
157 151 64
157 150 64
156 149 67
160 152 66
163 155 75
161 154 73
160 153 68
164 156 69
160 151 65
161 155 66
159 152 64
157 150 61
159 150 60
160 153 68
167 157 74
154 145 57
160 151 63
161 153 64
158 152 58
158 150 65
163 155 64
156 148 57
162 153 70
161 151 66
160 151 64
161 153 63
157 147 60
151 143 53
160 151 66
151 141 51
157 149 60
153 144 53
159 149 59
158 149 61
158 148 60
154 145 53
160 151 56
155 146 57
157 149 56
152 142 56
157 147 56
150 138 52
156 145 58
152 141 55
152 143 57
150 139 53
158 148 60
146 136 47
155 144 47
151 138 57
149 137 53
146 134 48
151 137 51
145 133 51
142 129 47
153 140 50
133 120 37
157 165 29
167 185 0
167 185 0
166 183 0
171 192 0
169 187 0
172 192 0
169 186 0
168 186 0
172 193 0
169 188 0
170 188 0
168 186 0
169 187 0
172 193 0
170 189 0
170 188 0
171 191 0
172 195 0
170 193 0
171 194 0
171 194 0
171 194 0
171 195 0
169 192 0
172 195 0
170 193 0
167 191 0
171 195 0
169 193 0
172 195 0
171 194 0
168 192 0
170 194 0
172 196 0
170 193 0
174 197 0
172 196 0
168 192 0
170 193 0
168 191 0
174 197 0
169 194 0
172 194 0
175 198 0
172 195 0
173 196 0
171 195 0
169 193 0
172 195 0
165 189 0
170 194 0
170 194 0
171 194 0
170 193 0
170 193 0
171 194 0
169 192 0
170 193 0
170 193 0
170 193 0
173 196 0
170 193 0
168 191 0
167 191 0
167 190 0
171 195 0
169 192 0
169 192 0
166 189 0
170 193 0
164 187 0
170 193 0
169 193 0
169 191 0
167 190 0
169 192 0
170 194 0
171 194 0
171 194 0
172 195 0
167 190 0
171 193 0
169 192 0
168 190 0
163 186 0
170 193 0
170 194 0
170 193 0
170 194 0
169 192 0
169 192 0
166 189 0
169 193 0
166 190 0
165 189 0
168 190 0
167 191 0
168 192 0
170 192 0
162 185 0
172 195 0
136 161 99
62 98 155
61 97 154
61 97 153
61 97 153
61 96 155
61 97 154
62 98 154
62 97 157
61 97 157
62 98 165
62 98 159
62 98 155
61 97 161
62 98 162
61 97 159
62 98 164
62 98 164
61 97 160
63 99 174
61 97 163
63 99 171
62 99 167
61 97 164
62 98 171
62 99 170
62 98 164
62 99 166
62 99 173
62 98 171
62 98 164
60 96 164
62 98 171
61 97 165
60 97 163
62 99 167
62 99 168
61 97 166
62 98 165
62 99 169
61 98 169
61 97 162
62 98 171
62 98 167
62 99 173
62 98 169
62 99 167
62 98 165
62 99 169
62 98 168
62 99 175
62 98 174
61 97 165
61 98 167
62 98 171
62 98 168
63 99 168
61 98 167
62 98 171
62 99 169
62 99 177
62 99 169
62 99 175
63 99 173
62 99 173
62 98 165
62 99 174
62 99 173
62 98 172
62 98 169
62 99 170
62 98 167
62 99 176
62 99 174
62 99 169
62 98 173
62 98 166
62 99 173
61 98 166
62 98 167
62 99 168
62 98 168
62 99 172
62 98 170
63 99 173
63 100 175
62 99 171
62 99 173
62 98 164
61 98 169
62 99 165
62 98 167
62 99 169
62 98 172
62 99 170
62 98 165
62 98 169
61 98 172
63 99 172
62 99 173
62 99 166
62 99 168
62 98 168
62 98 166
63 99 168
62 99 176
61 98 165
62 98 166
62 98 164
61 97 165
62 98 168
61 97 163
63 99 170
62 99 173
62 99 170
61 98 166
63 99 167
63 99 173
61 98 163
63 99 170
62 99 167
62 98 165
61 98 165
63 99 168
62 99 166
62 98 166
61 97 160
62 98 167
62 99 170
63 99 170
62 99 166
62 98 166
62 98 164
62 99 169
62 99 171
62 98 163
62 98 167
62 99 166
61 97 158
62 98 166
63 99 163
61 98 165
62 98 164
62 98 166
63 99 162
62 98 162
62 98 164
62 98 167
62 98 166
61 97 157
62 98 160
62 97 159
62 98 160
62 98 158
62 98 159
62 98 168
61 98 167
61 98 169
62 97 151
61 97 161
61 97 156
62 98 154
62 98 163
61 97 160
61 97 153
62 98 161
62 97 158
62 98 163
62 97 161
61 96 155
61 97 159
60 95 145
61 96 154
60 95 154
61 95 153
59 93 142
60 94 146
60 94 144
62 96 155
60 86 121
79 75 15
90 85 23
83 79 25
77 76 27
77 77 24
85 77 24
94 90 33
97 91 31
88 86 30
88 85 37
87 82 33
88 88 37
102 99 33
93 92 32
90 89 39
97 95 41
103 100 41
116 111 51
114 110 38
107 105 40
125 121 55
114 111 39
116 114 45
113 110 42
123 119 45
109 109 47
118 116 45
127 123 53
135 130 54
133 130 59
131 128 58
130 125 57
125 120 49
126 124 54
133 129 53
135 130 53
138 134 56
141 136 63
136 131 57
143 139 59
141 134 56
140 135 59
149 142 60
141 136 59
143 138 61
148 144 64
148 143 65
151 145 65
149 143 63
154 146 66
157 150 65
151 145 57
155 148 64
152 146 61
150 144 60
155 147 64
154 148 66
149 144 59
161 154 65
159 152 65
161 154 63
161 153 72
161 153 71
158 150 66
159 152 66
158 150 68
160 153 63
158 150 61
157 150 65
160 151 65
156 148 57
163 154 66
162 155 69
162 154 70
162 153 68
166 158 71
164 155 66
158 150 56
159 150 57
154 144 62
163 155 65
159 151 62
158 149 64
157 148 58
160 150 57
163 153 66
161 153 69
158 149 60
160 152 66
152 144 50
152 142 55
158 150 64
158 148 63
158 146 63
158 150 63
157 148 56
156 148 56
156 146 60
156 148 53
155 145 54
159 149 66
158 147 64
150 140 47
158 147 50
157 149 54
155 146 54
153 143 49
150 141 47
148 135 46
150 138 55
147 134 50
148 137 41
148 136 45
143 128 42
153 140 52
144 130 38
148 133 51
143 136 37
169 186 0
170 188 0
169 189 0
169 188 0
169 189 0
171 189 0
170 191 0
171 189 0
163 179 0
166 187 0
169 188 0
169 187 0
170 192 0
172 192 0
168 188 0
171 190 0
167 188 0
172 192 0
172 196 0
173 196 0
174 197 0
172 195 0
172 195 0
172 195 0
170 192 0
172 194 0
173 196 0
171 194 0
171 195 0
173 197 0
170 193 0
173 196 0
171 194 0
171 194 0
169 193 0
171 194 0
171 194 0
170 194 0
171 195 0
171 194 0
170 194 0
167 190 0
172 195 0
168 191 0
166 189 0
168 192 0
171 195 0
171 194 0
169 191 0
171 195 0
174 197 0
172 195 0
170 194 0
169 192 0
170 194 0
173 197 0
170 194 0
171 194 0
168 192 0
171 194 0
171 193 0
172 195 0
168 191 0
173 196 0
172 195 0
171 193 0
167 191 0
170 193 0
172 195 0
170 193 0
169 192 0
169 191 0
171 194 0
170 194 0
168 192 0
173 197 0
169 193 0
169 191 0
169 192 0
173 194 0
167 191 0
166 188 0
170 194 0
167 190 0
171 194 0
170 193 0
165 188 0
166 190 0
168 192 0
167 190 0
172 195 0
168 190 0
169 192 0
173 195 0
166 189 0
167 188 0
159 183 0
168 192 0
166 189 0
171 194 0
170 194 0
165 187 0
130 155 88
62 97 157
61 97 153
62 98 159
61 96 149
61 98 163
61 97 161
60 95 151
61 97 154
61 97 157
61 97 157
62 98 160
60 96 154
62 98 162
62 98 164
62 98 164
62 99 168
61 97 159
61 97 159
61 98 167
61 97 167
59 95 158
61 97 163
61 97 161
62 98 169
62 98 168
61 97 167
62 98 168
61 98 170
62 98 163
62 99 171
60 97 165
61 97 165
62 99 172
61 98 168
61 97 165
62 98 171
62 99 171
62 99 173
61 97 163
61 98 166
61 98 166
62 98 165
61 98 167
62 98 172
62 98 165
62 98 167
62 98 166
61 97 163
62 99 172
63 99 173
62 99 165
62 98 166
61 98 171
62 99 171
62 99 169
62 99 173
62 99 172
62 98 168
62 99 171
62 99 174
62 98 168
62 99 174
62 99 170
62 99 172
61 98 172
62 98 170
62 98 169
62 99 170
62 98 166
62 98 167
61 98 172
61 98 171
62 98 170
63 99 171
62 99 173
62 98 168
62 99 170
63 99 174
62 98 170
62 98 164
62 98 169
62 99 173
62 98 169
62 98 166
62 98 168
62 99 171
62 98 173
62 99 170
62 99 171
63 99 175
62 98 170
61 98 169
62 99 177
62 98 164
62 99 173
62 98 170
62 99 166
62 98 163
62 99 168
62 98 169
62 98 169
62 98 169
63 99 168
62 98 169
62 98 168
62 99 172
62 99 174
62 98 167
62 98 168
62 99 168
62 98 163
62 98 169
63 99 168
62 98 166
63 99 171
62 99 171
63 99 172
63 99 166
62 99 166
62 99 170
62 99 168
62 98 164
63 99 171
63 100 173
62 99 172
62 98 164
62 98 170
62 98 170
63 99 171
62 99 170
62 98 164
61 97 161
62 98 161
61 97 157
63 99 170
62 99 167
62 98 159
63 99 162
62 98 162
63 99 162
62 98 163
61 97 158
62 98 157
62 98 167
62 98 163
62 98 163
62 99 165
62 98 166
62 98 166
63 99 171
62 98 160
62 98 159
62 97 158
62 98 163
63 99 164
63 99 163
62 97 162
62 99 172
62 98 168
63 99 168
62 98 162
61 97 158
60 95 149
62 97 158
61 96 157
61 96 150
61 97 162
61 97 154
62 98 159
62 98 164
61 96 153
60 95 148
60 94 139
60 94 149
60 95 151
59 93 134
60 93 135
59 91 133
61 91 133
89 83 27
76 75 26
86 82 24
85 81 21
90 85 25
89 85 26
77 76 25
94 88 30
88 84 22
92 90 33
94 90 30
94 93 36
100 96 38
104 99 39
94 91 31
107 103 29
104 101 40
100 98 36
102 101 39
119 113 48
108 106 40
103 101 43
112 110 44
112 111 49
120 116 58
129 124 54
124 120 53
124 120 58
124 120 53
121 118 56
135 131 58
131 128 53
129 124 57
126 124 48
139 134 59
130 126 55
139 133 58
139 135 59
143 137 59
139 135 51
145 140 54
142 136 57
141 136 60
144 139 54
142 137 48
157 151 65
145 141 63
144 140 60
154 146 63
151 145 62
153 146 68
149 141 59
155 146 61
155 148 63
154 148 67
143 138 54
150 143 61
151 143 56
156 150 61
152 145 58
153 145 57
158 152 65
159 151 66
157 150 59
158 151 60
154 147 55
160 151 67
156 147 62
158 150 61
154 146 59
158 150 57
161 152 66
157 149 56
163 155 67
161 154 61
162 152 69
162 154 64
163 155 65
156 149 56
159 152 56
156 147 57
161 152 65
150 144 46
151 143 57
161 153 65
158 149 60
154 143 59
159 149 62
162 151 59
154 146 55
159 150 57
160 149 61
160 151 57
151 141 50
152 145 48
159 149 64
155 146 48
158 149 57
155 144 59
152 141 59
151 139 55
157 147 59
148 136 48
149 137 50
152 140 59
158 148 64
146 136 49
150 140 42
147 136 44
149 134 50
148 135 50
150 138 50
145 133 47
143 131 43
148 133 48
148 135 52
144 132 40
163 179 13
172 190 0
169 188 0
167 188 0
169 188 0
167 185 0
166 185 0
169 188 0
169 188 0
170 190 0
170 189 0
170 188 0
170 189 0
168 189 0
168 187 0
170 190 0
170 188 0
171 190 0
167 187 0
172 195 0
171 193 0
170 193 0
168 191 0
170 194 0
169 193 0
172 195 0
169 193 0
170 193 0
173 196 0
171 193 0
172 195 0
170 194 0
168 191 0
168 191 0
170 193 0
169 192 0
172 195 0
169 193 0
171 194 0
171 194 0
172 196 0
171 194 0
172 196 0
168 192 0
166 189 0
174 196 0
169 191 0
171 193 0
166 190 0
169 192 0
170 193 0
171 194 0
172 196 0
163 187 0
167 192 0
167 190 0
167 189 0
171 194 0
172 196 0
171 194 0
174 197 0
170 193 0
172 194 0
170 193 0
171 194 0
172 195 0
165 188 0
171 193 0
165 189 0
174 196 0
167 191 0
172 196 0
169 193 0
168 191 0
166 190 0
165 188 0
169 192 0
166 189 0
171 194 0
170 193 0
172 195 0
168 191 0
169 192 0
165 188 0
171 194 0
170 192 0
166 190 0
167 191 0
165 188 0
171 194 0
170 192 0
168 191 0
167 190 0
171 193 0
168 192 0
166 189 0
169 190 0
172 194 0
169 192 0
170 194 0
170 193 0
170 193 0
173 195 0
124 148 107
61 97 147
62 97 151
61 97 150
62 97 154
62 98 151
60 96 156
60 96 159
62 98 159
62 98 159
61 97 161
62 98 165
62 98 163
61 97 158
61 97 161
61 97 156
61 97 161
61 97 161
61 98 163
61 97 159
61 98 163
61 97 163
61 97 161
61 97 161
62 98 164
62 99 169
62 99 172
62 98 165
61 97 160
61 97 161
61 98 168
62 98 164
62 98 161
62 99 173
62 98 169
62 98 168
61 98 169
61 97 161
62 98 170
62 99 167
61 98 168
61 97 169
62 98 170
62 99 170
62 99 174
62 98 170
61 98 160
61 98 168
62 98 163
61 98 168
61 98 169
62 98 168
62 98 167
62 99 168
61 98 167
61 98 166
62 98 169
61 98 164
62 98 172
61 97 160
62 99 173
61 98 164
62 98 167
62 99 172
62 98 169
62 98 169
62 98 167
62 98 171
62 99 168
61 98 166
61 98 170
61 98 169
61 98 166
63 100 175
62 99 170
63 99 169
62 99 169
62 99 171
62 99 167
62 98 169
63 99 169
61 98 170
62 99 174
61 98 167
62 98 168
62 98 169
62 98 164
61 97 166
62 98 167
61 98 163
62 99 175
62 98 168
62 98 167
62 98 169
62 99 171
62 98 167
62 98 163
62 99 174
62 98 168
62 99 172
62 99 172
63 99 171
63 100 176
63 99 169
61 98 169
63 99 170
62 98 164
62 99 170
62 98 172
62 99 168
63 99 170
62 99 169
62 98 166
62 99 169
62 98 166
62 98 166
62 99 166
61 97 162
62 98 168
62 99 169
62 98 166
63 99 172
62 98 168
62 98 165
62 98 165
62 99 169
62 99 166
62 98 165
62 98 167
62 98 157
63 99 167
62 98 169
63 99 167
61 98 163
62 99 170
61 97 160
62 98 168
62 99 167
62 98 166
63 99 167
62 98 164
62 98 162
62 98 165
62 98 165
62 99 165
61 98 162
62 98 158
63 99 173
62 98 162
61 97 159
63 99 160
61 97 161
61 97 157
61 97 161
63 99 165
62 98 164
62 98 166
62 98 163
62 98 156
62 98 160
60 96 155
61 97 160
61 96 157
61 97 156
61 96 147
62 97 155
62 97 154
62 97 164
62 97 155
61 96 159
61 95 149
62 97 161
60 94 144
62 96 152
59 92 142
59 93 137
59 93 142
61 95 149
60 92 137
59 93 144
79 77 34
77 69 13
85 80 25
83 79 24
93 89 24
83 82 18
99 93 29
92 89 19
85 84 32
79 79 31
93 90 38
85 84 28
90 91 39
103 98 34
101 98 32
91 88 33
103 100 38
109 108 44
113 111 47
118 113 42
122 116 41
114 108 27
122 117 47
108 105 42
107 106 48
119 117 40
123 120 50
119 116 48
124 121 46
121 116 48
131 128 54
126 121 49
144 139 60
131 127 52
129 125 50
136 133 58
137 132 55
132 128 53
135 130 57
141 136 59
142 136 67
138 134 58
139 133 54
149 142 61
143 137 56
138 134 55
150 144 58
153 148 66
150 144 59
152 146 57
147 140 57
146 139 58
143 137 60
154 148 62
153 146 61
156 150 68
163 155 73
160 152 71
158 151 60
152 145 59
155 148 59
160 151 66
160 154 62
163 154 70
158 150 68
154 146 53
159 151 64
156 146 62
163 155 65
156 148 61
156 148 64
160 150 60
159 150 60
161 153 68
156 145 64
159 151 66
154 147 47
159 150 60
156 146 62
161 153 62
159 151 66
157 148 58
157 149 57
156 147 56
154 146 57
158 148 57
153 145 53
157 148 59
148 140 42
154 145 47
155 146 58
156 148 57
164 155 59
156 145 55
152 141 56
152 143 44
155 145 56
150 139 51
151 140 54
153 142 53
152 141 51
158 146 56
152 141 53
148 137 43
153 141 50
149 140 48
146 133 45
143 130 41
151 137 48
142 130 35
150 137 51
142 126 47
148 135 44
145 132 37
138 123 32
140 126 40
152 156 14
166 183 0
168 187 0
166 181 0
169 189 0
167 185 0
168 188 0
169 188 0
169 188 0
170 190 0
170 189 0
168 188 0
171 191 0
172 193 0
168 185 0
170 190 0
170 189 0
170 189 0
170 189 0
170 191 0
171 194 0
172 195 0
172 195 0
170 193 0
172 196 0
172 196 0
173 197 0
169 193 0
172 196 0
171 195 0
172 196 0
171 195 0
173 196 0
171 195 0
169 192 0
170 194 0
173 195 0
170 194 0
172 196 0
169 192 0
170 194 0
172 194 0
168 191 0
171 194 0
168 192 0
169 193 0
170 193 0
170 193 0
171 195 0
172 196 0
170 193 0
170 193 0
165 188 0
164 188 0
168 192 0
170 193 0
169 192 0
167 191 0
168 191 0
169 192 0
170 193 0
169 192 0
167 191 0
168 191 0
165 189 0
168 191 0
172 196 0
171 194 0
167 190 0
170 193 0
169 192 0
168 193 0
169 193 0
168 191 0
173 196 0
171 196 0
169 192 0
172 196 0
165 188 0
170 193 0
164 188 0
168 192 0
163 186 0
170 194 0
166 189 0
167 190 0
169 192 0
167 189 0
166 190 0
167 190 0
169 193 0
167 190 0
167 192 0
171 194 0
170 192 0
161 184 0
168 191 0
167 189 0
168 191 0
166 189 0
167 189 0
163 187 0
169 192 0
167 190 0
118 143 113
62 98 159
61 96 150
61 97 155
61 97 152
61 97 156
62 98 159
62 98 157
61 97 150
61 97 156
60 96 156
61 97 161
61 98 167
62 98 167
62 98 171
61 98 167
62 98 163
62 98 163
62 98 168
61 97 160
61 97 163
61 97 158
62 98 163
61 97 159
61 97 163
61 98 161
62 98 161
62 98 166
62 98 167
61 98 162
61 98 169
62 98 171
62 99 169
61 97 164
62 98 167
61 97 156
62 98 171
61 97 160
62 99 172
62 98 167
62 99 171
62 99 171
61 98 166
62 98 172
62 98 171
62 99 176
61 97 165
62 99 173
61 97 162
61 98 169
62 98 164
61 97 166
62 99 174
62 98 169
62 99 170
61 98 168
62 98 166
63 99 170
61 97 160
62 99 175
62 98 169
62 99 175
62 99 168
61 98 169
62 99 169
63 99 171
62 99 171
62 99 173
60 96 162
62 99 173
62 99 172
62 98 168
62 99 169
63 99 170
62 99 170
62 98 165
61 98 163
62 99 170
61 98 171
62 98 165
62 98 167
61 98 163
62 98 170
63 99 175
63 99 167
62 98 171
61 98 165
61 98 170
62 99 170
63 99 171
62 98 167
62 98 171
62 99 169
62 99 172
63 99 169
62 99 169
62 98 169
62 98 164
63 99 172
62 99 167
62 98 167
62 98 166
62 99 173
63 99 169
62 99 170
62 99 173
62 98 171
63 99 169
62 99 171
63 100 175
62 98 168
62 98 170
61 97 160
62 99 168
63 99 169
62 99 169
62 98 165
62 98 166
62 98 168
61 98 169
62 98 162
62 98 165
62 98 163
63 99 172
62 98 167
61 98 164
62 99 175
62 99 169
62 98 162
62 98 166
62 98 167
62 98 163
62 98 163
62 98 166
63 99 167
62 99 167
62 99 168
62 98 162
62 98 167
61 97 161
62 98 166
62 98 166
62 98 162
62 98 163
61 98 163
62 98 161
61 96 150
62 97 160
62 98 164
62 98 162
62 98 161
62 98 165
62 98 167
62 98 165
63 99 167
61 97 157
61 97 160
61 96 154
63 99 167
62 98 168
61 97 160
61 97 154
61 97 158
61 97 161
62 97 160
62 98 165
61 97 160
60 95 147
61 96 154
61 97 155
62 97 156
61 96 150
62 97 162
60 94 146
60 94 155
60 93 146
60 94 144
59 92 142
60 93 143
58 90 131
83 85 51
90 80 18
87 86 27
82 75 21
83 79 23
87 82 14
83 81 24
100 97 23
87 83 30
94 90 26
95 92 31
90 85 38
101 98 36
98 94 28
99 97 40
102 100 39
117 110 41
113 107 44
108 106 37
105 101 40
121 115 42
113 112 44
118 112 38
114 110 45
114 111 43
121 114 43
112 107 44
122 119 44
119 117 44
129 124 48
129 124 52
128 122 55
134 128 56
129 124 46
145 139 61
143 138 57
141 136 59
131 127 52
141 137 58
143 136 63
139 134 51
147 141 64
142 138 51
141 135 56
141 136 55
144 138 62
148 141 57
141 134 59
141 134 50
150 144 59
147 141 60
151 145 60
150 143 58
152 144 61
151 145 61
148 142 57
152 147 54
147 140 55
158 149 67
159 151 62
159 151 62
151 146 55
157 150 63
147 140 52
149 143 58
150 143 56
160 153 63
154 145 53
153 147 57
156 148 60
155 146 60
158 151 64
158 150 59
157 148 61
154 147 60
162 154 63
162 153 65
157 150 58
159 152 61
159 150 61
153 146 57
154 146 50
157 148 57
153 146 51
152 145 55
160 150 57
160 151 60
158 150 58
152 144 52
156 148 59
154 144 57
158 148 64
156 147 53
155 146 49
153 143 50
155 144 55
160 151 58
153 141 53
153 145 43
152 141 38
148 139 47
151 139 47
152 143 55
146 138 43
147 138 44
152 143 52
144 132 41
153 141 54
147 137 35
143 132 37
149 137 41
148 136 47
148 134 48
141 127 37
149 138 48
151 148 32
170 186 0
168 186 0
170 186 0
166 182 0
167 186 0
170 188 0
168 186 0
164 181 0
171 191 0
167 187 0
168 184 0
169 189 0
167 185 0
167 185 0
170 191 0
171 190 0
170 190 0
169 186 0
168 188 0
169 189 0
171 195 0
171 194 0
172 195 0
171 195 0
171 194 0
172 195 0
170 193 0
169 192 0
173 197 0
171 194 0
173 196 0
168 192 0
172 196 0
171 195 0
168 191 0
173 196 0
169 192 0
171 195 0
168 193 0
169 192 0
171 195 0
170 193 0
170 194 0
173 196 0
166 190 0
172 195 0
166 190 0
170 194 0
167 191 0
172 195 0
169 193 0
173 197 0
172 194 0
167 190 0
168 192 0
169 192 0
169 193 0
168 191 0
169 193 0
173 196 0
168 191 0
170 194 0
170 192 0
171 194 0
170 193 0
169 192 0
168 192 0
169 192 0
169 193 0
167 190 0
168 192 0
170 193 0
170 193 0
170 193 0
169 192 0
168 191 0
168 192 0
170 194 0
170 193 0
164 188 0
170 193 0
168 192 0
171 194 0
167 191 0
170 192 0
168 191 0
168 191 0
169 192 0
166 189 0
169 191 0
171 194 0
164 187 0
166 188 0
169 192 0
166 190 0
163 186 0
166 190 0
168 189 0
170 193 0
166 188 0
169 192 0
164 187 0
166 190 0
165 189 0
123 148 102
61 96 144
62 98 160
61 97 154
62 98 159
61 97 154
62 98 161
61 97 150
61 97 160
61 97 153
61 97 158
62 98 158
60 96 152
61 97 157
61 97 155
62 98 164
62 98 162
62 98 163
61 97 160
61 97 158
62 98 165
62 98 168
62 98 168
62 98 167
62 98 169
62 98 163
62 98 170
61 98 168
61 97 165
62 98 163
61 97 159
60 97 165
61 97 164
62 98 165
62 99 173
61 98 167
63 100 173
62 98 167
62 99 171
62 98 170
62 99 175
62 98 169
62 99 165
61 97 162
61 97 161
63 99 173
62 98 169
62 98 167
62 99 167
62 98 170
63 99 173
61 98 164
62 99 172
62 99 169
62 98 171
62 98 172
62 98 167
61 98 167
62 99 172
62 99 170
61 97 165
62 99 171
61 98 167
62 99 169
62 98 167
62 98 172
62 99 172
62 99 170
62 98 170
63 99 167
62 99 170
63 99 167
62 98 169
61 98 169
62 98 169
62 98 168
62 99 170
62 99 168
62 98 172
62 98 166
62 98 168
62 99 171
62 98 169
62 98 167
62 98 163
63 99 172
62 98 167
62 98 165
62 98 170
61 98 165
62 99 171
62 99 170
62 99 168
63 99 173
62 99 173
62 99 171
63 99 175
62 98 170
62 99 170
62 99 173
62 99 170
63 99 175
62 99 165
62 98 166
62 98 165
63 99 170
62 99 169
62 98 163
62 98 168
62 98 167
62 99 165
62 99 171
63 99 173
61 97 154
62 99 169
62 99 169
62 98 162
63 99 171
62 98 164
61 98 165
63 99 165
61 97 160
62 98 163
62 98 163
62 98 167
62 99 165
63 99 166
62 98 163
62 98 165
63 99 165
63 99 168
62 98 163
63 99 168
62 98 163
63 99 172
62 99 168
62 98 164
61 97 159
62 99 171
62 99 170
62 98 163
61 97 162
61 97 161
61 97 162
62 98 160
61 98 158
62 98 158
62 98 160
62 98 164
62 98 163
63 99 169
63 99 163
62 98 160
62 98 160
62 98 163
62 98 162
62 98 165
62 98 162
61 98 161
62 98 168
62 97 161
63 99 168
62 97 152
61 97 150
61 97 155
60 95 147
61 97 155
61 97 159
61 97 156
62 98 162
61 95 148
60 95 146
61 96 151
61 94 145
61 95 155
60 95 152
60 94 144
60 94 143
59 91 135
58 90 142
80 84 73
89 82 20
93 86 22
86 81 19
89 83 21
95 89 17
90 83 26
95 90 29
83 82 28
90 86 27
104 99 31
84 84 30
100 97 30
90 88 33
97 95 26
106 104 46
108 105 36
105 100 36
112 106 36
102 100 37
106 102 37
103 100 30
111 109 46
112 109 45
117 111 36
111 110 43
113 110 38
128 122 45
128 124 53
129 125 51
123 119 43
135 131 53
131 123 52
132 126 50
131 126 49
138 133 55
136 130 59
137 132 59
134 130 50
136 130 54
149 143 53
140 134 61
138 134 54
142 137 53
141 137 56
148 140 67
143 138 57
150 143 60
154 146 62
147 142 62
150 144 63
147 140 56
140 133 46
152 145 63
154 147 67
149 141 59
151 145 58
148 142 51
154 146 61
154 148 59
157 150 55
154 146 55
156 149 58
150 145 56
161 152 68
153 146 52
154 147 62
163 155 67
159 151 61
159 149 61
153 145 58
157 149 52
157 150 60
155 148 57
151 143 55
155 146 58
158 150 53
159 151 60
157 149 63
152 142 56
159 150 60
160 151 61
154 145 57
157 149 57
159 150 61
155 146 55
159 148 60
151 141 51
160 151 61
153 146 46
154 144 54
156 147 59
150 141 52
148 141 38
156 144 49
152 143 51
149 139 52
151 141 50
150 139 47
151 143 47
150 139 48
156 144 58
147 135 50
154 145 51
149 137 46
154 140 54
145 134 41
150 138 49
147 135 43
143 130 35
144 130 39
141 128 35
146 134 41
136 122 38
136 123 32
166 182 11
169 187 0
171 190 0
168 184 0
170 189 0
168 185 0
167 184 0
169 188 0
171 191 0
170 189 0
167 186 0
168 186 0
168 188 0
169 189 0
169 189 0
168 187 0
169 189 0
170 190 0
173 194 0
169 189 0
167 187 0
172 195 0
171 194 0
170 194 0
170 194 0
172 195 0
170 194 0
169 192 0
170 194 0
174 196 0
173 197 0
168 192 0
169 193 0
168 192 0
168 192 0
171 194 0
169 192 0
171 195 0
168 191 0
171 195 0
172 196 0
171 194 0
171 194 0
173 197 0
170 193 0
168 192 0
171 195 0
169 192 0
167 191 0
173 195 0
170 193 0
172 195 0
171 195 0
167 190 0
170 194 0
174 197 0
173 196 0
165 188 0
168 191 0
172 195 0
169 193 0
170 194 0
173 196 0
170 194 0
170 193 0
170 193 0
169 193 0
168 191 0
169 193 0
168 192 0
163 187 0
170 194 0
166 190 0
165 189 0
169 191 0
171 195 0
168 190 0
168 192 0
163 187 0
171 193 0
169 193 0
169 192 0
171 194 0
166 189 0
167 189 0
164 186 0
163 186 0
167 190 0
166 189 0
167 190 0
165 189 0
166 188 0
170 193 0
165 189 0
168 191 0
163 186 0
164 187 0
166 189 0
168 191 0
165 187 0
164 187 0
168 191 0
171 193 0
165 188 0
166 188 0
109 135 114
62 97 151
59 95 142
61 96 153
61 96 148
61 97 154
63 99 162
61 97 155
61 97 153
61 97 154
61 97 156
63 99 166
61 97 150
62 98 160
61 98 164
61 96 155
61 97 162
61 97 159
61 97 162
61 97 161
61 97 159
61 97 156
62 98 168
62 98 165
62 98 163
61 97 160
61 98 167
62 98 167
61 97 164
60 96 163
62 98 163
63 99 171
62 98 165
61 97 167
62 99 169
61 98 166
62 98 169
62 99 172
62 98 166
62 98 172
62 99 168
62 99 171
62 98 165
61 97 164
62 98 165
62 99 169
62 98 169
62 98 167
62 98 166
61 98 168
61 97 170
61 98 164
62 99 175
62 98 165
61 98 170
62 98 166
62 98 167
62 98 169
63 100 174
62 98 169
63 99 170
62 98 167
61 97 164
62 98 170
62 98 164
62 98 163
62 98 168
62 99 172
63 99 170
61 98 166
61 97 160
62 98 170
62 98 166
62 98 166
62 98 164
62 99 169
62 99 172
62 99 172
63 99 170
62 98 164
62 99 172
61 98 166
62 98 164
62 99 174
62 98 169
61 97 161
62 99 170
62 98 162
62 98 169
62 98 166
63 99 173
62 99 165
63 100 171
62 98 164
62 98 169
62 98 166
62 98 162
62 98 165
62 98 169
61 97 160
62 98 167
63 99 164
61 97 154
62 99 169
61 98 165
62 98 166
62 98 165
61 98 168
62 98 161
62 98 161
63 99 168
62 99 174
61 97 160
63 99 170
62 99 166
63 98 163
62 98 164
61 97 163
62 99 173
61 97 157
61 98 163
62 98 162
61 98 167
62 98 165
63 99 170
62 98 166
62 98 166
62 97 159
62 98 163
62 98 166
62 98 167
63 99 167
62 98 164
63 99 171
61 97 155
61 97 157
62 98 167
61 97 160
62 97 157
61 97 161
63 99 164
62 98 162
61 97 163
62 98 159
61 97 161
62 98 163
62 98 163
61 98 164
62 98 159
62 98 160
62 97 158
62 99 167
62 98 161
62 98 159
62 98 163
61 97 154
62 98 158
62 98 161
62 98 166
61 96 151
62 97 159
62 97 158
62 98 164
62 97 163
61 96 152
62 98 163
61 96 155
61 95 151
61 96 151
61 96 154
61 96 155
60 95 151
60 95 148
61 96 153
60 95 146
60 94 152
60 94 139
62 97 155
59 91 143
57 89 126
82 85 76
94 87 15
85 81 21
73 69 20
95 89 30
83 79 17
92 86 26
94 90 19
94 90 31
93 89 28
98 93 34
93 88 33
101 96 24
95 91 25
104 99 34
103 99 25
92 90 28
111 106 36
103 99 34
119 112 35
113 109 38
120 116 42
111 109 33
115 108 41
115 112 42
130 125 44
119 116 43
126 122 45
127 121 52
132 127 50
127 122 50
125 120 51
118 114 41
135 129 56
132 126 41
139 133 55
133 127 47
135 131 50
135 131 55
135 131 50
139 134 54
145 140 48
143 135 58
134 130 52
142 137 55
139 133 50
147 140 56
142 135 53
146 140 55
147 140 58
140 136 36
144 139 58
150 144 60
148 141 53
148 141 64
153 145 55
158 151 64
154 146 65
146 139 60
154 147 61
151 144 48
153 145 58
153 145 49
154 145 59
154 146 57
145 138 60
158 149 57
148 139 59
157 149 60
158 149 59
161 154 62
159 151 64
156 149 51
156 149 53
159 149 64
155 147 59
153 147 54
157 150 62
153 145 44
161 153 62
150 143 49
156 147 60
154 146 56
155 147 51
155 147 58
159 150 64
160 151 58
157 148 60
150 141 57
150 144 45
157 147 55
160 150 65
155 147 51
157 148 56
153 144 52
152 142 53
150 139 47
157 147 49
149 138 54
149 139 47
151 142 47
148 137 41
147 135 44
147 132 44
156 144 59
151 140 46
143 128 40
147 136 46
144 130 46
147 132 47
145 131 43
142 128 36
140 124 43
141 126 34
159 167 17
169 186 0
171 191 0
166 184 0
169 187 0
170 190 0
166 184 0
171 191 0
168 186 0
170 189 0
170 186 0
170 187 0
170 189 0
172 191 0
168 186 0
170 189 0
166 184 0
169 190 0
169 188 0
169 187 0
167 186 0
171 191 0
168 193 0
175 198 0
171 195 0
169 192 0
172 196 0
173 196 0
174 197 0
173 196 0
170 194 0
170 193 0
172 195 0
173 196 0
168 191 0
171 196 0
169 193 0
169 193 0
171 195 0
171 193 0
168 192 0
170 193 0
170 194 0
169 193 0
170 193 0
169 193 0
170 194 0
165 188 0
170 193 0
170 192 0
169 193 0
170 193 0
170 193 0
170 194 0
169 192 0
170 194 0
173 196 0
172 195 0
175 197 0
171 194 57
175 197 67
170 192 57
171 194 51
167 190 44
177 199 72
174 197 57
171 194 44
177 200 51
171 194 57
171 195 0
168 191 0
170 192 0
172 195 0
166 190 0
170 193 0
168 191 0
170 193 0
170 193 0
165 189 0
167 191 0
169 192 0
164 187 0
171 195 0
167 191 0
168 192 0
168 193 0
171 194 0
169 192 0
167 191 0
166 189 0
167 191 0
165 188 0
165 189 0
167 190 0
166 189 0
169 193 0
165 187 0
167 190 0
164 187 0
170 193 0
168 191 0
169 192 0
168 191 0
167 190 0
168 192 0
163 187 0
97 124 131
61 97 152
61 97 147
60 95 149
60 96 147
60 95 149
61 97 157
61 96 161
62 98 163
62 97 156
61 98 158
61 97 160
60 95 154
62 98 161
62 99 167
60 96 152
62 98 164
62 98 164
62 98 162
61 97 163
61 97 164
62 98 166
62 98 164
61 97 160
62 98 162
62 98 166
61 97 158
61 97 160
61 97 162
62 98 172
62 98 163
62 98 167
62 98 174
61 98 170
60 97 162
61 98 168
63 99 168
61 98 168
61 97 164
62 98 163
62 98 167
62 98 166
62 99 173
62 99 170
62 98 170
62 98 166
62 99 170
62 99 171
61 98 165
62 98 159
62 98 168
62 98 172
62 99 169
62 98 168
61 97 165
62 98 160
62 98 169
61 98 167
61 98 169
62 98 167
61 97 168
61 98 167
62 98 170
62 98 168
61 98 167
62 99 169
62 98 166
63 99 172
62 98 167
62 98 171
61 98 170
62 99 168
62 99 170
61 97 165
62 98 165
62 98 170
61 98 166
63 100 171
62 99 170
62 98 163
62 98 171
62 98 170
61 98 169
62 98 161
63 99 171
62 99 169
62 99 166
62 98 166
62 98 165
62 98 163
61 98 163
62 99 167
63 100 175
62 99 167
62 98 167
62 99 169
62 98 164
62 98 165
62 99 168
62 98 166
62 98 171
62 98 166
62 98 162
62 98 168
62 99 173
63 99 171
62 98 163
61 97 160
61 97 161
62 98 163
62 98 168
63 99 164
62 98 167
61 98 166
62 98 167
62 98 167
62 98 165
62 98 163
61 97 164
62 98 161
62 99 171
63 99 168
62 98 169
61 97 157
62 98 165
63 99 167
62 98 162
62 98 164
61 97 160
61 98 163
62 98 161
62 98 159
62 99 171
63 99 165
61 98 160
62 98 166
62 98 162
63 99 168
62 98 157
62 97 160
62 99 170
63 99 164
63 99 167
62 98 162
61 97 159
61 97 154
61 97 160
62 98 164
62 98 159
61 97 160
62 98 163
62 98 154
62 97 160
61 97 157
61 97 159
61 96 158
62 97 157
62 97 158
62 98 162
62 97 159
61 97 160
61 97 155
59 95 153
61 97 153
62 98 161
60 96 148
62 98 158
62 98 159
62 98 165
60 95 143
62 97 159
62 98 157
60 94 149
61 95 147
61 96 157
60 95 152
62 96 148
60 94 150
60 95 147
56 88 128
74 83 79
87 81 13
110 103 24
94 88 17
87 80 14
89 85 24
88 84 22
92 88 19
95 92 29
90 88 18
99 94 22
94 91 26
93 89 27
107 103 26
106 102 33
104 101 31
111 105 28
108 105 34
102 99 38
105 102 31
104 101 35
117 113 42
119 114 40
108 104 25
109 107 41
111 110 35
120 114 43
124 120 40
124 119 41
128 123 50
125 122 45
122 118 50
129 124 36
137 131 49
128 123 39
137 131 53
125 122 38
131 125 45
138 134 52
144 139 46
138 131 51
139 133 49
141 136 50
142 137 57
142 137 56
138 132 43
148 141 49
143 139 60
150 144 53
142 137 49
153 146 62
142 136 51
152 147 53
146 140 42
155 146 60
148 141 59
151 144 54
155 148 61
147 142 49
149 142 52
148 141 50
148 143 56
149 140 48
153 145 52
156 148 60
154 147 60
154 145 55
155 147 54
159 150 61
157 148 57
156 149 48
160 151 57
161 153 57
155 145 61
157 148 53
162 152 63
152 145 55
159 151 63
152 142 56
153 145 47
155 148 53
156 149 52
154 145 59
156 146 52
151 142 56
150 141 52
154 145 54
156 147 56
147 136 51
158 150 55
154 143 45
148 139 46
153 143 48
150 139 51
151 141 49
151 140 54
149 138 51
152 140 54
139 126 40
153 141 49
148 137 46
150 137 44
147 136 40
149 138 46
145 132 42
148 135 52
142 130 36
141 127 43
145 132 44
142 129 44
153 142 45
138 123 34
143 129 38
151 154 22
167 184 0
166 182 0
167 184 0
164 182 0
167 181 0
165 184 0
170 187 0
165 184 0
167 183 0
168 188 0
168 188 0
169 189 0
168 186 0
169 189 0
169 189 0
171 191 0
169 190 0
171 192 0
168 187 0
171 191 0
170 189 0
170 189 0
169 192 0
168 192 0
172 195 0
170 193 0
168 192 0
171 195 0
172 195 0
166 191 0
172 195 0
171 195 0
170 193 0
171 194 0
167 190 0
171 194 0
168 192 0
168 192 0
166 189 0
172 196 0
166 190 0
166 190 0
169 192 0
170 194 0
168 192 0
170 193 0
171 195 0
169 192 0
171 194 44
174 197 51
175 197 72
174 196 88
179 200 95
180 201 117
181 202 108
187 208 130
188 207 140
187 206 144
184 204 128
190 209 147
185 205 137
184 204 120
186 206 140
183 204 120
189 208 137
184 204 125
189 208 147
185 204 140
188 207 142
187 207 135
186 205 137
181 203 120
178 198 108
177 198 105
183 203 120
180 200 102
176 198 80
179 201 88
167 190 57
173 195 36
170 194 0
168 191 0
172 196 0
170 193 0
171 195 0
168 191 0
168 191 0
170 193 0
171 193 0
167 191 0
170 193 0
168 192 0
169 192 0
166 189 0
165 188 0
165 188 0
167 190 0
165 188 0
168 191 0
165 188 0
165 188 0
166 190 0
164 187 0
162 185 0
169 192 0
167 190 0
104 130 117
60 95 141
61 96 148
62 98 157
62 98 157
61 96 150
62 98 158
61 97 156
60 96 150
63 99 160
62 98 164
60 95 149
62 98 162
62 98 160
62 98 165
61 98 163
61 97 166
61 97 158
60 96 160
62 98 157
62 98 168
61 97 165
62 98 166
61 97 169
62 99 168
61 97 159
61 97 163
62 98 165
62 98 165
61 98 162
61 97 158
62 98 164
61 97 160
62 98 166
62 98 163
62 98 172
62 98 166
61 98 165
62 99 170
61 98 165
61 97 165
62 98 165
61 97 165
61 98 168
62 99 168
62 98 169
62 99 170
62 99 175
61 98 168
62 98 167
62 98 167
63 99 173
62 98 168
63 100 175
61 97 163
61 98 165
61 97 163
62 98 167
63 99 169
62 98 167
62 99 171
62 99 173
61 98 171
62 98 165
62 98 168
62 98 169
62 99 171
62 98 167
61 98 167
62 98 170
62 98 165
62 98 168
62 98 165
62 99 171
62 98 171
61 98 168
61 98 161
62 98 165
62 98 170
62 98 163
62 98 163
62 98 160
63 99 172
62 99 169
62 98 168
62 98 165
62 99 163
61 98 165
62 98 164
61 97 162
61 98 164
61 98 170
62 98 163
63 99 171
61 97 161
62 99 166
61 98 169
63 99 168
62 98 167
61 97 161
62 98 166
62 99 166
62 98 164
62 98 164
63 99 172
63 99 167
63 99 168
62 98 162
62 98 164
62 98 167
63 99 168
62 99 168
62 98 163
63 99 168
62 99 164
61 97 165
62 98 165
62 99 172
62 98 167
62 98 170
63 99 164
61 98 164
62 98 167
62 99 165
62 98 167
62 98 167
62 98 162
62 98 164
62 98 162
62 98 159
61 98 163
62 98 167
62 99 167
62 99 168
62 98 163
62 98 161
61 97 157
61 98 158
62 98 162
62 98 166
61 97 157
62 98 159
61 97 161
62 99 164
61 98 159
63 99 165
61 98 165
61 97 158
63 99 166
63 98 160
62 98 163
61 97 155
62 98 164
63 99 170
62 98 163
62 98 160
62 98 156
61 96 151
62 97 156
62 98 160
62 98 166
61 96 157
62 98 160
62 98 157
62 97 157
60 95 144
61 96 154
62 98 163
62 97 161
61 96 156
60 95 146
61 96 150
60 95 147
61 96 152
59 92 133
61 95 151
60 94 144
61 96 154
58 91 136
59 92 125
93 91 71
90 84 7
94 83 24
91 85 19
92 87 16
96 86 12
85 80 19
94 86 21
81 77 26
92 85 28
91 91 26
103 98 29
92 88 24
104 100 34
98 94 27
107 104 23
105 98 24
117 112 28
112 107 26
111 105 32
118 113 40
107 104 34
119 112 34
113 109 41
112 107 40
111 109 38
126 122 44
125 121 43
117 111 45
120 115 37
135 129 50
123 121 49
115 112 40
123 119 42
125 121 43
126 121 41
139 133 47
129 124 50
136 127 46
127 122 49
138 133 51
139 134 51
140 134 44
136 130 47
136 129 49
142 136 55
142 137 53
149 143 50
142 138 43
151 144 55
141 133 43
149 141 54
145 139 47
150 144 53
150 142 56
156 150 58
154 146 63
154 146 57
155 147 62
146 138 49
146 138 50
155 149 55
149 143 50
154 146 60
155 146 52
156 147 54
160 151 64
152 145 60
161 153 61
158 149 59
157 146 55
157 148 54
153 143 51
156 147 57
155 147 55
153 145 57
153 144 51
161 152 58
150 143 54
150 142 48
157 147 55
155 145 50
151 142 47
157 148 55
157 148 55
148 139 45
150 142 49
153 144 46
152 141 47
151 142 53
151 140 50
154 145 51
147 139 34
153 143 51
153 143 48
145 135 47
147 138 42
147 137 45
148 137 44
152 142 41
149 136 45
142 130 44
146 134 46
151 140 44
152 142 47
148 136 38
141 127 39
146 134 44
149 137 42
144 130 47
139 125 34
141 127 39
138 128 29
163 177 0
166 182 0
169 184 0
167 183 0
168 186 0
167 184 0
169 186 0
170 189 0
167 186 0
169 188 0
170 191 0
168 187 0
167 184 0
167 182 0
171 189 0
169 187 0
167 183 0
166 183 0
168 187 0
173 193 0
169 186 0
168 187 0
171 190 0
172 194 0
172 195 0
170 193 0
172 195 0
173 197 0
172 195 0
174 197 0
173 197 0
169 192 0
171 194 0
165 190 0
169 193 0
171 194 0
168 193 0
172 195 0
171 194 0
170 193 0
168 192 0
171 195 0
171 194 0
174 197 25
174 196 84
177 199 88
183 204 111
187 207 133
192 210 151
189 208 144
184 204 128
186 206 130
192 211 155
190 209 149
179 201 99
190 210 147
188 207 149
183 203 117
183 204 117
181 202 105
184 205 120
187 207 133
187 207 144
182 204 117
182 204 111
187 207 130
184 204 125
184 204 114
180 201 105
185 205 122
187 207 128
178 199 102
185 206 130
185 206 133
183 205 117
182 203 128
186 207 128
185 205 128
180 201 111
181 201 130
186 206 125
181 202 111
186 206 130
176 198 88
180 200 102
168 191 57
169 193 25
171 194 0
169 191 0
168 192 0
164 188 0
169 192 0
166 189 0
167 190 0
166 190 0
170 193 0
171 194 0
166 189 0
169 193 0
168 191 0
163 186 0
169 193 0
165 190 0
166 190 0
163 185 0
164 187 0
168 191 0
102 129 120
60 95 145
59 95 135
60 95 145
60 96 148
62 98 155
62 98 163
60 95 147
62 98 162
62 98 159
60 96 154
61 97 158
61 97 154
61 97 152
60 97 162
60 96 153
62 98 165
62 98 163
61 97 162
61 98 164
61 97 161
61 97 163
61 98 167
62 98 164
62 98 167
62 98 166
61 98 165
61 97 160
61 97 161
62 98 168
61 96 158
61 98 165
62 98 169
61 98 171
62 98 165
62 98 164
61 97 162
61 98 163
61 97 163
61 97 164
62 98 166
62 98 162
62 98 167
61 98 167
61 97 169
61 97 164
61 97 163
62 99 175
62 99 171
61 98 168
62 98 167
61 97 161
61 97 165
62 98 172
62 98 169
62 98 169
61 98 166
62 98 168
62 98 171
63 99 171
61 97 162
62 98 170
62 99 173
62 99 170
62 98 167
62 98 167
62 98 167
62 98 166
62 98 169
61 98 165
60 97 157
62 98 168
62 98 163
62 98 166
62 98 165
62 98 168
62 98 165
62 98 166
62 99 165
62 99 171
62 99 170
61 98 164
61 98 166
61 98 165
63 99 170
62 98 168
62 99 162
62 98 164
62 98 167
62 98 169
62 98 168
61 98 164
62 99 171
62 98 167
63 99 171
62 98 166
63 99 169
62 98 169
62 98 165
62 98 169
62 98 166
62 98 167
62 98 166
62 98 164
62 98 165
62 99 170
62 98 168
63 99 172
63 100 171
62 99 172
62 98 162
62 99 163
62 99 171
62 98 164
62 98 159
62 98 165
62 98 160
62 98 164
62 98 165
61 98 164
62 98 163
62 98 161
62 98 161
63 99 169
62 98 163
62 99 167
63 99 168
62 98 162
61 97 161
62 98 159
62 98 159
62 98 167
61 97 157
62 98 164
61 97 154
62 99 168
63 99 166
62 98 166
62 98 162
62 98 162
63 99 166
61 97 159
62 98 165
61 98 162
63 100 168
63 99 164
62 98 158
61 97 160
62 98 162
62 99 163
62 97 160
62 98 159
61 97 160
61 97 158
63 98 161
61 97 158
61 96 144
61 96 155
63 98 160
62 98 160
61 97 153
62 97 154
61 96 145
62 98 158
62 97 161
61 97 159
61 97 158
62 97 153
61 96 149
60 95 149
61 96 149
61 96 152
63 98 155
60 94 145
60 95 147
58 92 138
60 95 146
60 94 151
60 93 138
59 91 142
93 96 86
102 93 17
100 91 15
83 79 15
93 86 22
95 91 23
90 85 16
98 92 21
94 87 17
96 93 27
96 90 16
96 91 19
103 99 33
102 98 27
101 95 29
99 94 23
101 96 26
114 109 33
105 100 35
105 103 30
111 107 41
117 114 31
115 112 36
118 113 43
104 102 24
115 110 39
129 125 38
127 121 44
121 117 46
129 124 43
125 119 38
125 120 39
132 127 31
132 128 37
127 122 38
127 122 47
145 138 55
136 128 50
135 131 43
128 123 39
138 132 53
134 128 44
142 134 54
146 137 58
137 131 44
135 131 51
140 133 45
148 141 55
145 139 48
149 142 48
145 140 49
150 143 59
145 139 49
151 144 52
148 140 51
146 137 51
150 143 51
155 146 59
150 144 53
149 142 56
146 136 49
152 145 51
149 139 46
149 141 49
153 147 58
155 147 56
151 143 51
157 148 52
154 147 55
150 142 53
154 147 51
153 144 56
151 143 46
155 146 55
154 145 48
161 152 62
159 150 54
155 146 56
148 139 51
152 143 54
153 144 55
155 148 41
149 140 44
154 145 46
153 145 49
154 146 47
146 138 36
154 145 53
153 144 45
146 136 42
154 146 41
151 142 41
150 139 55
156 146 43
150 140 52
146 137 47
150 140 43
147 137 40
148 137 50
145 136 41
149 138 45
148 136 46
142 132 31
149 139 38
146 134 45
144 132 39
145 135 43
148 138 37
143 131 42
134 118 27
139 124 34
144 136 36
168 185 5
167 181 0
168 184 0
164 181 0
165 182 0
167 185 0
168 187 0
167 185 0
170 189 0
169 187 0
169 188 0
168 185 0
166 185 0
166 182 0
170 187 0
165 183 0
171 190 0
168 187 0
170 188 0
168 186 0
166 183 0
170 188 0
170 191 0
169 188 0
169 193 0
171 194 0
171 195 0
173 196 0
172 196 0
171 195 0
167 191 0
169 193 0
170 193 0
172 196 0
171 194 0
173 197 0
172 196 0
173 195 0
169 192 0
170 194 0
175 196 57
183 203 105
181 202 114
186 206 137
189 208 130
182 203 117
183 204 122
181 201 117
184 204 122
183 203 122
180 201 95
189 209 147
188 208 133
190 209 144
181 203 128
184 205 128
182 203 95
185 206 128
182 203 114
180 202 111
187 207 130
182 203 105
179 201 99
181 203 99
185 206 125
183 204 108
181 203 102
182 203 108
186 206 130
180 202 105
186 206 128
183 204 108
183 204 114
182 204 108
181 203 111
177 199 84
179 201 102
182 202 111
183 204 122
184 205 125
186 206 137
181 202 114
187 207 147
182 203 114
182 202 130
180 201 122
183 204 122
188 207 137
180 200 111
170 192 51
169 191 62
171 193 51
168 192 0
166 189 0
169 192 0
172 194 0
168 191 0
171 194 0
167 190 0
167 191 0
169 191 0
167 189 0
168 190 0
166 189 0
165 187 0
164 186 0
161 184 0
162 185 0
89 119 124
61 96 145
61 97 153
60 96 145
61 97 153
61 97 159
62 98 159
61 97 152
61 96 150
61 97 155
62 97 159
62 98 155
61 97 157
61 97 158
61 97 152
60 96 162
61 97 160
62 98 166
62 98 159
61 98 162
60 96 159
61 97 164
62 98 162
61 97 163
62 98 165
61 97 161
61 97 167
61 98 168
61 98 162
62 98 164
61 98 164
62 98 166
61 97 159
61 97 163
62 99 170
61 97 161
60 97 161
61 98 167
62 98 169
61 97 166
61 97 159
61 97 164
62 98 168
62 98 168
62 98 166
61 98 168
63 99 166
63 99 172
61 97 160
62 98 164
62 98 168
61 97 168
62 98 163
63 99 173
62 98 173
60 96 161
62 98 161
62 98 168
63 99 169
61 98 169
62 98 166
61 98 163
62 99 168
61 98 163
62 99 171
61 98 171
62 99 167
61 97 165
63 100 171
61 98 169
62 98 165
61 98 166
62 99 169
61 97 161
62 98 166
62 98 166
63 99 170
62 99 172
62 98 168
62 98 170
62 99 169
62 99 172
61 97 165
62 99 167
63 99 172
63 99 171
62 98 165
63 99 171
62 99 168
62 98 164
62 98 166
62 98 167
61 98 168
62 98 167
62 98 167
62 98 163
62 98 162
63 99 167
62 99 172
62 98 166
61 97 163
63 99 168
61 98 164
62 99 169
61 98 163
63 100 177
61 97 162
62 98 168
62 98 161
63 99 169
62 99 165
62 99 170
62 98 167
62 98 162
62 98 167
61 97 160
62 98 164
63 99 167
62 98 165
63 100 170
62 98 166
62 98 159
63 99 169
63 99 168
62 98 165
62 98 160
62 99 168
63 99 166
62 98 160
62 97 158
61 97 160
61 98 162
62 98 161
61 97 162
61 97 159
62 98 163
63 99 161
63 99 171
62 99 166
62 98 161
62 98 161
62 98 163
63 99 168
61 97 158
63 99 170
62 98 161
62 98 162
61 98 161
62 98 161
62 98 160
62 98 161
62 98 153
62 98 166
62 97 154
62 98 160
62 97 158
61 97 156
62 97 153
63 99 167
61 98 161
61 97 154
61 97 152
60 95 149
61 97 155
62 98 158
61 96 154
60 95 149
62 97 153
62 98 157
62 97 151
60 95 147
60 94 143
60 95 147
60 95 148
61 96 147
60 95 150
59 93 142
59 92 142
58 90 134
59 91 140
88 91 81
91 85 12
97 89 18
94 86 15
96 88 16
100 95 17
95 89 24
87 81 15
101 95 20
98 90 15
90 84 24
101 97 22
98 90 22
102 98 30
107 99 21
104 99 25
106 101 28
114 107 33
111 102 32
109 107 28
104 98 25
116 110 40
111 106 40
114 111 26
118 114 35
123 118 30
121 117 31
121 115 40
126 121 43
118 112 38
133 127 42
123 117 41
127 121 39
121 116 37
130 123 37
133 126 44
135 130 44
141 134 51
130 124 41
140 134 60
142 135 54
141 134 42
131 125 45
132 123 39
139 134 50
141 135 49
144 138 43
143 137 37
141 135 47
140 134 50
146 140 52
139 133 51
144 138 46
139 131 45
146 139 44
156 149 59
144 138 43
147 140 45
147 140 49
148 141 54
151 145 52
152 146 51
157 148 59
148 141 46
159 150 59
153 145 43
151 145 50
155 146 59
150 141 49
147 139 44
153 142 47
152 145 44
151 143 53
154 146 53
155 147 57
155 146 51
153 144 46
150 143 51
152 143 52
154 147 52
150 143 46
153 145 47
147 136 35
151 140 43
152 142 52
152 142 46
147 136 54
151 142 46
152 143 50
150 141 35
154 145 52
155 145 48
149 139 47
157 146 51
149 139 43
146 137 41
146 135 46
152 142 46
148 138 49
152 139 50
149 137 45
147 136 46
149 138 49
145 133 43
145 132 46
137 125 40
146 131 46
139 125 34
141 127 38
141 126 39
138 123 30
162 174 20
168 184 0
163 177 0
164 180 0
166 181 0
165 180 0
164 181 0
164 182 0
167 185 0
165 183 0
167 185 0
168 188 0
170 191 0
166 182 0
169 187 0
170 188 0
167 184 0
166 184 0
168 185 0
168 186 0
169 187 0
169 189 0
169 186 0
169 187 0
169 188 0
172 195 0
172 196 0
170 192 0
172 195 0
170 193 0
173 196 0
171 194 0
169 193 0
171 194 0
168 191 0
173 196 0
169 193 0
171 195 44
180 202 84
186 206 125
192 210 161
186 206 125
190 209 147
188 207 144
181 203 114
185 205 128
187 208 140
184 205 111
182 204 114
183 204 117
182 203 108
181 202 108
183 204 125
180 202 99
183 204 114
180 202 105
179 201 108
179 201 102
180 201 95
183 204 120
180 202 105
183 204 105
178 200 95
182 204 122
181 203 111
178 201 95
180 202 102
178 199 92
180 202 99
185 206 122
182 203 111
178 200 88
177 200 92
184 205 114
183 204 111
179 201 84
180 202 102
182 203 117
182 203 105
185 206 128
181 203 108
185 206 114
182 203 117
183 204 122
181 203 108
180 201 111
183 204 122
180 200 120
175 196 102
180 201 108
181 202 102
182 202 130
185 205 128
178 199 108
176 197 92
176 198 62
170 193 44
168 191 0
166 189 0
167 190 0
173 196 0
164 187 0
172 196 0
166 190 18
139 163 92
151 175 74
152 175 62
161 184 0
163 185 0
92 121 126
61 97 148
61 97 148
62 98 160
61 96 156
61 97 150
62 98 156
61 96 151
61 97 158
62 98 155
62 98 157
62 98 160
62 98 158
62 98 166
61 97 155
62 98 159
60 96 160
61 96 158
62 98 159
61 97 164
62 98 154
62 98 169
61 97 158
61 97 160
61 97 160
61 97 163
62 98 164
61 97 156
62 98 163
61 97 160
62 98 164
61 97 162
61 97 163
62 98 162
62 98 161
61 97 162
62 98 169
61 97 162
61 97 165
61 98 166
61 98 169
62 98 169
61 97 163
62 98 166
62 99 172
62 98 168
61 98 162
60 97 159
62 99 171
62 98 166
62 99 167
62 98 169
61 97 158
61 98 167
62 98 167
63 99 168
62 98 164
62 99 176
61 98 167
61 98 169
62 99 167
61 98 169
62 99 168
62 98 165
62 98 168
62 99 175
61 98 167
62 99 173
62 98 165
61 98 166
62 99 170
63 99 172
61 98 168
63 99 170
61 97 162
62 99 166
62 98 164
62 98 164
61 97 166
61 98 167
61 98 163
62 98 165
61 98 163
61 98 170
62 98 168
61 98 161
62 99 168
61 97 167
62 98 164
62 98 168
61 98 164
63 99 169
62 98 165
62 98 169
63 99 165
62 99 170
62 98 162
61 98 163
63 99 170
62 98 161
63 99 173
62 98 165
63 99 169
62 98 164
61 97 155
62 99 164
61 97 159
62 98 164
61 98 164
62 98 164
61 97 160
62 98 164
62 98 163
63 99 163
62 98 165
61 97 156
62 98 164
62 98 163
62 98 166
63 99 168
61 97 158
62 98 159
62 98 165
62 98 163
62 98 165
62 99 166
62 98 162
62 98 165
63 99 165
61 97 160
62 98 162
62 98 165
61 97 164
61 97 157
61 97 158
62 98 162
61 97 161
62 98 156
61 98 165
63 99 166
62 98 164
62 99 164
63 99 168
62 98 166
63 99 166
62 98 159
61 97 157
62 99 169
62 98 159
61 97 154
62 98 161
62 97 158
62 97 156
62 98 160
62 97 160
62 97 160
62 98 159
61 96 151
62 97 159
62 98 158
63 98 159
61 96 155
61 97 154
62 97 151
60 95 149
61 97 157
61 96 154
62 97 152
61 96 157
61 96 150
61 96 151
61 95 145
62 98 155
57 91 126
61 96 149
61 96 148
61 96 148
61 97 155
59 93 141
59 92 130
82 81 66
94 84 16
102 93 16
100 91 12
87 81 9
91 87 15
92 87 23
91 86 17
92 84 19
103 97 21
102 96 23
99 94 30
103 99 32
100 95 28
112 103 28
96 95 29
108 103 35
101 95 26
110 104 35
111 104 37
113 107 38
116 110 29
109 104 30
119 114 30
126 120 29
121 116 39
122 116 29
118 115 37
125 119 40
117 112 37
127 122 38
121 114 39
126 119 44
127 120 39
130 125 48
132 127 43
135 128 39
132 127 41
134 128 43
132 125 47
141 135 48
139 130 47
140 133 52
137 132 40
137 129 44
134 129 39
144 138 45
144 138 40
139 132 54
145 139 50
152 142 56
143 136 48
146 140 48
143 136 46
144 136 52
142 136 41
145 140 48
148 140 44
146 139 52
150 142 46
146 139 52
146 138 49
151 144 53
151 143 47
146 138 47
153 145 51
150 142 53
149 142 49
149 139 52
151 143 48
157 148 54
153 145 52
154 145 51
150 143 44
155 147 53
157 150 50
149 140 50
153 144 48
148 140 46
151 143 44
150 141 46
148 139 46
148 139 43
148 139 53
155 147 51
151 142 42
145 135 45
154 146 48
147 136 43
154 143 54
147 137 42
147 137 43
152 139 44
148 139 41
151 142 42
151 141 48
143 132 44
150 138 47
147 135 50
144 132 38
142 129 43
143 131 33
151 140 36
143 130 48
142 127 38
143 129 40
143 129 39
142 126 27
143 131 36
141 125 40
161 167 14
165 179 0
166 180 0
168 183 0
168 183 0
164 180 0
168 187 0
166 181 0
165 182 0
164 178 0
168 184 0
170 188 0
167 186 0
168 186 0
170 189 0
164 180 0
169 186 0
168 189 0
165 180 0
166 186 0
170 188 0
169 188 0
171 191 0
173 194 0
169 189 0
169 190 0
169 193 0
172 196 0
172 195 0
168 193 0
165 188 0
172 196 0
174 197 0
171 194 0
173 197 25
176 197 80
181 202 108
188 207 140
192 211 155
189 209 137
188 208 140
183 204 120
184 205 128
188 208 144
184 205 122
189 208 137
182 204 108
182 204 117
180 202 105
180 200 120
181 203 102
184 206 120
185 206 122
178 201 92
180 202 95
179 202 99
180 203 102
181 203 95
181 203 105
180 202 92
180 202 95
178 201 80
182 204 102
180 202 92
180 203 95
178 201 84
182 204 99
180 202 95
180 202 95
185 206 117
179 202 95
182 204 99
177 200 80
182 204 108
179 202 84
180 202 88
182 204 105
180 202 102
182 203 111
181 203 111
182 203 99
180 202 99
182 203 105
182 205 111
183 204 105
178 200 95
178 200 88
183 205 108
180 202 111
181 203 105
189 209 135
183 203 111
184 204 120
181 202 114
182 203 122
180 201 108
188 207 144
182 202 111
179 200 108
178 200 105
167 189 36
167 190 0
169 192 0
169 192 0
166 189 31
129 154 103
132 156 102
112 139 120
112 138 114
142 165 74
90 119 131
61 97 148
61 97 151
61 97 150
61 97 158
62 98 159
62 97 155
60 95 152
60 96 153
61 96 150
62 97 155
62 97 155
60 96 158
62 98 160
61 97 159
61 96 156
61 97 162
60 96 158
62 98 159
61 97 164
62 98 161
61 97 166
61 97 160
61 97 158
62 98 167
61 98 161
61 98 161
61 98 165
61 98 168
61 97 157
62 98 166
61 97 163
61 96 162
61 97 162
61 97 163
62 98 162
61 97 162
61 96 159
62 98 163
62 98 166
62 98 169
62 99 172
61 97 163
62 98 163
62 98 167
61 98 163
62 98 165
61 97 167
61 98 167
62 98 168
62 98 167
61 97 160
61 98 165
61 97 165
62 98 162
62 98 166
61 97 159
61 98 166
61 97 162
61 97 162
62 98 166
61 98 162
62 98 163
62 98 165
61 98 163
61 97 162
62 98 172
62 99 170
62 98 170
61 98 167
62 98 167
61 98 168
61 97 162
63 99 162
62 98 167
62 98 166
62 99 171
62 98 165
62 98 164
62 99 169
62 99 167
62 99 169
62 98 167
62 99 166
62 98 165
62 98 169
62 98 163
62 98 163
62 98 166
62 98 165
63 99 171
62 99 167
61 97 165
62 98 162
61 98 163
62 99 167
61 97 163
61 97 160
62 98 167
61 97 164
62 98 169
62 98 162
61 97 158
62 98 162
62 98 167
62 98 163
62 98 169
62 98 160
61 98 163
62 99 166
62 98 161
62 98 165
62 98 166
61 97 161
62 99 170
61 98 163
61 98 160
61 98 165
62 98 165
63 99 166
62 98 165
61 98 160
62 98 164
61 97 158
61 97 154
61 97 159
61 97 159
63 99 168
61 97 157
62 98 166
61 98 161
62 98 163
63 98 163
62 98 162
63 99 158
62 98 157
61 97 155
63 99 167
63 99 161
62 99 165
62 98 161
61 97 164
62 98 162
61 98 161
61 97 161
62 98 164
62 97 154
61 97 157
61 97 154
62 98 160
62 98 162
61 97 148
63 98 159
62 98 159
62 98 158
62 98 161
62 97 156
62 98 162
62 98 158
62 97 155
62 97 151
63 98 161
62 98 162
62 97 156
61 97 147
61 96 158
61 96 148
61 96 151
62 98 159
60 95 142
61 97 151
62 97 155
61 96 152
60 95 141
60 94 143
61 95 147
60 94 147
59 92 135
59 93 139
59 91 138
84 85 69
92 85 12
105 97 8
106 96 19
97 89 19
103 90 14
106 99 28
97 89 20
90 85 17
103 95 20
102 97 18
100 95 21
96 89 12
101 97 26
101 96 21
104 98 28
107 104 29
104 97 20
104 100 28
111 106 31
120 112 30
112 107 30
104 102 27
107 102 25
117 113 31
119 114 32
125 119 40
121 115 45
123 118 35
130 124 44
125 121 37
125 119 33
123 119 34
123 117 36
132 127 39
128 122 39
133 126 41
138 131 47
132 128 44
134 127 42
134 127 46
141 134 45
141 133 46
132 124 36
138 131 46
147 141 42
147 141 51
143 137 47
137 129 48
141 136 45
135 129 38
138 131 31
146 138 44
142 136 44
143 137 49
147 140 44
143 135 47
146 138 46
145 139 43
149 141 55
146 139 42
155 147 57
153 147 52
145 139 47
153 144 51
150 142 53
150 141 52
148 141 43
153 145 51
150 140 51
152 142 49
149 140 47
151 142 45
149 142 47
152 145 51
147 138 39
150 141 44
154 147 44
149 141 52
150 140 47
152 143 47
151 141 50
147 139 39
153 143 47
149 140 46
150 140 44
152 144 52
151 140 51
145 137 39
150 140 41
151 138 50
145 134 45
143 131 35
144 133 35
148 134 42
143 132 32
146 135 42
143 130 39
148 134 45
145 134 41
143 133 38
155 143 52
147 135 37
143 131 44
145 131 43
138 122 28
135 122 28
131 114 29
136 122 30
148 149 13
166 181 0
168 183 0
167 183 0
170 189 0
163 176 0
170 189 0
165 181 0
167 184 0
169 188 0
168 187 0
168 185 0
168 183 0
171 187 0
172 190 0
170 186 0
166 184 0
165 182 0
168 188 0
166 182 0
167 184 0
170 188 0
169 188 0
168 185 0
166 186 0
171 190 0
171 189 0
171 196 0
169 192 0
170 193 0
170 194 0
169 192 0
174 197 36
174 196 80
184 204 128
188 207 135
189 208 142
189 209 140
184 205 125
187 207 133
182 203 114
183 204 130
181 203 114
180 202 102
182 203 108
186 207 133
180 201 108
181 203 95
183 204 114
181 204 102
181 203 102
182 204 108
180 202 92
179 202 88
180 202 88
180 202 105
178 200 72
181 203 99
180 202 99
180 202 95
180 203 102
181 204 111
181 203 105
180 203 99
181 203 102
182 204 108
180 202 92
180 203 92
180 202 80
181 203 102
179 202 84
180 203 105
178 202 95
181 203 99
181 204 105
178 200 80
179 201 84
178 200 95
178 200 80
184 205 117
179 202 92
179 202 84
181 203 105
181 203 95
184 205 111
177 199 76
176 199 80
182 203 95
182 203 108
180 202 102
180 202 108
178 200 84
181 202 95
179 201 88
181 202 108
185 206 125
182 203 111
184 204 130
184 204 128
181 202 122
182 203 120
187 206 135
180 201 108
171 192 72
167 190 51
166 188 0
155 179 54
142 166 94
122 148 113
129 153 105
123 148 113
113 139 118
91 119 136
80 111 140
61 96 150
62 98 158
60 95 145
61 97 155
60 96 153
61 97 158
62 97 159
59 94 147
61 97 158
60 96 150
60 95 145
61 97 154
61 97 161
62 98 161
61 97 162
62 97 160
61 97 156
61 97 162
61 96 157
61 97 161
61 98 165
60 96 158
62 98 160
62 98 166
61 97 165
61 96 154
61 97 162
62 98 168
62 98 166
62 98 164
61 97 160
62 98 166
62 98 168
62 98 166
61 97 163
61 97 162
62 98 174
61 98 163
61 97 162
61 98 163
62 99 172
62 98 168
61 97 165
61 96 158
62 98 168
62 98 166
62 99 170
61 98 163
62 98 165
61 97 161
62 98 166
61 98 165
61 97 158
61 97 160
62 98 159
62 98 169
62 98 166
62 98 167
61 97 164
62 99 165
62 98 170
62 98 164
61 98 164
61 98 167
61 97 161
62 98 164
62 98 165
61 97 159
62 98 160
61 97 161
63 99 170
62 98 160
61 97 160
61 97 161
62 98 165
62 99 171
62 98 171
62 99 170
61 97 157
61 97 159
61 98 167
62 99 169
61 97 158
62 99 169
62 98 166
61 98 164
63 99 170
62 98 167
62 98 167
61 97 160
62 99 171
62 98 167
62 99 169
62 99 169
61 97 164
62 99 172
61 98 161
62 98 165
62 98 168
63 99 171
62 99 169
62 98 161
62 98 170
61 98 164
62 98 167
62 99 172
61 97 162
62 98 162
62 98 162
62 99 168
62 98 163
63 99 165
61 98 165
61 97 157
62 98 163
62 98 163
61 97 162
62 98 165
62 98 166
62 98 165
62 98 159
62 98 163
62 98 158
62 99 167
61 98 159
62 98 162
62 98 168
61 97 161
62 98 166
62 98 162
62 98 162
62 98 162
62 99 167
61 97 157
60 96 153
62 98 161
61 97 153
62 99 167
62 98 161
62 98 158
61 97 153
62 98 161
63 99 167
62 98 163
61 97 155
62 98 159
61 97 155
62 98 165
62 98 159
61 97 161
62 98 159
62 98 159
61 97 153
61 97 155
61 97 156
61 97 159
62 97 159
61 96 155
61 97 158
62 98 163
61 96 151
60 95 155
61 97 154
60 95 145
62 97 158
60 95 147
61 96 150
62 97 158
60 95 148
61 95 154
60 94 140
60 95 151
60 94 138
60 94 143
59 93 137
60 94 136
58 91 140
88 91 75
96 86 12
96 88 22
98 88 7
97 91 20
89 80 10
92 84 15
97 89 10
104 93 10
102 94 15
93 89 14
93 88 17
106 98 24
110 103 22
100 93 18
107 100 15
107 101 24
110 101 18
113 106 27
106 102 23
113 107 21
112 108 33
121 113 41
112 107 36
126 118 34
123 116 37
122 118 33
114 109 31
114 111 28
112 108 23
115 108 30
115 111 33
129 122 34
130 124 42
134 126 38
127 121 37
126 120 38
140 134 41
131 125 36
134 129 37
122 118 34
143 137 46
133 126 33
136 130 37
139 130 46
144 137 45
137 129 37
140 134 46
140 133 46
148 141 49
140 133 52
150 143 51
137 131 40
147 140 42
152 145 47
142 134 47
142 136 38
151 143 52
148 139 51
148 141 53
145 138 48
138 133 32
150 142 55
151 141 48
150 141 51
145 138 44
148 141 48
147 138 45
150 141 45
149 140 47
150 142 50
150 143 52
149 141 41
144 135 46
150 141 47
151 143 46
150 141 52
153 143 56
151 143 45
147 140 45
151 145 45
153 143 49
151 141 51
152 144 47
157 148 55
139 130 32
147 136 44
145 136 35
151 141 43
153 142 48
150 140 43
148 136 46
141 132 36
148 138 42
150 138 48
144 133 38
143 133 43
142 131 35
145 134 44
150 138 45
145 132 37
139 127 38
144 131 34
142 132 39
141 127 38
141 127 26
138 125 33
136 122 40
158 161 27
164 179 0
164 178 0
165 178 0
162 175 0
167 185 0
167 183 0
167 183 0
169 186 0
166 182 0
170 185 0
167 182 0
167 183 0
168 184 0
168 184 0
169 188 0
168 184 0
167 185 0
164 180 0
169 187 0
168 185 0
166 182 0
170 189 0
168 187 0
165 182 0
167 186 0
169 188 0
173 194 0
172 195 0
175 198 0
171 195 0
175 198 62
186 206 130
189 208 135
190 209 140
190 210 149
183 204 108
185 206 133
182 202 122
183 205 120
190 210 144
187 208 135
180 201 88
179 202 95
179 201 95
183 205 108
180 202 92
176 199 57
181 203 102
181 203 105
181 203 88
180 202 92
179 202 84
180 203 102
179 202 80
181 203 92
179 202 95
180 202 92
179 202 92
177 200 62
178 201 76
180 202 88
182 203 95
180 202 88
177 201 80
179 202 84
178 200 84
181 203 102
178 200 84
178 201 88
180 203 92
177 200 76
180 202 84
178 201 92
176 199 62
176 199 72
178 201 80
182 204 108
179 201 76
180 202 95
182 204 108
180 203 92
178 201 84
179 201 88
181 203 92
178 201 67
178 201 99
177 201 99
180 202 88
180 203 92
180 202 95
182 203 105
179 202 80
183 204 114
181 203 102
179 201 102
183 205 111
180 202 88
179 200 108
185 205 125
182 204 108
180 200 114
178 199 117
181 201 125
187 206 142
178 198 120
182 202 122
171 192 80
154 178 67
141 166 94
130 154 102
124 150 114
140 164 95
123 149 115
117 143 120
98 126 126
79 110 142
65 99 154
61 97 154
61 96 149
60 96 154
62 98 164
61 97 161
61 96 157
61 97 158
61 96 152
60 95 153
62 98 161
60 96 155
62 98 162
61 97 157
61 97 160
61 96 156
60 96 160
61 97 159
61 97 165
62 97 161
61 97 162
61 97 159
62 99 171
61 96 157
62 99 170
61 97 166
61 98 163
60 96 160
62 98 169
60 97 161
61 97 165
61 97 164
61 98 170
61 97 166
62 98 170
61 97 166
62 98 167
62 98 166
61 98 167
61 98 169
63 99 172
61 97 163
60 96 160
62 98 172
62 98 164
62 98 168
62 98 167
61 97 165
61 97 160
62 98 165
61 98 165
62 98 168
62 98 166
61 98 161
62 98 168
61 97 161
62 98 165
62 98 170
62 98 162
61 97 158
61 97 163
62 98 172
62 98 165
62 98 169
62 99 170
63 99 166
62 98 168
62 98 165
62 99 170
62 98 160
62 99 167
62 99 169
62 98 163
61 97 163
62 98 165
62 99 169
62 98 168
61 97 159
62 98 165
62 98 162
62 98 167
62 98 165
61 97 169
63 99 169
62 99 174
62 98 166
62 99 167
62 98 161
62 98 162
62 98 169
62 99 167
62 98 165
62 98 165
61 97 160
61 97 158
62 98 167
63 99 167
62 99 167
62 98 166
62 98 168
61 97 160
62 98 159
62 98 164
61 97 163
62 98 166
62 98 164
62 98 162
62 98 166
62 98 164
63 99 167
63 99 170
63 99 166
62 98 164
61 97 153
62 98 165
62 99 168
62 97 154
62 99 164
61 97 151
62 99 168
63 99 168
61 97 155
62 98 164
63 99 168
61 97 157
61 97 157
62 98 162
62 98 157
61 97 161
62 98 159
62 98 162
62 98 163
62 98 161
61 97 158
63 99 164
61 97 154
62 98 159
62 98 157
61 97 153
61 97 157
62 97 157
62 98 161
61 97 153
62 98 161
61 97 156
62 97 155
61 97 158
62 98 158
61 96 154
62 98 158
61 97 158
61 96 152
62 97 158
60 96 154
61 97 162
61 97 151
61 97 153
62 97 152
62 98 158
61 97 157
62 98 159
61 97 149
60 95 148
61 96 149
60 94 147
62 97 154
60 96 150
61 97 152
61 96 146
61 96 147
59 93 143
60 94 145
60 94 143
59 91 137
58 91 130
94 94 68
89 78 15
103 90 9
94 84 12
99 89 14
91 85 22
95 87 17
103 94 12
97 90 10
103 99 8
97 88 21
96 91 20
102 94 17
104 97 22
104 99 28
108 97 26
107 102 28
103 97 23
111 105 30
117 108 28
113 108 23
111 105 30
114 110 31
112 106 23
111 104 25
125 120 26
118 112 21
113 108 37
124 119 31
117 111 34
115 110 36
125 119 41
126 120 35
129 123 40
121 117 30
135 127 43
132 127 43
124 115 34
128 122 35
130 124 49
141 134 45
135 130 39
135 129 29
141 135 38
147 140 40
140 132 46
132 126 28
130 122 30
140 133 44
141 134 45
144 137 48
142 137 42
141 133 51
144 136 51
151 143 51
139 133 37
143 136 38
147 138 48
147 140 42
145 139 49
148 138 39
146 138 48
144 138 35
149 141 46
143 135 37
149 140 49
146 138 41
152 142 51
151 143 52
151 143 47
153 145 50
151 142 49
147 138 43
148 139 46
148 138 36
151 142 42
147 140 36
148 140 38
151 142 50
148 139 43
148 138 40
146 138 48
151 142 49
151 141 54
154 146 46
143 134 37
150 142 39
154 143 52
147 138 34
142 130 36
156 145 52
147 135 38
147 135 36
149 140 41
138 128 27
144 133 31
148 137 37
147 137 36
137 124 33
145 133 38
143 132 40
132 118 25
146 132 36
144 131 40
144 130 33
138 122 37
137 120 32
152 151 25
165 179 0
168 183 0
163 177 0
167 183 0
166 182 0
166 183 0
167 185 0
166 181 0
167 181 0
162 176 0
166 182 0
169 187 0
165 182 0
170 189 0
169 188 0
162 177 0
165 181 0
162 176 0
169 188 0
168 186 0
165 183 0
161 177 0
167 186 0
170 190 0
166 181 0
170 189 0
168 186 0
169 188 0
171 195 25
183 203 120
188 208 128
192 211 151
192 212 153
183 204 117
186 206 130
184 206 122
184 205 122
184 206 114
184 205 105
178 201 84
178 201 84
181 203 102
184 205 105
181 203 99
181 204 111
176 199 67
177 200 72
178 201 95
177 200 72
180 203 102
178 200 92
180 203 99
178 201 92
179 201 80
180 202 88
179 202 92
179 201 80
178 201 76
179 201 80
183 205 125
184 205 117
186 207 125
189 209 137
197 215 163
196 215 163
204 221 199
207 223 204
200 218 179
199 217 179
202 220 189
205 222 194
202 219 186
204 221 194
204 221 196
196 215 165
201 219 188
193 212 144
187 208 128
189 209 137
183 205 111
177 200 67
176 199 76
177 200 88
181 203 108
178 201 67
176 199 62
179 202 80
182 204 99
180 202 92
181 203 99
180 202 105
180 202 88
178 201 80
180 203 99
178 201 88
180 202 95
182 204 105
179 200 95
182 203 117
180 201 111
182 203 114
181 203 108
182 204 114
179 200 108
182 204 111
183 204 120
189 208 144
184 204 130
187 206 144
162 184 107
144 168 86
139 165 95
143 165 88
136 160 103
119 144 114
118 145 118
118 144 113
97 125 140
87 116 139
62 98 159
61 97 158
61 97 148
60 95 147
61 97 158
62 98 163
61 97 154
60 96 153
61 97 158
61 97 161
61 97 154
62 97 157
62 98 165
62 98 165
60 96 157
60 96 155
61 97 157
62 98 165
62 98 163
62 98 162
61 98 161
61 97 162
62 99 166
61 97 158
61 97 163
62 98 161
61 97 159
61 98 164
62 98 166
62 98 167
60 96 160
61 98 168
62 98 166
61 97 164
61 97 166
61 97 165
61 97 162
61 98 168
61 97 164
61 97 166
62 99 169
62 98 160
61 97 163
62 98 165
62 99 170
61 98 167
61 98 167
62 98 164
61 97 167
61 97 163
61 98 161
61 97 162
61 97 161
62 98 166
62 99 169
62 99 169
62 98 163
60 96 160
62 98 164
61 98 167
63 99 164
62 98 166
61 98 166
62 98 164
62 98 160
61 98 165
62 98 160
63 100 172
62 99 166
62 99 169
61 97 159
61 97 163
61 97 162
61 97 158
61 97 158
63 99 167
61 97 160
62 99 166
62 99 169
62 98 167
62 99 168
61 97 157
61 97 158
62 98 166
62 98 167
62 98 162
61 98 159
61 97 161
62 98 167
62 98 163
62 99 169
62 98 163
61 97 163
63 99 168
61 97 161
62 97 158
62 98 166
62 98 166
63 99 170
61 97 157
62 98 165
63 99 170
61 97 162
62 98 164
63 99 167
62 98 161
63 99 161
62 99 168
61 97 160
61 97 151
61 97 154
62 98 161
63 99 168
62 98 157
62 98 163
62 98 164
61 97 161
62 97 159
62 98 162
62 98 157
62 98 164
62 98 161
63 99 166
61 97 155
62 98 159
61 96 153
62 98 159
62 98 165
61 98 160
61 98 162
61 97 157
61 96 150
62 98 156
63 99 164
61 97 158
61 97 160
62 98 165
62 98 163
62 98 158
61 96 151
62 98 164
62 98 161
61 97 158
62 97 160
61 97 152
61 97 149
61 97 152
61 97 153
62 98 161
62 98 161
61 97 153
62 97 154
62 98 158
61 97 157
61 97 157
61 97 152
61 97 152
61 96 149
61 97 153
61 96 150
62 97 155
61 96 147
62 97 155
61 96 152
60 95 150
61 96 150
61 95 139
60 95 142
60 94 139
60 94 140
60 94 147
59 92 136
58 91 133
92 89 56
96 84 9
106 96 5
97 85 10
98 88 10
109 101 22
89 81 8
87 81 14
98 89 10
105 96 13
89 86 22
93 88 18
102 94 11
106 98 23
110 102 11
108 99 14
99 94 24
104 99 23
109 102 21
111 103 25
114 108 27
116 108 28
119 110 27
108 103 31
125 121 33
119 112 22
113 109 27
121 114 35
113 107 27
125 118 30
127 121 38
123 117 34
129 124 32
128 120 39
134 128 34
130 124 37
130 123 36
128 122 36
129 122 35
128 121 35
133 126 39
137 130 39
133 127 33
132 125 38
137 130 42
136 130 43
141 132 38
139 131 44
139 134 30
145 138 45
131 124 31
142 136 40
146 138 43
146 140 41
147 137 42
142 134 44
145 138 41
144 138 37
145 137 44
153 144 49
149 141 50
150 142 43
136 129 42
152 146 42
143 133 38
146 140 41
150 140 53
149 139 48
141 133 38
152 143 44
149 141 48
143 136 34
147 138 47
149 141 46
150 141 44
151 142 47
152 142 46
149 139 43
151 141 44
150 140 40
145 137 30
152 143 41
145 138 40
144 133 42
146 134 39
149 140 48
143 132 41
146 135 46
150 140 41
143 132 43
148 138 37
147 135 46
145 134 43
138 124 36
149 137 49
143 131 40
140 128 36
147 134 36
145 134 37
142 127 33
150 138 44
140 127 34
142 127 40
140 125 31
141 128 45
143 131 39
149 148 24
164 179 0
163 177 0
167 181 0
164 178 0
167 182 0
163 177 0
162 176 0
168 185 0
166 182 0
166 183 0
169 185 0
165 182 0
168 184 0
168 186 0
164 179 0
167 183 0
166 182 0
169 186 0
170 184 0
169 185 0
165 183 0
168 185 0
167 185 0
167 186 0
170 189 0
169 188 0
167 187 0
167 186 0
165 183 0
185 205 133
182 203 117
188 208 137
188 208 142
185 206 128
184 204 111
183 205 114
187 207 122
183 205 117
178 201 84
181 204 105
179 201 95
178 200 99
178 201 80
181 203 99
181 203 92
179 202 84
181 203 99
177 200 84
177 200 62
184 205 108
179 202 92
176 199 67
178 201 80
183 204 105
196 214 163
202 219 184
200 218 184
207 224 207
212 227 223
218 233 244
222 235 249
223 237 253
221 235 253
221 234 248
220 234 248
223 236 253
222 235 250
223 237 254
222 236 252
222 236 253
219 233 248
220 234 248
220 235 249
222 236 250
221 235 250
221 235 250
219 233 245
221 235 248
223 237 255
222 235 252
221 235 249
221 235 248
219 233 240
213 228 223
206 222 199
197 216 169
196 215 161
186 207 120
177 200 72
179 202 92
177 200 80
178 201 76
178 201 88
179 202 84
179 202 84
181 203 92
178 200 72
178 201 84
177 201 76
181 203 95
182 204 99
178 201 95
182 204 108
178 201 102
180 202 105
183 204 102
177 198 103
141 162 144
140 160 165
128 150 179
124 145 172
97 123 155
77 108 136
77 109 150
107 133 126
111 139 134
116 142 122
127 152 103
130 155 111
122 147 125
102 130 136
86 117 150
65 100 155
60 95 147
60 95 154
61 96 155
60 96 156
59 95 148
61 97 160
63 99 165
60 96 149
62 98 165
62 98 163
60 96 154
60 96 158
61 97 158
61 96 156
61 97 157
60 95 151
61 97 162
62 98 163
61 97 161
62 97 159
60 96 152
61 97 162
61 97 160
61 97 163
62 98 164
61 97 158
63 99 167
61 97 161
61 97 168
61 97 168
62 99 169
62 98 166
61 98 170
62 98 162
62 99 169
61 97 162
62 98 168
62 98 163
62 99 167
61 97 161
61 97 160
62 98 164
60 96 161
61 97 164
61 98 160
61 98 167
60 96 158
62 99 172
61 98 160
61 97 160
62 98 169
62 98 166
61 98 163
62 98 161
61 97 163
62 99 172
62 98 165
62 98 163
62 98 164
63 99 168
61 98 170
62 98 159
62 98 164
61 97 162
62 98 166
62 98 164
61 97 163
62 98 168
62 98 162
62 98 163
61 98 163
61 98 161
62 98 167
62 98 160
61 97 158
62 98 168
62 98 166
63 99 169
62 98 164
62 98 165
61 98 163
62 98 167
62 99 169
62 98 165
62 99 168
61 97 159
61 97 161
62 98 162
61 97 160
62 99 166
62 98 167
62 99 166
62 98 166
61 97 161
62 98 167
63 99 163
62 98 159
63 99 165
62 99 171
62 98 161
62 98 165
62 99 168
61 97 161
61 97 157
62 98 164
62 98 160
62 98 157
62 98 162
61 97 151
62 98 157
62 99 165
62 98 164
62 98 161
62 98 160
63 99 160
62 98 163
62 98 162
61 98 161
62 98 162
61 96 153
61 98 161
62 98 162
63 99 168
62 98 162
61 97 156
61 97 157
61 97 158
62 98 157
61 97 164
61 98 158
62 99 163
61 97 161
61 97 157
62 98 162
61 97 154
61 97 159
62 98 161
61 97 159
61 96 153
61 97 155
62 98 160
61 97 159
62 98 163
62 98 153
62 98 158
61 97 158
63 99 162
61 97 151
61 96 156
62 97 153
61 95 143
61 96 149
61 96 145
61 96 149
61 97 152
61 96 145
62 98 157
62 97 153
62 97 151
62 97 153
60 93 139
60 94 138
59 93 141
61 95 148
61 95 137
61 95 147
60 95 140
59 93 141
59 91 126
58 90 126
98 92 43
96 85 12
96 88 10
98 88 7
101 92 19
109 94 18
108 96 6
111 102 15
107 99 15
101 92 4
103 92 8
99 91 12
103 96 6
110 102 6
108 98 16
111 105 19
114 108 20
104 98 22
118 110 23
115 108 14
107 100 13
110 103 16
110 104 27
122 115 30
121 114 22
116 109 33
121 114 26
119 114 31
126 118 35
117 108 30
122 115 31
132 125 33
125 121 33
124 118 33
121 114 27
131 124 38
129 122 27
128 122 35
137 131 43
138 131 28
125 122 38
133 126 39
137 131 40
133 125 42
141 135 41
147 139 46
133 128 37
136 129 40
142 138 41
139 132 31
143 138 38
140 133 39
142 134 44
143 133 45
135 127 38
141 132 34
150 142 48
143 136 40
147 138 51
145 136 43
145 137 45
149 141 51
142 134 23
144 136 42
148 139 43
149 143 42
153 145 46
148 141 36
146 137 43
154 142 50
153 143 51
146 137 47
139 129 36
152 143 51
148 137 47
140 129 31
148 139 49
149 140 47
149 139 41
146 138 36
154 146 45
144 133 44
147 137 46
147 137 31
150 140 42
150 141 43
146 135 39
157 147 48
149 137 52
143 133 38
135 123 32
149 138 50
148 136 40
147 136 36
146 137 41
142 130 33
148 136 39
145 131 38
144 132 41
138 126 28
138 125 26
136 122 32
136 122 32
136 123 26
137 121 34
149 147 26
165 179 0
167 182 0
169 183 0
168 184 0
164 180 0
165 178 0
166 181 0
165 179 0
163 180 0
165 180 0
165 181 0
164 179 0
165 180 0
169 186 0
165 180 0
166 183 0
165 180 0
166 184 0
167 183 0
170 189 0
167 185 0
167 184 0
165 183 0
167 186 0
166 184 0
167 185 0
167 185 0
170 188 0
171 192 0
169 188 0
179 200 88
178 200 92
184 205 120
188 209 135
185 206 111
188 208 133
183 204 114
180 202 95
183 205 117
185 206 120
181 204 102
183 204 95
181 202 84
179 202 92
181 203 84
178 201 84
179 202 92
178 201 84
179 202 92
180 202 99
192 211 155
205 222 201
212 227 220
219 233 240
223 236 252
219 233 248
218 232 242
222 236 253
221 235 252
219 233 246
217 232 245
220 234 249
220 234 250
220 234 249
220 235 252
221 235 252
220 234 249
220 234 249
219 234 250
220 234 253
220 235 253
219 234 248
221 235 253
222 236 255
220 234 252
220 234 249
221 235 253
220 234 249
218 233 250
220 234 252
219 234 248
221 235 250
219 233 246
221 235 252
221 235 252
220 234 249
221 235 248
222 236 252
222 236 250
217 232 236
205 222 203
201 218 184
194 214 161
178 201 88
180 202 92
179 201 84
177 200 80
179 202 92
181 203 88
180 203 88
180 202 102
181 203 99
181 203 88
176 198 80
178 201 102
182 204 111
180 201 122
122 145 170
119 142 178
108 132 166
115 138 169
105 130 174
121 143 175
114 137 179
78 109 149
67 101 149
66 100 158
65 101 158
68 102 150
79 110 142
94 122 135
123 148 114
120 145 113
115 142 122
83 114 139
67 101 152
61 97 153
61 96 156
61 97 153
61 97 160
61 97 155
62 98 160
61 97 164
61 97 158
61 97 158
61 97 159
60 95 161
61 97 157
61 97 157
61 97 159
61 97 161
60 96 153
61 97 161
61 97 163
60 96 160
62 98 169
61 97 158
61 97 162
61 98 161
61 98 166
61 98 168
61 97 162
61 98 169
60 96 161
61 97 164
62 98 164
62 98 167
62 98 166
61 98 166
61 98 165
62 98 170
61 97 162
61 97 162
62 99 175
62 98 167
62 98 162
61 98 166
62 99 168
62 98 162
62 98 172
61 97 162
62 98 163
61 97 163
62 98 165
61 97 164
63 99 166
61 97 160
63 99 169
62 98 164
62 98 164
62 98 159
62 98 168
61 97 160
62 98 168
62 98 158
63 99 165
61 97 162
62 98 161
62 98 165
62 98 162
62 98 167
62 98 163
62 98 169
61 98 161
62 98 164
62 98 165
62 98 166
62 98 166
61 98 165
61 98 166
62 98 164
62 99 170
62 98 166
63 99 166
62 98 167
62 98 165
63 99 165
62 99 167
61 97 162
62 99 166
62 98 158
62 99 164
62 98 165
63 99 165
62 98 163
62 98 166
62 98 161
62 98 162
62 98 163
62 98 164
62 98 165
62 99 166
61 98 162
62 98 163
62 98 166
62 98 159
62 98 163
62 98 159
62 98 161
62 98 160
62 99 167
61 97 156
62 98 163
62 98 157
62 98 158
61 97 153
61 98 164
63 99 165
62 99 164
61 97 160
62 98 161
63 99 165
61 97 159
63 98 161
63 99 162
61 97 153
62 98 160
62 97 153
62 98 159
61 97 156
62 98 163
63 99 162
61 97 159
61 97 151
62 98 162
62 97 156
62 98 160
61 97 158
62 98 156
62 98 163
62 98 158
61 97 154
62 97 154
63 99 159
61 97 150
61 97 156
61 96 154
61 96 149
61 97 155
61 97 154
61 97 154
61 97 151
62 98 157
60 96 147
61 96 145
61 96 151
62 98 153
62 98 164
60 95 150
61 96 149
61 97 151
61 95 144
61 97 156
61 96 147
60 95 149
61 97 151
60 95 142
59 93 139
60 94 142
60 95 139
59 93 137
60 94 136
59 92 128
59 92 135
94 88 40
102 89 10
107 96 6
103 90 6
106 96 10
100 93 17
105 94 15
114 104 17
110 101 18
89 77 15
92 83 17
97 90 7
105 99 15
100 91 12
98 89 14
109 101 14
107 100 18
100 94 20
109 102 20
109 99 23
102 94 21
96 89 23
118 111 14
109 101 28
119 112 14
119 113 12
116 110 25
121 116 30
108 103 25
119 114 33
109 106 20
122 115 22
120 115 26
131 123 40
128 123 27
122 116 24
123 115 32
126 119 32
132 125 33
131 125 36
124 117 30
127 119 36
132 124 33
135 128 39
137 128 48
137 131 38
133 125 35
138 130 43
131 125 40
138 130 28
143 136 46
141 133 37
141 132 49
144 137 36
134 127 35
144 136 42
142 133 34
133 127 30
146 137 35
141 133 35
140 133 41
142 135 40
144 135 38
150 141 50
148 139 42
145 136 32
148 139 39
139 131 36
148 138 41
147 139 46
148 139 37
146 137 35
149 141 32
149 141 43
146 137 36
151 143 45
147 136 34
147 138 38
148 139 45
152 143 45
147 137 40
141 131 33
145 134 32
142 135 37
141 133 28
147 135 24
149 139 43
143 134 32
139 127 27
145 134 46
140 132 34
144 131 43
142 131 33
143 131 34
139 128 30
139 126 36
145 133 34
142 129 42
143 129 38
139 125 31
139 125 29
146 133 40
141 126 36
134 117 30
145 144 17
159 171 0
159 172 0
163 176 0
163 179 0
165 180 0
164 177 0
165 179 0
166 181 0
166 180 0
169 188 0
164 178 0
166 182 0
164 180 0
165 181 0
168 186 0
164 178 0
166 184 0
165 181 0
166 182 0
167 184 0
170 188 0
169 184 0
169 187 0
172 190 0
169 187 0
171 188 0
171 190 0
167 188 0
170 190 0
168 186 0
172 191 0
184 205 117
182 204 102
182 203 105
185 206 130
181 203 105
182 204 108
180 203 102
181 203 99
182 204 99
181 204 105
179 202 88
177 200 72
178 200 72
177 200 76
178 201 84
185 207 128
191 211 147
207 223 199
215 230 230
223 236 253
221 235 252
220 234 249
222 236 254
220 234 248
218 233 245
220 235 250
219 234 250
220 234 249
219 233 249
220 234 252
219 234 250
218 233 249
220 235 253
219 234 253
218 233 249
219 234 253
219 234 254
218 233 250
218 233 250
218 233 249
217 232 249
218 233 248
217 232 248
218 233 250
218 233 250
218 233 250
218 233 250
219 235 255
218 233 248
219 234 252
220 235 253
220 234 253
220 235 253
219 234 249
219 234 248
219 234 249
221 235 254
221 235 253
222 235 252
221 235 249
222 236 253
220 234 250
223 236 253
220 234 248
213 228 223
208 224 206
193 212 153
180 202 92
180 202 88
173 197 51
178 201 84
179 202 84
177 200 84
182 204 105
179 201 84
180 202 88
161 184 118
102 128 161
111 135 173
110 134 169
102 127 175
112 135 173
105 130 175
106 131 176
100 126 166
74 106 150
65 100 159
68 102 157
66 100 151
68 102 147
67 101 153
64 99 157
91 118 124
104 130 128
121 145 108
109 135 129
83 113 143
65 100 155
60 95 152
60 96 150
61 96 161
63 99 163
61 97 159
62 98 162
61 97 159
61 97 157
60 96 156
62 98 167
61 97 161
62 98 167
60 97 159
60 96 153
62 98 164
62 98 162
61 97 162
62 98 161
61 98 162
62 98 164
61 96 162
62 98 167
61 97 161
61 97 162
60 96 158
60 95 154
61 98 164
62 98 165
61 97 161
62 98 167
61 97 167
61 97 163
62 98 168
61 97 161
61 97 160
61 98 167
61 98 161
61 97 158
61 97 160
62 99 165
62 98 167
62 98 166
61 97 163
60 97 164
61 97 161
61 98 165
62 98 167
62 98 170
61 97 162
62 98 168
62 98 164
61 97 162
61 97 161
62 98 160
62 98 165
63 99 168
62 98 165
61 98 164
61 97 155
61 98 165
61 97 159
61 97 162
62 98 167
61 97 160
62 97 155
61 98 165
61 96 156
61 97 160
61 98 167
62 98 161
62 99 167
61 97 165
61 97 158
62 98 167
62 98 163
61 97 163
61 98 162
62 98 163
62 98 161
61 97 156
62 98 162
62 98 159
62 98 158
61 98 162
61 98 166
62 98 167
62 98 165
62 98 162
62 98 162
62 98 165
62 98 165
63 99 164
63 99 165
61 97 158
62 98 160
62 98 166
61 98 162
62 98 158
62 98 159
62 98 160
61 98 163
61 97 158
62 98 163
62 98 159
62 97 152
61 97 156
63 99 171
61 97 156
62 99 167
62 98 162
61 97 158
62 98 165
61 96 150
61 97 152
61 97 156
61 97 154
61 97 156
63 99 162
63 99 164
62 98 167
61 97 154
61 96 149
62 98 159
62 98 156
62 98 160
62 98 159
61 98 160
62 98 160
63 99 165
61 97 158
62 98 158
62 97 156
61 97 156
62 98 162
62 98 160
63 98 162
63 98 154
63 99 157
62 97 152
62 98 161
61 97 151
61 96 153
62 97 153
61 97 150
62 98 160
61 96 150
62 97 150
61 97 157
60 95 144
62 98 159
62 97 156
61 96 147
62 97 149
60 93 147
60 94 147
60 94 139
61 96 146
60 95 143
60 95 141
61 96 143
59 92 136
61 95 143
60 95 143
61 95 147
59 91 132
56 88 126
109 98 21
106 96 11
115 100 13
100 87 9
107 97 15
101 92 9
98 89 17
93 81 8
103 94 4
98 86 8
101 94 19
110 99 5
105 94 15
103 95 9
101 93 6
106 99 10
110 102 21
117 109 15
106 95 12
108 101 12
111 106 15
107 98 18
101 94 21
112 106 14
111 106 21
112 107 29
118 111 22
121 116 28
116 107 28
121 116 26
120 112 26
113 106 18
126 119 40
116 108 31
133 123 33
130 123 32
122 116 33
118 112 33
127 121 26
130 125 34
130 124 38
132 124 33
131 124 36
139 133 31
128 122 25
136 128 36
140 130 42
139 129 36
138 130 42
136 128 42
143 135 30
140 134 30
134 126 28
136 128 33
148 138 46
150 140 41
139 131 42
138 130 41
141 134 32
143 136 39
141 134 38
149 142 30
141 133 36
139 130 34
144 138 32
152 144 44
143 134 36
143 136 41
138 131 30
150 140 40
151 143 44
149 140 38
141 133 28
145 136 38
149 142 46
141 130 47
151 141 40
146 137 35
142 132 36
149 138 38
147 136 38
149 137 37
141 132 40
143 137 26
145 136 45
146 135 34
145 134 39
150 139 38
146 133 35
140 127 33
141 130 31
146 137 33
143 128 35
149 139 44
141 130 27
145 134 37
142 131 32
139 127 20
138 125 37
138 123 26
138 122 27
134 121 14
139 122 23
153 155 18
164 177 0
163 180 0
164 175 0
161 172 0
161 173 0
167 182 0
165 178 0
166 181 0
167 182 0
165 180 0
164 179 0
165 181 0
166 181 0
166 180 0
168 185 0
164 180 0
161 178 0
165 179 0
164 181 0
169 186 0
164 178 0
166 185 0
167 184 0
168 186 0
168 184 0
164 180 0
170 187 0
167 185 0
169 188 0
171 187 0
170 189 0
168 186 0
179 200 99
180 202 95
183 204 114
182 204 108
178 201 99
180 203 88
183 204 105
179 202 92
180 202 88
178 201 76
181 203 95
177 200 84
184 205 114
197 215 173
211 226 217
220 234 246
223 236 252
223 236 254
219 233 245
222 236 253
220 234 248
219 234 248
220 235 254
219 234 252
220 235 254
219 234 250
219 234 250
218 234 252
219 234 253
218 234 252
219 234 253
217 233 249
218 233 253
218 233 250
217 233 252
217 232 248
215 231 246
217 233 252
217 232 250
218 233 252
217 233 250
217 233 253
217 233 249
215 231 244
218 234 254
216 232 250
218 233 250
215 231 246
219 234 255
218 233 252
217 233 250
219 234 254
219 234 253
218 233 249
219 234 253
219 234 249
219 234 253
220 234 253
218 233 248
221 235 253
218 233 249
221 235 252
221 235 252
220 235 252
221 235 252
222 236 250
221 235 249
221 235 250
208 224 211
199 217 179
184 205 111
177 200 72
180 202 102
178 201 84
182 204 99
179 201 84
138 161 131
108 134 176
102 128 177
93 121 171
90 118 172
114 138 172
113 137 181
107 132 177
113 138 177
102 127 169
74 106 163
66 101 162
63 99 162
65 100 156
70 102 150
70 103 156
67 101 157
69 103 152
65 100 158
99 127 136
104 131 125
107 133 126
75 107 144
65 99 153
60 96 153
61 97 157
60 95 152
60 95 148
61 97 163
61 97 160
60 95 160
61 97 158
61 98 162
62 98 167
60 96 156
61 98 163
61 97 159
61 97 159
61 97 161
62 98 159
61 97 162
61 98 165
61 97 161
61 97 160
61 97 161
62 98 165
61 98 164
62 97 161
61 97 163
60 96 158
61 97 163
61 97 160
62 98 165
61 97 157
61 97 164
60 96 161
62 98 161
61 97 164
62 98 166
62 98 163
62 99 167
62 98 165
62 98 165
62 99 168
61 98 165
62 98 162
60 96 163
62 98 161
61 98 166
61 97 158
62 98 162
62 98 163
61 98 161
61 98 167
62 98 161
61 98 163
62 98 168
62 98 166
61 97 158
63 99 167
61 98 162
61 97 162
62 98 164
61 97 158
62 98 165
63 99 165
61 97 162
62 99 166
62 98 163
62 98 168
61 98 164
61 97 159
62 98 162
62 98 165
61 97 158
62 98 162
62 98 158
62 98 168
62 98 165
61 97 167
62 98 161
61 97 156
63 99 167
62 98 166
62 98 161
62 98 163
62 98 160
62 98 161
61 97 160
61 97 156
61 98 165
62 98 164
62 98 164
62 98 168
62 98 166
61 97 164
62 98 166
63 99 165
62 98 159
62 97 161
62 98 160
61 97 155
62 98 163
62 98 164
60 96 152
62 98 163
62 98 166
62 98 164
61 97 158
62 98 166
62 98 157
63 99 168
63 98 164
60 96 154
61 97 155
61 97 151
62 98 161
62 98 159
61 97 157
62 97 153
61 97 158
62 98 154
61 97 159
62 98 155
62 98 158
62 98 162
61 96 156
61 97 158
62 98 157
62 98 163
61 97 152
62 98 157
61 97 156
61 96 150
62 98 158
62 98 156
63 98 162
61 97 155
62 97 143
61 96 152
62 97 156
62 97 156
62 97 157
61 96 144
61 97 150
61 97 151
62 97 152
62 98 159
61 96 151
62 97 151
61 97 156
62 97 151
61 97 156
61 97 151
62 97 152
60 95 143
61 96 145
61 97 149
60 95 143
60 95 148
60 95 142
60 95 139
61 96 154
60 95 143
59 92 140
58 91 132
59 93 136
62 93 134
106 90 9
100 88 13
109 96 17
104 95 12
112 96 18
107 94 14
99 90 13
103 91 14
100 88 11
92 83 5
105 95 17
103 95 11
105 95 11
104 93 6
111 102 17
116 106 18
103 98 12
107 99 23
104 95 15
112 105 15
107 97 14
110 103 25
109 103 20
118 111 16
115 109 28
117 108 28
118 109 27
117 111 29
110 103 19
125 117 33
120 115 21
123 114 21
123 116 21
126 116 30
128 122 29
129 125 23
122 115 29
126 116 30
131 122 27
135 128 31
129 123 24
131 123 35
132 123 26
131 124 36
138 131 37
125 119 27
129 123 20
137 130 32
140 133 39
140 132 32
142 133 43
143 134 42
140 132 28
138 128 43
131 125 39
145 137 47
143 133 43
141 133 33
134 126 42
148 141 32
138 129 31
144 131 43
144 133 36
146 137 36
150 140 40
144 135 34
143 136 38
147 137 36
146 136 41
148 138 47
144 135 32
144 133 36
144 135 30
151 141 40
142 132 31
138 126 34
147 137 43
143 133 32
141 132 36
147 137 41
145 134 41
137 126 27
142 130 35
139 130 26
147 136 40
148 137 43
142 129 28
144 132 35
149 138 47
139 127 33
136 124 20
146 133 37
139 125 28
141 128 34
137 124 33
146 134 38
141 123 30
145 132 34
136 123 24
138 125 27
137 120 33
137 123 28
151 156 13
163 177 0
163 175 0
159 173 0
167 182 0
162 176 0
164 179 0
163 176 0
165 177 0
159 174 0
165 178 0
167 182 0
161 171 0
164 177 0
165 180 0
165 181 0
168 184 0
164 180 0
169 189 0
166 181 0
169 185 0
164 177 0
170 188 0
168 187 0
162 179 0
168 185 0
166 183 0
167 186 0
168 185 0
166 183 0
165 182 0
167 183 0
170 189 0
168 185 0
183 204 111
179 201 95
181 203 95
177 200 67
178 201 72
181 203 105
180 202 88
178 201 80
179 202 80
187 208 125
208 224 207
217 232 234
222 236 252
222 236 252
223 236 255
220 234 248
220 235 250
221 235 253
220 234 253
218 233 248
219 234 252
217 233 248
219 234 252
218 233 249
219 234 254
216 232 248
218 233 252
215 231 250
217 233 252
218 233 252
217 232 250
217 233 253
217 233 253
215 232 249
216 232 252
215 231 246
214 231 246
214 231 245
217 233 254
216 233 253
215 232 250
215 232 250
214 231 246
215 232 250
215 231 249
214 231 249
216 232 252
214 231 245
216 232 252
216 232 252
215 231 246
216 232 250
217 233 252
217 233 252
218 234 253
218 233 253
217 233 250
218 233 253
218 233 252
219 234 254
218 234 253
217 233 246
217 232 245
221 235 254
217 232 242
220 235 250
219 233 248
221 235 253
222 235 252
222 236 252
221 235 248
211 227 220
196 215 165
181 204 105
179 201 80
180 202 92
156 179 124
99 126 173
95 122 159
92 120 177
98 126 176
91 119 171
101 127 178
105 131 172
92 120 176
96 123 167
98 124 168
73 105 153
61 98 161
70 103 146
65 100 157
66 100 154
70 103 150
66 101 161
66 100 161
61 96 154
65 99 154
85 116 143
97 126 135
102 129 126
82 113 150
61 97 155
61 96 149
60 96 150
60 95 150
61 97 155
60 96 160
61 97 157
61 96 154
61 96 158
61 97 163
60 96 159
61 96 155
61 97 160
61 97 161
60 96 156
61 97 162
60 96 159
61 97 163
61 97 167
62 98 164
61 98 167
60 96 157
61 97 159
62 98 164
60 96 155
61 97 161
61 96 153
60 96 157
62 98 167
61 97 167
60 96 160
62 98 163
62 98 162
61 98 165
61 97 158
61 97 160
62 98 163
61 98 167
61 97 162
61 98 164
61 97 160
61 97 166
61 97 154
63 99 168
62 99 172
61 97 160
61 97 156
61 97 160
61 97 159
61 98 163
62 98 169
61 97 160
62 98 164
62 99 164
62 98 165
62 97 159
62 99 170
62 98 166
61 97 156
62 98 168
62 99 166
63 99 169
61 97 159
62 98 163
61 97 163
61 98 162
62 98 162
62 99 168
62 98 163
61 97 158
60 96 155
63 99 163
61 98 166
62 98 163
61 97 159
63 99 169
62 99 168
61 98 165
63 98 163
63 99 171
61 97 160
62 98 163
62 97 158
62 98 162
61 97 157
62 98 160
62 98 162
62 98 160
61 97 160
62 98 163
63 99 163
62 98 163
61 97 157
63 99 164
62 98 165
61 98 162
61 97 162
62 98 163
61 97 157
62 98 163
61 97 159
61 97 155
62 98 160
62 98 163
62 98 162
62 98 161
62 98 157
62 99 166
60 96 151
61 96 157
62 98 156
62 97 152
63 99 164
61 97 160
62 98 163
61 97 153
61 96 150
61 97 154
62 97 157
62 98 159
61 97 152
62 98 159
61 97 158
63 99 161
62 97 151
61 97 157
62 97 155
62 98 155
62 98 161
62 98 157
62 97 153
60 96 153
61 97 157
62 98 157
61 97 159
62 98 156
61 96 152
61 97 154
62 97 152
61 96 148
61 97 154
62 98 155
60 95 147
61 96 149
61 96 150
61 96 143
61 96 147
61 97 157
62 97 155
61 96 146
61 96 151
59 94 138
62 97 153
60 95 149
60 94 141
60 94 143
60 94 145
60 94 137
60 95 141
59 93 141
60 94 144
58 91 128
72 93 109
109 94 15
105 89 14
112 100 17
113 100 13
116 102 13
102 92 20
107 94 16
107 97 18
99 90 10
112 98 11
110 97 8
102 92 12
107 97 16
106 96 17
101 91 10
103 97 18
114 103 10
110 100 17
112 101 15
105 97 14
110 101 17
110 102 20
114 104 27
115 107 17
113 106 4
113 105 18
122 114 23
105 99 20
111 107 22
124 113 29
122 115 21
127 118 23
122 115 24
119 111 35
125 118 23
125 119 27
125 118 26
119 113 20
128 118 23
120 113 18
130 122 29
126 123 20
141 133 37
129 123 29
130 121 35
136 129 37
134 125 34
136 128 33
139 131 39
132 124 28
141 132 34
140 132 36
141 134 35
139 131 36
147 138 33
137 130 40
138 130 30
137 127 24
147 138 41
136 130 29
136 129 26
143 135 41
143 133 30
142 131 36
137 128 30
142 134 32
142 130 38
138 129 35
141 134 35
136 128 42
140 129 38
148 138 42
149 140 44
145 136 34
148 137 34
141 133 32
146 136 38
146 136 43
150 137 45
141 132 38
143 133 30
140 129 27
140 131 26
143 133 22
136 125 23
142 131 33
142 129 31
145 134 34
143 130 33
136 126 30
143 132 33
136 124 32
135 120 32
141 130 34
139 127 16
137 122 37
138 124 32
139 125 28
137 122 29
138 126 27
138 123 21
158 165 11
160 170 0
164 177 0
162 174 0
164 177 0
162 173 0
167 179 0
165 180 0
164 178 0
166 179 0
161 174 0
167 182 0
167 183 0
168 186 0
161 174 0
164 178 0
168 182 0
165 179 0
167 181 0
164 180 0
169 185 0
170 187 0
170 187 0
168 186 0
168 186 0
168 185 0
169 186 0
169 188 0
167 186 0
169 185 0
169 186 0
165 182 0
169 187 0
163 180 0
166 181 0
181 203 102
181 203 105
178 201 80
178 201 88
179 202 80
179 201 88
182 205 111
202 219 188
217 231 234
223 236 254
223 236 254
221 235 249
221 235 250
220 235 253
217 232 242
218 233 248
219 234 250
217 232 246
218 233 252
215 231 245
216 232 248
219 234 253
217 233 250
217 233 250
217 233 252
217 233 254
215 231 246
215 232 252
216 233 254
214 231 249
216 232 252
213 230 244
216 233 254
215 232 250
215 232 252
214 231 249
214 231 250
214 231 249
214 231 250
214 231 252
212 230 246
213 230 246
215 232 254
213 231 249
214 231 252
215 232 254
215 232 254
215 232 254
216 232 254
215 232 253
214 231 249
215 231 248
215 232 252
216 232 252
215 232 250
215 232 249
216 232 249
216 232 250
217 233 254
215 231 248
218 233 252
217 233 250
216 232 246
218 233 250
217 232 246
219 234 250
218 233 249
219 234 249
222 236 254
220 235 250
221 235 252
223 236 254
222 236 252
221 235 248
211 226 215
193 213 161
175 199 62
102 130 163
91 119 166
79 110 165
100 126 176
97 124 170
115 139 172
92 120 171
99 126 176
98 125 176
109 133 180
129 151 189
68 102 163
61 97 159
65 100 163
62 98 164
65 99 156
68 102 164
63 98 159
67 102 158
64 98 151
61 97 155
70 103 152
78 110 150
92 120 142
100 127 137
73 105 151
60 96 156
62 98 162
60 95 154
60 95 156
61 96 154
61 97 154
60 96 160
61 97 160
60 96 150
60 97 162
61 96 157
61 97 159
60 95 148
61 97 160
60 96 166
62 97 159
61 97 156
60 96 154
61 96 161
62 99 167
61 97 165
61 97 162
60 96 155
62 98 166
61 97 160
60 96 160
61 97 156
62 98 169
61 97 163
60 95 154
60 96 158
62 98 170
62 98 162
61 98 167
62 98 167
62 98 160
61 98 163
62 98 160
61 97 161
62 98 162
61 97 157
60 96 162
62 98 168
62 98 163
61 98 164
61 98 165
62 98 164
61 97 159
63 99 169
62 98 167
62 98 161
62 98 165
61 96 156
61 97 162
63 99 170
61 97 161
62 98 166
61 97 160
62 98 165
62 98 166
62 98 164
62 98 166
61 96 155
61 97 161
62 99 167
62 98 157
62 98 162
61 97 156
62 98 164
62 98 160
61 97 161
61 97 161
61 97 163
63 99 170
62 98 164
61 97 160
62 98 164
61 97 155
62 98 165
63 99 166
61 97 158
62 98 166
62 98 164
62 98 164
63 99 165
61 97 161
62 98 162
62 98 158
61 97 158
62 99 165
61 97 163
61 97 161
62 98 164
62 98 157
62 98 161
62 98 159
62 98 162
62 98 165
62 98 167
62 98 163
62 98 165
62 98 159
63 99 166
61 97 156
61 97 160
60 96 153
62 98 162
61 97 157
61 97 156
61 97 158
62 98 160
61 97 161
62 98 163
62 98 156
62 97 162
62 98 162
61 97 158
62 98 155
61 96 151
63 99 164
61 97 156
61 97 157
61 97 156
62 98 163
61 97 153
62 98 159
61 97 156
61 97 148
62 98 156
61 97 149
61 96 145
62 97 152
63 98 161
62 98 161
62 98 154
63 98 160
62 98 160
62 98 153
62 97 153
61 96 150
60 95 143
62 97 159
62 97 158
62 98 156
61 97 151
61 96 152
61 97 152
61 96 145
61 96 142
60 94 137
61 96 147
60 93 136
60 95 143
61 96 149
61 95 147
61 95 143
60 94 145
59 93 138
60 94 141
58 91 133
74 88 111
105 86 4
103 89 13
105 89 9
114 102 12
111 94 8
111 100 6
114 103 14
111 99 4
106 96 7
107 95 8
108 99 10
112 102 4
112 105 11
109 100 11
101 93 14
106 97 13
111 100 17
110 103 12
115 104 16
121 113 6
112 104 17
107 97 17
112 104 19
109 101 14
103 96 21
110 101 20
120 114 13
125 120 19
112 102 14
129 122 14
124 116 24
115 108 22
115 107 17
128 120 22
123 117 19
129 120 18
125 116 20
127 120 23
134 126 30
135 127 35
131 122 36
128 120 24
123 115 11
123 117 16
132 126 26
129 121 21
140 132 36
132 124 28
138 130 29
137 128 30
144 135 35
137 127 33
143 134 27
132 125 28
138 132 29
139 132 28
134 126 27
139 130 31
140 132 32
141 131 36
142 132 31
136 129 31
137 127 30
137 128 32
143 135 30
136 127 41
140 130 26
143 134 42
147 137 39
143 134 32
144 133 40
138 128 30
139 130 34
144 133 34
144 134 30
148 139 37
141 130 37
144 132 34
144 133 36
147 137 36
140 129 34
144 132 38
144 134 27
140 127 29
140 130 26
139 127 30
134 116 26
140 126 29
142 129 31
136 124 27
136 124 28
146 132 39
140 128 29
140 129 26
142 127 29
138 128 31
142 126 30
139 126 28
135 120 26
136 124 33
153 160 16
162 174 0
162 174 0
165 181 0
159 168 0
163 177 0
163 176 0
166 179 0
162 174 0
162 173 0
165 178 0
166 180 0
164 177 0
162 175 0
164 175 0
167 183 0
163 177 0
166 181 0
163 178 0
170 187 0
166 183 0
166 183 0
165 180 0
167 185 0
168 187 0
168 183 0
166 181 0
167 182 0
168 184 0
167 182 0
168 185 0
166 182 0
170 188 0
166 185 0
164 180 0
172 189 0
180 202 88
176 200 67
180 202 88
182 204 120
195 214 161
211 226 214
220 234 246
223 236 253
221 235 253
218 233 246
219 234 250
220 234 250
219 233 249
218 234 250
218 233 249
218 233 250
218 233 252
218 233 254
216 232 246
217 233 253
216 233 253
216 232 249
216 232 252
215 232 252
214 231 248
214 231 250
216 232 252
213 231 249
214 231 250
213 230 246
215 232 254
215 232 255
213 231 250
212 230 249
214 232 255
210 228 242
214 231 252
213 231 250
212 230 248
213 231 252
213 230 249
213 231 253
213 231 253
213 231 252
212 229 246
213 231 253
213 231 252
214 231 254
213 230 249
213 231 252
214 231 250
214 231 253
213 230 250
214 231 252
214 231 250
215 231 250
213 230 246
215 232 252
216 233 254
216 233 254
214 230 245
216 232 249
216 232 250
217 233 250
217 232 249
218 233 252
217 232 246
220 235 255
219 234 252
218 233 250
219 234 249
220 234 250
220 234 249
221 235 254
221 235 249
220 234 248
219 233 241
174 192 199
108 134 181
95 123 173
96 124 179
96 124 176
91 120 169
98 125 175
84 114 166
101 127 178
100 126 184
108 133 182
100 125 175
76 108 160
64 99 164
66 101 162
66 101 165
68 101 149
70 103 152
66 101 154
68 101 151
71 105 160
66 101 156
67 101 150
71 103 142
80 110 143
88 117 140
92 121 144
63 98 150
61 97 155
60 97 163
62 98 163
60 96 158
60 96 157
61 96 152
60 96 157
61 97 159
61 97 159
62 98 161
61 97 164
60 95 150
61 97 157
61 96 156
62 98 166
61 97 163
61 97 162
61 97 157
61 97 163
60 96 160
61 97 164
61 97 160
62 98 166
61 97 159
60 97 159
61 97 159
61 97 158
61 97 156
61 97 160
61 98 163
61 98 165
61 97 162
61 97 161
61 97 159
61 97 162
61 97 161
61 96 151
62 98 169
61 97 163
60 96 159
62 98 164
61 97 164
62 98 165
62 98 165
60 96 163
62 98 163
61 98 162
61 97 159
61 97 156
61 97 161
63 99 170
61 98 160
61 97 161
62 98 161
62 98 157
62 98 166
62 98 161
62 98 167
62 98 161
63 99 166
63 99 170
62 98 162
61 96 155
62 98 161
61 97 160
62 99 164
61 97 159
62 98 163
62 98 159
60 96 157
62 98 163
62 98 166
62 98 167
62 98 167
61 98 163
61 98 164
61 97 158
61 97 159
62 98 170
62 98 162
62 99 166
63 99 168
63 98 162
61 97 169
63 99 161
62 98 156
62 98 158
63 99 166
62 99 163
62 98 162
62 98 160
61 97 158
61 97 156
62 98 165
61 98 162
62 99 166
61 98 159
62 99 167
62 98 159
62 98 161
61 98 166
61 97 157
62 98 157
61 96 150
61 97 152
63 98 161
62 98 158
62 98 158
62 98 164
63 99 164
62 98 158
62 98 160
62 98 164
60 96 153
62 97 155
62 98 160
62 98 155
62 97 153
62 98 161
62 97 154
62 98 158
61 96 154
62 97 156
62 98 159
60 96 148
62 97 153
60 96 150
62 98 156
61 97 153
62 97 151
62 97 151
62 98 160
62 97 154
62 97 155
62 97 155
61 97 153
61 96 148
62 98 162
62 98 156
62 98 163
61 96 152
62 98 162
61 97 146
62 97 155
62 97 154
60 95 145
62 97 153
62 98 155
61 95 143
59 94 140
61 95 144
60 94 142
59 93 134
60 94 136
61 96 150
60 93 138
60 93 138
58 91 126
89 95 94
112 97 17
109 95 15
112 98 18
103 90 7
110 97 23
103 93 2
103 92 9
103 89 19
104 90 16
105 95 6
103 92 13
102 96 2
109 97 12
110 101 14
105 93 16
119 106 14
108 97 15
110 99 5
111 101 9
110 100 10
105 97 8
105 96 21
117 107 12
108 99 16
115 105 11
108 96 9
115 105 13
119 112 23
118 110 20
123 115 8
121 113 5
123 114 12
121 113 14
119 110 24
127 119 15
124 115 21
129 120 28
132 122 24
123 115 19
124 118 30
133 121 28
134 127 33
131 122 25
135 125 37
127 119 27
128 118 25
137 126 40
136 129 35
138 129 28
134 127 28
130 123 20
139 131 39
140 131 32
133 126 27
140 131 31
132 122 25
139 129 29
135 129 28
135 125 30
142 133 34
146 135 34
139 131 28
140 132 40
136 126 35
138 128 23
140 132 32
132 123 31
143 133 28
137 127 31
142 131 38
134 124 28
139 131 26
140 128 28
140 129 24
141 128 32
137 128 11
136 124 35
132 122 20
144 132 40
142 132 35
138 125 31
144 132 38
145 133 29
135 123 24
137 127 36
139 129 28
144 131 32
144 132 34
135 121 31
141 128 24
134 122 24
138 124 34
138 124 34
140 128 30
135 119 26
137 121 28
138 124 30
136 120 39
149 143 11
160 169 0
161 172 0
163 172 0
161 172 0
156 165 0
163 176 0
163 174 0
162 172 0
167 182 0
165 177 0
160 174 0
164 177 0
167 182 0
163 179 0
166 183 0
164 177 0
166 181 0
166 180 0
165 180 0
168 187 0
164 181 0
162 178 0
169 187 0
169 186 0
164 181 0
167 183 0
168 186 0
165 180 0
166 183 0
169 188 0
165 181 0
168 186 0
166 182 0
167 184 0
168 187 0
166 185 0
169 185 0
178 201 76
183 205 111
199 218 181
217 232 237
220 234 246
221 235 252
221 235 249
221 235 254
220 234 250
218 233 248
220 235 253
219 234 254
216 232 249
217 233 250
217 233 254
216 232 249
214 231 245
217 233 255
215 232 252
214 231 246
215 232 254
215 231 250
213 230 248
214 231 253
214 231 252
212 229 246
214 231 254
214 232 255
212 230 249
209 227 238
212 230 250
212 230 250
213 231 253
213 230 253
212 230 252
211 229 249
210 228 245
212 230 253
210 228 245
211 230 252
212 230 252
212 230 252
211 229 248
211 229 250
212 230 252
211 230 250
212 230 249
211 229 250
212 230 253
212 230 250
212 230 253
212 230 249
212 230 249
212 230 248
213 231 252
213 231 252
214 231 252
215 232 254
214 231 252
215 232 253
214 231 250
215 232 252
213 230 246
216 232 252
215 232 249
216 232 252
216 232 250
216 232 248
219 234 254
219 234 253
219 234 252
218 233 250
220 234 250
221 235 253
220 235 250
221 235 252
221 235 252
218 232 250
117 141 187
93 122 175
95 123 181
85 116 173
93 121 177
98 125 179
82 113 175
110 136 178
96 124 180
96 124 179
84 114 174
89 118 169
85 115 164
65 100 165
69 102 150
67 101 159
64 99 162
63 98 158
68 103 163
63 99 155
72 105 164
66 99 149
68 102 156
62 97 158
69 103 151
85 114 145
89 118 136
65 99 151
60 96 153
60 96 154
60 96 155
60 96 160
61 97 158
61 96 155
61 97 156
61 97 156
61 97 162
61 97 158
62 99 166
61 98 169
62 98 167
61 97 159
61 96 163
59 95 158
60 95 151
61 97 159
60 96 157
61 96 156
62 98 164
61 97 160
61 98 165
61 97 159
61 97 166
61 98 163
61 97 162
61 97 160
61 97 159
61 97 157
61 97 160
62 98 169
63 99 171
61 97 162
62 98 162
62 98 166
61 97 161
61 97 158
62 98 164
62 98 163
62 98 162
61 98 164
61 97 159
61 97 159
61 97 163
63 99 166
62 99 167
61 97 164
61 97 163
61 97 159
61 97 156
61 97 165
62 98 166
62 98 166
62 98 163
61 98 161
62 98 163
62 98 159
62 98 164
62 98 165
62 98 161
61 98 162
61 97 161
61 97 161
62 98 166
62 98 165
61 97 158
62 99 164
61 97 158
62 98 165
62 97 160
62 98 165
61 97 163
62 98 159
61 97 161
62 98 164
61 97 154
62 97 157
62 98 165
62 98 158
63 99 167
61 97 160
62 98 156
62 98 158
61 97 155
62 98 162
62 99 170
60 96 157
62 99 168
62 97 157
61 97 158
61 97 152
62 98 164
61 97 155
62 98 162
61 96 158
62 98 159
62 97 158
62 97 157
61 97 160
63 99 162
61 96 150
62 97 158
62 98 159
63 99 159
61 97 156
61 97 148
61 97 153
62 98 160
62 98 160
62 99 166
61 97 154
62 98 157
62 98 162
62 98 157
62 97 160
61 97 155
61 97 154
62 98 159
60 96 153
62 98 157
62 97 150
60 96 157
61 97 156
61 97 149
62 98 158
62 98 159
61 96 145
61 97 153
62 97 153
60 96 145
62 98 155
61 96 148
61 95 149
61 96 152
60 95 140
62 98 158
61 97 154
61 97 147
61 96 140
61 97 152
63 98 158
61 97 151
60 95 148
61 96 147
60 94 142
62 97 149
61 96 150
60 95 148
61 96 152
60 95 144
60 94 138
58 91 137
60 93 139
58 90 134
58 91 128
58 91 132
91 92 79
114 95 17
106 92 10
114 100 19
107 90 11
111 97 18
114 100 15
111 97 16
108 94 8
105 91 11
114 101 12
108 95 7
103 90 13
103 91 7
107 94 3
99 88 9
103 94 9
110 99 9
106 95 7
115 104 15
112 103 14
112 102 6
111 103 13
110 101 10
114 104 18
117 109 17
113 105 14
117 109 6
118 112 18
118 109 12
111 101 15
117 110 14
118 110 11
121 109 13
116 108 18
116 106 23
123 114 15
132 124 24
121 112 16
128 120 18
123 116 23
128 118 27
129 122 25
135 128 30
131 123 28
121 114 3
137 128 23
134 122 29
133 124 26
134 125 24
131 123 28
133 127 34
128 121 24
135 125 18
131 126 30
138 130 23
138 129 30
134 125 32
139 128 30
131 121 25
137 127 33
135 126 30
140 131 28
133 125 16
138 127 25
133 125 16
137 128 19
142 131 34
143 134 40
138 128 28
141 129 32
143 134 32
145 135 35
140 131 36
145 135 40
137 128 20
144 132 22
142 131 27
135 124 26
145 134 39
141 132 28
142 131 34
141 132 36
139 127 29
136 124 19
135 125 17
131 122 17
149 138 27
138 126 26
134 120 29
141 129 29
145 131 42
135 123 34
136 123 23
133 120 28
133 119 29
139 124 35
132 119 24
150 153 25
161 171 0
162 174 0
160 169 0
159 167 0
165 176 0
161 173 0
163 176 0
161 174 0
162 176 0
162 173 0
159 171 0
162 177 0
168 182 0
163 176 0
164 177 0
165 178 0
160 175 0
164 179 0
162 174 0
166 181 0
164 179 0
165 181 0
163 177 0
164 178 0
168 187 0
168 186 0
171 188 0
163 177 0
169 186 0
167 183 0
169 187 0
164 182 0
162 178 0
171 189 0
166 184 0
166 184 0
168 184 0
166 183 0
207 223 201
220 234 248
222 235 250
222 236 253
221 235 252
221 235 253
220 234 254
218 233 249
219 234 252
219 234 254
217 232 248
218 233 254
218 234 254
216 232 250
214 231 248
216 232 253
214 231 252
214 231 252
214 231 252
213 231 252
213 231 249
214 231 253
214 231 253
213 231 254
212 230 249
212 230 249
212 230 252
212 230 254
212 230 254
212 230 253
211 229 250
213 231 255
212 230 253
211 230 252
212 230 255
212 230 255
211 230 255
211 230 254
212 230 255
212 230 254
211 230 255
212 230 254
212 230 255
212 230 254
212 231 255
212 230 255
212 230 255
212 231 255
211 230 254
211 230 253
212 230 255
212 231 254
212 230 254
213 231 254
211 229 249
213 230 252
209 227 240
211 229 248
211 229 245
212 230 246
213 231 252
213 230 248
213 231 252
212 230 246
215 232 252
215 232 253
214 231 248
217 233 254
216 232 252
215 231 246
216 232 246
216 232 248
218 233 253
218 233 254
220 235 254
219 233 254
215 230 250
219 233 254
199 214 238
79 111 175
92 121 179
94 122 180
93 122 181
79 110 175
79 111 176
92 120 181
85 114 170
85 114 170
107 132 180
91 120 177
107 133 184
81 111 171
68 102 156
64 99 162
67 102 160
69 103 162
65 100 157
60 96 155
65 99 155
60 96 156
69 103 160
60 96 155
60 95 156
65 100 158
71 104 153
90 118 137
74 106 155
59 95 157
60 96 151
60 96 150
61 97 153
60 96 153
61 97 164
61 96 156
60 96 157
61 97 160
61 97 158
61 96 163
60 95 155
60 95 157
60 97 161
61 97 158
62 98 164
60 96 153
61 96 155
62 98 162
61 96 160
61 97 162
60 95 159
61 97 158
61 96 154
61 97 160
62 98 163
62 98 165
60 96 157
62 98 164
62 98 163
61 97 155
60 96 158
61 97 163
62 98 163
61 98 163
61 97 151
61 97 163
61 98 163
60 96 152
62 98 163
61 97 157
61 97 163
61 97 161
62 98 163
61 97 157
61 97 162
61 96 156
61 97 158
62 98 161
62 98 160
61 97 158
62 98 164
62 99 170
62 98 159
62 99 167
61 96 154
62 99 167
61 97 163
62 98 164
61 97 160
62 98 164
61 97 162
62 98 164
62 97 160
62 98 163
61 97 155
61 97 163
60 96 160
62 98 164
60 96 157
62 98 159
62 98 160
61 97 156
62 98 161
63 98 160
62 98 162
61 97 155
61 97 158
62 99 163
62 97 150
62 98 163
61 97 153
62 98 162
62 99 164
62 99 170
63 99 166
61 97 161
62 98 158
62 98 157
61 97 155
62 98 165
62 98 159
63 99 165
61 97 154
62 98 162
62 98 160
62 98 161
62 98 157
61 97 154
62 98 161
62 98 162
61 97 153
62 98 158
61 97 158
62 98 157
62 98 159
62 98 163
62 99 165
60 96 150
61 97 157
61 96 152
61 97 152
62 98 155
61 97 151
61 96 154
61 97 154
61 97 150
63 98 160
62 98 162
61 97 155
62 98 159
63 98 159
62 98 161
61 98 158
60 95 145
61 97 158
62 97 155
61 96 148
61 97 151
61 96 148
60 96 150
61 96 143
60 96 150
61 95 140
61 96 151
61 97 152
62 97 150
61 97 151
61 96 149
62 97 153
61 96 146
62 97 153
61 97 153
60 95 149
60 95 140
60 95 140
62 97 148
60 95 142
60 94 141
60 94 137
60 94 138
60 95 133
58 92 132
59 92 131
58 91 125
60 93 139
105 111 75
123 112 17
116 100 21
115 100 16
110 93 18
112 95 10
113 97 16
109 94 11
110 95 10
105 90 10
106 93 11
106 93 8
105 92 6
111 99 9
104 92 14
105 95 13
118 107 3
111 100 7
111 99 10
117 105 11
106 96 4
108 97 18
110 100 10
111 100 16
103 94 8
109 101 14
112 105 14
118 109 21
112 104 11
114 104 6
119 111 11
109 103 18
116 108 23
120 109 14
117 107 14
117 112 14
119 108 13
124 116 21
117 110 22
124 116 28
124 118 16
126 115 21
131 123 23
134 125 25
124 117 28
131 122 23
121 109 25
134 127 23
130 122 29
134 127 29
133 127 16
136 127 26
133 125 26
138 128 20
127 118 24
138 129 23
136 127 20
134 125 28
136 125 30
142 131 32
137 127 28
133 123 30
134 125 16
133 122 25
145 135 34
138 128 30
139 129 32
136 126 25
142 134 26
138 127 32
135 127 28
139 129 19
140 133 23
143 132 36
144 135 28
142 130 24
139 128 35
134 121 22
143 132 35
141 130 30
142 131 35
141 131 28
139 129 33
141 129 34
138 126 28
138 127 27
136 123 22
142 129 33
148 135 39
136 121 25
132 119 24
135 122 21
140 128 32
137 123 24
139 124 32
139 124 35
137 126 24
151 155 2
161 169 0
159 171 0
166 180 0
163 175 0
165 178 0
163 176 0
165 176 0
159 167 0
164 178 0
164 178 0
160 173 0
161 171 0
163 178 0
158 169 0
161 174 0
164 178 0
168 185 0
169 183 0
163 176 0
164 178 0
166 181 0
164 178 0
165 181 0
162 176 0
162 178 0
164 180 0
169 186 0
166 181 0
163 179 0
167 183 0
166 184 0
165 182 0
167 181 0
170 187 0
169 187 0
167 185 0
168 185 0
164 181 0
168 185 0
223 236 253
220 234 249
221 235 252
219 234 250
219 234 253
217 233 246
219 234 253
217 232 249
218 234 253
216 232 249
215 231 249
216 233 253
215 231 249
215 232 252
214 231 252
213 230 246
213 230 249
213 230 250
212 230 250
212 230 252
211 230 250
212 230 254
212 230 252
212 230 255
211 229 252
211 229 253
212 230 252
212 230 255
211 230 255
212 230 255
212 230 255
211 230 255
211 230 255
211 230 255
210 229 255
211 230 255
210 229 255
210 229 254
210 229 255
210 229 254
211 230 255
210 229 255
210 229 254
210 230 255
210 229 255
211 230 255
211 230 255
211 230 255
211 230 255
211 230 255
211 230 254
212 230 255
212 230 255
212 230 255
212 231 255
212 230 254
213 231 255
212 230 254
213 231 254
213 231 255
212 230 252
213 231 253
213 231 253
212 230 249
213 230 249
214 232 254
215 232 253
214 231 250
214 231 253
216 232 254
216 233 254
217 233 253
217 233 252
217 233 253
216 232 250
218 234 255
214 229 251
216 231 250
216 230 251
154 173 211
79 111 172
89 118 178
93 122 182
89 119 181
87 117 181
92 120 178
87 117 180
82 113 175
87 116 176
84 114 169
90 119 180
102 128 185
72 105 168
61 97 165
62 98 165
71 105 165
63 99 165
65 101 168
64 99 162
66 101 166
69 103 159
65 100 155
65 100 159
63 98 163
68 101 153
66 101 154
76 108 140
76 107 146
75 107 156
61 96 157
60 96 155
61 96 157
61 97 158
60 96 155
60 97 156
61 96 153
60 97 162
61 97 158
59 94 151
60 95 158
61 97 157
60 96 151
61 97 161
62 97 162
61 97 159
61 97 161
61 97 157
61 97 163
61 97 164
62 98 165
61 96 160
61 97 156
61 98 164
61 98 165
61 98 167
61 97 160
62 98 163
60 96 155
61 97 163
62 97 159
61 97 161
62 99 168
62 98 167
61 97 159
62 99 165
62 98 160
63 99 171
61 97 160
61 97 162
61 97 157
61 97 155
62 98 164
60 96 158
62 99 164
61 98 165
61 98 166
62 98 167
62 98 161
61 97 156
61 97 157
62 98 161
62 98 158
61 97 154
62 98 158
61 97 159
61 98 159
61 97 163
62 98 163
62 98 165
62 98 167
62 98 159
63 99 165
62 98 164
62 98 162
62 98 165
63 98 159
62 98 160
63 98 164
61 97 160
62 98 163
61 97 160
61 97 159
62 98 164
62 98 166
61 97 166
62 98 159
62 98 160
62 98 161
62 98 160
61 97 157
62 98 166
62 98 160
62 98 163
61 97 157
62 98 162
62 98 157
62 97 156
62 98 161
62 98 163
61 96 156
62 98 163
61 97 155
62 98 157
62 99 163
62 98 157
62 98 161
62 98 155
61 97 159
62 98 160
61 97 158
63 99 166
61 97 152
61 97 153
61 97 154
61 97 153
61 97 153
62 98 162
62 98 159
61 97 160
62 97 155
62 98 158
62 97 156
61 97 150
62 98 160
62 98 162
63 99 160
62 98 159
61 97 150
62 97 153
61 97 155
62 97 151
62 97 150
62 98 159
61 96 151
61 96 153
61 97 156
60 96 147
62 97 155
61 97 154
62 97 148
61 96 148
61 97 151
62 98 155
60 95 145
61 96 147
62 98 154
61 96 152
61 96 149
60 95 146
61 96 150
61 96 145
60 95 140
61 95 140
60 95 142
60 95 140
60 95 139
60 94 139
61 95 145
59 93 134
61 95 147
58 91 125
58 91 127
57 89 120
126 128 48
123 121 0
126 123 20
118 99 14
118 99 23
106 90 12
110 92 12
110 98 4
109 95 18
105 93 8
108 93 12
112 98 13
109 96 11
120 108 2
115 101 4
109 99 11
108 96 6
104 88 6
106 96 9
116 103 6
109 96 9
115 106 11
109 100 11
110 102 12
113 103 9
107 98 16
111 102 13
111 101 11
119 110 12
124 116 22
119 108 11
125 116 14
118 109 8
114 103 14
120 110 27
119 107 13
121 114 2
124 112 22
121 110 16
122 112 15
126 117 9
125 116 20
119 109 19
128 118 21
132 123 30
122 112 19
127 120 24
131 122 12
129 122 24
132 123 24
130 123 12
127 119 23
133 125 23
124 114 28
130 122 18
142 135 30
133 126 30
135 126 23
136 126 26
135 128 18
138 129 21
139 131 23
135 126 23
137 128 30
138 130 23
135 124 25
138 126 24
138 129 23
140 129 26
137 127 17
140 131 23
139 127 21
142 130 33
135 124 26
138 129 23
144 134 29
142 131 40
141 128 28
140 128 29
139 126 24
143 133 31
140 126 33
139 127 22
131 118 26
139 125 29
138 125 37
131 119 17
142 129 26
136 122 31
129 113 21
137 125 20
137 121 31
139 124 28
134 117 27
133 119 19
141 135 20
160 169 0
159 169 0
161 172 0
162 174 0
156 166 0
160 169 0
163 175 0
161 173 0
159 168 0
159 171 0
162 174 0
161 173 0
164 177 0
157 168 0
159 170 0
166 179 0
159 168 0
166 181 0
167 180 0
166 181 0
161 177 0
168 184 0
164 176 0
165 180 0
168 185 0
167 183 0
166 184 0
161 173 0
164 178 0
162 175 0
165 180 0
169 184 0
162 178 0
167 185 0
165 180 0
169 185 0
170 188 0
166 182 0
167 183 0
168 185 0
168 187 0
221 235 253
219 234 250
218 233 246
219 234 250
218 234 254
217 233 249
217 233 250
215 232 250
215 231 246
214 231 246
215 232 252
216 232 255
214 231 250
213 231 252
211 229 248
213 231 253
213 231 253
213 231 255
210 229 246
210 229 252
212 230 254
212 230 255
212 230 254
212 230 255
212 230 254
211 230 255
211 230 255
210 230 255
210 229 255
210 230 255
210 229 255
209 229 254
210 229 255
210 229 255
210 229 255
209 229 255
209 229 255
209 229 255
208 228 254
209 228 254
209 229 255
209 229 255
209 229 255
210 229 255
209 229 255
210 229 255
210 229 254
210 229 255
210 229 255
209 229 254
210 230 255
211 230 255
210 229 255
211 230 255
210 229 254
211 230 255
211 230 255
212 230 255
212 230 255
211 230 254
212 230 255
212 230 254
211 230 250
213 230 252
213 231 253
212 229 246
212 230 250
212 229 249
214 231 250
213 231 249
215 232 253
214 231 252
216 233 254
213 229 246
214 229 251
214 229 252
218 233 255
217 232 253
218 233 253
216 231 252
135 157 203
86 116 183
86 116 180
87 116 179
82 113 179
85 115 179
79 111 175
80 111 180
95 123 185
92 121 180
88 117 181
90 119 179
89 117 173
86 115 176
65 100 165
61 97 163
65 100 162
63 99 163
74 107 156
67 102 161
66 100 154
70 104 158
69 103 160
70 104 158
63 98 161
65 99 147
65 99 153
60 96 159
71 104 143
71 104 148
60 95 149
59 95 153
60 95 150
60 96 160
60 95 159
60 96 153
62 98 158
60 95 154
61 97 162
60 96 160
61 97 158
60 95 156
61 97 165
61 96 155
61 97 163
61 97 159
61 98 165
61 97 159
60 96 152
61 97 161
61 96 159
61 97 156
61 96 156
62 98 163
62 98 164
61 97 160
60 96 156
62 98 162
61 97 161
60 96 158
62 98 161
61 97 163
61 97 157
59 95 145
61 97 159
61 97 164
61 97 155
61 97 160
61 97 161
62 98 164
62 98 162
62 98 164
61 98 163
62 98 158
62 99 166
62 98 160
62 98 163
61 97 160
61 97 155
62 98 159
61 97 158
62 98 158
61 96 154
62 98 153
62 98 162
62 98 165
62 98 161
61 97 153
62 98 165
62 98 161
62 98 159
62 98 161
61 97 158
62 98 161
61 97 158
62 98 161
62 98 162
62 98 160
62 98 161
62 98 160
61 98 163
62 98 155
62 98 155
61 97 158
63 99 162
61 97 154
62 98 160
62 98 162
61 97 156
62 98 162
62 98 156
61 97 157
62 97 156
61 97 155
62 97 151
62 98 156
62 98 158
62 98 154
62 98 158
62 98 157
62 98 160
62 98 157
62 98 156
62 98 158
61 97 156
61 97 149
62 98 160
62 98 158
61 96 152
62 98 162
62 98 163
62 97 154
61 97 157
62 98 162
62 98 159
62 97 154
61 97 153
62 98 153
61 97 155
62 98 161
62 98 156
61 97 159
61 97 150
61 96 147
63 98 160
61 97 154
62 97 157
61 97 148
61 96 152
61 96 145
62 98 157
61 96 145
62 97 157
62 98 156
62 98 159
60 96 144
61 96 149
61 96 150
61 97 153
61 97 147
61 97 152
61 96 153
62 98 156
61 95 145
61 96 150
61 97 153
60 95 143
60 95 140
60 95 141
60 95 148
60 94 134
61 96 150
62 98 160
61 96 142
61 95 150
60 94 136
60 94 138
58 91 133
60 93 141
59 92 133
58 91 134
58 92 124
64 96 132
120 121 25
126 126 0
118 118 0
123 122 0
117 104 18
114 97 12
114 97 7
107 91 11
112 96 8
110 95 9
113 98 19
113 99 12
110 97 16
113 101 13
107 95 13
119 106 5
102 88 11
117 102 10
106 94 11
106 99 11
102 91 6
104 93 6
108 99 4
111 101 8
115 103 7
111 99 7
116 106 6
111 102 14
117 106 15
106 96 8
119 108 15
118 108 14
118 109 5
112 104 14
126 117 8
126 116 8
120 110 16
123 114 17
123 113 24
114 105 11
131 122 20
134 124 20
123 116 16
132 122 23
122 109 12
133 122 28
131 122 21
129 119 18
127 120 18
130 121 16
133 126 30
131 123 12
139 131 23
134 127 19
129 119 17
132 121 16
134 122 17
137 127 28
132 125 12
135 122 28
141 132 26
135 124 20
140 131 28
134 124 25
137 128 32
134 124 23
134 124 25
126 117 13
140 128 29
140 129 29
138 127 28
138 130 23
142 130 31
136 126 24
138 128 24
133 122 18
127 114 4
131 119 23
137 125 21
130 116 13
139 129 20
136 124 24
137 123 21
137 124 26
136 122 25
135 120 28
135 121 29
137 123 31
132 116 27
136 121 30
125 108 18
131 114 30
131 115 29
143 131 24
156 158 19
158 166 0
160 168 0
161 171 0
157 167 0
157 164 0
167 181 0
163 175 0
161 172 0
157 165 0
160 172 0
165 177 0
165 178 0
158 167 0
164 178 0
165 180 0
156 166 0
165 179 0
165 179 0
164 179 0
164 177 0
167 181 0
166 182 0
163 177 0
168 183 0
169 185 0
164 177 0
167 182 0
165 180 0
167 184 0
168 186 0
165 182 0
168 187 0
167 184 0
169 185 0
166 182 0
167 184 0
169 186 0
166 183 0
169 186 0
166 184 0
168 187 0
168 183 0
217 232 248
218 233 249
216 232 248
217 233 252
217 233 253
217 233 253
216 232 252
214 231 249
215 231 252
214 231 253
213 230 249
214 231 253
213 231 253
213 231 253
212 230 249
211 229 249
211 229 250
212 231 255
212 230 254
212 230 255
210 229 254
210 229 255
211 230 255
210 229 255
210 229 255
211 230 255
210 229 255
209 229 255
209 229 255
209 229 255
209 228 254
208 228 254
208 227 254
206 226 246
207 227 245
204 224 238
203 223 236
206 225 240
208 227 244
204 223 230
206 225 228
203 222 223
204 223 224
204 223 226
204 223 223
202 221 223
204 222 223
208 226 233
203 222 223
206 226 240
205 224 234
204 223 236
207 226 244
208 227 249
206 226 248
210 229 255
210 229 255
210 229 254
210 229 254
211 230 255
212 230 255
211 230 254
212 230 255
212 230 255
212 231 255
212 230 254
213 231 255
214 231 255
212 229 246
214 231 253
214 231 252
214 231 253
215 231 250
215 231 252
213 229 253
210 227 250
215 231 253
214 230 251
217 233 255
212 228 250
208 223 246
89 119 183
74 107 177
81 112 176
81 112 180
91 120 185
77 109 178
89 119 184
89 118 179
92 120 180
84 114 174
92 120 178
85 115 177
97 125 184
77 108 170
62 99 169
62 99 171
61 98 165
64 100 168
65 100 168
63 98 157
71 105 166
60 96 159
66 100 157
61 97 156
65 99 153
62 97 157
65 99 154
63 98 154
63 97 138
85 115 144
63 99 159
60 95 153
60 95 154
61 98 161
60 96 154
59 95 154
62 98 171
60 96 150
61 97 161
59 94 148
62 98 165
61 96 156
61 96 159
62 97 156
60 95 149
61 97 162
60 96 158
61 97 162
62 98 164
62 98 164
61 97 159
62 97 160
61 97 159
60 95 154
61 96 157
60 96 158
62 98 164
61 97 158
61 97 156
61 97 157
61 98 159
62 98 162
62 97 155
62 98 163
60 96 150
61 97 160
62 98 157
62 98 162
62 98 164
61 97 157
60 96 154
61 96 161
61 97 160
62 98 164
62 98 163
62 98 163
62 98 158
62 98 159
62 98 168
61 97 156
61 97 160
62 98 160
61 97 157
62 97 157
62 98 164
61 96 153
61 97 155
62 98 164
61 97 161
61 97 160
62 98 161
61 97 160
62 98 163
62 98 162
62 97 159
61 97 159
61 98 163
62 98 160
62 98 155
62 98 161
62 98 164
61 97 162
61 97 151
62 98 164
62 98 161
62 97 156
62 98 160
61 97 159
62 98 156
61 97 157
61 97 159
62 98 162
61 97 153
63 99 164
63 99 158
61 97 151
62 98 158
62 99 167
61 96 150
61 97 154
62 98 163
61 96 150
61 97 158
62 97 154
63 99 164
61 97 156
61 97 154
62 98 163
60 96 142
62 98 160
61 97 156
62 97 154
61 97 156
61 97 152
62 97 151
60 96 149
61 97 151
61 97 158
62 98 160
61 97 151
62 98 153
62 98 158
61 97 154
61 96 145
61 97 150
61 96 149
62 98 153
61 97 151
62 97 158
61 97 145
61 96 147
62 98 159
61 97 152
61 97 148
63 98 157
61 97 149
62 97 150
61 97 154
62 98 153
61 97 151
62 97 153
61 97 148
61 96 142
60 95 143
61 95 136
61 96 140
61 96 145
61 96 149
60 95 145
62 97 156
60 95 143
61 97 158
60 94 142
60 95 138
60 95 147
59 93 140
59 93 135
60 94 141
59 92 127
59 92 128
60 93 133
73 96 110
117 120 0
117 116 0
124 123 0
121 123 0
121 118 0
130 125 12
116 101 16
112 94 10
122 108 20
107 96 17
107 89 17
106 93 12
98 83 12
112 95 9
107 94 13
114 101 13
112 99 11
118 102 9
111 97 11
111 99 14
102 90 8
113 99 9
113 101 7
102 91 15
111 97 3
110 101 5
110 96 4
111 98 8
112 103 8
115 106 2
123 110 14
120 112 15
118 107 6
119 109 9
122 112 5
126 114 10
115 106 16
118 109 12
119 107 18
113 100 16
117 109 11
116 107 12
127 114 12
131 121 23
129 120 17
131 124 23
127 118 8
128 118 13
129 121 31
125 114 24
134 124 23
130 121 12
137 127 20
127 117 23
127 116 16
133 124 16
136 126 32
140 132 23
139 128 22
135 123 25
131 124 16
126 117 26
135 124 20
131 120 6
125 115 11
132 123 23
137 125 21
135 125 13
135 124 14
139 129 32
147 137 29
132 119 16
135 125 29
140 129 24
133 123 21
137 125 24
137 124 24
129 116 17
130 117 4
138 125 21
136 122 24
140 129 32
132 119 21
135 120 22
134 119 28
130 116 24
134 117 23
133 117 28
130 117 25
136 121 13
132 116 22
136 119 34
140 136 18
157 162 12
158 164 0
159 168 0
161 171 0
162 170 0
155 162 0
160 169 0
161 170 0
160 169 0
159 169 0
160 172 0
163 174 0
164 178 0
162 173 0
166 179 0
164 176 0
161 172 0
162 172 0
165 179 0
163 175 0
167 180 0
166 182 0
163 177 0
166 181 0
167 180 0
160 175 0
167 184 0
161 173 0
162 176 0
165 178 0
165 180 0
165 180 0
169 186 0
164 181 0
168 183 0
168 183 0
168 185 0
167 184 0
169 185 0
167 184 0
167 183 0
167 184 0
163 181 0
168 185 0
217 233 250
217 233 250
217 233 253
216 232 250
216 233 254
215 231 250
213 230 248
213 230 246
211 229 248
213 231 252
212 230 249
212 230 253
210 229 249
212 230 253
212 230 254
212 230 254
211 230 255
210 229 255
210 229 254
210 229 255
210 229 255
210 229 255
209 229 255
209 228 254
209 229 255
209 229 255
208 228 254
207 227 246
203 223 230
205 224 227
206 224 230
201 219 211
196 215 198
196 216 189
200 219 203
199 218 194
199 218 198
198 216 196
197 216 193
199 218 203
199 218 199
195 214 186
200 219 203
200 219 198
196 214 191
197 216 199
202 220 211
197 217 203
204 222 211
197 216 188
199 218 207
201 220 204
197 216 203
198 216 188
194 213 184
202 220 214
198 217 204
202 222 223
204 223 230
203 223 238
208 227 246
211 230 254
211 230 255
211 230 255
212 230 255
212 230 255
211 230 255
213 231 255
213 231 255
214 231 255
214 231 255
214 231 253
213 230 249
214 231 253
212 229 254
215 232 255
213 230 254
215 232 254
212 228 251
213 229 250
216 232 254
189 205 234
86 116 185
84 115 183
79 111 177
79 111 179
96 124 187
79 111 178
89 118 180
87 117 180
76 109 175
83 114 181
90 119 183
90 119 182
95 123 181
82 112 170
60 97 164
62 99 169
61 97 162
64 100 165
64 100 164
64 100 169
67 101 160
67 101 157
62 97 157
67 101 159
69 103 160
65 100 154
68 101 158
61 97 154
69 101 154
81 111 137
70 103 148
61 97 164
59 94 151
60 95 153
61 97 156
60 96 159
61 97 155
60 96 155
60 96 149
60 95 158
61 97 158
60 96 154
60 96 156
60 96 155
61 97 155
61 96 156
61 97 160
61 97 158
60 96 156
59 95 151
61 97 153
61 97 162
61 97 161
60 96 150
60 96 164
61 97 157
60 96 163
62 98 164
62 98 159
61 97 161
62 98 160
61 97 159
62 98 161
61 97 159
61 97 157
63 99 165
61 97 154
62 98 164
62 97 163
61 98 164
62 98 160
62 98 162
62 98 159
60 97 161
61 96 157
62 98 162
61 97 159
62 98 160
62 98 161
61 97 158
63 98 158
61 97 162
63 99 166
61 97 156
61 97 163
61 98 160
62 98 158
61 97 158
61 98 162
61 97 155
61 98 161
61 97 150
61 97 157
60 96 154
61 97 158
61 97 156
61 97 162
62 98 161
61 97 157
62 98 157
62 98 162
61 97 160
62 98 159
60 96 157
63 99 165
61 97 154
62 98 162
61 97 154
62 98 161
62 97 158
61 97 160
62 98 158
61 97 156
61 97 159
61 97 158
61 97 157
61 97 156
61 97 158
63 99 163
61 97 151
61 97 156
61 97 158
61 97 158
61 97 157
62 98 157
61 97 157
61 97 156
61 98 158
62 97 152
62 98 162
62 97 152
62 97 158
61 97 158
62 98 160
62 98 152
61 97 157
62 98 160
61 97 154
62 98 156
60 96 143
62 97 155
62 97 154
63 98 161
61 97 150
61 97 149
63 98 155
61 97 152
61 97 152
62 97 156
62 97 154
62 98 157
62 97 153
61 97 152
62 97 152
62 98 151
61 96 150
61 97 150
61 96 148
62 98 157
61 96 147
61 96 148
61 96 143
60 95 141
61 96 143
60 95 142
61 96 151
62 97 147
61 96 152
61 96 146
59 93 136
61 95 147
60 95 145
61 95 144
60 95 146
61 95 142
60 93 133
60 93 142
60 94 136
58 91 123
59 92 137
90 108 84
127 128 0
129 132 0
120 120 0
133 129 0
117 114 0
118 122 0
115 111 0
112 105 13
103 83 15
112 93 12
114 98 16
105 89 15
105 90 13
106 91 10
101 86 9
112 97 3
116 102 8
113 101 8
112 99 11
106 91 9
115 102 8
114 105 3
111 98 12
104 91 4
115 99 5
113 100 8
113 102 12
115 103 8
117 106 17
115 104 8
117 108 12
120 109 13
118 107 4
116 106 5
122 111 6
120 111 11
125 115 15
119 110 1
119 110 6
126 116 18
128 118 2
124 115 18
129 119 20
123 114 4
120 110 12
130 120 17
127 116 14
118 108 8
125 115 2
130 122 17
129 118 20
132 124 23
131 120 8
128 119 20
127 119 22
132 123 8
136 125 20
128 118 16
130 120 17
132 122 23
138 130 19
136 126 28
132 123 2
138 128 17
133 120 17
130 118 17
135 124 31
138 126 29
136 123 6
138 126 18
135 122 16
136 126 31
141 131 25
137 122 33
136 125 30
136 126 13
132 119 26
131 120 16
142 127 29
131 118 19
135 120 24
135 122 24
133 116 23
136 122 21
135 123 23
126 109 17
138 122 22
137 120 27
134 117 26
128 110 16
133 124 15
153 158 5
159 167 0
159 166 0
159 168 0
157 163 0
161 171 0
157 166 0
162 172 0
156 165 0
156 162 0
152 159 0
166 178 0
161 170 0
165 178 0
158 166 0
161 171 0
161 171 0
165 179 0
161 172 0
162 171 0
165 179 0
164 178 0
162 174 0
164 177 0
166 180 0
162 176 0
163 177 0
165 178 0
164 178 0
162 177 0
167 183 0
167 183 0
162 176 0
162 176 0
165 180 0
169 186 0
164 178 0
165 179 0
169 185 0
168 186 0
165 182 0
165 181 0
167 186 0
171 189 0
166 183 0
166 184 0
216 232 248
217 233 253
215 232 253
214 231 250
215 232 254
212 230 249
214 231 253
213 231 252
212 230 250
212 230 253
213 231 255
212 230 255
212 230 255
212 230 255
211 229 254
210 229 255
210 229 255
210 229 255
209 229 255
209 229 255
209 229 255
208 228 254
207 226 246
204 224 234
205 224 228
200 219 209
199 218 194
196 215 196
196 215 189
197 216 194
199 218 204
199 218 194
201 219 193
199 218 196
199 218 191
204 222 207
204 221 215
204 221 209
200 219 204
204 221 217
206 223 209
202 218 211
206 223 223
199 216 204
204 221 211
209 225 220
203 220 204
203 220 206
204 221 214
207 223 212
202 220 201
201 219 206
197 215 191
198 216 191
201 219 201
203 221 206
200 218 193
196 215 194
198 217 188
196 215 181
198 218 194
198 217 201
200 220 206
209 227 241
206 225 233
209 228 252
212 230 255
211 230 255
213 231 255
212 231 255
213 231 255
213 230 253
213 230 253
210 228 251
214 231 255
212 229 254
213 230 254
211 228 252
211 227 252
216 232 255
214 230 252
214 230 251
159 178 217
83 114 181
85 116 185
79 111 184
81 113 181
79 111 178
86 116 182
89 119 183
72 105 175
82 113 181
92 121 186
90 119 182
92 120 177
92 120 179
73 105 168
62 98 172
61 96 163
63 99 168
61 98 164
61 97 160
62 98 158
64 99 149
68 102 154
63 99 160
63 98 158
63 98 153
67 101 151
67 101 156
63 97 153
61 96 161
65 100 158
63 97 148
60 95 157
59 95 156
60 95 144
62 98 165
61 97 160
61 96 156
60 96 156
60 96 157
60 96 160
60 96 159
60 97 160
61 97 164
61 97 163
60 96 156
59 95 150
61 97 163
61 96 154
61 97 160
61 97 156
60 96 162
61 98 167
61 97 156
61 97 156
61 97 158
62 98 160
60 96 153
62 98 167
62 98 163
62 98 164
62 98 159
61 98 163
61 97 161
61 97 155
61 97 163
62 98 163
62 98 162
61 97 163
62 98 162
61 97 158
61 97 159
61 97 162
61 97 160
61 97 153
62 98 162
61 97 158
60 96 150
61 98 165
61 97 159
61 97 159
61 97 161
61 98 161
62 98 159
61 97 155
62 98 159
62 98 161
62 98 161
62 98 158
61 97 159
62 98 159
62 99 166
63 99 169
61 97 158
62 98 160
61 97 153
61 97 154
61 97 155
61 97 153
62 98 158
61 97 161
62 98 162
62 98 156
62 98 160
61 97 158
62 98 164
62 98 164
62 97 160
62 98 163
63 98 159
61 97 155
61 97 159
61 97 158
61 97 154
62 98 156
61 97 158
62 98 162
62 98 160
62 98 155
62 98 159
62 98 156
61 97 154
63 99 167
62 98 158
62 98 159
61 97 156
61 97 154
62 98 162
62 97 156
61 97 156
61 97 157
62 98 163
61 96 157
62 97 156
61 96 149
60 95 144
62 98 153
62 98 154
61 97 155
62 98 160
62 97 154
62 97 159
62 98 162
61 97 153
61 97 153
60 96 144
62 97 149
62 97 156
62 98 158
61 97 151
61 96 150
61 96 142
60 95 149
61 97 152
63 98 159
61 97 153
62 98 155
62 97 151
63 98 154
62 97 152
61 96 148
60 95 141
61 96 144
61 96 148
62 97 150
60 95 139
59 94 132
61 96 143
61 96 151
61 96 147
60 95 139
61 96 148
60 94 136
61 95 141
61 95 147
61 96 145
60 94 134
59 93 129
59 92 134
59 91 129
103 113 83
119 117 0
119 120 0
113 113 0
126 128 0
115 116 0
118 119 0
111 109 0
117 114 0
109 107 1
119 108 14
112 95 17
109 90 12
110 92 12
112 97 12
107 93 10
106 93 8
113 97 16
108 98 14
114 99 9
115 98 9
109 96 9
117 105 13
117 104 8
109 94 8
109 96 4
110 96 13
110 101 12
116 103 6
119 107 4
113 101 7
119 108 2
109 97 8
117 106 5
116 104 10
119 108 10
116 103 9
114 103 6
121 109 12
122 110 12
129 119 17
124 111 9
122 111 4
121 112 2
127 117 5
117 109 6
125 116 21
130 119 12
129 118 13
119 106 13
125 116 12
125 112 16
129 117 13
133 125 9
125 114 13
124 116 16
126 118 17
128 116 12
137 129 11
135 125 23
132 119 18
132 121 14
126 117 12
135 125 20
130 120 23
135 122 14
130 119 6
132 120 16
138 123 19
136 126 21
130 118 17
135 120 21
136 125 21
131 117 18
134 124 11
139 127 25
127 113 21
135 121 16
140 128 22
137 124 27
136 121 18
143 131 27
135 121 24
139 125 26
131 116 19
129 112 23
128 111 12
140 121 27
138 120 28
134 120 19
152 153 7
155 161 0
156 162 0
155 158 0
158 167 0
157 164 0
159 167 0
156 163 0
157 165 0
155 164 0
159 168 0
160 170 0
161 171 0
156 165 0
162 171 0
159 168 0
159 169 0
156 166 0
162 175 0
162 172 0
162 174 0
168 180 0
163 176 0
164 178 0
164 177 0
161 174 0
161 173 0
163 177 0
162 176 0
165 178 0
164 177 0
166 181 0
167 183 0
164 179 0
163 175 0
167 181 0
167 183 0
167 183 0
164 177 0
165 181 0
165 181 0
168 188 0
165 182 0
168 182 0
169 187 0
169 187 0
169 186 0
166 182 0
214 231 250
215 232 254
214 231 249
212 229 245
213 230 250
212 230 249
212 230 250
212 230 254
212 230 252
211 229 252
211 230 255
211 230 255
211 230 255
210 229 254
210 229 255
209 229 255
209 229 255
209 228 254
207 227 246
207 225 238
202 221 214
198 217 203
197 216 198
199 218 199
201 219 203
201 220 207
198 217 196
201 220 198
201 219 199
202 219 209
204 221 203
206 223 212
202 220 211
206 223 215
208 225 221
206 223 211
209 225 223
203 220 203
209 226 226
212 227 226
208 224 215
208 224 215
209 225 226
209 225 220
212 228 231
210 226 226
207 223 214
209 225 221
214 229 233
209 225 218
203 220 204
202 219 209
205 221 211
208 224 221
204 221 212
206 222 220
205 222 206
201 218 211
205 222 209
202 220 203
204 222 207
201 218 201
201 219 204
199 218 193
197 216 198
197 216 186
201 220 209
206 225 231
206 225 237
211 229 254
211 230 255
212 230 255
212 231 255
212 230 254
209 227 252
210 228 254
214 231 255
213 231 255
213 230 254
213 230 252
214 231 254
214 230 252
215 231 253
153 173 217
79 111 183
79 111 181
82 113 181
90 120 184
91 120 183
77 110 185
89 119 180
75 108 178
71 105 177
82 112 177
85 116 184
92 120 172
92 120 177
91 119 177
63 99 166
64 100 167
61 97 157
64 100 169
61 97 162
60 96 161
61 97 164
65 100 160
69 103 159
67 102 166
70 104 157
65 100 160
60 96 163
64 98 146
65 98 153
68 101 140
80 110 145
62 97 156
61 97 162
61 96 160
62 98 163
60 95 158
60 96 154
61 96 149
59 94 152
61 96 154
60 96 159
61 97 159
62 99 168
60 95 149
60 96 157
60 97 160
60 96 156
60 96 157
61 97 154
61 96 154
61 97 159
61 97 157
61 96 155
61 96 157
61 97 158
62 98 167
61 96 156
61 98 158
62 98 162
62 98 164
60 95 152
61 97 159
61 97 163
60 96 155
61 97 154
62 98 164
62 98 161
61 97 164
60 96 148
60 96 154
61 97 161
61 97 159
62 98 164
60 96 154
61 97 158
61 97 158
61 97 159
60 96 155
63 99 167
61 97 156
60 96 151
62 98 161
62 98 161
62 98 163
60 96 154
62 99 168
62 98 163
62 98 160
61 97 163
61 97 157
61 97 160
61 97 157
60 96 152
61 96 154
60 96 152
61 97 156
61 96 154
61 97 156
62 98 162
62 98 154
60 96 149
62 98 161
62 97 158
61 97 154
61 97 153
61 97 154
60 96 148
61 96 154
61 97 151
62 98 163
62 97 159
62 98 159
62 97 157
62 98 159
61 97 159
61 97 153
61 97 153
61 97 157
62 97 154
61 97 154
62 97 154
62 98 160
60 95 145
62 97 156
62 98 158
61 97 155
62 98 154
63 98 156
61 97 150
62 98 161
62 98 159
62 98 157
62 97 151
62 98 158
62 97 156
61 97 153
62 98 156
62 98 157
61 97 149
62 98 158
60 96 147
61 97 152
62 97 154
62 98 160
61 97 148
62 98 155
61 97 152
61 97 157
61 97 150
62 98 156
62 98 153
62 97 155
62 98 153
62 97 154
61 97 151
61 96 147
60 95 140
61 97 152
61 97 149
62 98 153
60 94 145
61 96 150
61 96 142
61 96 144
62 97 153
60 94 139
61 96 149
59 93 130
60 94 139
61 96 142
61 95 144
61 97 147
61 95 151
60 94 133
60 95 139
58 92 129
57 90 123
57 89 115
111 118 48
131 133 0
125 126 0
134 137 0
109 107 0
125 124 0
128 128 0
127 127 0
114 110 0
109 107 0
108 103 0
115 104 8
109 90 13
106 91 20
117 99 15
117 99 19
104 86 5
116 101 13
107 91 12
112 98 9
118 105 18
109 95 5
104 91 6
117 104 9
99 86 3
120 106 8
118 102 7
109 95 4
117 104 11
110 98 5
121 107 9
117 106 12
113 100 6
112 96 3
121 109 6
121 110 8
113 103 8
119 106 8
132 122 5
122 109 8
123 114 3
119 105 10
130 117 8
124 113 6
119 107 7
130 119 7
120 111 4
123 114 2
126 114 17
125 114 7
122 112 7
127 115 3
125 116 2
123 112 12
128 117 17
126 115 20
124 114 8
119 109 18
136 127 15
132 118 14
127 116 13
128 117 8
133 121 8
127 114 18
132 121 13
125 113 6
130 117 24
131 120 13
134 120 13
137 127 16
131 118 21
133 123 16
131 117 12
138 128 24
137 126 14
128 112 6
129 114 15
130 116 18
128 115 15
138 124 22
134 118 23
136 121 22
138 123 21
129 114 17
130 113 14
137 120 19
133 114 25
135 119 24
148 148 5
151 153 0
151 155 0
157 162 0
154 158 0
157 164 0
154 157 0
156 163 0
154 161 0
158 166 0
159 167 0
161 170 0
156 166 0
155 161 0
155 162 0
160 167 0
159 170 0
163 174 0
162 173 0
162 173 0
161 173 0
158 168 0
160 172 0
163 176 0
166 179 0
165 178 0
159 172 0
164 178 0
165 177 0
165 178 0
165 179 0
163 178 0
163 179 0
162 176 0
166 181 0
165 179 0
166 183 0
168 184 0
166 183 0
165 179 0
162 176 0
167 185 0
167 184 0
170 185 0
167 183 0
164 182 0
170 189 0
166 182 0
167 185 0
168 186 0
213 230 248
213 230 249
213 231 252
213 230 252
213 231 253
210 229 248
213 231 254
212 231 255
211 230 255
211 230 255
210 229 255
210 229 255
209 229 255
209 229 255
208 228 254
203 223 237
205 224 230
202 221 211
202 221 207
195 214 194
198 217 191
198 217 191
201 219 209
205 222 215
204 221 212
204 221 207
205 221 209
207 223 212
202 220 203
206 222 217
209 225 220
208 224 224
214 229 228
206 222 218
208 224 221
212 228 227
207 224 206
203 219 209
205 222 209
198 216 188
194 212 169
189 209 151
194 213 169
189 209 155
190 210 161
191 210 163
194 213 167
191 210 147
191 210 161
188 208 149
190 209 161
196 215 175
193 212 175
193 213 171
200 217 199
208 224 209
210 225 224
207 223 220
208 223 218
213 228 231
204 220 201
205 221 215
205 221 211
209 225 217
202 220 201
207 224 215
197 215 194
196 215 193
201 219 206
202 220 206
199 218 206
207 226 236
209 228 251
212 230 254
212 231 255
212 230 255
209 227 253
208 226 249
212 229 254
214 231 255
210 227 250
211 228 251
215 231 254
206 223 247
122 146 202
85 116 185
89 119 185
79 111 178
82 113 181
71 105 176
91 120 183
82 113 178
82 113 181
77 109 176
94 122 177
77 109 175
99 126 185
86 116 180
85 114 173
63 99 163
61 98 162
62 98 171
63 99 161
62 98 170
62 98 166
62 98 164
61 97 161
64 99 161
67 102 164
61 97 165
66 100 157
60 95 157
63 98 155
66 100 158
62 96 150
61 96 148
62 97 155
59 95 153
61 96 151
60 95 148
61 97 162
61 98 161
59 94 157
60 96 154
60 96 155
61 96 158
60 95 154
62 98 163
61 97 161
61 97 158
61 97 165
61 97 156
61 97 154
61 96 155
61 97 156
61 97 163
60 95 154
60 96 160
60 96 155
61 97 160
62 97 156
60 96 153
62 97 162
60 96 150
61 98 159
61 97 163
61 97 158
62 97 155
60 96 149
61 97 154
61 97 160
61 97 156
61 97 156
61 97 157
61 97 161
61 97 159
61 97 161
60 96 153
62 98 159
61 97 155
61 97 157
60 95 143
63 99 165
62 98 159
61 97 157
62 98 161
60 96 150
61 97 156
61 97 153
61 97 155
62 98 157
61 97 152
61 96 153
62 98 160
61 96 148
61 97 154
62 98 163
61 97 159
61 97 156
62 97 161
61 97 152
61 97 153
62 98 158
62 98 157
61 96 148
62 98 158
61 96 154
61 97 158
62 98 163
63 99 163
62 98 160
63 98 156
61 97 158
62 98 158
62 98 157
61 96 147
62 98 160
61 96 152
62 98 158
62 97 150
62 98 157
62 98 153
61 97 156
61 97 155
62 97 157
62 98 156
62 98 158
62 98 161
62 98 157
61 96 151
62 97 153
60 96 145
60 96 145
61 97 153
60 96 147
62 98 157
62 97 153
62 98 162
61 97 150
61 96 148
62 98 153
61 97 152
62 97 153
62 97 153
61 97 155
62 97 149
62 97 154
61 96 148
61 97 152
62 98 154
61 97 151
61 97 149
61 96 152
62 97 153
62 98 158
63 98 156
60 95 143
61 97 153
60 95 141
61 96 141
61 96 147
60 94 136
61 96 153
60 96 147
62 96 146
61 96 147
62 98 152
61 95 141
61 97 144
61 97 145
60 95 138
61 96 149
61 96 139
61 96 141
60 93 132
59 93 140
59 93 128
59 93 126
59 92 135
58 90 124
59 93 131
63 91 123
122 127 25
121 122 0
121 123 0
121 122 0
113 115 0
117 116 0
116 119 0
124 121 0
118 117 0
110 106 0
112 110 0
100 95 0
117 117 0
116 106 6
96 80 12
120 101 20
111 96 19
107 89 18
115 96 19
103 85 10
121 104 14
116 99 9
112 95 7
114 100 15
117 100 14
109 95 11
116 101 6
117 105 4
114 102 6
116 101 6
121 104 3
117 101 9
116 103 8
110 98 6
114 103 3
120 106 6
123 108 5
125 114 9
119 104 8
127 116 9
118 108 5
124 112 13
123 111 9
123 109 8
117 105 6
126 117 11
117 105 5
125 111 15
127 115 9
131 120 7
124 112 14
120 108 6
129 119 13
121 109 14
128 119 5
130 119 12
130 120 9
122 109 7
129 118 17
129 116 12
131 117 16
131 121 11
134 124 20
130 116 7
132 122 7
133 119 19
133 119 14
125 111 6
128 116 17
131 117 21
132 118 18
125 112 18
128 114 12
135 121 18
133 118 24
138 126 18
134 120 21
130 115 15
135 121 12
138 122 26
134 122 17
129 113 10
130 113 22
129 114 20
128 112 23
136 121 16
141 138 17
152 157 0
150 153 0
146 148 0
152 156 0
151 156 0
157 163 0
157 162 0
160 167 0
155 162 0
148 152 0
155 159 0
156 162 0
159 168 0
160 169 0
156 162 0
161 169 0
163 173 0
161 171 0
163 175 0
160 172 0
166 179 0
164 175 0
163 176 0
162 171 0
160 170 0
162 174 0
165 176 0
162 174 0
162 173 0
164 176 0
162 176 0
162 176 0
164 179 0
162 177 0
165 181 0
168 182 0
164 176 0
163 177 0
165 183 0
162 177 0
161 177 0
171 191 0
165 181 0
166 182 0
165 180 0
170 187 0
168 186 0
168 186 0
167 185 0
166 182 0
165 182 0
213 231 252
212 230 252
211 230 250
212 230 253
212 231 254
212 231 255
212 230 255
210 229 254
210 229 255
210 229 255
209 229 255
208 228 254
205 225 240
202 220 215
192 212 186
200 218 204
200 219 198
200 219 194
202 220 204
201 219 203
200 217 204
208 225 221
209 225 217
213 228 231
208 224 223
213 228 228
209 225 224
213 228 227
214 229 233
206 222 207
199 217 189
193 211 173
190 209 147
178 200 99
180 201 99
176 199 72
170 194 88
175 198 80
175 199 80
175 198 62
172 196 76
175 198 88
175 198 57
175 198 67
172 195 62
172 196 72
174 198 72
174 197 80
175 198 80
174 198 72
175 198 51
174 197 62
174 199 76
175 198 84
173 197 67
174 197 80
174 197 62
177 200 95
180 202 99
185 206 144
191 211 153
195 214 177
197 215 179
204 221 198
207 222 215
205 221 209
209 224 223
201 218 201
210 226 220
199 217 191
197 215 193
196 215 187
179 198 190
191 209 220
199 217 239
202 221 248
206 225 252
209 227 252
208 226 252
213 231 255
213 231 254
212 229 254
211 228 252
215 231 254
207 224 250
104 131 194
68 103 182
81 113 183
79 111 182
77 109 178
82 114 177
93 122 187
91 121 187
84 115 176
89 118 179
83 114 181
88 117 175
88 117 178
89 118 176
74 107 170
61 98 167
60 96 161
62 98 166
62 98 164
62 98 166
60 96 153
61 97 160
63 98 158
63 98 157
65 100 158
68 102 157
71 104 154
63 98 157
63 99 158
67 101 156
61 96 153
69 102 154
66 99 143
60 96 156
60 96 156
61 97 160
59 95 152
61 96 158
58 93 141
60 96 155
61 97 160
60 96 158
61 97 163
60 96 156
61 97 164
61 97 167
61 97 162
61 96 153
60 96 156
61 97 154
61 97 156
61 96 160
61 97 157
61 96 153
61 96 151
60 96 153
61 97 156
60 95 153
61 96 148
61 97 155
62 97 157
61 97 160
62 98 161
61 96 156
61 97 162
61 97 162
60 96 148
62 98 163
61 97 158
61 97 162
62 98 159
62 98 158
61 97 155
61 97 159
62 98 161
62 98 159
62 97 152
62 97 153
61 97 162
60 96 154
61 97 154
61 97 159
61 97 162
60 96 152
61 97 155
62 98 160
61 97 156
62 98 162
62 98 156
61 97 158
62 98 155
62 98 159
61 97 152
62 98 161
63 99 170
62 97 152
61 97 156
61 98 158
62 98 162
61 96 154
61 97 153
61 97 154
61 97 155
62 98 159
62 98 159
62 98 159
61 97 153
61 97 153
63 98 156
62 98 160
61 97 154
61 97 158
62 98 156
61 97 153
61 97 157
62 98 157
61 97 155
61 97 154
61 97 153
62 97 155
62 98 159
62 97 155
61 97 153
61 97 159
62 97 157
61 97 153
61 96 150
61 97 152
62 98 154
61 98 160
62 98 160
61 96 145
61 97 157
62 97 151
62 98 153
62 98 155
61 96 150
62 97 153
62 98 153
61 96 149
61 96 148
61 97 153
61 97 153
62 97 153
62 98 156
61 96 140
61 97 151
61 96 152
60 95 144
61 96 136
62 97 155
61 97 158
60 95 139
62 97 145
62 97 153
61 96 147
61 96 151
62 97 152
61 96 150
60 94 133
61 97 152
60 95 133
60 95 142
61 96 148
62 97 153
60 95 140
59 93 130
59 93 139
59 94 133
61 96 147
59 92 130
60 95 141
60 94 132
59 92 130
59 92 130
58 91 124
89 107 108
113 116 0
122 127 0
124 126 0
115 115 0
116 117 0
120 123 0
118 117 0
119 120 0
116 115 0
108 103 0
117 117 0
111 106 0
119 117 0
111 107 0
126 122 0
116 107 4
119 101 11
110 91 7
101 86 16
112 95 9
99 82 9
110 96 6
109 90 11
116 99 10
114 98 6
110 93 6
116 101 11
119 101 10
118 104 10
122 108 10
111 97 8
120 106 8
119 106 9
118 105 10
121 110 2
122 107 9
119 104 6
118 105 4
118 103 8
119 106 7
118 104 7
122 107 2
117 105 6
128 115 13
127 114 15
126 113 9
120 109 15
118 106 6
123 110 17
121 106 8
125 111 6
120 108 6
126 114 13
128 115 5
129 118 7
127 114 11
129 116 18
130 120 16
125 111 7
128 113 14
126 115 16
131 116 17
133 121 14
125 114 3
128 117 13
129 119 18
125 111 17
134 120 14
123 110 14
129 117 14
129 114 14
129 116 18
133 120 19
126 112 9
131 117 7
133 119 14
126 110 18
129 111 21
132 116 9
133 115 22
130 113 14
131 111 14
126 111 14
133 121 19
143 139 13
152 156 5
150 150 0
151 155 0
153 158 0
154 160 0
147 149 0
152 158 0
153 158 0
148 152 0
155 161 0
156 160 0
160 168 0
157 165 0
162 173 0
159 168 0
160 169 0
160 170 0
158 168 0
159 170 0
159 168 0
161 170 0
161 170 0
161 175 0
157 169 0
167 179 0
162 173 0
163 175 0
165 177 0
163 178 0
163 172 0
165 181 0
160 172 0
162 177 0
164 177 0
167 178 0
163 176 0
163 177 0
165 181 0
164 178 0
167 182 0
164 180 0
162 176 0
167 181 0
164 180 0
165 181 0
166 183 0
162 176 0
166 182 0
166 184 0
167 186 0
167 185 0
168 184 0
167 183 0
212 230 252
212 230 252
212 231 255
211 230 253
211 230 254
210 229 255
210 229 255
210 229 255
209 228 254
207 227 246
203 223 223
197 215 193
202 220 209
193 213 182
199 217 191
204 221 209
204 221 211
205 221 211
210 226 223
204 221 212
207 223 218
209 225 224
210 225 221
215 230 234
205 221 199
197 216 173
191 210 144
182 204 108
176 199 84
174 197 76
175 198 67
176 199 76
172 195 80
176 200 80
173 196 72
174 197 76
174 197 76
172 195 51
173 197 57
175 198 44
176 199 76
177 201 102
171 195 44
173 196 80
175 199 62
175 198 76
175 199 67
174 197 62
175 198 76
174 197 51
172 196 80
172 196 57
173 196 62
175 199 88
174 198 62
173 196 72
176 200 67
175 198 67
174 198 80
176 199 72
174 198 80
175 198 72
176 199 76
176 199 76
178 201 105
182 203 130
190 210 155
201 218 193
202 219 199
206 222 220
203 220 204
206 222 211
203 219 218
188 206 206
186 204 210
183 201 211
182 201 217
192 211 238
208 227 252
211 229 254
206 224 250
209 227 251
208 226 250
212 229 254
210 227 251
206 223 249
100 128 193
83 114 185
88 118 183
84 115 185
74 107 180
68 103 179
89 119 187
85 115 181
85 115 182
82 113 180
83 113 180
85 115 179
94 122 178
93 121 182
80 111 174
65 100 172
62 98 175
61 97 154
62 99 170
61 98 166
60 96 150
62 98 163
60 96 159
64 99 157
63 98 164
66 100 152
63 99 164
62 97 157
66 100 151
67 101 154
68 101 147
73 105 140
69 103 153
60 95 148
60 96 151
60 96 149
61 96 150
62 97 161
60 96 154
61 97 158
59 94 153
62 97 155
61 97 156
61 97 160
62 98 162
61 97 158
61 97 154
61 96 153
61 97 160
61 97 160
61 97 158
61 96 156
60 96 156
61 97 163
60 96 154
59 95 151
62 98 166
61 97 150
61 97 151
61 97 156
60 96 151
61 97 155
61 97 161
61 97 155
60 96 160
61 97 153
61 97 160
61 97 154
61 97 159
61 96 150
61 97 156
61 97 160
61 97 159
61 97 158
61 97 164
62 98 164
63 99 165
62 98 160
61 97 160
61 97 156
61 98 158
62 98 164
62 97 156
62 98 162
62 98 160
61 96 150
62 98 155
62 98 156
62 98 156
62 98 159
62 98 163
62 98 156
62 98 153
60 96 150
62 98 157
61 97 149
61 97 156
61 97 155
62 98 156
62 98 166
62 98 158
62 97 158
62 98 156
61 97 154
62 97 156
61 97 155
63 99 159
62 98 162
61 96 152
61 96 151
62 98 159
61 96 151
63 98 160
61 97 152
61 96 154
61 97 152
61 97 154
62 98 159
61 97 150
62 97 155
62 98 160
61 97 151
61 97 154
62 97 152
62 97 154
61 97 153
62 97 156
62 97 153
62 97 154
63 98 155
62 98 159
62 98 159
61 97 153
62 97 154
62 97 148
61 97 150
61 97 148
62 97 155
63 99 161
62 97 157
61 96 147
62 98 152
62 97 152
61 97 151
61 97 157
61 97 152
61 97 149
61 96 144
61 96 147
61 96 148
62 98 152
62 97 147
60 95 141
61 96 149
61 96 143
61 96 145
62 98 154
62 97 151
61 97 149
62 98 149
59 93 134
61 96 145
61 97 146
60 96 147
60 95 150
60 94 133
61 96 144
61 96 145
59 93 134
59 93 129
59 93 130
61 96 140
60 93 136
59 93 131
57 89 110
105 116 83
126 130 0
127 131 0
111 112 0
123 126 0
121 120 0
116 114 0
120 122 0
120 121 0
114 115 0
113 111 0
106 103 0
119 120 0
114 111 0
110 106 0
117 115 0
113 110 0
111 105 0
107 99 6
110 96 8
105 86 10
108 90 10
108 93 10
106 89 12
113 93 9
113 95 10
109 91 15
111 95 19
119 105 12
114 100 9
114 100 13
112 97 8
117 103 12
117 104 13
117 103 6
113 101 3
111 97 10
119 106 5
112 97 10
117 101 6
123 109 9
117 102 8
123 110 8
114 100 5
119 108 5
118 107 4
116 104 6
121 108 11
118 104 7
128 115 14
120 105 5
121 108 6
126 112 7
127 113 9
126 115 6
126 112 6
121 105 7
122 109 7
123 108 7
124 112 15
126 116 5
124 108 15
132 119 9
129 117 7
125 109 7
133 120 15
131 117 23
134 121 14
125 110 13
129 114 21
129 116 20
127 114 5
128 114 21
133 118 15
123 107 16
125 108 12
128 114 18
133 118 22
130 115 19
127 109 18
121 102 20
127 108 21
131 118 17
141 139 16
142 141 0
148 150 0
148 151 0
154 159 0
149 151 0
146 150 0
150 156 0
155 159 0
147 148 0
153 159 0
156 166 0
152 160 0
160 170 0
157 164 0
156 166 0
154 160 0
161 172 0
153 162 0
155 159 0
161 170 0
158 168 0
158 166 0
159 170 0
163 175 0
154 162 0
163 175 0
155 166 0
164 177 0
160 169 0
163 176 0
163 176 0
161 172 0
166 179 0
165 178 0
164 177 0
165 177 0
161 174 0
163 178 0
166 182 0
166 181 0
167 184 0
168 185 0
165 181 0
164 178 0
163 178 0
165 180 0
169 185 0
168 185 0
163 178 0
168 185 0
166 183 0
165 182 0
167 185 0
168 185 0
167 185 0
213 231 255
212 230 255
211 230 255
211 230 255
210 229 255
210 229 255
208 228 254
203 222 228
202 220 218
198 218 196
203 221 211
198 217 199
201 219 203
206 223 215
200 218 201
207 224 220
206 223 211
209 225 221
208 224 218
206 221 211
202 219 193
194 213 163
182 204 125
176 199 76
176 200 95
174 198 51
175 198 67
175 199 84
173 197 67
175 198 76
174 198 62
174 198 95
172 195 62
173 197 62
174 198 57
177 200 67
175 199 84
177 200 84
175 199 72
173 196 67
175 198 62
175 197 62
173 197 62
175 198 51
173 196 62
175 198 62
173 197 67
171 195 44
175 199 67
171 194 72
175 198 57
177 200 62
173 196 57
175 198 76
172 196 67
173 195 51
176 199 92
177 200 95
175 198 62
174 198 62
177 200 62
174 196 51
169 192 36
175 198 62
174 198 62
175 199 72
171 195 76
175 199 84
175 199 88
183 204 120
190 210 144
194 211 193
156 176 181
147 169 160
138 161 169
116 141 164
139 161 179
124 148 165
142 164 189
185 205 224
205 223 250
210 228 254
213 230 255
212 229 253
209 226 252
212 229 253
189 207 238
77 109 183
76 109 183
79 111 184
79 111 181
95 124 187
80 112 180
79 111 175
70 104 172
79 111 179
76 109 178
89 118 181
77 109 176
84 114 174
72 106 174
82 113 177
62 98 167
61 97 164
62 98 168
62 98 166
60 96 157
61 96 157
61 97 160
64 99 161
61 96 154
68 101 149
64 99 160
68 101 152
69 102 152
63 98 150
60 96 155
63 97 155
63 97 153
63 97 151
61 96 156
60 96 153
60 96 156
61 97 161
61 97 154
60 95 153
60 96 154
61 96 153
59 94 147
60 95 151
60 96 149
61 96 158
60 96 156
61 97 156
61 97 159
61 97 155
61 97 157
61 97 160
61 97 155
61 97 153
61 96 147
60 96 157
61 97 157
60 96 151
61 98 161
61 97 161
62 98 162
62 98 159
61 96 161
61 97 152
61 97 161
61 97 155
61 97 157
60 96 154
61 97 154
63 99 162
62 97 158
61 97 151
62 97 151
61 97 156
61 97 155
61 97 154
62 98 161
60 95 145
61 96 150
60 96 158
61 98 164
61 97 153
60 96 155
62 97 155
62 98 157
61 97 155
62 98 161
61 97 154
63 99 166
61 96 154
61 96 154
61 97 154
62 97 154
62 97 156
61 97 159
61 97 151
61 97 155
62 98 163
62 98 156
61 96 156
61 96 152
61 97 157
62 97 161
62 98 155
61 97 150
62 97 156
61 97 158
60 96 149
62 98 159
61 97 155
61 97 156
61 97 151
62 97 157
62 98 156
62 98 154
62 98 159
62 97 154
61 97 155
62 97 153
61 96 145
61 96 149
61 97 149
61 96 147
61 96 149
61 96 145
63 99 166
61 96 152
62 98 157
61 96 149
60 95 149
61 97 152
61 97 155
62 98 155
61 97 157
61 96 148
60 96 145
61 97 154
61 97 150
60 95 137
61 97 154
62 98 154
62 98 154
61 97 151
60 96 149
61 97 151
61 97 154
61 96 145
62 97 154
61 97 152
61 97 147
61 96 143
61 96 146
61 96 145
61 96 143
61 97 149
61 96 143
61 96 148
62 97 146
62 97 147
60 95 139
61 95 140
62 97 149
60 95 144
60 95 142
60 95 144
59 94 136
61 97 149
60 94 132
62 97 145
59 93 134
60 93 132
58 91 120
59 94 133
58 90 122
57 90 128
113 118 40
118 122 0
106 109 0
120 119 0
120 120 0
126 128 0
116 119 0
119 120 0
117 119 0
127 126 0
118 115 0
124 125 0
112 111 0
112 113 0
116 115 0
107 103 0
110 108 0
116 109 0
113 108 0
113 109 0
102 92 0
111 97 7
115 96 15
107 87 12
115 92 8
105 87 8
105 87 8
115 99 16
110 94 10
112 95 8
119 105 5
117 101 12
114 96 9
108 94 6
116 101 9
111 94 7
110 92 10
118 104 5
116 103 5
121 103 9
115 102 10
125 111 10
121 111 4
120 105 11
126 112 11
121 110 13
122 108 7
121 105 6
127 114 9
131 117 9
120 105 9
119 105 6
129 114 10
119 108 7
130 119 18
126 113 7
128 113 10
123 111 2
124 110 6
127 112 7
125 108 13
127 114 17
124 109 14
127 113 17
124 108 12
126 112 8
123 109 12
128 114 10
132 117 13
129 114 17
131 115 16
123 106 7
130 114 18
127 109 11
129 112 10
129 112 16
129 112 29
126 105 16
126 108 13
132 118 19
133 122 7
141 138 2
154 157 0
145 147 0
146 149 0
147 149 0
151 152 0
148 150 0
149 152 0
153 157 0
155 160 0
156 160 0
157 163 0
156 161 0
158 167 0
153 160 0
155 160 0
156 164 0
160 171 0
159 170 0
156 165 0
157 166 0
161 171 0
160 170 0
158 169 0
158 169 0
161 170 0
156 164 0
159 169 0
162 175 0
159 169 0
162 175 0
164 177 0
161 174 0
159 171 0
161 175 0
165 179 0
164 177 0
164 180 0
164 176 0
165 180 0
163 177 0
164 181 0
166 179 0
163 177 0
164 178 0
165 182 0
168 186 0
168 183 0
167 182 0
168 185 0
166 182 0
164 180 0
165 181 0
165 182 0
170 188 0
169 187 0
170 189 0
164 179 0
212 230 255
211 230 255
210 230 255
209 229 255
210 229 254
206 225 237
203 221 209
198 217 201
200 219 194
206 223 214
205 222 209
205 222 215
202 219 199
213 228 230
210 226 224
212 227 230
207 223 214
201 218 186
190 210 144
176 199 76
173 197 57
173 197 76
173 197 62
177 200 84
177 200 72
176 200 80
173 197 72
170 193 57
177 200 84
176 200 67
176 199 80
177 200 72
173 196 51
174 198 67
177 201 92
174 198 62
174 198 76
174 197 67
173 197 57
172 195 51
174 198 57
173 197 80
174 197 72
173 196 76
174 198 92
174 198 80
174 198 80
175 197 67
175 198 62
176 199 76
177 200 88
173 196 57
174 197 72
175 198 72
175 198 76
173 196 80
174 198 62
176 198 62
177 200 88
175 198 72
177 201 84
174 197 62
170 194 44
174 198 84
175 198 76
171 195 62
171 195 67
173 196 62
176 200 80
172 195 57
170 193 103
115 140 142
105 132 158
104 132 149
116 142 158
110 137 148
108 134 161
102 130 166
102 130 166
113 138 172
134 158 169
175 195 220
207 225 250
208 225 251
210 228 252
212 229 254
215 232 255
165 185 223
68 103 181
81 113 183
79 111 182
76 109 181
79 111 181
83 114 181
81 113 182
74 107 175
80 111 179
87 116 179
84 115 181
77 109 177
84 114 175
87 116 173
76 108 164
63 99 166
62 98 165
61 98 165
60 96 162
61 97 163
62 99 171
61 97 165
61 97 163
61 97 159
59 95 157
67 101 150
64 99 150
69 102 155
71 103 147
65 100 149
63 96 147
62 97 153
67 101 157
61 96 155
58 94 151
61 96 153
60 97 162
61 97 158
62 98 161
60 96 156
60 95 156
61 96 154
60 96 155
61 97 162
61 97 159
59 94 150
60 96 148
62 98 162
60 96 153
61 96 157
61 96 155
61 96 152
61 97 159
61 96 158
60 96 148
62 98 162
59 94 149
61 97 155
61 97 156
60 96 152
61 97 155
61 96 156
61 97 157
62 97 158
60 96 149
61 97 158
61 96 150
60 96 151
62 98 163
61 96 153
61 98 161
61 97 159
61 96 155
62 98 160
62 97 155
62 98 161
60 96 149
62 97 159
61 96 153
62 98 161
61 97 160
61 96 151
62 98 160
61 97 155
60 96 154
61 97 153
62 97 157
62 98 157
61 97 153
61 97 156
61 97 153
62 98 160
61 97 154
62 98 159
62 98 158
61 97 148
61 96 156
62 97 155
62 98 164
61 97 157
62 97 152
61 97 148
61 97 153
61 97 150
61 97 149
61 97 159
62 99 162
61 97 155
61 97 147
62 97 154
61 97 156
62 98 159
61 97 150
62 98 165
62 98 161
62 97 157
61 97 151
61 97 148
61 97 151
61 97 156
60 96 147
62 98 154
62 98 156
61 97 150
61 97 150
61 96 149
60 96 151
62 97 148
62 98 159
63 98 156
61 96 145
61 97 153
62 97 149
62 97 153
61 97 150
61 96 144
61 97 147
62 98 156
61 96 151
61 96 144
62 97 153
61 97 149
62 97 153
61 96 147
62 97 154
62 97 148
61 96 147
61 96 140
62 97 151
61 96 143
61 96 151
62 98 153
61 96 147
60 95 137
60 95 142
62 97 152
60 95 142
61 95 139
60 94 133
61 95 144
60 95 143
60 95 134
60 95 140
60 95 143
60 95 140
61 96 145
61 96 145
60 95 138
59 92 133
57 90 123
59 92 136
57 90 130
67 95 104
123 126 0
117 116 0
114 115 0
125 126 0
118 119 0
126 126 0
115 114 0
124 125 0
112 112 0
108 108 0
119 120 0
116 116 0
119 116 0
113 110 0
110 105 0
111 108 0
112 107 0
127 124 0
113 108 0
108 103 0
116 108 0
107 102 0
113 109 0
94 86 5
112 96 10
115 95 19
114 98 10
121 102 13
121 103 11
115 97 9
104 85 6
113 96 10
108 91 9
122 104 7
115 97 11
117 100 9
117 99 11
119 101 9
118 99 8
124 110 9
113 99 8
120 101 11
116 101 6
114 99 1
121 104 8
125 112 7
124 111 7
124 111 8
121 105 11
120 105 9
121 106 13
123 110 8
121 107 12
120 111 4
123 106 4
122 107 19
120 108 10
128 113 8
134 119 8
117 102 5
125 112 8
130 118 7
126 112 18
124 108 7
129 116 16
128 112 14
126 112 13
130 118 18
133 119 19
130 115 13
126 108 17
128 109 18
126 108 20
129 113 18
136 117 13
128 110 15
129 112 21
131 119 10
137 132 12
142 140 0
150 151 0
150 153 0
143 143 0
149 150 0
147 148 0
146 147 0
156 159 0
148 150 0
152 155 0
149 152 0
146 150 0
159 165 0
153 161 0
157 163 0
157 165 0
150 156 0
153 160 0
158 168 0
161 169 0
154 161 0
160 169 0
160 171 0
162 172 0
157 164 0
159 169 0
160 170 0
159 167 0
159 170 0
161 174 0
164 177 0
160 170 0
160 173 0
165 176 0
162 175 0
162 177 0
164 176 0
159 173 0
165 180 0
161 174 0
164 177 0
160 174 0
167 182 0
167 182 0
170 188 0
160 175 0
165 178 0
166 183 0
162 176 0
167 183 0
167 183 0
167 183 0
164 178 0
161 177 0
162 176 0
168 184 0
164 178 0
166 183 0
169 187 0
167 182 0
210 230 255
209 229 255
206 226 245
205 224 227
199 218 194
200 219 198
198 217 194
205 222 209
204 222 209
211 227 223
203 220 209
212 228 227
208 224 218
206 223 203
192 211 159
184 206 120
176 199 72
176 200 105
177 200 76
175 198 62
175 198 80
176 200 72
176 200 99
175 199 72
173 197 84
172 196 57
174 198 72
173 197 62
175 199 62
177 201 92
175 198 62
174 198 80
168 192 51
173 196 67
173 196 62
172 195 51
174 197 51
178 201 88
172 196 62
176 201 99
173 197 72
174 198 102
173 196 62
173 196 72
175 199 95
173 197 62
171 194 57
175 199 72
174 198 80
172 196 72
175 199 76
175 198 62
174 197 76
175 199 72
176 199 80
175 198 72
173 197 76
176 199 72
174 197 57
175 198 72
173 196 84
172 196 72
173 196 51
172 195 67
178 202 111
175 198 76
174 197 76
174 197 67
174 198 88
175 198 76
145 169 122
104 132 151
106 134 152
107 134 144
100 129 151
110 138 150
114 140 144
115 141 153
105 133 167
99 128 152
107 134 163
119 145 163
111 137 172
148 170 198
203 221 246
209 227 252
206 224 250
212 229 252
165 185 225
71 105 182
86 117 188
76 109 182
74 108 182
86 117 187
68 103 177
68 102 174
64 99 168
79 111 177
82 113 177
94 122 183
87 117 179
89 119 181
85 115 178
85 114 175
61 98 168
62 98 169
60 96 160
63 98 162
62 98 168
62 98 164
61 98 165
61 97 159
62 98 165
60 96 159
66 101 156
61 97 164
63 97 143
72 104 150
59 95 151
65 99 151
67 101 153
65 99 151
60 96 158
61 97 159
59 94 150
60 95 148
61 96 158
60 96 157
60 95 158
58 93 140
60 96 155
61 96 160
61 96 157
61 96 151
61 97 155
60 96 150
61 97 160
60 96 155
61 97 154
60 96 149
61 96 154
62 98 158
61 96 152
60 96 151
61 97 159
62 98 161
60 96 154
60 96 151
62 98 158
60 96 150
60 96 151
62 97 154
61 96 152
61 96 160
60 96 154
61 96 154
61 97 157
61 97 156
60 96 152
60 96 151
61 97 155
61 96 153
60 96 154
62 98 162
61 97 152
62 98 153
61 97 156
61 97 154
60 96 153
61 96 151
60 96 144
61 97 156
61 97 155
61 97 161
62 97 156
61 97 156
61 97 152
61 97 154
61 97 150
62 98 152
62 98 159
60 96 150
61 96 148
61 97 155
61 97 152
62 98 161
62 98 155
62 98 161
62 97 154
62 98 161
61 97 155
63 98 158
61 96 145
61 97 160
60 95 141
62 98 161
61 97 153
62 97 152
62 97 152
62 97 159
62 97 149
61 97 154
59 94 144
61 97 147
61 96 149
62 97 156
62 98 157
61 97 148
62 97 149
61 97 150
61 97 147
61 97 149
62 97 153
62 98 166
61 96 147
62 98 156
61 96 147
60 96 147
61 96 151
62 98 156
62 98 155
61 97 150
60 96 144
63 98 158
61 96 152
60 95 140
61 97 148
61 97 147
61 96 148
61 96 145
61 97 149
62 97 155
60 96 136
61 96 149
62 97 153
62 98 151
60 95 140
61 96 144
62 97 155
61 97 148
61 96 148
62 97 148
61 96 143
60 94 140
61 96 148
60 95 140
60 95 135
62 97 148
60 95 145
61 95 138
60 94 137
60 94 135
59 93 129
61 95 139
59 93 134
58 92 120
61 95 138
60 95 142
59 93 135
58 91 126
83 101 91
118 119 0
123 125 0
125 127 0
126 129 0
121 123 0
117 118 0
115 118 0
118 119 0
115 118 0
113 113 0
117 116 0
119 120 0
111 110 0
125 125 0
119 118 0
104 98 0
120 116 0
113 109 0
110 110 0
112 106 0
118 114 0
106 101 0
109 104 0
109 104 0
104 97 0
114 110 0
103 94 7
105 92 3
116 96 9
117 95 13
108 90 5
116 96 14
115 96 11
110 90 6
111 93 12
122 105 10
120 102 12
116 101 9
119 101 10
122 104 11
115 100 10
113 97 6
115 97 10
114 96 10
111 95 3
122 107 8
121 106 8
114 99 9
116 102 14
125 111 9
117 103 9
125 110 11
114 99 20
120 105 9
122 106 10
122 107 2
124 109 7
119 104 9
127 112 6
124 108 9
128 114 9
127 111 8
129 114 7
125 108 22
120 103 17
122 103 15
127 106 19
129 115 12
125 105 20
121 101 13
133 117 11
126 107 15
122 102 18
122 106 12
133 123 13
141 137 7
146 147 0
144 145 0
147 149 0
146 146 0
141 142 0
142 142 0
149 152 0
148 149 0
146 151 0
155 160 0
143 142 0
157 164 0
161 168 0
152 158 0
152 156 0
154 157 0
144 146 0
159 167 0
159 167 0
154 159 0
157 165 0
157 165 0
155 161 0
154 158 0
159 168 0
161 170 0
162 172 0
156 165 0
162 172 0
165 177 0
163 174 0
157 167 0
161 171 0
158 169 0
162 175 0
160 173 0
158 167 0
162 174 0
165 179 0
158 168 0
165 180 0
156 168 0
166 184 0
162 173 0
164 179 0
165 182 0
161 176 0
167 183 0
163 178 0
167 183 0
164 177 0
171 190 0
168 183 0
161 175 0
163 182 0
167 183 0
167 183 0
168 186 0
167 184 0
167 182 0
169 186 0
165 180 0
166 182 0
207 227 246
204 222 217
198 217 193
201 220 207
202 219 203
200 218 201
204 222 211
207 224 217
209 225 218
205 221 212
211 226 220
198 216 186
181 202 111
175 198 67
175 198 44
170 195 57
172 195 57
175 200 92
173 196 72
176 200 76
174 197 51
173 197 67
175 198 62
172 196 57
175 199 84
173 197 72
173 197 67
174 198 80
177 199 72
174 198 80
174 197 67
176 201 95
174 197 80
171 195 76
175 199 72
173 197 62
173 197 84
177 200 80
175 199 80
173 197 80
173 197 76
172 196 72
176 200 84
175 198 72
174 198 76
176 199 84
170 193 76
174 198 76
175 199 67
174 198 76
174 198 72
174 197 72
175 199 84
169 192 51
173 196 72
176 199 76
173 196 57
177 201 80
171 196 67
174 198 84
174 198 84
174 197 57
173 197 67
172 196 80
172 196 62
172 194 51
176 199 72
175 199 76
175 198 62
172 196 67
128 154 135
106 133 150
103 131 156
112 138 156
105 132 154
108 135 162
105 133 156
105 132 142
110 137 155
109 137 159
105 131 151
106 133 152
108 134 168
103 130 154
101 128 167
148 170 199
195 214 240
209 227 252
210 227 252
147 168 215
73 107 182
78 111 182
81 113 184
90 120 187
76 109 178
71 105 177
77 110 182
89 118 181
85 115 181
71 105 178
69 103 174
91 120 178
76 108 168
91 120 177
86 116 176
61 98 168
64 99 162
64 100 167
61 97 163
62 98 162
63 98 157
61 97 162
61 97 162
62 98 165
61 97 159
69 103 161
69 103 155
69 102 155
61 95 147
71 103 150
61 95 142
62 97 154
61 96 157
60 95 154
59 94 148
61 96 155
60 96 144
60 95 150
60 95 155
60 96 153
59 94 153
61 96 155
58 93 143
60 96 149
60 95 147
61 96 153
60 96 157
61 97 160
60 95 151
61 97 151
60 95 154
60 96 150
61 97 159
61 97 155
60 95 154
61 97 156
60 95 144
61 97 157
62 98 157
62 98 159
61 97 154
62 98 159
61 97 154
61 96 151
60 96 152
61 97 155
63 98 159
60 95 151
60 95 155
61 96 152
61 97 158
60 96 149
60 96 158
61 96 152
62 98 157
62 98 159
60 96 150
61 97 154
61 96 151
61 97 155
62 98 160
62 98 161
61 97 152
61 96 156
62 98 156
61 97 151
61 97 160
62 98 157
62 97 148
61 97 155
62 98 163
61 97 154
60 96 148
61 97 151
61 96 149
61 97 154
61 97 157
61 97 152
61 96 148
61 97 155
62 97 153
62 97 156
62 98 156
61 96 144
62 98 157
60 95 152
62 98 158
61 97 153
61 96 149
62 98 158
61 96 149
61 96 151
61 97 148
62 97 156
61 96 152
62 98 157
61 97 154
62 98 157
62 97 157
61 97 151
60 96 144
62 97 154
62 98 156
61 96 143
62 98 158
62 98 155
61 97 155
61 96 149
62 98 149
63 98 153
60 95 140
61 96 151
61 97 147
60 95 140
62 97 151
61 96 152
60 95 140
61 96 142
61 96 154
61 96 142
60 95 143
62 97 150
60 96 147
61 96 143
61 96 145
61 96 141
61 97 154
60 95 136
60 96 149
61 96 144
61 96 143
59 94 139
61 96 143
61 96 146
62 98 149
60 95 137
61 96 141
60 95 135
61 96 143
59 92 128
60 94 140
59 93 133
61 96 145
59 93 135
60 95 135
60 94 134
60 93 131
58 91 123
60 94 136
59 93 130
104 113 49
126 133 0
116 119 0
118 123 0
115 117 0
113 119 0
114 117 0
124 126 0
111 110 0
123 123 0
114 112 0
119 120 0
114 113 0
108 108 0
115 110 0
117 119 0
110 108 0
118 115 0
107 107 0
117 116 0
116 110 0
113 107 0
110 107 0
117 111 0
116 113 0
114 110 0
102 96 0
108 104 0
111 100 0
107 97 0
109 100 5
114 103 9
106 88 10
105 84 8
114 92 11
112 95 13
103 81 10
112 93 8
115 99 9
118 100 11
111 93 10
114 100 10
112 98 4
113 95 10
120 102 8
115 97 15
121 106 6
114 97 8
114 98 6
125 105 12
121 104 9
116 98 11
125 108 11
125 108 7
123 104 15
118 103 12
117 99 8
124 107 8
127 108 14
120 103 8
126 109 9
116 99 6
126 111 7
119 101 9
121 105 12
120 102 15
121 104 8
123 107 7
120 101 8
117 98 8
125 110 15
128 114 12
136 128 18
139 133 1
141 137 0
133 129 0
146 143 0
147 151 0
141 137 0
138 138 0
141 141 0
145 145 0
146 149 0
148 150 0
153 157 0
154 158 0
146 148 0
152 156 0
159 164 0
148 149 0
151 155 0
153 159 0
159 165 0
152 155 0
152 155 0
158 162 0
155 161 0
154 160 0
154 161 0
156 162 0
155 161 0
157 166 0
161 171 0
159 170 0
160 168 0
156 166 0
160 171 0
159 171 0
164 173 0
160 171 0
160 173 0
162 176 0
162 176 0
162 175 0
162 174 0
164 179 0
165 179 0
166 182 0
159 171 0
165 178 0
162 173 0
163 177 0
163 178 0
161 174 0
161 174 0
167 182 0
165 180 0
166 182 0
167 180 0
165 184 0
167 183 0
163 179 0
166 182 0
165 180 0
167 184 0
166 183 0
170 188 0
168 184 0
166 181 0
164 179 0
199 218 196
196 215 193
204 222 207
208 225 215
204 222 211
207 223 215
212 228 227
208 224 218
202 219 191
190 210 155
177 201 92
175 198 62
177 201 88
174 198 95
174 198 76
175 198 84
174 198 80
170 194 92
174 197 57
173 196 51
172 195 44
175 199 76
174 198 88
172 194 67
177 200 92
172 195 67
174 197 62
174 198 57
174 197 76
172 196 57
172 196 67
176 199 67
175 198 84
174 198 67
174 197 51
174 196 76
173 197 51
175 199 80
170 193 51
173 197 76
174 198 67
174 198 76
172 196 76
176 199 80
173 196 76
172 194 57
173 197 76
175 199 80
173 196 51
172 195 51
172 195 62
171 195 62
174 197 72
175 198 67
172 195 57
172 197 72
175 199 80
172 196 57
176 200 88
172 195 57
175 199 62
173 195 36
173 196 51
174 197 62
173 197 84
174 198 62
176 199 99
172 196 57
171 195 57
172 196 72
137 161 126
106 133 162
95 124 160
108 135 155
105 132 155
102 130 155
96 124 155
96 124 147
110 137 161
116 142 152
117 143 154
110 137 163
101 129 153
109 135 165
99 126 152
106 133 165
93 122 163
153 174 203
192 210 239
210 227 252
144 165 213
81 113 185
74 108 183
68 103 181
74 107 179
74 107 180
76 109 176
79 111 178
76 109 176
96 124 182
81 112 175
84 114 176
80 111 176
80 111 177
73 106 166
70 103 165
62 98 164
61 97 158
62 99 171
61 98 167
60 95 159
61 97 161
62 98 159
61 98 163
61 97 161
59 95 156
67 100 144
64 99 154
63 98 146
64 98 151
62 97 150
60 96 153
60 95 155
61 96 157
59 94 149
60 95 154
60 96 149
60 96 155
60 96 154
59 95 151
61 96 155
61 97 152
61 97 154
61 96 153
61 97 157
61 97 156
61 97 157
61 97 153
60 96 151
62 98 155
61 97 155
60 96 156
61 96 153
61 97 157
60 96 154
61 96 155
60 96 153
61 96 152
61 97 155
60 96 151
61 97 153
60 96 149
60 96 150
60 96 147
62 97 159
61 97 154
61 97 154
61 97 159
60 96 156
60 96 156
62 97 160
61 97 155
61 97 161
60 95 152
62 98 158
62 97 153
62 98 158
61 97 158
61 96 144
61 97 152
61 96 151
62 97 154
60 96 157
61 97 153
61 97 150
61 97 155
62 98 157
61 96 153
62 97 153
61 97 160
61 97 160
61 97 151
61 97 156
61 97 154
59 95 152
61 97 154
61 96 150
62 97 154
61 96 150
61 97 150
62 97 155
61 97 151
61 97 149
62 98 155
61 96 151
62 98 153
62 98 160
61 97 151
62 98 159
61 97 152
61 96 154
62 98 152
61 97 155
61 97 157
61 97 148
61 97 153
61 97 151
62 97 150
62 98 157
61 97 150
61 97 152
62 98 157
62 98 157
61 97 150
59 95 144
62 97 152
60 95 144
61 97 149
61 96 147
62 97 152
61 96 149
60 96 144
62 97 154
62 97 153
61 96 152
61 97 148
62 98 155
61 95 139
61 96 142
62 97 148
62 97 157
61 95 137
62 97 150
62 97 150
62 98 153
61 96 147
61 95 137
61 96 139
62 97 151
62 97 149
62 97 148
61 96 135
60 95 139
61 97 147
60 94 141
60 95 135
60 94 136
59 93 133
61 96 142
59 93 125
60 95 142
60 95 138
58 92 133
60 94 133
58 92 117
59 93 129
59 93 133
58 90 123
58 91 117
66 97 124
122 127 0
122 127 0
125 125 0
128 132 0
125 127 0
120 122 0
119 121 0
124 126 0
112 112 0
105 102 0
123 124 0
102 101 0
120 119 0
103 103 0
110 108 0
113 113 0
112 110 0
111 106 0
121 120 0
113 110 0
109 104 0
101 97 0
118 113 0
117 115 0
109 104 0
123 118 0
106 101 0
112 105 0
108 109 0
113 100 0
100 92 0
116 110 0
107 100 0
104 96 0
111 103 0
109 94 14
103 83 11
117 100 10
113 91 10
114 95 12
110 87 11
112 93 8
115 95 13
121 99 12
114 98 13
122 101 10
117 100 6
118 98 12
114 96 9
113 92 11
116 98 6
118 98 10
112 97 6
120 102 10
117 100 15
121 101 12
122 101 10
121 101 11
122 100 10
118 99 10
114 93 15
126 106 16
126 107 9
122 104 15
125 106 17
124 105 15
122 104 8
131 116 16
137 128 5
131 121 5
135 130 0
137 132 0
136 133 0
132 127 0
143 141 0
143 141 0
148 148 0
142 142 0
142 138 0
140 138 0
154 155 0
145 144 0
147 150 0
142 142 0
153 157 0
149 153 0
155 161 0
150 153 0
152 158 0
151 154 0
155 161 0
154 158 0
152 158 0
155 160 0
152 159 0
158 164 0
155 161 0
160 169 0
161 170 0
157 165 0
159 169 0
160 171 0
159 167 0
162 172 0
153 158 0
156 164 0
159 171 0
164 176 0
162 173 0
160 170 0
161 175 0
162 175 0
162 175 0
164 176 0
163 175 0
159 170 0
157 169 0
160 173 0
164 177 0
164 177 0
167 182 0
163 180 0
164 176 0
161 174 0
163 177 0
164 179 0
164 178 0
164 176 0
165 180 0
160 173 0
168 185 0
165 181 0
167 182 0
166 182 0
166 180 0
165 181 0
163 177 0
171 187 0
168 185 0
166 184 0
204 222 209
203 220 201
207 223 215
211 227 230
212 228 228
202 219 198
189 209 147
177 200 92
176 199 88
172 196 67
176 199 72
174 197 57
178 201 88
174 198 84
174 198 80
171 194 76
175 199 99
174 198 76
173 196 67
173 196 72
173 197 105
175 198 72
176 200 72
176 200 95
174 198 88
174 198 76
174 197 88
174 198 62
172 197 76
172 196 72
175 199 84
173 198 76
175 199 62
173 197 51
171 195 84
172 195 67
172 195 67
175 199 92
175 198 51
173 196 67
176 199 72
173 196 44
171 195 72
173 197 62
173 196 72
174 198 57
172 196 67
172 196 67
172 196 62
173 196 67
172 197 88
174 196 76
173 197 67
174 198 62
172 195 51
171 194 51
175 198 67
176 199 92
173 196 67
177 200 80
173 196 76
177 201 102
174 198 67
175 198 62
172 195 57
172 196 62
172 196 76
171 194 84
171 195 67
174 198 76
143 168 131
99 127 149
90 119 149
109 136 156
87 117 152
94 123 153
95 124 154
105 131 145
94 123 158
103 131 156
112 138 152
111 138 163
113 140 152
98 126 158
108 134 166
97 125 145
107 134 163
91 120 149
110 135 168
165 185 211
207 225 251
103 130 194
73 106 181
76 109 183
78 111 183
76 109 180
86 117 184
88 118 179
71 105 175
79 111 179
76 109 176
74 107 173
89 119 183
84 114 174
79 110 170
92 121 183
71 104 169
64 100 170
61 98 165
61 98 169
61 97 158
60 96 162
59 95 153
62 98 163
61 97 165
62 98 166
62 98 157
61 96 157
69 103 155
65 99 150
60 96 159
64 99 153
66 99 147
62 96 154
64 98 148
59 94 141
60 95 150
61 97 156
60 95 151
60 95 148
59 95 154
61 97 158
58 93 141
60 96 151
60 96 153
61 97 158
60 95 153
61 97 152
61 96 151
62 98 159
61 96 155
59 94 148
60 95 144
61 97 159
61 96 156
62 98 162
62 98 162
60 95 143
59 94 142
60 96 152
62 98 158
61 97 158
61 96 152
61 97 154
62 98 165
60 96 147
61 97 157
62 98 157
61 97 153
61 97 150
62 97 157
61 97 157
61 97 160
62 97 158
61 97 158
62 97 158
62 97 155
62 98 156
62 98 160
62 98 155
62 98 157
62 97 154
60 96 149
61 96 149
60 95 147
62 98 165
62 97 154
60 95 142
61 97 154
62 97 158
61 97 155
60 96 148
60 95 146
62 97 157
62 97 152
62 97 149
62 98 163
63 99 162
61 97 149
62 98 161
61 96 150
61 97 152
61 97 148
61 97 154
61 96 152
61 96 154
61 96 148
62 97 158
62 98 161
61 97 149
62 97 153
60 95 135
61 97 152
61 97 150
61 97 153
61 97 149
61 96 147
60 95 139
62 97 144
62 98 161
60 96 152
61 96 141
61 96 148
62 97 152
62 97 155
62 97 154
61 96 151
61 97 154
61 96 147
62 97 152
61 96 150
61 97 151
60 95 142
61 96 151
61 97 152
61 97 144
62 98 151
60 95 144
61 96 140
62 97 150
62 97 151
61 96 145
62 97 153
61 96 139
62 98 154
63 98 153
61 96 147
61 96 139
61 96 140
60 94 128
60 95 144
60 95 140
61 96 141
62 97 149
60 95 126
61 96 145
60 95 140
61 95 141
58 92 125
61 95 138
60 95 138
60 94 141
59 94 129
60 94 135
59 92 137
61 94 136
59 92 121
59 92 126
57 90 110
85 101 88
115 114 0
119 125 0
119 124 0
124 130 0
118 121 0
123 126 0
123 125 0
114 115 0
120 123 0
122 121 0
120 120 0
124 127 0
120 119 0
117 119 0
115 117 0
119 120 0
119 118 0
115 115 0
116 121 0
116 115 0
112 110 0
116 112 0
101 96 0
112 112 0
120 115 0
109 105 0
115 112 0
111 106 0
104 96 0
103 98 0
115 111 0
107 101 0
113 107 0
116 112 0
122 117 0
108 101 0
115 108 0
112 103 0
117 110 0
119 112 0
112 102 2
108 98 1
107 95 5
108 88 6
119 101 11
117 99 11
114 96 10
116 95 15
113 94 4
117 95 6
118 96 11
116 97 9
119 99 9
122 102 14
113 95 4
117 96 5
123 105 11
122 103 13
122 107 8
121 105 11
124 107 8
113 99 7
125 114 9
131 124 4
123 115 2
136 130 0
137 133 0
137 133 0
128 122 0
137 134 0
141 134 0
140 136 0
146 146 0
133 128 0
148 147 0
143 143 0
144 143 0
144 144 0
146 146 0
150 153 0
139 137 0
152 154 0
148 150 0
154 159 0
147 151 0
150 151 0
152 157 0
150 152 0
153 157 0
151 156 0
144 147 0
148 152 0
149 156 0
151 156 0
156 162 0
153 158 0
158 167 0
155 164 0
156 161 0
157 165 0
159 166 0
159 170 0
158 164 0
160 171 0
154 162 0
160 171 0
155 164 0
162 175 0
162 175 0
158 168 0
158 168 0
166 179 0
160 170 0
161 171 0
162 175 0
165 178 0
161 173 0
163 175 0
162 174 0
164 178 0
159 173 0
165 180 0
166 182 0
161 175 0
165 179 0
166 183 0
166 182 0
165 181 0
163 177 0
165 180 0
168 182 0
166 180 0
164 180 0
163 177 0
161 174 0
164 178 0
163 177 0
163 181 0
164 181 0
168 188 0
209 225 218
213 229 230
211 226 227
197 216 181
184 206 128
173 197 57
174 197 51
172 196 51
175 199 80
176 199 67
178 201 67
173 197 72
176 199 67
174 196 51
173 197 72
175 198 84
174 198 57
177 201 95
179 202 108
174 197 72
175 198 67
176 200 92
174 199 84
174 197 62
177 201 88
174 198 84
176 199 72
173 196 44
173 197 88
174 198 72
175 199 80
177 201 88
172 196 76
171 195 80
173 197 88
174 198 80
173 196 57
174 198 67
173 197 44
172 196 62
173 197 67
172 196 72
175 199 76
171 195 72
173 198 72
172 196 84
173 197 76
171 196 62
175 200 92
174 198 72
171 195 57
173 196 57
171 195 62
173 197 62
173 196 80
174 198 76
170 194 62
174 198 76
174 198 72
175 199 95
170 194 62
169 192 72
171 194 67
175 198 67
172 195 62
175 199 99
174 198 67
173 197 76
170 193 57
173 196 67
141 165 111
106 133 151
82 113 152
92 121 152
102 129 150
100 128 161
113 140 171
103 131 151
103 130 155
101 129 158
111 138 165
101 129 160
114 140 152
98 127 155
111 137 139
98 126 160
107 134 169
100 128 154
108 135 153
101 129 164
124 148 182
163 183 217
97 126 192
81 113 184
76 109 184
71 105 181
71 105 176
84 115 185
84 115 182
77 109 177
82 113 181
89 119 188
80 111 176
76 108 177
76 108 175
87 116 179
87 116 176
71 104 166
61 98 170
61 97 166
61 97 159
61 97 160
61 96 161
62 98 164
61 97 159
60 96 151
60 95 156
61 97 156
62 97 155
61 97 160
66 100 147
62 97 153
59 94 145
63 98 151
64 98 148
62 97 146
61 96 144
61 96 157
60 96 152
59 94 145
60 95 150
59 95 148
60 96 144
61 97 155
61 97 156
60 95 156
60 95 148
61 96 150
61 97 156
61 96 153
60 96 156
61 97 158
62 97 157
60 96 145
60 96 149
61 97 158
59 95 149
62 98 159
60 95 150
62 97 152
61 96 151
62 97 154
61 96 153
60 96 153
61 97 155
62 97 155
61 97 152
61 96 149
61 97 156
62 98 160
62 97 154
61 97 152
61 97 158
62 97 156
61 96 154
61 97 156
61 97 149
61 96 151
61 96 150
62 97 156
62 98 159
60 96 154
62 97 155
61 96 150
61 97 149
61 97 156
61 97 153
61 97 153
62 98 161
61 97 157
60 96 148
61 97 150
60 95 147
61 96 148
61 97 153
61 96 149
62 97 152
60 96 148
61 97 156
62 97 151
62 98 159
61 97 154
62 98 155
61 96 150
62 98 158
61 97 147
61 97 154
60 96 145
61 96 150
62 98 155
62 98 155
61 97 153
61 96 147
61 97 152
61 96 145
61 96 147
61 96 150
62 97 156
62 98 157
62 98 156
61 97 153
61 97 152
62 97 151
62 97 149
62 98 154
61 96 148
61 97 150
61 96 148
60 96 147
60 96 143
60 96 141
62 97 155
61 96 150
62 98 151
61 97 151
61 96 147
62 97 156
61 97 152
61 97 147
61 96 147
62 97 153
61 96 149
61 95 140
61 96 151
61 96 145
60 96 150
61 96 144
60 95 142
59 94 139
61 96 142
61 95 136
61 97 147
63 98 151
60 95 143
61 96 144
61 95 143
61 97 144
60 95 139
59 94 130
59 93 128
59 93 129
60 94 139
60 94 138
61 96 144
58 92 123
59 93 133
59 92 128
59 92 120
58 91 123
108 116 60
120 125 0
114 115 0
113 114 0
131 138 0
128 134 0
116 118 0
109 112 0
113 114 0
119 126 0
107 110 0
113 115 0
112 115 0
120 122 0
123 126 0
117 116 0
114 115 0
107 106 0
114 112 0
121 118 0
114 113 0
125 123 0
113 113 0
115 114 0
112 109 0
118 115 0
111 107 0
121 117 0
116 115 0
105 98 0
106 97 0
117 115 0
110 101 0
117 114 0
112 111 0
113 107 0
117 114 0
118 116 0
108 98 0
119 113 0
112 103 0
115 109 0
113 106 0
113 103 0
114 104 0
112 103 0
120 111 0
120 113 0
113 107 0
115 108 0
127 119 0
127 118 0
116 109 0
128 121 0
121 113 0
122 112 0
122 116 0
117 109 0
128 120 0
123 119 0
125 117 0
133 128 0
130 125 0
132 125 0
129 124 0
128 122 0
135 132 0
128 122 0
136 134 0
131 128 0
139 136 0
138 137 0
137 136 0
144 142 0
152 154 0
138 134 0
142 139 0
145 149 0
143 142 0
145 147 0
148 149 0
143 143 0
146 149 0
148 149 0
149 149 0
148 153 0
145 144 0
146 151 0
152 159 0
152 156 0
152 159 0
148 154 0
154 160 0
153 159 0
154 159 0
153 158 0
154 163 0
151 155 0
153 160 0
161 170 0
162 174 0
153 160 0
158 165 0
160 170 0
155 162 0
160 170 0
158 167 0
167 177 0
158 164 0
161 171 0
161 174 0
157 168 0
162 172 0
161 174 0
163 173 0
158 170 0
159 172 0
159 172 0
163 174 0
162 175 0
167 183 0
164 181 0
162 174 0
160 172 0
166 183 0
163 175 0
162 177 0
166 182 0
164 179 0
166 182 0
163 179 0
165 181 0
160 173 0
167 184 0
165 182 0
166 182 0
165 181 0
165 181 0
166 182 0
170 189 0
168 187 0
209 225 218
200 218 186
187 207 130
175 198 84
177 200 95
176 198 44
174 198 88
175 199 76
172 196 84
172 196 51
173 197 51
175 199 67
172 195 72
173 196 44
171 194 57
175 199 62
176 199 84
175 199 72
177 200 88
174 197 72
174 198 51
171 196 62
172 196 62
173 196 72
172 196 67
175 199 76
176 200 72
172 197 80
172 196 76
175 198 67
175 198 72
175 199 88
173 198 84
174 197 72
172 195 57
173 197 67
173 197 57
172 195 36
174 197 62
171 195 76
173 196 51
170 194 36
174 197 62
171 195 67
171 194 44
171 194 62
170 194 67
173 196 62
175 199 84
171 194 51
171 195 76
170 194 72
175 198 67
172 196 84
173 195 57
172 196 76
173 196 72
174 198 72
172 194 72
171 194 62
172 196 80
173 197 67
174 198 84
174 197 72
172 196 80
174 197 57
173 197 72
174 198 84
173 196 84
173 196 80
163 186 102
97 125 147
84 114 153
102 129 155
97 125 153
92 121 150
99 128 165
103 131 160
104 132 160
93 121 151
108 134 151
98 126 149
103 130 149
112 138 153
108 135 158
117 143 153
104 132 157
91 120 150
105 132 157
105 132 154
107 134 159
85 115 160
107 133 176
74 107 184
68 103 180
71 105 179
77 110 182
77 109 182
82 113 184
84 115 182
83 114 176
82 113 180
74 107 172
87 117 182
74 107 179
71 104 171
72 105 170
82 113 176
69 103 176
64 99 167
62 99 167
61 97 168
62 98 161
61 96 159
60 96 149
61 97 158
61 97 159
60 96 158
60 95 155
63 98 159
61 96 154
67 100 156
67 101 159
62 97 151
60 95 148
69 102 150
61 96 142
59 94 145
58 93 148
61 97 153
60 95 153
60 95 140
60 96 155
60 95 151
59 94 140
61 97 151
61 96 155
59 94 148
60 96 157
60 96 152
61 96 151
60 96 155
60 95 145
61 97 161
61 96 158
60 96 151
60 95 147
62 98 158
60 95 147
60 95 144
61 97 156
61 97 153
61 97 153
61 97 150
61 96 150
62 98 162
60 95 145
60 95 147
61 97 162
61 96 144
61 97 155
60 96 151
62 98 162
62 97 156
60 95 142
61 97 155
59 95 149
60 95 150
61 97 148
61 96 149
61 97 149
60 96 149
61 97 147
61 97 154
60 96 152
62 98 153
61 97 154
61 96 152
61 97 155
61 96 153
61 97 153
61 96 151
61 97 151
62 97 157
61 97 157
61 96 147
61 96 147
61 97 155
62 97 156
61 97 154
61 97 155
61 96 154
63 98 159
62 98 153
62 98 155
60 95 143
61 97 152
61 96 148
62 98 157
63 98 159
60 95 145
60 96 152
62 98 157
62 97 151
61 96 144
60 95 141
61 96 150
60 95 148
61 96 153
60 96 142
61 97 148
61 96 149
61 96 147
61 97 148
62 97 155
60 95 140
61 96 145
61 96 144
60 95 145
61 96 150
61 97 150
62 97 153
62 97 151
62 97 154
60 95 139
62 98 156
61 97 149
61 97 148
61 96 150
61 96 141
61 96 147
61 97 148
61 96 144
62 97 150
60 95 143
61 97 142
60 95 134
60 94 140
60 95 137
61 97 143
61 96 145
62 97 150
61 95 141
60 95 140
61 96 145
61 95 143
62 97 149
59 94 137
61 95 144
60 94 138
59 93 129
59 93 136
61 95 135
58 91 127
59 91 132
59 93 129
59 93 126
58 91 130
70 98 118
117 123 0
119 124 0
117 124 0
124 126 0
119 124 0
114 115 0
116 118 0
110 114 0
113 118 0
102 104 0
116 118 0
118 122 0
104 107 0
114 115 0
114 115 0
119 126 0
125 125 0
110 106 0
115 114 0
113 113 0
114 114 0
122 121 0
109 106 0
121 122 0
112 112 0
120 118 0
114 112 0
120 119 0
114 113 0
112 107 0
120 115 0
106 98 0
112 108 0
120 111 0
113 105 0
112 108 0
110 104 0
108 99 0
115 109 0
122 119 0
111 105 0
112 104 0
116 109 0
114 108 0
113 107 0
121 113 0
114 110 0
123 118 0
106 95 0
118 109 0
120 116 0
114 110 0
112 103 0
121 117 0
125 114 0
131 127 0
130 125 0
115 107 0
132 128 0
126 119 0
120 113 0
131 129 0
126 121 0
127 120 0
126 119 0
133 131 0
128 120 0
130 124 0
140 140 0
137 134 0
139 136 0
142 140 0
144 146 0
141 140 0
140 137 0
141 140 0
140 141 0
144 142 0
145 151 0
145 144 0
152 155 0
146 147 0
149 150 0
152 156 0
144 148 0
147 148 0
153 160 0
155 159 0
152 157 0
158 167 0
152 158 0
149 155 0
154 160 0
160 171 0
158 168 0
159 166 0
154 162 0
153 157 0
152 161 0
158 165 0
157 165 0
159 168 0
159 172 0
161 170 0
159 171 0
161 173 0
162 172 0
161 176 0
154 160 0
162 175 0
159 168 0
160 172 0
157 168 0
158 170 0
156 168 0
164 178 0
160 174 0
157 169 0
163 177 0
164 178 0
163 178 0
166 179 0
159 174 0
163 177 0
162 175 0
168 183 0
164 181 0
163 181 0
166 182 0
164 179 0
165 183 0
164 177 0
167 184 0
169 187 0
169 188 0
166 184 0
167 183 0
165 181 0
168 185 0
168 184 0
168 184 0
186 207 130
172 195 62
176 200 88
175 198 80
175 199 84
173 197 67
175 199 62
177 199 57
178 201 76
176 199 88
173 196 44
172 197 67
175 199 72
175 198 72
174 198 57
172 196 67
173 197 76
175 200 102
176 200 92
173 196 72
173 197 72
173 197 67
173 196 57
175 199 72
173 198 80
174 197 92
174 197 76
175 199 67
172 196 57
173 196 72
172 196 72
176 199 80
171 196 84
175 198 72
173 197 72
174 198 88
170 193 57
173 197 72
172 197 99
170 194 62
174 197 88
171 196 84
175 199 62
172 195 51
172 196 57
172 196 67
171 195 76
172 195 76
173 197 76
174 198 92
172 195 57
169 192 84
170 194 57
174 197 92
173 197 72
171 195 76
172 195 76
173 197 72
170 193 44
171 194 44
171 194 72
174 198 84
173 196 92
172 196 67
171 195 62
171 194 51
172 194 72
170 194 76
172 196 57
176 199 95
171 194 70
104 132 136
111 138 153
113 139 154
94 123 153
102 129 156
97 125 155
103 130 142
102 130 153
102 130 165
108 134 162
113 139 157
102 129 151
101 128 152
96 123 142
109 136 156
104 131 150
114 140 149
115 140 146
98 126 153
103 130 153
103 130 164
106 133 164
94 123 156
81 112 175
74 107 180
77 110 185
74 107 181
77 110 181
71 105 177
84 115 184
77 109 180
84 115 179
96 124 181
80 111 179
80 111 177
79 110 175
79 110 170
88 117 176
68 103 169
62 99 171
62 98 169
60 96 162
61 97 162
60 97 164
61 97 161
63 99 167
61 97 156
62 98 162
60 96 152
60 95 154
69 103 160
65 98 144
63 98 152
68 101 148
61 96 150
63 96 139
62 96 143
59 94 144
61 96 156
61 96 156
60 95 151
60 95 147
60 96 159
61 96 152
60 95 147
59 95 149
61 97 151
59 93 139
62 97 154
59 94 149
59 95 153
60 96 149
60 96 145
60 96 151
60 95 149
60 95 145
61 97 153
59 94 145
60 96 147
60 96 148
62 97 153
59 95 149
60 96 154
60 95 145
59 94 145
60 95 150
62 98 161
60 95 146
59 94 148
61 97 156
61 96 147
61 97 159
61 97 156
61 97 150
60 96 150
61 97 158
61 97 154
61 96 145
60 96 153
60 95 152
60 95 141
60 96 144
61 97 152
61 96 147
61 97 151
61 97 156
60 96 145
61 97 157
60 96 152
60 96 152
62 97 154
62 97 151
62 97 154
61 96 145
62 97 158
61 97 151
61 97 153
62 97 154
62 97 154
60 96 148
61 96 149
60 95 143
62 97 155
61 96 143
61 97 151
60 95 142
61 97 150
61 97 152
61 97 152
62 97 153
62 97 148
61 97 149
61 97 147
60 96 148
61 97 152
60 96 147
60 96 147
61 97 153
61 96 145
59 94 147
61 96 150
61 96 141
62 97 155
61 95 145
62 97 154
61 96 145
60 95 152
61 97 153
60 96 147
62 97 150
61 97 150
61 96 142
61 96 151
61 96 141
60 96 143
61 97 142
61 96 145
61 96 149
62 97 151
62 97 149
59 94 136
61 96 143
60 95 139
62 96 147
62 97 144
61 96 144
61 96 141
61 96 142
62 97 147
61 95 140
60 95 136
61 95 141
61 96 144
60 95 135
60 95 141
61 96 144
59 93 133
61 95 140
61 95 139
61 95 141
60 94 129
60 94 129
59 93 133
58 92 130
59 93 132
58 92 129
58 91 120
82 102 92
119 123 0
125 134 0
114 120 0
132 138 0
124 128 0
114 118 0
113 119 0
117 123 0
118 121 0
111 118 0
112 110 0
114 116 0
122 126 0
120 123 0
133 137 0
118 120 0
112 111 0
116 117 0
120 122 0
114 114 0
119 119 0
127 130 0
116 111 0
116 117 0
116 116 0
115 114 0
115 115 0
123 121 0
114 109 0
131 129 0
123 117 0
118 117 0
119 115 0
110 107 0
126 120 0
123 121 0
114 107 0
119 113 0
122 120 0
102 97 0
120 116 0
125 123 0
108 102 0
119 114 0
118 110 0
124 120 0
120 117 0
123 117 0
121 114 0
121 114 0
127 120 0
124 117 0
127 121 0
125 122 0
122 117 0
124 116 0
124 121 0
122 118 0
128 125 0
133 129 0
126 121 0
119 112 0
127 123 0
131 125 0
139 137 0
141 141 0
132 129 0
131 127 0
134 129 0
138 136 0
130 123 0
139 136 0
136 132 0
141 139 0
139 137 0
137 137 0
142 141 0
151 151 0
145 144 0
148 150 0
141 144 0
145 149 0
153 158 0
155 157 0
151 156 0
153 157 0
148 154 0
151 157 0
148 152 0
153 158 0
147 151 0
152 158 0
156 163 0
156 160 0
151 159 0
153 161 0
152 160 0
160 169 0
155 163 0
160 169 0
152 159 0
155 163 0
161 171 0
158 168 0
156 165 0
155 164 0
158 166 0
160 172 0
158 165 0
158 170 0
159 170 0
160 173 0
162 173 0
161 172 0
162 175 0
162 175 0
165 180 0
163 176 0
158 171 0
161 173 0
163 176 0
161 175 0
167 183 0
164 180 0
162 174 0
169 184 0
166 183 0
167 183 0
166 183 0
168 186 0
166 184 0
167 184 0
164 180 0
165 180 0
160 174 0
167 185 0
168 186 0
165 182 0
163 182 0
167 184 0
169 187 0
173 197 57
171 195 72
174 197 72
177 200 92
174 198 88
173 197 84
177 200 72
173 197 62
173 197 62
176 200 88
173 196 51
176 200 84
176 199 72
172 195 62
172 196 44
173 196 51
174 197 72
173 197 92
172 196 51
173 197 67
173 197 72
177 200 67
175 199 67
173 197 80
174 198 88
173 196 76
171 194 76
170 192 44
172 196 72
171 195 44
174 199 92
176 199 80
172 196 57
174 198 67
174 197 62
173 196 67
173 196 62
174 198 62
174 198 62
172 197 76
174 197 72
174 197 62
172 195 76
171 195 80
171 195 72
172 195 62
173 196 67
172 196 80
167 191 44
170 194 76
170 193 44
176 199 51
176 200 80
175 198 84
173 197 76
174 198 95
172 194 51
173 197 80
171 195 76
173 196 62
172 195 76
168 192 57
172 195 36
173 197 80
173 196 76
170 192 57
172 196 72
174 198 76
176 199 76
172 195 67
172 195 44
129 155 135
91 121 159
96 124 150
97 125 150
106 133 150
99 127 151
97 125 164
101 129 144
86 116 149
110 136 150
97 125 155
100 128 165
107 134 157
101 129 148
98 126 149
103 130 151
99 126 152
95 123 157
106 133 158
113 138 164
105 132 161
99 126 154
101 128 164
93 122 164
85 115 162
72 106 176
76 109 181
76 109 181
74 108 182
79 111 182
69 104 177
71 105 176
75 108 177
102 129 185
80 111 178
79 110 172
87 116 176
85 115 174
83 114 181
64 100 168
61 97 164
62 98 164
62 98 163
61 97 162
61 97 162
61 96 161
60 96 157
61 97 159
61 97 161
61 97 161
60 95 146
62 97 154
65 100 161
61 96 153
64 99 147
69 102 140
60 96 151
63 98 143
61 96 152
60 96 151
60 96 151
58 93 146
59 94 139
59 94 148
60 95 152
60 95 147
60 95 146
60 95 151
59 94 144
60 96 155
60 96 151
62 97 156
61 97 159
59 95 146
61 96 150
60 96 148
60 96 153
60 95 152
61 97 151
61 97 150
60 96 150
60 95 139
61 97 151
60 95 150
61 96 154
61 97 153
61 96 148
62 98 157
61 97 157
61 96 151
61 96 159
61 96 147
61 96 151
61 97 153
61 96 157
60 95 145
62 97 155
61 97 154
61 97 152
60 95 145
62 98 161
62 98 159
61 96 150
60 95 147
60 95 144
61 97 151
61 96 148
61 97 149
60 96 149
62 97 149
61 97 150
62 97 154
60 95 143
61 97 150
60 96 149
61 97 150
61 96 156
62 98 156
61 96 150
61 97 149
61 96 144
62 97 152
63 98 159
62 97 150
62 97 157
62 97 156
62 97 150
60 96 140
62 97 153
62 98 157
62 97 154
61 96 149
61 96 145
61 97 144
62 97 153
61 96 152
61 96 150
61 96 142
61 96 152
61 96 137
62 98 153
61 96 148
60 96 151
62 98 157
61 96 144
61 96 143
61 96 150
61 97 151
59 94 141
60 95 140
61 96 147
62 97 151
61 97 153
62 97 151
60 95 136
62 97 148
61 97 150
62 97 149
61 97 149
62 98 159
61 96 145
61 96 148
60 95 145
61 96 145
62 97 150
61 96 145
60 95 134
61 96 143
60 95 141
60 95 140
60 95 131
61 97 149
59 94 136
62 97 145
61 96 144
60 94 133
61 95 138
61 96 137
58 91 118
60 95 133
60 94 129
60 95 140
60 94 125
61 95 139
59 93 121
58 90 122
56 87 108
112 124 72
121 126 0
116 122 0
121 126 0
125 130 0
123 128 0
114 116 0
120 124 0
121 123 0
131 140 0
119 126 0
128 131 0
118 118 0
129 130 0
123 127 0
114 115 0
112 110 0
121 124 0
121 121 0
121 121 0
113 114 0
115 114 0
117 117 0
118 118 0
119 116 0
120 120 0
117 114 0
116 115 0
116 116 0
122 119 0
121 121 0
111 108 0
110 106 0
124 122 0
119 117 0
126 124 0
128 123 0
107 107 0
116 113 0
125 121 0
123 120 0
122 116 0
123 121 0
124 119 0
113 106 0
109 99 0
122 119 0
121 114 0
113 106 0
118 109 0
125 120 0
124 116 0
124 120 0
125 122 0
126 123 0
128 125 0
130 127 0
129 127 0
131 129 0
132 127 0
131 127 0
130 127 0
136 136 0
137 131 0
133 129 0
136 131 0
128 126 0
148 149 0
135 132 0
130 128 0
135 131 0
139 140 0
141 141 0
139 138 0
145 145 0
139 138 0
148 149 0
146 147 0
139 141 0
148 147 0
144 145 0
147 150 0
141 142 0
146 149 0
143 144 0
146 144 0
149 152 0
151 153 0
147 149 0
150 151 0
145 150 0
148 151 0
154 162 0
151 154 0
162 172 0
158 165 0
155 162 0
157 163 0
154 163 0
156 164 0
157 165 0
158 166 0
157 167 0
158 168 0
160 166 0
158 171 0
156 166 0
162 173 0
155 162 0
161 171 0
159 171 0
161 175 0
161 170 0
161 172 0
159 171 0
165 179 0
162 174 0
165 179 0
164 176 0
164 178 0
163 177 0
159 172 0
166 180 0
168 187 0
164 177 0
165 181 0
162 178 0
164 178 0
166 181 0
168 182 0
162 177 0
164 180 0
160 177 0
167 185 0
162 176 0
162 178 0
168 186 0
164 179 0
167 185 0
164 177 0
164 182 0
166 182 0
174 197 57
173 196 57
176 200 84
175 199 80
176 199 80
172 195 57
174 198 72
175 198 67
174 198 76
175 199 80
174 198 57
174 198 76
172 196 80
173 197 72
172 195 57
173 196 44
174 198 57
170 194 72
172 196 76
173 197 72
173 197 62
172 194 44
174 197 67
175 199 72
174 198 72
174 199 92
174 197 80
171 194 51
172 195 44
176 199 72
172 196 76
170 194 76
174 197 80
175 199 72
170 194 76
175 198 67
172 196 51
174 197 88
171 195 84
172 196 76
173 197 95
174 198 88
171 195 57
174 198 72
166 190 67
171 195 92
174 198 76
171 195 72
173 196 88
176 198 76
174 198 62
172 196 84
169 193 80
173 197 88
168 190 57
171 194 57
171 195 67
174 197 95
171 195 62
174 197 80
172 196 72
175 199 92
175 198 76
169 192 95
173 197 95
171 194 57
172 195 72
172 195 67
172 195 62
171 194 76
172 196 57
160 183 102
85 115 145
92 120 149
100 128 165
97 125 151
102 129 143
98 126 158
96 124 157
97 125 154
88 117 151
92 120 148
102 130 159
102 129 154
97 125 150
102 129 147
104 131 161
106 133 163
102 129 153
106 133 146
110 135 154
109 135 157
104 132 166
93 122 156
102 130 158
103 131 160
77 109 160
81 112 177
62 99 177
81 113 181
79 111 182
86 117 182
74 107 177
84 114 178
77 109 177
84 115 179
79 111 175
77 109 172
90 118 178
71 105 169
97 125 179
68 102 161
61 97 159
61 97 163
62 98 167
62 99 170
61 97 154
61 97 161
61 97 163
60 96 155
61 97 155
60 96 155
63 97 151
62 96 149
66 100 150
64 97 144
60 96 159
63 97 144
67 100 140
59 94 141
61 96 159
60 95 150
61 96 157
60 94 150
59 94 150
61 97 153
60 95 150
61 96 159
60 96 150
61 96 156
61 96 143
60 95 148
59 94 143
61 96 150
60 95 147
61 96 152
60 96 149
61 96 150
62 97 154
60 96 150
60 96 147
61 97 151
61 97 157
60 96 151
60 95 148
61 96 154
60 95 149
60 95 149
62 97 151
60 96 149
61 97 155
62 98 158
63 98 163
60 96 147
61 97 153
60 96 152
61 96 151
62 97 153
60 96 154
62 98 162
62 97 151
60 94 137
62 98 155
60 96 147
60 96 145
61 97 151
62 97 156
60 96 148
61 96 148
59 94 142
61 97 154
62 97 154
61 97 155
61 97 156
61 96 155
62 98 156
61 97 157
61 97 154
62 97 151
61 96 147
61 97 153
61 97 153
61 96 150
61 97 152
62 97 153
62 97 151
62 98 156
61 97 155
60 96 143
61 96 148
61 96 152
61 97 154
59 94 137
61 97 155
61 97 152
62 98 155
62 97 150
61 97 148
61 96 144
60 96 148
62 97 148
59 95 139
62 97 152
61 96 145
62 98 157
60 96 144
61 96 153
61 97 151
62 97 151
61 97 151
61 96 150
61 96 141
61 96 151
60 95 147
60 95 137
61 96 148
60 96 136
61 97 154
61 96 152
60 96 143
60 95 140
60 95 135
61 96 144
60 95 141
61 96 147
60 95 144
61 96 142
61 96 145
62 97 144
61 96 143
60 95 142
60 95 145
59 93 124
60 95 136
59 94 133
59 93 139
60 95 135
59 92 134
61 95 142
61 96 139
60 94 136
60 94 138
58 92 124
60 93 127
60 94 125
59 92 130
56 89 115
69 93 110
123 132 0
120 126 0
121 131 0
123 130 0
117 122 0
127 134 0
119 124 0
128 131 0
118 122 0
115 119 0
123 126 0
120 126 0
121 125 0
121 123 0
129 133 0
123 127 0
119 118 0
122 125 0
119 119 0
125 125 0
114 116 0
113 112 0
108 108 0
126 131 0
123 127 0
115 113 0
117 117 0
121 119 0
117 112 0
123 123 0
111 112 0
119 118 0
119 119 0
116 114 0
118 117 0
109 107 0
107 102 0
116 109 0
115 111 0
121 119 0
125 122 0
123 118 0
122 118 0
114 108 0
115 108 0
123 121 0
114 111 0
120 116 0
129 129 0
123 118 0
137 135 0
133 130 0
122 118 0
122 117 0
126 121 0
128 126 0
128 120 0
128 125 0
130 130 0
126 122 0
125 121 0
133 132 0
143 144 0
139 138 0
133 132 0
132 130 0
139 139 0
136 133 0
138 136 0
136 134 0
140 140 0
140 140 0
143 143 0
146 145 0
143 141 0
140 138 0
143 143 0
143 143 0
147 148 0
148 151 0
136 136 0
142 146 0
150 156 0
148 153 0
151 155 0
154 162 0
143 147 0
143 146 0
149 153 0
149 152 0
150 157 0
157 163 0
157 166 0
148 156 0
157 166 0
160 170 0
155 164 0
160 169 0
151 159 0
159 165 0
159 170 0
163 173 0
156 164 0
150 159 0
157 168 0
158 166 0
158 166 0
163 174 0
157 167 0
161 175 0
158 169 0
156 166 0
159 170 0
161 172 0
162 176 0
162 176 0
169 185 0
160 173 0
161 173 0
161 173 0
164 178 0
162 176 0
160 175 0
164 178 0
162 176 0
164 179 0
167 184 0
164 180 0
169 185 0
163 176 0
165 180 0
164 178 0
167 185 0
162 177 0
163 178 0
166 181 0
164 178 0
167 185 0
166 183 0
167 184 0
164 179 0
167 184 0
174 198 80
174 197 62
175 199 80
175 199 84
174 197 84
173 196 57
174 198 62
173 197 76
177 200 92
174 198 76
175 199 62
173 197 67
174 198 72
169 193 62
173 197 84
172 196 92
171 194 80
169 193 62
171 194 36
173 195 36
171 195 57
175 199 76
177 201 102
173 196 57
175 198 72
168 192 76
174 198 76
173 197 84
169 193 72
172 196 76
169 192 67
174 198 80
172 196 72
170 194 67
172 196 67
174 199 84
171 195 72
175 198 67
170 194 80
171 196 84
174 198 67
173 197 80
175 198 84
173 197 84
169 193 76
172 195 57
170 194 80
171 195 88
173 197 92
172 195 51
170 193 62
173 197 76
172 195 57
169 193 57
173 196 72
173 196 62
170 194 62
170 194 72
173 197 80
174 197 72
169 192 62
174 196 67
171 195 84
174 197 84
172 195 62
171 194 76
171 194 67
172 195 76
173 196 72
175 198 67
171 194 76
168 190 70
108 135 148
88 117 140
101 128 155
98 125 144
93 122 158
91 120 154
88 118 154
91 119 145
99 126 155
99 126 149
99 127 156
92 121 155
96 125 147
100 127 148
99 127 156
100 128 154
100 127 155
106 133 156
100 127 143
108 134 146
101 128 146
97 126 156
102 128 156
104 130 160
108 134 156
87 116 154
73 106 169
84 115 186
69 104 179
86 116 186
71 105 179
74 107 175
84 115 184
71 105 178
80 111 175
71 104 172
85 115 176
85 115 177
77 109 172
80 110 170
62 99 170
64 99 165
60 97 160
62 98 168
62 98 166
63 99 151
60 96 153
61 97 158
61 97 155
64 98 154
59 94 155
63 98 155
63 97 145
60 95 150
60 96 153
62 97 146
61 96 146
65 99 142
59 94 151
60 95 137
60 95 149
60 95 140
59 94 147
61 97 153
59 95 147
60 95 147
60 95 146
59 95 153
61 96 150
60 95 155
60 95 151
60 95 147
60 95 151
59 94 147
61 96 153
60 96 151
61 97 153
61 97 152
61 97 157
61 96 146
62 97 157
61 96 144
62 98 158
61 97 154
61 97 148
61 96 143
61 96 152
60 95 145
61 96 147
61 96 148
60 95 141
61 96 151
60 96 152
61 96 148
61 97 145
62 97 152
61 97 153
60 96 148
61 97 153
62 97 153
60 95 147
61 97 149
62 98 157
60 96 153
60 95 140
61 96 144
61 96 148
61 96 149
61 97 147
61 96 155
61 96 149
61 97 154
61 97 151
61 96 149
61 96 148
60 96 149
60 95 137
60 96 141
61 97 152
61 96 154
61 97 152
61 97 153
60 95 139
62 98 158
61 97 152
61 96 147
61 97 154
60 96 139
61 97 150
61 97 151
62 98 154
61 97 151
59 94 136
61 96 147
61 97 148
61 97 150
61 97 152
60 95 143
61 96 142
61 97 145
60 96 145
61 96 145
61 96 151
62 98 154
61 97 142
60 95 140
62 98 153
60 95 145
61 96 145
61 96 140
61 96 145
60 96 142
61 96 140
61 97 144
62 98 151
60 95 136
60 95 137
59 94 131
60 96 145
61 96 144
60 96 145
60 95 141
59 94 128
59 93 137
59 94 136
61 96 140
61 96 139
61 95 148
60 95 140
61 96 143
61 96 137
59 94 139
59 94 133
61 95 143
61 95 144
59 94 128
60 95 137
59 93 133
58 92 124
59 92 123
60 94 134
60 95 134
59 92 125
56 89 114
57 89 118
98 113 65
124 131 0
115 119 0
118 125 0
123 128 0
126 132 0
125 131 0
127 134 0
119 122 0
124 131 0
110 117 0
104 108 0
123 130 0
126 131 0
116 122 0
123 124 0
124 128 0
105 106 0
121 127 0
129 133 0
120 124 0
115 109 0
105 108 0
113 113 0
122 122 0
121 118 0
125 127 0
115 113 0
127 128 0
119 122 0
130 130 0
121 122 0
117 116 0
126 128 0
115 114 0
125 124 0
116 112 0
119 116 0
122 120 0
114 110 0
123 122 0
122 121 0
132 130 0
128 127 0
125 121 0
122 117 0
115 111 0
127 126 0
118 112 0
121 116 0
130 127 0
119 114 0
127 124 0
138 139 0
130 126 0
127 122 0
136 134 0
133 130 0
131 130 0
124 119 0
129 126 0
136 132 0
133 128 0
134 132 0
136 135 0
136 134 0
147 148 0
132 130 0
140 139 0
141 141 0
143 141 0
134 134 0
140 141 0
142 141 0
142 141 0
137 133 0
144 148 0
146 151 0
142 143 0
139 139 0
145 147 0
150 156 0
148 152 0
139 139 0
153 159 0
147 151 0
154 160 0
152 158 0
151 155 0
153 157 0
153 163 0
157 166 0
151 156 0
155 160 0
154 160 0
154 160 0
156 161 0
157 168 0
154 163 0
154 160 0
155 166 0
157 166 0
156 164 0
156 164 0
158 166 0
154 165 0
162 173 0
158 170 0
156 167 0
166 179 0
162 174 0
159 170 0
161 173 0
163 174 0
163 175 0
159 171 0
162 175 0
165 178 0
162 176 0
162 174 0
157 169 0
161 174 0
159 171 0
160 173 0
163 179 0
163 176 0
163 177 0
161 175 0
167 179 0
162 174 0
165 182 0
165 179 0
166 181 0
164 178 0
160 174 0
168 185 0
166 181 0
169 185 0
165 180 0
166 181 0
169 189 0
163 178 0
167 185 0
175 199 72
172 196 62
173 196 62
174 198 95
174 198 76
174 197 76
176 200 80
176 199 80
173 197 57
175 199 80
173 196 76
172 196 57
176 199 57
173 197 80
174 198 57
173 198 57
173 196 67
173 197 72
171 195 76
173 197 76
170 195 84
171 195 67
175 198 88
173 196 72
173 197 84
170 194 57
172 196 62
172 196 80
172 197 76
172 196 72
172 195 62
172 197 92
173 197 57
172 196 76
175 199 80
174 198 76
172 195 51
175 198 84
172 195 84
173 197 51
172 196 72
171 195 88
174 197 62
174 197 76
173 197 62
173 197 72
169 192 62
171 194 88
171 195 76
170 194 84
172 196 51
175 198 95
172 195 84
174 198 80
171 195 80
168 192 88
168 192 84
172 196 57
166 190 84
174 199 88
170 193 76
170 192 51
171 196 72
170 194 76
173 196 84
169 192 44
171 194 67
166 190 62
170 193 72
169 191 62
170 193 67
171 195 62
138 163 120
88 118 144
90 119 143
90 119 153
95 123 147
104 132 154
108 135 152
93 121 149
95 122 138
99 127 153
87 116 142
99 127 157
108 134 150
102 129 157
92 121 153
96 124 154
100 127 152
110 136 159
103 131 152
106 132 161
106 133 149
113 138 154
96 124 162
99 127 166
106 133 159
103 130 155
88 117 161
84 114 167
87 118 183
81 112 181
80 112 186
89 119 186
77 109 175
89 118 181
74 107 178
77 109 173
74 107 173
92 120 178
83 113 172
99 126 181
74 106 165
64 100 166
61 97 165
61 97 157
61 97 168
60 96 150
61 97 164
61 97 155
61 97 155
60 96 157
60 96 152
61 96 159
64 100 158
64 98 153
66 100 153
72 104 150
62 96 143
66 100 144
61 96 149
59 94 146
60 96 151
59 94 139
60 95 149
60 96 154
60 94 145
61 96 149
60 95 146
61 96 148
59 94 147
60 95 141
59 94 145
59 93 136
61 96 154
62 98 155
60 96 149
61 97 149
61 96 152
61 97 151
60 96 150
60 95 146
60 95 145
60 96 148
61 97 151
60 95 152
60 96 148
61 96 150
62 97 159
61 97 149
60 96 154
61 97 154
60 96 141
61 96 150
61 97 151
60 95 151
62 97 153
61 97 154
61 97 150
59 93 139
61 97 151
62 97 152
60 96 148
60 96 150
62 97 152
60 96 143
61 97 156
60 96 144
63 99 166
60 96 148
61 96 150
61 97 149
62 97 152
61 96 140
61 96 145
61 97 155
61 96 148
62 98 155
61 97 150
61 96 151
62 97 154
61 97 155
61 97 155
61 97 154
62 97 157
61 97 154
61 97 152
61 96 149
62 98 154
61 97 152
61 97 149
60 95 137
61 96 147
62 97 155
62 98 155
60 95 144
61 97 151
60 95 148
60 95 140
60 94 142
60 95 137
61 96 142
61 96 147
62 97 149
61 96 137
62 98 153
61 96 151
62 97 150
60 95 150
61 97 147
61 97 154
60 96 144
61 97 151
61 96 150
61 96 147
60 95 141
59 94 139
61 96 141
61 97 148
61 96 149
61 96 148
59 93 131
60 96 140
62 97 153
61 96 145
60 96 136
60 94 137
62 98 150
60 95 134
61 96 145
60 95 142
61 96 145
60 95 139
59 93 134
60 94 133
60 95 141
59 93 130
59 92 124
58 92 121
60 94 138
58 92 125
59 94 138
60 93 131
59 93 128
58 91 125
58 92 116
63 94 118
130 138 18
121 129 0
111 115 0
116 123 0
125 130 0
115 120 0
120 126 0
114 119 0
118 123 0
119 126 0
120 121 0
122 130 0
115 119 0
120 124 0
119 122 0
124 128 0
122 124 0
126 129 0
118 119 0
125 129 0
112 114 0
119 120 0
118 119 0
113 115 0
124 127 0
117 119 0
120 120 0
121 121 0
125 125 0
127 128 0
125 127 0
123 124 0
122 122 0
115 114 0
126 126 0
121 120 0
117 115 0
120 117 0
119 117 0
134 136 0
122 119 0
119 120 0
120 115 0
115 112 0
121 119 0
116 111 0
122 118 0
127 127 0
118 115 0
130 131 0
127 126 0
129 126 0
130 125 0
129 129 0
127 126 0
129 127 0
136 135 0
136 137 0
126 122 0
128 125 0
127 126 0
133 127 0
136 133 0
135 131 0
135 135 0
137 136 0
129 128 0
135 137 0
133 131 0
139 139 0
139 140 0
143 144 0
138 138 0
147 151 0
143 143 0
140 141 0
136 137 0
152 155 0
144 145 0
150 155 0
147 154 0
145 147 0
151 156 0
144 145 0
150 157 0
145 146 0
146 150 0
150 158 0
149 152 0
148 153 0
153 161 0
153 160 0
155 162 0
154 163 0
153 159 0
154 162 0
154 161 0
155 163 0
159 170 0
157 166 0
156 165 0
159 168 0
157 165 0
153 163 0
162 173 0
160 170 0
163 175 0
158 167 0
160 172 0
156 164 0
162 173 0
163 177 0
161 176 0
159 172 0
164 177 0
159 172 0
164 177 0
160 172 0
160 174 0
163 174 0
157 172 0
162 175 0
166 180 0
162 175 0
161 174 0
162 175 0
165 181 0
166 183 0
164 180 0
159 174 0
166 180 0
162 178 0
167 184 0
168 185 0
166 183 0
166 182 0
166 184 0
168 185 0
169 186 0
163 177 0
161 174 0
168 186 0
170 188 0
173 196 76
174 198 80
176 200 76
173 196 72
175 199 84
174 197 67
172 196 80
174 197 62
175 198 88
172 196 76
175 199 67
171 194 76
173 197 57
172 195 88
175 199 76
174 198 72
169 193 67
171 195 57
171 195 80
171 195 62
172 196 80
171 193 51
175 199 62
171 195 57
172 197 84
171 195 57
172 196 62
172 195 76
172 197 88
173 196 80
173 196 95
170 194 84
168 192 72
172 195 80
174 197 80
171 195 51
173 196 57
172 196 67
169 193 72
171 194 92
174 197 84
174 198 62
174 198 95
175 198 84
176 199 92
167 190 57
172 195 57
169 193 67
175 199 51
171 194 72
170 193 57
169 192 72
172 196 88
169 192 44
170 194 72
170 193 67
173 197 76
173 196 72
170 192 62
169 193 67
173 196 62
172 196 57
170 192 67
167 190 57
172 195 72
167 190 51
171 194 76
169 193 80
171 194 62
172 195 76
169 193 57
174 198 80
162 185 70
93 120 130
102 130 159
89 119 148
89 118 145
82 111 141
95 124 161
99 126 152
98 126 161
79 110 155
91 120 145
88 118 162
109 135 144
104 131 158
91 121 156
92 121 149
87 116 162
94 122 153
106 132 155
101 129 150
102 130 165
107 133 160
103 130 158
113 138 164
89 118 154
97 124 163
83 114 157
94 122 161
85 115 163
89 119 183
73 107 182
74 107 177
82 113 181
78 110 180
87 116 181
77 109 179
80 111 176
77 109 180
65 101 169
77 109 172
80 110 168
83 113 172
61 96 157
62 98 168
61 97 158
61 98 162
60 96 160
60 95 153
61 97 162
61 97 160
60 95 154
59 94 156
62 97 162
62 97 151
64 98 147
64 98 137
63 97 143
69 101 134
63 97 140
59 94 148
61 96 154
60 95 148
59 94 140
59 94 150
60 95 145
59 94 135
61 97 157
61 96 151
60 95 154
60 95 139
59 94 142
60 95 142
60 95 139
60 95 143
60 95 144
60 96 154
60 96 151
61 96 151
60 95 144
59 94 142
60 96 147
61 97 155
59 94 135
61 96 145
61 96 145
61 97 150
61 97 151
60 95 143
61 97 158
62 98 161
61 97 152
61 96 150
60 95 144
61 96 153
60 96 143
60 95 142
62 98 160
61 97 153
61 96 144
60 95 148
61 96 149
62 97 154
61 96 150
61 97 157
61 97 151
61 96 145
61 96 143
61 97 144
61 96 152
61 97 150
60 96 149
61 95 145
60 95 150
60 95 145
61 97 149
60 96 147
61 96 142
62 98 153
62 97 152
61 97 151
61 97 149
63 98 158
61 96 147
60 96 148
61 97 154
61 97 150
60 95 144
62 97 153
60 95 142
61 97 154
60 95 144
61 96 144
61 96 140
62 97 151
61 96 151
61 96 148
61 96 143
60 95 135
60 95 141
61 97 142
60 95 144
61 96 151
62 97 144
61 97 153
62 97 144
59 93 131
60 96 144
60 95 142
60 94 136
61 96 147
61 96 147
61 96 145
61 96 147
61 96 140
60 94 130
61 96 145
60 94 130
58 92 130
62 97 145
59 94 135
60 95 147
62 97 141
62 97 145
60 95 143
59 94 124
60 95 133
61 96 141
60 95 137
60 95 144
60 95 140
60 95 137
60 94 130
60 94 139
59 93 128
60 95 131
59 94 132
60 94 132
60 94 134
60 93 124
60 95 139
59 93 134
58 91 113
56 88 114
57 90 114
88 105 88
115 118 0
127 135 0
121 128 0
120 126 0
121 129 0
125 133 0
129 136 0
131 136 0
130 137 0
114 120 0
114 116 0
124 130 0
129 133 0
119 124 0
125 130 0
119 123 0
125 130 0
126 130 0
121 124 0
108 115 0
121 125 0
126 131 0
121 124 0
126 129 0
126 131 0
111 114 0
119 121 0
121 120 0
118 119 0
128 132 0
114 113 0
126 130 0
115 117 0
123 122 0
121 119 0
123 123 0
121 120 0
128 128 0
126 125 0
133 134 0
117 114 0
130 131 0
123 122 0
126 126 0
126 127 0
128 126 0
127 129 0
134 133 0
132 134 0
125 123 0
128 128 0
127 127 0
131 131 0
124 120 0
140 144 0
131 128 0
131 128 0
140 143 0
134 130 0
134 132 0
126 122 0
138 139 0
140 139 0
137 139 0
129 129 0
133 132 0
139 142 0
132 133 0
136 134 0
144 148 0
136 137 0
145 150 0
143 144 0
149 153 0
139 143 0
143 146 0
144 146 0
142 144 0
148 150 0
147 148 0
149 154 0
147 152 0
142 143 0
152 157 0
145 149 0
145 149 0
151 155 0
153 161 0
149 154 0
154 160 0
156 166 0
155 165 0
153 157 0
153 162 0
152 154 0
155 160 0
151 160 0
145 149 0
155 163 0
154 162 0
154 163 0
159 170 0
160 171 0
157 165 0
157 165 0
157 168 0
158 169 0
156 163 0
155 165 0
163 175 0
159 172 0
157 169 0
162 174 0
162 175 0
163 178 0
159 172 0
165 182 0
160 174 0
161 174 0
161 171 0
160 174 0
161 174 0
162 175 0
164 178 0
167 185 0
163 178 0
166 183 0
164 180 0
163 180 0
165 179 0
165 181 0
165 180 0
165 182 0
165 180 0
164 181 0
165 184 0
159 173 0
165 184 0
161 178 0
166 183 0
169 188 0
167 184 0
167 186 0
174 198 76
174 198 84
173 197 72
172 195 76
171 196 67
175 199 76
177 200 84
175 199 84
172 196 62
173 197 62
173 196 67
171 195 62
173 196 72
172 196 72
171 195 72
173 197 88
173 198 88
173 197 76
175 199 84
170 195 92
173 197 72
170 194 51
175 198 62
172 197 80
172 197 72
174 198 80
173 196 67
173 196 57
168 193 62
171 196 62
171 194 57
172 196 72
175 198 72
172 196 62
172 195 57
170 194 76
172 195 72
169 193 76
173 197 84
172 196 67
171 195 92
171 195 76
171 195 62
171 195 76
171 195 80
169 193 62
170 195 80
170 194 67
171 195 76
172 195 72
170 194 72
174 198 84
169 193 72
172 196 80
168 191 80
174 198 84
171 195 72
171 194 62
171 193 51
171 193 76
168 191 36
172 195 62
168 192 62
172 195 72
170 194 67
172 196 80
170 192 67
169 192 62
169 192 80
170 193 57
170 194 80
171 194 76
166 189 67
119 144 131
103 129 142
103 130 157
93 122 152
93 121 139
99 127 151
91 119 145
95 124 157
88 117 155
80 111 151
95 124 169
88 117 146
94 122 147
107 134 154
90 119 144
93 121 156
85 114 147
91 120 157
102 129 151
116 142 161
104 130 156
104 131 150
111 136 139
104 131 161
91 120 161
95 123 162
88 118 160
83 114 160
92 120 162
80 112 171
68 103 175
68 103 178
71 105 175
69 104 178
79 111 177
75 108 178
82 112 167
80 111 176
90 118 173
82 113 173
77 109 175
71 104 163
62 98 164
62 98 165
61 97 162
60 95 156
62 98 160
61 98 160
61 96 157
59 94 144
59 95 157
63 98 154
60 95 149
61 96 154
66 100 145
66 100 146
67 100 145
65 99 153
63 97 140
63 98 147
59 94 147
61 97 155
59 94 147
60 95 149
59 94 144
61 96 151
60 96 153
59 94 149
60 95 143
60 95 150
60 96 151
62 97 155
60 95 144
60 96 152
60 95 147
59 94 136
61 97 159
60 95 146
61 96 150
59 94 143
61 97 148
60 95 143
60 96 146
61 96 153
60 95 153
60 96 144
60 95 145
61 97 155
60 96 148
62 98 158
60 95 143
61 97 153
61 97 151
61 96 147
62 97 158
62 98 160
60 96 153
60 96 148
60 96 151
59 94 145
61 97 152
60 95 149
62 97 151
61 96 151
61 96 150
61 97 150
61 96 147
62 98 154
60 95 137
61 97 152
62 97 150
61 96 145
61 97 148
61 96 148
61 97 149
62 98 155
61 96 147
62 97 159
61 97 148
60 95 144
61 96 140
61 96 142
61 96 141
60 96 139
61 96 144
62 97 153
61 97 147
61 97 143
62 97 153
61 97 141
61 96 144
59 94 135
61 96 140
61 97 151
60 95 136
61 96 145
61 96 142
62 96 150
61 96 148
61 96 141
60 96 144
59 94 133
60 95 142
61 96 141
61 96 149
61 96 144
62 96 150
61 96 142
61 96 143
61 96 145
61 96 143
61 96 144
62 97 144
61 95 141
62 98 158
60 95 141
61 96 145
58 93 136
61 96 141
60 95 140
60 95 136
61 96 143
60 95 136
61 96 145
61 96 143
59 94 135
61 96 148
60 94 139
58 92 122
59 93 128
61 95 145
61 96 143
59 94 130
61 95 135
60 94 136
61 95 133
57 90 118
59 93 125
59 92 125
58 91 129
59 93 125
60 94 130
58 89 97
112 121 36
123 136 0
109 116 0
124 130 0
119 129 0
113 123 0
123 128 0
125 134 0
111 117 0
132 139 0
121 126 0
120 125 0
123 130 0
120 123 0
120 126 0
117 124 0
119 126 0
128 132 0
131 136 0
119 124 0
125 130 0
126 131 0
120 125 0
126 127 0
127 130 0
119 120 0
119 119 0
122 125 0
115 118 0
120 122 0
121 124 0
135 139 0
121 122 0
123 125 0
133 135 0
108 110 0
123 124 0
118 117 0
122 121 0
123 121 0
119 119 0
126 126 0
127 128 0
136 139 0
126 126 0
122 120 0
128 127 0
126 125 0
130 130 0
136 138 0
136 135 0
128 127 0
124 126 0
133 134 0
135 137 0
128 128 0
125 123 0
131 132 0
132 131 0
131 130 0
134 133 0
127 124 0
146 147 0
138 141 0
129 127 0
137 138 0
129 130 0
145 146 0
137 137 0
143 144 0
144 145 0
139 142 0
147 149 0
143 147 0
145 147 0
132 131 0
144 148 0
142 143 0
145 146 0
146 150 0
150 153 0
151 155 0
150 155 0
150 155 0
146 151 0
152 158 0
149 156 0
151 159 0
153 156 0
149 152 0
153 159 0
150 160 0
150 157 0
156 164 0
149 154 0
154 162 0
151 160 0
156 163 0
157 166 0
156 167 0
154 161 0
153 158 0
156 163 0
158 166 0
155 164 0
156 167 0
159 171 0
157 166 0
161 171 0
161 172 0
158 166 0
161 174 0
164 177 0
161 174 0
163 176 0
166 178 0
160 173 0
160 171 0
162 175 0
162 172 0
155 167 0
161 174 0
164 177 0
160 174 0
166 180 0
167 181 0
165 181 0
164 176 0
162 178 0
163 178 0
165 180 0
166 181 0
165 181 0
161 176 0
162 177 0
164 177 0
166 182 0
161 176 0
167 184 0
166 184 0
163 180 0
165 184 0
167 185 0
168 185 0
173 196 72
174 197 67
173 197 51
174 199 84
176 199 80
174 198 76
175 198 67
171 194 84
173 196 76
173 196 72
172 196 76
175 199 95
173 197 67
174 198 80
175 200 92
174 197 67
171 195 57
170 195 99
173 197 67
172 196 72
173 196 95
172 196 80
174 199 76
174 198 88
173 198 80
173 197 88
172 195 62
171 195 67
173 197 62
173 197 92
168 193 76
169 193 44
171 196 80
169 192 57
173 197 80
171 195 76
172 195 44
169 193 72
169 193 44
170 194 84
170 195 84
169 192 51
173 197 84
168 192 51
172 195 67
172 196 92
167 190 44
169 194 92
166 191 76
168 191 76
173 196 84
172 195 80
171 194 67
169 193 67
171 195 88
173 196 76
163 187 44
173 197 84
170 194 51
171 195 76
172 196 67
170 193 36
173 195 80
168 191 76
174 197 88
170 194 62
169 192 72
171 194 80
171 194 57
168 192 62
167 191 67
169 193 67
170 192 76
144 168 90
85 114 135
100 127 140
86 115 150
99 126 152
97 124 147
91 120 146
95 123 144
92 121 148
96 125 145
102 128 150
88 118 152
102 129 151
112 138 153
100 127 152
92 121 145
80 109 141
96 124 157
105 132 165
98 126 145
108 135 154
99 126 151
106 132 158
96 123 154
108 134 155
92 120 158
104 131 159
98 126 151
86 116 160
87 116 154
81 112 170
84 115 181
74 107 178
77 109 178
84 115 178
85 115 184
79 111 178
71 105 170
82 112 168
92 120 179
77 109 171
103 129 181
68 102 165
62 98 168
61 97 160
61 98 165
63 98 154
60 96 156
60 95 158
59 95 153
61 97 165
62 97 142
59 93 143
61 96 153
62 97 156
64 98 153
68 101 150
63 98 147
61 96 139
61 95 147
58 93 137
60 95 149
58 93 136
60 95 145
60 95 146
60 95 150
59 94 142
59 94 137
60 95 147
61 96 153
61 97 153
61 96 151
60 96 154
59 95 145
61 96 146
60 94 136
61 96 150
60 95 147
61 96 147
60 95 148
61 97 157
60 95 145
60 96 157
60 96 152
59 95 146
60 95 151
60 95 142
61 97 150
62 98 158
62 98 158
59 94 133
61 96 146
61 97 150
60 95 147
61 96 150
61 96 142
62 98 154
60 96 144
61 97 156
61 96 148
60 96 145
61 96 150
62 97 156
61 97 150
62 97 157
61 96 151
61 96 146
61 97 153
60 95 140
61 97 153
60 96 137
60 95 145
61 96 151
62 98 154
61 96 149
61 96 143
60 94 140
61 97 149
61 96 154
62 97 150
60 95 143
63 99 159
61 97 150
60 95 139
61 96 148
60 96 145
61 96 149
60 96 141
61 96 145
61 96 144
62 98 154
61 97 150
62 97 149
61 96 142
61 96 145
62 97 151
60 95 144
61 96 143
61 96 145
62 98 154
61 96 148
61 96 148
60 95 139
60 95 147
59 93 135
60 95 140
61 96 141
61 96 145
59 94 136
61 97 143
62 98 153
60 96 144
60 94 145
61 96 143
60 95 137
62 97 151
61 95 145
61 96 141
61 96 140
60 94 134
61 95 143
60 95 135
61 96 147
60 95 140
60 94 134
61 95 139
60 95 136
60 94 130
60 96 142
60 93 130
59 93 130
60 94 135
60 94 135
60 95 135
60 94 133
59 93 130
58 91 127
59 93 135
59 92 120
59 91 125
56 88 110
58 91 124
101 120 86
115 122 0
124 136 0
124 128 0
120 127 0
122 131 0
120 127 0
118 124 0
111 117 0
121 124 0
124 130 0
124 131 0
127 134 0
120 124 0
118 126 0
125 132 0
124 129 0
123 126 0
114 119 0
118 124 0
129 136 0
123 125 0
122 125 0
123 128 0
123 126 0
123 126 0
128 132 0
126 129 0
124 125 0
126 130 0
121 122 0
121 122 0
125 129 0
127 130 0
131 133 0
125 132 0
121 125 0
125 129 0
126 129 0
127 128 0
123 125 0
131 133 0
128 132 0
123 123 0
136 139 0
130 132 0
130 131 0
129 129 0
129 130 0
135 135 0
127 126 0
139 139 0
133 133 0
128 127 0
129 127 0
126 125 0
128 128 0
134 136 0
141 141 0
132 131 0
141 144 0
143 146 0
130 129 0
130 125 0
135 137 0
130 133 0
139 141 0
142 145 0
145 148 0
143 145 0
140 141 0
148 153 0
144 148 0
141 143 0
145 151 0
143 146 0
143 146 0
145 147 0
147 153 0
143 146 0
150 160 0
153 158 0
150 153 0
152 154 0
149 158 0
150 155 0
150 155 0
154 162 0
154 163 0
154 159 0
150 154 0
156 163 0
155 163 0
156 166 0
149 156 0
152 158 0
150 160 0
151 158 0
157 166 0
154 162 0
159 171 0
153 161 0
157 168 0
158 167 0
160 168 0
157 169 0
155 165 0
158 168 0
158 170 0
158 169 0
159 169 0
162 176 0
160 173 0
155 167 0
159 173 0
162 173 0
168 183 0
159 171 0
165 179 0
164 177 0
161 174 0
159 172 0
162 175 0
159 172 0
163 177 0
164 179 0
162 177 0
162 174 0
166 181 0
164 177 0
166 183 0
160 174 0
168 185 0
164 179 0
168 185 0
164 182 0
167 181 0
166 185 0
168 183 0
166 183 0
167 185 0
163 179 0
164 179 0
165 183 0
168 188 0
175 198 76
172 196 72
174 198 72
170 194 76
175 199 92
176 199 67
175 199 76
171 194 72
171 195 67
172 195 76
170 194 80
173 198 67
174 198 72
173 196 76
175 198 36
174 197 62
170 194 67
171 195 57
173 197 80
172 195 57
172 196 80
172 196 76
168 192 80
173 196 62
172 197 57
169 193 57
172 196 72
171 195 62
170 194 76
170 194 76
167 190 72
171 195 72
170 194 72
171 195 80
171 196 80
169 192 88
170 194 62
172 195 67
170 193 44
171 195 72
171 195 51
170 194 80
173 197 76
172 196 57
170 194 76
171 194 67
173 197 72
172 196 84
167 191 72
171 195 84
169 193 67
171 194 76
167 191 67
171 195 80
173 196 57
171 196 95
171 195 76
170 192 72
170 194 67
169 193 80
173 196 99
171 195 76
166 189 62
170 194 84
171 195 51
168 191 72
171 194 84
171 194 80
166 189 51
168 191 84
171 194 84
170 193 92
167 191 92
169 191 80
114 140 122
80 109 137
104 131 149
97 126 152
94 122 147
94 122 147
97 125 154
91 119 149
90 119 155
98 125 152
87 116 145
98 125 148
98 126 148
90 118 150
95 123 150
95 123 160
94 122 147
97 125 157
93 121 158
113 139 160
100 126 153
103 130 160
103 130 159
110 137 154
102 129 151
94 122 153
102 128 159
79 111 158
84 114 156
86 116 161
89 119 170
76 109 176
82 113 178
74 107 173
84 115 182
71 104 167
76 108 167
77 108 175
68 103 175
77 108 171
83 113 176
88 116 171
71 103 162
62 98 162
61 97 158
61 97 167
64 99 162
63 98 157
61 97 157
62 97 156
61 97 160
60 95 145
62 97 157
59 94 142
60 95 148
64 98 145
62 96 147
67 100 142
64 98 150
65 98 147
60 94 149
60 95 140
58 93 140
58 93 143
60 95 146
59 94 140
59 94 147
58 93 136
60 95 151
59 95 145
60 95 139
60 96 151
61 97 151
60 95 147
61 96 153
61 96 151
60 96 154
60 96 149
60 95 147
61 97 150
60 95 147
60 95 141
62 97 150
61 96 150
62 97 151
61 97 153
62 97 156
60 95 145
61 96 148
62 97 155
61 97 154
60 96 149
62 97 152
60 95 141
61 97 147
60 96 148
59 93 130
60 95 141
60 95 142
61 97 155
61 97 152
61 96 148
60 95 144
61 96 145
61 96 149
60 96 149
61 97 156
61 96 144
60 95 141
61 97 148
61 96 150
61 97 150
60 95 139
62 97 153
61 96 145
61 96 144
61 97 147
59 93 135
61 96 137
61 97 147
61 96 143
59 94 144
62 98 153
61 97 150
61 96 150
61 96 147
60 95 141
61 96 145
60 95 143
62 97 144
60 95 141
60 96 139
61 96 143
61 96 142
61 96 144
60 95 139
60 96 149
61 96 140
61 96 151
61 96 141
61 96 153
61 96 142
59 93 136
61 96 143
60 95 139
60 96 141
59 94 135
60 95 136
61 97 148
61 96 145
61 96 144
60 95 143
59 94 133
61 97 148
60 94 129
60 95 137
60 95 140
62 97 142
61 97 150
59 93 130
60 94 136
60 95 139
59 94 130
59 93 129
60 94 136
61 96 143
61 95 140
59 93 137
62 97 142
59 93 132
60 95 134
60 94 128
60 94 136
58 92 128
60 94 130
60 93 132
59 92 133
58 91 114
58 91 122
57 90 119
55 86 104
119 132 36
124 136 0
113 120 0
108 111 0
127 137 0
122 131 0
114 123 0
112 120 0
123 132 0
124 133 0
116 123 0
131 140 0
122 128 0
129 137 0
111 116 0
127 135 0
114 119 0
121 123 0
129 136 0
118 124 0
117 120 0
123 133 0
121 123 0
119 122 0
123 128 0
115 118 0
121 122 0
128 131 0
130 134 0
116 121 0
136 143 0
129 132 0
117 117 0
112 114 0
127 133 0
134 138 0
124 126 0
125 127 0
120 118 0
122 122 0
130 130 0
132 132 0
126 128 0
131 133 0
124 127 0
132 134 0
129 133 0
126 125 0
134 135 0
126 127 0
127 128 0
134 134 0
137 139 0
139 143 0
132 136 0
129 128 0
135 138 0
134 134 0
128 131 0
141 142 0
138 140 0
134 133 0
143 146 0
132 133 0
131 136 0
141 140 0
147 149 0
137 139 0
145 148 0
147 150 0
138 139 0
141 147 0
147 151 0
140 142 0
148 153 0
137 137 0
144 149 0
147 151 0
143 147 0
146 152 0
139 143 0
147 151 0
148 152 0
151 156 0
145 149 0
146 152 0
147 151 0
152 157 0
144 151 0
151 157 0
151 158 0
153 158 0
150 158 0
153 162 0
156 161 0
151 158 0
151 159 0
154 163 0
156 165 0
155 165 0
155 162 0
160 169 0
154 160 0
154 162 0
152 162 0
161 172 0
156 166 0
159 170 0
159 168 0
153 162 0
164 174 0
160 170 0
160 172 0
161 174 0
163 175 0
161 176 0
162 174 0
160 171 0
164 179 0
161 176 0
163 175 0
159 170 0
160 173 0
162 177 0
164 180 0
164 179 0
159 172 0
165 181 0
164 180 0
167 184 0
163 179 0
166 180 0
159 173 0
168 187 0
164 180 0
167 183 0
164 181 0
163 179 0
165 182 0
162 177 0
165 180 0
163 181 0
166 184 0
161 178 0
165 181 0
173 197 72
174 197 62
175 198 62
174 198 57
171 194 80
173 197 80
173 197 80
174 197 76
173 197 67
175 197 67
174 197 76
174 198 72
173 196 84
171 195 72
173 197 57
170 195 72
170 194 51
171 195 72
172 196 76
175 199 80
174 198 84
171 195 72
172 196 57
171 195 57
171 194 67
173 196 44
172 196 67
168 192 67
174 198 92
173 196 76
170 195 88
173 197 62
173 197 80
170 194 76
172 196 36
169 192 51
172 196 88
173 197 88
170 194 67
171 194 76
168 193 80
171 196 76
171 195 72
168 192 80
169 193 84
169 192 62
170 194 67
168 191 84
167 192 76
172 195 80
165 189 84
169 193 84
171 194 57
171 195 88
173 196 62
170 194 57
171 194 72
169 193 76
169 194 76
170 195 80
163 187 72
164 187 67
176 199 95
169 192 62
166 191 80
168 191 76
170 194 51
165 189 72
171 195 84
169 192 67
170 192 57
167 191 92
169 193 67
164 187 76
143 168 93
95 123 139
84 114 147
91 120 156
91 120 152
99 126 142
98 126 150
95 123 155
92 119 128
106 134 168
85 113 135
101 128 149
94 122 152
85 115 154
95 123 159
88 117 156
102 128 160
102 130 157
91 120 156
93 121 148
100 127 145
103 129 147
105 132 153
86 115 154
104 131 151
105 132 156
97 124 148
87 116 165
84 114 149
81 112 154
92 121 145
77 108 165
79 110 176
76 109 172
72 106 179
74 106 172
77 109 176
89 118 180
80 111 173
95 122 180
79 109 162
80 110 170
96 123 182
63 98 157
61 97 156
62 98 166
62 97 159
61 97 160
60 95 147
62 98 158
60 96 156
60 95 151
61 97 157
63 97 147
60 95 153
67 101 154
66 100 143
63 97 139
64 97 144
60 94 136
60 94 150
61 97 153
59 94 144
60 95 147
59 94 142
59 94 142
61 96 147
57 92 130
60 95 142
60 95 149
60 96 145
60 95 146
60 96 156
61 96 154
60 95 147
60 96 150
60 95 139
61 96 144
61 96 152
60 95 144
60 96 143
59 94 144
60 95 149
59 94 145
60 95 151
59 94 148
60 95 143
61 97 154
60 96 147
60 96 148
61 96 146
60 96 150
61 96 148
59 94 144
60 95 141
62 97 149
60 95 141
61 97 158
61 96 151
60 95 142
59 94 143
61 96 153
60 95 144
61 97 151
61 96 153
61 96 144
61 96 145
60 95 134
61 96 143
60 96 150
62 97 154
62 97 153
62 97 149
61 96 144
63 98 160
60 96 137
59 94 136
61 96 140
60 95 131
60 96 149
60 95 144
61 96 152
60 95 141
60 96 144
61 97 157
60 95 141
61 96 147
62 97 148
60 96 148
61 97 144
61 97 143
61 96 145
60 96 142
61 97 152
60 95 152
62 97 148
61 95 141
61 96 150
61 96 147
62 97 141
61 96 147
61 96 148
61 96 149
61 96 139
61 96 141
60 95 142
60 95 139
62 97 147
60 95 139
59 94 125
60 95 144
60 95 147
61 96 134
61 95 139
61 96 141
60 94 143
61 96 135
58 93 134
60 94 142
60 95 134
59 94 131
59 94 121
60 94 137
59 94 140
59 94 124
60 94 134
60 95 137
58 92 122
59 93 124
60 95 133
60 95 135
59 93 130
60 94 130
58 91 124
60 94 133
60 94 133
58 92 130
58 91 123
59 93 125
56 88 113
81 100 93
128 139 0
132 142 0
126 133 0
120 128 0
118 129 0
126 135 0
118 123 0
123 131 0
118 123 0
138 146 0
120 126 0
124 136 0
124 132 0
122 128 0
126 133 0
124 133 0
130 137 0
131 138 0
122 127 0
123 128 0
113 118 0
128 132 0
123 131 0
131 135 0
124 131 0
122 127 0
131 133 0
127 132 0
123 122 0
123 124 0
130 140 0
129 134 0
117 121 0
121 125 0
115 122 0
119 123 0
128 131 0
135 141 0
127 130 0
129 134 0
129 133 0
121 123 0
135 139 0
118 118 0
135 139 0
133 135 0
134 137 0
131 134 0
139 138 0
136 138 0
132 131 0
134 137 0
135 137 0
119 121 0
127 131 0
140 142 0
131 133 0
140 139 0
136 140 0
136 137 0
140 142 0
137 138 0
138 141 0
147 153 0
138 140 0
140 142 0
150 152 0
148 151 0
139 139 0
139 144 0
146 150 0
144 150 0
141 144 0
145 145 0
144 147 0
145 152 0
148 152 0
148 153 0
147 152 0
143 146 0
147 152 0
156 164 0
144 149 0
146 152 0
144 148 0
157 167 0
153 161 0
149 154 0
158 167 0
156 166 0
150 153 0
149 154 0
159 165 0
155 163 0
151 159 0
155 164 0
150 158 0
159 164 0
154 164 0
156 167 0
154 163 0
156 163 0
160 168 0
158 168 0
156 163 0
159 170 0
156 166 0
162 174 0
161 173 0
162 174 0
163 176 0
160 171 0
160 173 0
164 176 0
160 173 0
164 178 0
163 175 0
160 175 0
166 182 0
159 172 0
163 177 0
162 175 0
156 168 0
166 181 0
160 175 0
161 173 0
157 171 0
165 180 0
162 177 0
163 176 0
164 179 0
165 181 0
162 176 0
169 187 0
164 179 0
164 180 0
165 181 0
167 185 0
164 182 0
168 185 0
165 184 0
165 179 0
167 187 0
165 184 0
165 184 0
176 199 80
171 195 76
173 197 62
172 195 62
168 191 62
173 198 72
173 197 62
174 197 51
171 195 51
169 193 62
171 195 72
170 194 76
172 195 76
173 197 84
174 198 80
173 197 67
172 196 36
174 197 84
175 198 88
173 197 72
169 194 88
172 196 67
170 194 80
174 198 88
170 194 67
175 198 67
171 196 80
170 194 95
170 194 76
172 196 67
173 196 62
170 194 88
171 195 72
172 196 76
170 193 76
172 196 80
169 192 62
174 197 72
169 192 67
169 193 80
172 196 95
170 194 57
170 195 67
164 186 44
167 191 72
171 194 57
167 190 72
170 193 80
172 196 80
168 192 76
166 190 67
168 192 76
171 195 62
170 195 72
170 193 76
169 192 57
171 196 84
167 190 92
169 192 57
166 190 62
167 191 84
172 195 95
170 193 72
168 191 76
166 189 72
169 192 80
168 191 72
171 193 80
169 193 80
168 191 76
166 190 72
169 192 80
166 190 76
169 193 76
164 187 78
116 143 143
80 110 136
97 125 141
93 121 150
95 123 150
85 114 137
94 121 150
94 122 143
95 123 147
98 126 153
88 116 144
95 121 133
91 119 137
100 127 145
86 116 160
92 120 141
104 130 149
100 127 152
97 125 153
100 127 157
93 121 143
98 124 139
109 135 149
96 124 154
100 128 145
95 123 150
104 131 159
94 123 161
86 116 154
99 126 153
82 113 164
80 110 161
84 115 179
72 105 174
87 117 181
76 109 174
65 100 163
77 109 172
80 111 170
77 108 162
85 115 173
88 117 173
75 105 152
61 97 161
62 98 160
61 97 157
60 96 152
61 97 160
60 96 154
63 99 163
62 97 159
61 96 154
60 95 150
60 95 145
64 99 150
63 97 139
62 97 147
66 100 134
68 99 134
64 98 144
60 95 149
59 94 143
59 94 147
61 97 152
60 94 140
60 95 147
59 94 149
59 93 136
60 95 147
60 95 145
61 96 150
61 97 157
60 95 140
59 94 141
61 96 153
61 97 152
61 97 147
60 95 145
59 94 135
60 95 147
60 95 148
60 95 141
61 97 151
59 94 137
60 96 147
60 94 143
61 97 150
59 94 142
60 96 148
60 95 137
60 95 144
60 95 135
61 96 152
61 96 145
61 96 137
61 96 145
62 97 150
61 96 145
61 96 143
62 97 150
60 95 136
60 95 143
60 95 149
60 95 140
59 94 142
61 96 150
61 96 148
61 97 147
61 96 149
59 94 140
60 95 140
62 97 154
60 95 137
62 98 154
61 97 150
61 96 149
60 96 139
61 96 153
62 97 153
61 97 145
60 95 149
61 96 145
61 96 141
61 97 153
60 96 140
61 96 144
61 96 147
61 96 145
61 96 142
61 96 142
60 95 134
61 97 144
62 97 149
62 97 145
61 96 140
61 96 141
61 96 136
61 96 147
60 95 140
61 96 141
59 93 130
61 97 145
61 96 142
61 96 137
61 96 142
61 96 141
61 96 142
61 95 144
61 96 140
60 95 133
61 96 141
60 95 139
61 97 148
61 96 144
61 96 136
61 96 140
59 94 139
59 93 129
59 94 133
61 96 137
60 95 131
61 96 142
60 95 136
59 93 135
59 93 134
61 96 143
61 95 145
60 94 131
59 94 133
60 94 135
60 94 137
59 93 124
59 93 125
59 93 133
59 93 128
59 92 120
58 91 124
58 90 130
58 89 104
130 143 37
137 148 0
125 139 0
120 127 0
123 134 0
120 128 0
133 145 0
124 134 0
126 137 0
111 120 0
129 138 0
122 128 0
129 136 0
126 133 0
129 135 0
117 125 0
123 130 0
124 131 0
112 121 0
118 126 0
131 138 0
124 129 0
118 124 0
133 138 0
126 134 0
125 131 0
124 127 0
126 130 0
128 133 0
126 132 0
112 118 0
127 135 0
127 134 0
118 124 0
122 127 0
131 136 0
125 129 0
125 127 0
136 139 0
130 136 0
126 131 0
130 132 0
124 126 0
123 126 0
122 124 0
130 130 0
133 136 0
129 132 0
127 131 0
138 141 0
133 134 0
128 128 0
131 134 0
124 126 0
141 144 0
132 132 0
140 145 0
125 121 0
139 142 0
145 149 0
139 141 0
139 144 0
137 141 0
148 153 0
141 146 0
137 143 0
139 141 0
146 148 0
145 149 0
140 142 0
139 144 0
138 142 0
142 143 0
143 149 0
144 151 0
140 143 0
141 145 0
140 144 0
142 144 0
144 146 0
146 150 0
147 152 0
147 152 0
150 156 0
161 168 0
148 151 0
148 155 0
152 158 0
150 160 0
151 159 0
156 164 0
159 169 0
155 164 0
151 160 0
152 159 0
150 157 0
157 166 0
151 160 0
156 165 0
155 164 0
156 164 0
158 166 0
163 174 0
153 162 0
155 165 0
159 170 0
159 171 0
157 171 0
158 168 0
154 163 0
159 171 0
157 169 0
157 171 0
162 176 0
161 175 0
160 174 0
159 173 0
164 178 0
162 178 0
166 180 0
164 177 0
159 173 0
166 181 0
163 177 0
164 178 0
162 176 0
164 178 0
166 182 0
164 178 0
166 184 0
164 181 0
163 179 0
165 181 0
165 180 0
162 178 0
164 181 0
164 178 0
168 184 0
164 180 0
166 185 0
163 181 0
166 182 0
161 179 0
169 187 0
162 180 0
168 186 0
174 197 67
175 198 51
175 198 80
174 197 80
171 195 57
174 197 76
176 199 57
173 197 84
172 196 72
173 197 76
171 196 62
175 198 76
172 196 88
173 197 67
171 195 76
172 195 62
172 195 67
169 194 62
173 197 92
170 193 25
174 198 62
173 196 62
170 193 51
172 195 57
170 194 62
170 193 51
168 192 84
169 194 80
173 198 84
169 193 57
167 192 76
171 194 57
170 194 76
168 192 67
173 198 88
171 195 57
173 197 76
170 195 84
171 195 76
171 195 88
169 192 51
170 193 57
169 194 67
171 194 67
169 192 72
171 194 57
169 193 80
170 193 62
171 195 57
167 191 76
175 199 105
169 193 76
174 199 84
170 193 67
169 193 76
166 190 62
170 193 51
168 191 67
164 188 62
170 193 88
167 191 67
167 190 62
165 189 80
169 192 67
172 195 99
165 188 57
168 192 72
168 192 84
168 191 67
169 192 72
161 185 57
169 192 88
160 183 76
166 190 51
166 189 84
133 156 84
78 108 131
90 119 131
73 105 142
89 117 151
80 110 149
91 119 143
79 109 130
100 128 152
100 127 159
88 117 136
99 127 158
93 120 153
95 123 150
105 132 152
104 130 153
98 126 149
100 127 154
87 116 149
107 133 145
96 124 152
86 114 144
98 125 157
100 127 149
89 118 155
117 142 160
102 128 160
109 135 147
90 118 148
81 110 145
94 122 140
89 118 151
89 118 164
64 100 168
62 99 173
71 104 169
84 115 179
70 103 167
87 117 178
77 109 171
85 115 174
87 116 168
69 102 168
73 101 154
61 97 159
61 98 167
60 96 153
61 97 162
60 95 146
62 98 164
61 96 157
61 96 153
59 94 147
61 96 158
61 96 149
66 99 140
63 98 151
58 93 147
62 96 148
69 102 147
64 97 141
58 92 137
60 95 140
60 95 144
59 94 141
58 93 142
60 95 154
59 94 140
60 95 150
60 95 146
60 94 142
61 96 147
59 94 143
59 93 135
60 95 151
60 95 143
61 96 151
61 96 150
61 96 141
61 97 150
60 96 143
61 96 145
60 95 150
58 92 136
60 95 139
61 96 148
60 95 143
61 96 144
61 96 140
59 95 131
60 95 145
60 95 140
60 96 139
60 95 145
60 95 144
62 97 156
61 97 150
60 95 142
61 97 150
62 97 155
62 97 153
60 95 144
62 98 154
60 94 137
60 95 139
60 96 145
61 96 146
61 96 144
61 96 149
59 94 144
61 97 148
61 96 145
61 97 148
62 97 149
61 97 152
61 96 143
61 96 147
60 95 141
59 94 133
60 95 143
61 97 148
60 95 140
60 96 143
60 95 137
61 97 143
60 95 143
60 95 139
60 95 140
61 96 144
59 94 140
60 95 139
62 97 152
60 95 141
61 97 147
62 97 148
61 96 149
60 95 135
60 95 139
60 95 133
59 94 140
60 94 135
60 95 141
61 95 142
58 92 124
60 94 131
60 95 137
60 95 137
60 94 130
61 96 136
61 96 135
59 94 133
59 93 130
60 95 141
60 95 139
61 96 145
60 95 140
60 95 129
61 96 147
61 96 137
60 95 135
62 97 147
60 94 129
59 93 125
60 94 136
61 96 141
61 95 136
59 94 131
59 93 124
58 92 121
59 92 128
58 92 128
57 90 107
59 92 121
59 94 130
57 90 117
57 90 118
57 90 113
57 90 117
89 106 83
131 143 0
124 134 0
128 135 0
125 138 0
122 130 0
116 126 0
125 134 0
117 123 0
121 130 0
117 127 0
120 128 0
121 131 0
119 128 0
111 116 0
115 121 0
130 140 0
120 128 0
120 128 0
136 142 0
119 124 0
128 137 0
124 129 0
135 143 0
120 128 0
131 137 0
131 137 0
125 131 0
130 136 0
120 126 0
126 129 0
135 143 0
118 120 0
127 132 0
132 139 0
137 142 0
120 124 0
127 130 0
122 126 0
128 131 0
125 126 0
133 135 0
126 132 0
128 127 0
129 133 0
137 139 0
129 131 0
129 134 0
134 138 0
131 137 0
136 143 0
141 148 0
130 133 0
137 142 0
130 134 0
137 143 0
135 138 0
129 130 0
141 144 0
137 139 0
140 144 0
131 133 0
141 145 0
144 151 0
143 143 0
140 142 0
146 152 0
129 130 0
146 151 0
147 155 0
144 152 0
141 144 0
142 144 0
145 149 0
148 157 0
146 152 0
144 145 0
142 144 0
143 148 0
146 151 0
145 151 0
138 140 0
149 158 0
150 156 0
148 154 0
153 159 0
148 156 0
147 153 0
152 159 0
147 152 0
148 153 0
154 162 0
152 158 0
157 166 0
159 170 0
159 166 0
153 160 0
159 170 0
155 165 0
151 158 0
152 162 0
157 169 0
155 164 0
157 163 0
156 165 0
155 165 0
157 168 0
156 165 0
156 167 0
160 170 0
159 173 0
161 173 0
160 172 0
161 174 0
159 171 0
161 174 0
165 179 0
163 179 0
161 172 0
160 172 0
160 174 0
160 174 0
161 177 0
163 179 0
167 184 0
164 180 0
163 177 0
160 175 0
165 181 0
163 177 0
166 178 0
168 185 0
161 177 0
167 183 0
166 183 0
165 180 0
165 183 0
164 180 0
166 182 0
162 180 0
164 177 0
170 186 0
163 180 0
171 191 0
165 182 0
167 185 0
164 181 0
175 198 76
172 196 62
172 196 76
172 196 72
177 200 92
173 197 67
170 194 72
171 195 76
171 195 76
172 196 80
171 195 62
172 195 57
174 198 80
172 196 76
172 196 76
174 197 80
171 195 72
171 195 57
168 191 57
170 194 67
170 194 80
172 196 57
173 196 67
173 196 80
168 192 62
170 194 80
172 195 67
172 196 80
174 197 80
173 197 84
171 195 67
164 188 84
168 192 62
170 193 62
171 195 57
171 195 72
171 194 62
171 195 57
168 192 67
169 193 76
170 194 88
167 191 84
168 192 51
168 192 62
172 196 76
165 189 62
165 188 67
167 189 76
165 189 62
169 193 62
169 194 62
166 190 72
169 192 67
172 196 72
164 188 72
169 193 76
169 193 72
164 188 62
168 191 84
165 189 80
173 197 80
167 191 51
163 186 51
172 195 57
170 194 76
169 192 76
172 195 88
165 189 84
168 191 84
167 191 80
169 192 76
169 192 76
166 189 67
168 192 92
169 192 92
167 191 76
129 153 131
95 124 147
97 125 145
83 112 144
88 117 145
88 117 151
96 123 144
96 124 148
79 109 143
93 121 149
90 118 144
93 121 149
95 122 153
92 121 156
95 122 129
91 119 162
90 118 155
100 128 165
104 131 163
90 119 153
101 128 158
94 121 149
99 126 153
109 134 163
98 125 154
108 134 157
113 138 149
90 119 155
98 124 151
87 116 147
93 121 153
96 124 158
89 118 167
82 113 179
87 116 181
67 102 167
82 112 171
85 114 172
79 111 174
77 109 169
92 120 177
84 113 166
68 100 155
71 102 160
60 95 151
61 97 155
62 98 159
61 97 157
61 96 155
60 95 155
60 96 147
61 97 155
59 94 146
60 95 147
60 95 155
66 98 136
66 100 149
65 98 140
61 95 141
61 95 145
63 97 150
59 94 146
59 94 134
60 95 139
59 94 144
60 95 140
59 94 140
60 95 141
61 96 149
59 94 138
61 96 150
59 94 143
60 95 148
60 95 137
60 96 144
61 97 151
60 95 147
60 95 146
61 96 149
61 95 143
59 94 141
61 96 147
61 97 148
59 94 148
60 96 145
60 96 143
60 95 137
60 95 141
61 96 143
61 96 144
60 95 137
60 95 147
60 95 135
60 95 144
60 95 143
60 96 148
61 97 151
61 96 153
60 95 139
60 95 147
60 94 141
61 96 143
61 97 155
62 97 150
61 96 142
60 95 142
62 98 150
60 95 148
60 95 135
61 95 141
60 94 143
61 96 150
61 95 135
60 96 149
60 95 140
60 96 141
60 95 133
61 96 143
62 97 150
61 96 151
60 95 142
59 94 135
60 95 143
62 97 151
61 96 148
61 96 149
61 96 147
61 96 143
60 96 140
61 96 143
61 97 147
60 96 144
62 97 145
61 96 148
62 97 147
60 95 137
60 96 141
60 95 143
60 95 142
62 97 148
61 96 143
62 98 151
60 96 145
61 97 147
62 97 147
62 97 149
60 94 129
60 94 131
61 96 147
61 96 144
60 95 130
59 93 130
60 95 137
60 95 131
60 95 135
61 96 142
60 94 130
59 93 122
58 91 129
59 94 136
60 94 135
60 95 133
61 95 137
60 94 131
60 94 133
60 95 139
60 94 134
59 93 124
59 92 123
60 94 131
60 94 131
58 92 124
59 93 120
58 91 128
57 90 123
57 89 113
62 93 111
119 130 31
120 130 0
130 139 0
130 140 0
112 117 0
115 123 0
121 129 0
123 134 0
118 128 0
127 139 0
113 121 0
128 138 0
124 131 0
116 124 0
121 128 0
116 122 0
121 129 0
132 142 0
131 137 0
129 136 0
126 136 0
119 129 0
117 123 0
120 123 0
130 137 0
125 132 0
123 132 0
126 136 0
131 136 0
122 129 0
131 138 0
140 150 0
134 140 0
129 135 0
136 145 0
127 130 0
129 135 0
133 140 0
126 132 0
130 135 0
122 125 0
131 135 0
131 137 0
126 133 0
128 132 0
131 136 0
127 132 0
134 139 0
141 144 0
128 132 0
130 132 0
135 139 0
136 141 0
135 141 0
135 141 0
132 135 0
137 139 0
137 139 0
141 146 0
142 147 0
135 141 0
139 144 0
140 143 0
141 147 0
144 150 0
141 145 0
144 148 0
135 139 0
145 148 0
140 144 0
149 156 0
143 146 0
140 146 0
145 151 0
141 145 0
152 158 0
146 152 0
141 147 0
145 152 0
144 149 0
151 160 0
155 161 0
148 155 0
146 152 0
155 163 0
155 162 0
152 161 0
151 160 0
158 169 0
154 161 0
146 153 0
147 154 0
159 172 0
154 163 0
157 169 0
152 158 0
151 158 0
155 165 0
152 164 0
154 163 0
155 166 0
151 162 0
158 170 0
155 167 0
159 170 0
161 175 0
158 170 0
162 173 0
156 168 0
162 176 0
161 173 0
161 173 0
162 173 0
161 175 0
160 171 0
161 174 0
160 175 0
163 177 0
160 176 0
164 178 0
161 174 0
159 174 0
160 174 0
166 182 0
161 175 0
162 180 0
163 177 0
165 181 0
164 180 0
160 173 0
162 176 0
162 179 0
165 182 0
160 174 0
161 176 0
166 180 0
166 181 0
166 183 0
164 178 0
162 179 0
167 185 0
160 176 0
165 182 0
165 182 0
167 185 0
166 183 0
168 185 0
175 198 44
173 197 51
175 198 72
174 198 62
169 193 76
175 198 57
172 196 84
173 196 76
173 197 92
173 196 80
171 194 72
173 197 57
174 198 80
172 197 76
171 195 62
175 198 72
169 194 67
173 198 92
173 198 84
173 198 84
174 198 80
172 197 84
173 196 80
169 192 57
170 194 62
171 194 57
168 192 57
171 196 102
171 195 67
174 198 62
171 195 84
174 198 72
171 195 62
170 195 67
175 199 88
169 193 72
168 192 80
168 193 72
167 190 51
170 193 57
168 192 51
170 194 84
168 191 62
170 194 80
167 191 62
168 192 67
169 192 72
168 191 88
167 190 62
167 190 84
170 193 72
171 195 84
164 188 84
167 192 80
170 193 76
167 191 72
168 192 72
166 189 67
171 195 84
169 192 67
164 188 62
167 192 62
171 193 88
167 191 44
168 192 72
166 189 72
165 189 80
169 193 67
171 195 51
169 191 67
165 189 76
169 193 67
171 194 95
166 189 67
163 186 92
164 187 95
148 171 94
92 120 147
98 125 144
96 125 150
93 121 144
93 122 159
87 116 144
96 124 145
94 121 143
84 114 143
98 125 147
108 135 147
94 121 145
101 129 162
93 121 142
85 114 137
97 124 140
112 138 161
91 120 151
98 125 137
96 123 146
100 126 149
100 127 147
91 119 158
97 124 162
96 124 155
110 136 143
101 128 158
87 115 148
81 112 163
101 128 153
85 114 150
94 122 158
93 122 157
72 105 174
77 109 171
81 112 174
82 112 170
69 103 171
72 105 172
72 105 167
83 113 180
77 107 164
65 99 163
64 99 161
61 97 156
62 97 155
61 97 161
63 98 152
61 96 154
60 96 156
59 95 144
65 99 148
60 95 155
61 96 150
63 98 156
68 101 143
67 100 136
66 99 137
70 103 143
61 96 140
60 95 147
58 93 142
59 94 141
60 96 151
60 95 143
60 95 140
60 95 142
60 95 140
60 95 147
61 96 144
60 96 144
61 96 147
61 96 147
60 96 149
61 96 149
59 93 137
61 97 148
60 96 145
61 96 145
60 95 141
60 94 145
60 95 149
59 93 138
61 96 142
61 97 148
60 95 147
61 96 139
59 94 134
59 93 137
61 96 150
60 95 144
61 96 151
60 95 145
62 97 157
61 97 150
61 97 148
60 95 136
60 95 139
61 97 147
60 95 142
60 95 139
62 97 148
61 97 151
60 95 144
61 96 143
60 95 142
62 97 151
61 96 147
60 95 141
61 96 151
60 95 142
60 95 134
61 96 145
61 96 144
61 96 144
61 96 144
60 94 139
61 96 143
62 97 150
60 96 140
60 95 134
60 95 136
62 98 153
61 95 137
61 96 141
60 95 140
61 96 140
60 95 136
61 96 142
61 96 149
60 96 144
61 96 145
61 96 142
61 96 140
62 97 145
61 96 147
59 94 134
61 96 142
61 96 149
60 95 139
60 95 136
60 95 142
59 94 135
60 95 145
61 96 139
60 95 136
61 96 134
60 95 142
61 95 139
61 96 143
59 94 133
60 94 133
58 92 126
60 94 131
59 93 124
61 96 140
61 95 134
61 95 142
59 93 130
58 92 118
61 96 140
60 95 141
58 91 117
60 94 136
60 94 125
60 95 133
59 93 120
57 90 118
60 94 134
58 91 115
60 94 134
57 89 120
59 93 125
58 92 118
58 90 121
101 119 75
119 128 0
131 141 0
128 139 0
122 134 0
123 132 0
119 128 0
122 130 0
120 127 0
132 140 0
125 133 0
122 131 0
131 141 0
131 141 0
122 131 0
125 135 0
123 131 0
132 142 0
116 124 0
120 131 0
132 138 0
123 130 0
124 134 0
115 124 0
132 139 0
118 126 0
129 137 0
125 132 0
125 132 0
127 135 0
123 129 0
121 126 0
132 139 0
128 133 0
133 140 0
135 144 0
122 129 0
125 131 0
127 132 0
121 124 0
129 134 0
135 142 0
137 144 0
124 128 0
125 131 0
137 142 0
133 135 0
132 136 0
130 136 0
128 132 0
137 143 0
127 134 0
144 149 0
139 143 0
135 141 0
131 134 0
141 146 0
136 140 0
135 138 0
147 154 0
140 147 0
137 145 0
133 139 0
135 141 0
136 141 0
146 153 0
139 145 0
138 142 0
137 141 0
144 150 0
135 139 0
138 142 0
146 151 0
148 156 0
153 161 0
148 153 0
146 152 0
143 148 0
149 156 0
150 158 0
144 148 0
148 153 0
152 158 0
153 162 0
150 158 0
154 161 0
155 165 0
152 159 0
148 157 0
153 160 0
152 161 0
154 160 0
154 162 0
155 165 0
153 161 0
156 166 0
157 166 0
146 155 0
157 169 0
158 167 0
153 164 0
155 167 0
155 167 0
158 171 0
150 159 0
157 169 0
161 175 0
160 172 0
160 172 0
160 170 0
160 173 0
158 169 0
162 173 0
158 169 0
156 169 0
161 174 0
162 173 0
159 172 0
164 180 0
166 183 0
162 177 0
161 177 0
165 179 0
159 172 0
157 172 0
164 179 0
164 181 0
161 177 0
163 177 0
165 181 0
164 180 0
157 172 0
167 185 0
162 178 0
165 179 0
165 179 0
165 182 0
164 181 0
166 182 0
169 188 0
164 181 0
163 180 0
165 183 0
166 185 0
170 188 0
165 183 0
162 177 0
165 183 0
172 195 62
173 197 80
171 195 62
172 196 76
176 199 84
174 197 72
174 198 76
168 193 84
173 198 92
171 195 67
174 197 67
168 193 76
173 197 80
170 194 67
170 195 72
166 189 67
172 196 76
174 197 62
167 191 80
169 193 84
169 193 72
174 198 72
175 199 84
167 190 57
172 195 57
170 195 57
170 193 57
174 197 72
171 195 76
171 195 76
168 192 72
172 197 99
168 192 72
170 195 72
168 191 80
171 194 67
170 193 62
171 194 67
169 193 57
170 192 80
172 196 88
168 192 72
169 194 67
169 192 36
173 196 84
171 194 84
167 192 88
169 193 57
172 195 76
168 191 67
164 187 72
172 196 72
168 191 67
168 192 62
168 192 72
162 185 76
171 194 62
164 189 99
168 191 62
169 192 67
169 194 88
168 192 84
159 183 80
167 191 76
164 187 72
167 191 67
165 190 80
165 187 72
165 187 80
166 190 72
166 189 67
169 192 80
163 186 80
165 188 62
165 188 51
168 190 72
159 183 84
109 134 117
99 126 142
88 117 141
79 109 137
99 127 156
91 119 134
89 117 139
93 122 152
97 124 145
100 128 153
91 120 151
88 115 137
89 117 143
88 117 148
92 120 143
91 119 146
93 120 151
91 118 147
93 120 142
86 115 152
89 118 151
98 125 155
98 125 143
87 116 149
106 132 151
108 133 149
94 121 143
108 134 153
107 132 151
87 116 155
83 113 159
84 115 158
84 113 149
84 114 163
85 115 180
79 111 174
85 115 179
74 107 172
71 104 165
68 102 161
85 114 171
78 109 168
71 100 155
70 101 160
61 97 153
61 97 155
61 97 161
60 96 153
60 95 150
63 97 151
60 95 150
64 97 144
60 95 154
62 97 149
60 95 139
64 97 143
62 97 147
65 98 144
65 99 149
60 94 131
62 96 140
62 96 148
60 95 145
58 93 132
59 94 139
58 93 140
59 94 138
61 96 146
59 94 134
59 94 141
60 96 150
59 94 145
60 95 139
60 94 135
61 96 148
60 95 145
60 95 139
60 95 135
60 95 142
61 97 141
59 94 136
58 93 133
61 96 150
61 96 142
60 96 147
59 94 143
60 96 144
60 95 141
61 96 150
61 96 149
60 95 145
59 94 134
61 96 154
59 93 139
61 96 147
60 95 143
60 96 142
60 95 143
60 96 139
61 96 148
61 96 145
60 95 143
61 96 148
60 95 141
60 95 137
61 96 145
60 95 139
61 96 139
62 97 150
61 96 142
60 95 145
60 95 143
61 96 149
61 96 145
60 95 141
62 97 149
60 95 139
61 96 142
61 96 142
62 97 145
62 97 156
61 96 142
60 95 142
62 97 150
60 95 140
60 96 144
61 96 145
60 95 129
60 95 141
60 95 136
60 95 139
61 96 139
61 96 139
60 95 136
61 96 142
61 96 144
60 94 125
60 95 142
59 94 129
61 96 143
62 97 150
60 95 131
59 93 131
60 95 136
61 96 141
60 94 130
58 93 133
59 94 136
60 94 133
58 93 124
61 96 145
59 94 136
58 92 126
59 94 125
59 94 133
59 94 125
60 94 141
60 95 137
59 94 134
58 92 121
60 95 130
59 94 128
58 92 124
60 94 131
59 93 120
59 93 125
61 96 140
59 93 131
60 94 135
60 94 131
58 93 125
56 88 108
56 88 116
58 91 114
67 95 115
120 131 25
130 142 0
118 126 0
124 133 0
124 131 0
127 136 0
124 134 0
115 124 0
123 133 0
124 135 0
124 133 0
129 139 0
124 131 0
119 128 0
117 126 0
121 129 0
115 124 0
123 131 0
125 132 0
130 141 0
127 136 0
134 143 0
125 132 0
118 122 0
125 132 0
121 126 0
130 136 0
130 136 0
121 127 0
126 136 0
128 137 0
133 141 0
130 136 0
135 145 0
128 135 0
128 135 0
119 121 0
131 140 0
140 146 0
128 134 0
129 136 0
133 140 0
135 142 0
132 138 0
130 135 0
133 138 0
128 134 0
133 139 0
132 138 0
126 130 0
139 143 0
134 139 0
136 140 0
129 131 0
127 130 0
138 143 0
141 150 0
143 149 0
135 139 0
144 150 0
141 148 0
140 146 0
137 140 0
140 148 0
142 144 0
139 143 0
149 156 0
138 142 0
145 153 0
144 150 0
141 149 0
148 153 0
145 150 0
145 155 0
146 151 0
146 151 0
144 149 0
150 160 0
149 157 0
151 158 0
148 154 0
142 147 0
152 160 0
144 150 0
152 161 0
155 165 0
156 167 0
153 160 0
153 164 0
144 150 0
148 155 0
153 162 0
154 164 0
155 166 0
154 165 0
157 167 0
157 167 0
150 158 0
155 166 0
156 168 0
158 170 0
154 164 0
149 156 0
156 166 0
161 175 0
154 164 0
156 166 0
160 170 0
159 171 0
155 165 0
159 171 0
159 172 0
154 164 0
159 174 0
161 176 0
160 173 0
159 172 0
158 170 0
161 175 0
161 176 0
154 164 0
164 178 0
161 174 0
160 174 0
158 173 0
169 185 0
161 176 0
164 179 0
166 183 0
166 183 0
164 180 0
164 179 0
164 183 0
165 182 0
164 183 0
167 182 0
163 180 0
162 176 0
168 187 0
166 186 0
163 178 0
164 181 0
168 188 0
164 179 0
165 183 0
163 180 0
167 183 0
171 190 0
172 196 51
173 196 67
172 196 84
172 196 36
171 195 76
174 197 76
171 195 76
173 198 105
173 197 76
168 192 67
172 195 67
174 198 72
172 196 80
172 196 88
170 195 76
170 194 62
172 196 62
172 196 84
174 198 51
172 196 84
174 198 92
168 192 76
168 193 76
173 197 88
172 195 57
171 195 76
170 195 102
171 195 62
173 197 88
171 195 88
173 197 80
168 193 95
172 197 80
171 194 67
164 188 72
168 193 67
169 192 51
171 196 62
165 188 57
168 191 72
167 190 76
169 193 67
171 195 62
168 193 72
163 187 84
170 194 76
166 190 67
168 193 76
167 191 76
170 194 44
165 189 72
170 194 67
167 190 57
170 194 67
166 190 72
167 190 57
165 188 72
168 191 80
164 188 76
170 194 51
168 191 44
170 194 84
164 188 57
164 188 62
164 187 105
161 184 92
167 191 88
163 188 62
164 186 67
166 190 102
160 184 67
165 188 88
166 190 80
169 191 92
165 188 67
165 188 76
167 191 72
153 176 103
78 109 145
84 114 147
97 125 149
92 120 144
89 118 131
92 120 138
87 117 147
96 124 149
102 128 152
97 125 149
95 122 150
89 116 144
90 117 145
95 122 155
88 116 149
94 121 139
80 110 151
93 121 150
99 126 151
95 122 144
96 122 143
99 126 163
101 128 159
104 130 151
98 125 154
90 119 148
112 138 153
102 128 153
85 115 151
94 122 158
91 119 151
80 110 158
85 114 154
75 109 170
77 109 175
82 113 177
77 109 170
74 107 167
81 112 168
82 112 171
71 104 164
73 104 160
70 101 158
68 100 151
63 98 155
61 97 157
61 97 151
61 97 162
61 96 146
61 96 155
60 96 147
59 94 147
61 96 153
59 94 146
60 95 143
64 99 147
64 99 147
62 96 141
61 95 134
63 97 139
61 95 145
58 92 131
59 94 134
60 94 145
59 94 141
60 95 137
60 95 148
59 94 140
59 94 133
59 94 136
59 94 133
60 96 152
58 92 130
61 96 146
58 93 129
60 95 137
61 97 152
61 96 149
60 95 141
59 94 134
59 94 137
61 96 151
59 95 140
60 95 139
60 95 137
60 95 140
61 95 142
60 95 144
59 94 141
60 95 136
61 97 147
60 95 140
61 97 151
61 96 146
60 95 137
62 97 152
58 93 126
60 96 150
60 95 136
60 95 145
62 97 150
60 95 139
61 96 142
61 96 148
60 95 141
60 94 131
60 95 137
62 97 151
60 95 144
61 95 142
61 96 142
61 96 142
59 94 136
60 95 137
60 95 141
61 96 147
61 96 147
60 95 145
61 96 136
62 97 152
61 97 152
61 96 140
60 95 150
60 95 135
60 95 142
60 94 137
60 95 136
60 96 140
62 97 145
59 93 130
60 95 149
60 95 139
61 96 144
59 94 131
62 97 142
61 96 143
60 95 134
60 94 133
60 95 129
61 96 143
60 95 140
61 96 144
62 97 145
60 95 136
60 94 130
60 94 135
58 92 126
59 94 129
61 97 148
60 95 134
60 95 139
59 94 129
60 95 137
58 92 126
60 95 133
58 92 126
59 93 131
60 94 126
60 94 133
59 93 137
60 94 128
60 94 131
58 92 121
60 94 129
58 91 115
59 92 125
58 91 121
59 93 124
59 92 128
57 90 122
59 92 126
56 89 115
57 89 102
108 119 40
124 133 0
110 120 0
124 136 0
129 138 0
117 129 0
119 130 0
123 133 0
127 139 0
119 131 0
120 133 0
125 136 0
124 132 0
122 131 0
123 132 0
124 137 0
126 136 0
127 137 0
137 149 0
136 144 0
123 133 0
128 135 0
118 127 0
134 142 0
136 148 0
130 138 0
121 129 0
125 134 0
122 127 0
133 144 0
133 144 0
135 146 0
122 131 0
124 127 0
131 139 0
127 136 0
123 131 0
126 132 0
133 140 0
130 136 0
138 146 0
135 143 0
130 135 0
139 146 0
128 133 0
129 137 0
133 135 0
127 133 0
132 139 0
141 149 0
139 146 0
139 147 0
120 125 0
135 141 0
149 159 0
139 142 0
138 146 0
140 146 0
141 150 0
140 142 0
127 130 0
136 142 0
135 141 0
140 147 0
141 149 0
143 147 0
142 150 0
144 149 0
150 158 0
141 144 0
137 139 0
146 155 0
147 156 0
142 147 0
142 148 0
149 156 0
146 152 0
154 164 0
150 158 0
154 162 0
149 160 0
149 154 0
147 154 0
146 156 0
151 159 0
150 157 0
151 160 0
154 164 0
149 159 0
147 154 0
155 167 0
145 151 0
152 161 0
147 155 0
154 163 0
151 161 0
155 167 0
146 156 0
154 164 0
148 153 0
156 168 0
158 170 0
158 169 0
155 165 0
149 161 0
162 176 0
162 174 0
154 164 0
157 169 0
162 175 0
160 173 0
157 170 0
158 171 0
161 175 0
159 171 0
159 172 0
159 168 0
158 170 0
161 177 0
165 180 0
158 171 0
162 179 0
162 175 0
162 179 0
162 180 0
156 170 0
167 185 0
161 176 0
166 185 0
166 182 0
164 179 0
161 175 0
161 177 0
164 181 0
160 173 0
165 181 0
166 183 0
160 176 0
167 183 0
162 179 0
166 182 0
164 179 0
165 183 0
167 184 0
166 185 0
168 184 0
167 187 0
167 185 0
169 186 0
170 194 62
172 196 62
176 200 84
175 199 88
173 197 80
172 196 80
172 196 67
172 196 44
175 198 67
174 198 80
175 198 62
169 193 72
172 196 57
171 195 84
171 195 51
173 198 95
170 193 51
173 197 80
170 195 111
171 195 88
171 195 76
171 194 72
168 192 62
171 196 62
166 189 44
169 192 62
168 193 99
172 197 67
167 192 76
172 196 72
173 197 92
171 194 67
168 192 62
167 190 44
167 192 92
168 193 76
166 191 76
168 190 44
170 195 88
169 194 57
167 191 57
167 191 80
172 195 76
172 195 72
168 192 72
164 188 67
163 187 84
168 191 67
166 190 67
172 197 88
166 189 76
166 190 44
163 188 76
170 194 57
163 187 51
169 193 57
167 191 84
167 189 76
166 190 84
169 192 95
171 194 76
166 190 62
161 183 88
168 192 80
164 187 57
170 194 57
164 189 62
168 191 67
166 190 84
163 185 80
170 194 80
166 189 76
163 186 76
165 189 72
166 188 95
163 187 84
164 188 99
161 185 76
119 143 117
93 122 135
95 123 140
96 124 147
90 119 148
89 118 147
77 107 134
84 114 145
85 114 141
86 114 138
88 116 139
99 126 154
77 106 128
91 119 141
85 114 136
87 116 152
85 114 139
102 129 165
97 124 147
94 121 146
106 131 150
97 124 148
94 122 151
94 121 142
96 123 150
90 118 141
106 131 154
102 128 156
102 128 143
89 117 148
88 116 147
104 130 152
95 123 149
72 104 159
82 112 162
80 112 180
82 113 173
83 113 169
80 111 172
84 114 167
88 117 176
81 110 170
69 101 162
75 103 153
67 99 151
61 97 153
61 97 160
62 98 161
61 97 158
62 96 144
60 96 151
61 96 153
60 95 147
60 95 144
59 93 140
61 96 143
59 93 142
64 97 140
61 95 139
60 94 134
63 96 132
64 97 133
58 92 133
59 94 138
60 95 139
59 94 143
60 94 141
59 93 137
60 95 149
59 93 143
60 95 140
60 95 144
58 93 133
61 96 145
59 94 131
60 95 141
60 95 136
61 97 152
60 95 135
59 94 140
60 95 144
60 95 147
60 95 142
60 95 147
60 95 144
58 93 137
60 95 136
61 95 140
61 97 152
60 95 147
61 97 151
60 95 148
60 94 144
59 94 126
59 95 142
61 97 145
60 94 144
60 96 139
61 96 145
61 95 141
61 96 145
60 95 143
61 96 144
61 95 142
59 93 135
61 96 139
61 96 147
61 97 149
59 94 141
62 98 158
61 97 150
59 93 129
61 96 149
61 96 145
60 95 141
59 93 128
59 94 128
61 96 140
61 96 141
61 96 137
61 96 144
61 96 147
61 96 137
60 95 135
60 95 133
59 95 139
61 96 140
61 96 141
61 96 141
61 96 140
60 95 139
60 95 142
60 95 144
60 94 131
60 95 141
60 95 144
59 93 131
61 96 137
60 94 134
60 95 136
59 93 121
60 95 130
59 93 128
60 95 147
59 94 134
60 95 139
59 93 134
60 95 133
61 96 143
62 97 145
60 94 130
60 94 139
60 94 134
58 91 120
59 94 130
60 94 134
59 94 135
60 95 134
61 96 143
59 93 126
58 92 129
61 95 134
60 94 122
60 94 130
58 92 124
58 91 110
59 93 129
58 91 124
58 92 122
58 90 117
59 92 121
56 88 116
92 113 89
123 132 0
124 135 0
118 126 0
130 142 0
122 134 0
123 137 0
126 138 0
130 142 0
123 133 0
121 129 0
135 144 0
121 131 0
123 134 0
133 143 0
134 147 0
121 133 0
131 139 0
128 140 0
129 138 0
136 147 0
126 136 0
127 138 0
130 139 0
127 136 0
126 135 0
124 132 0
124 132 0
134 143 0
136 145 0
137 145 0
124 130 0
127 135 0
130 140 0
128 136 0
128 134 0
129 141 0
131 137 0
137 146 0
125 134 0
134 140 0
130 135 0
120 128 0
137 146 0
124 131 0
139 143 0
137 145 0
133 142 0
139 147 0
142 152 0
134 140 0
133 139 0
136 142 0
131 137 0
135 142 0
138 147 0
140 146 0
130 135 0
144 150 0
143 151 0
135 139 0
137 142 0
138 145 0
144 150 0
140 144 0
147 155 0
139 144 0
142 150 0
140 148 0
146 153 0
147 155 0
143 151 0
142 153 0
144 150 0
148 154 0
145 151 0
143 151 0
140 149 0
149 159 0
146 155 0
151 159 0
152 159 0
150 158 0
148 157 0
149 157 0
153 162 0
151 158 0
145 149 0
149 159 0
148 156 0
156 165 0
151 160 0
151 160 0
154 164 0
153 161 0
152 162 0
152 165 0
150 160 0
150 161 0
154 164 0
150 158 0
158 170 0
153 164 0
154 166 0
163 176 0
161 173 0
156 169 0
157 168 0
155 166 0
159 170 0
160 172 0
158 171 0
158 172 0
162 176 0
160 173 0
160 171 0
160 174 0
161 174 0
159 171 0
160 176 0
154 166 0
157 168 0
163 178 0
163 177 0
161 177 0
159 173 0
165 181 0
164 179 0
162 175 0
161 178 0
164 180 0
165 184 0
162 178 0
168 185 0
165 179 0
163 176 0
163 179 0
163 180 0
166 184 0
165 182 0
165 182 0
165 183 0
169 187 0
164 182 0
167 184 0
170 189 0
164 180 0
163 182 0
166 183 0
165 182 0
171 195 72
174 197 105
173 198 76
171 195 84
175 197 72
170 195 51
174 197 62
169 192 51
170 194 62
173 196 67
174 197 72
174 198 99
174 198 84
175 199 80
171 195 76
171 195 76
172 196 88
172 196 62
170 194 72
170 194 72
168 191 51
170 194 72
168 192 67
170 195 84
168 193 92
170 194 84
170 194 62
169 193 51
171 195 95
168 191 92
174 198 88
169 194 88
167 192 72
172 197 84
175 199 80
169 193 62
169 193 72
169 194 67
169 193 67
172 196 84
167 190 62
171 194 80
169 193 72
168 193 92
166 190 84
168 191 67
165 189 62
168 192 62
167 191 57
166 190 92
166 190 80
167 191 84
160 183 57
166 191 67
170 195 95
169 193 76
167 191 88
166 189 67
172 196 84
165 188 57
167 191 95
166 191 76
167 190 92
170 193 62
166 189 67
162 186 51
166 189 76
162 185 62
166 190 76
163 187 99
161 183 72
174 198 76
167 190 80
164 187 80
164 187 72
164 186 76
166 189 80
163 186 80
154 176 72
98 125 118
86 115 140
96 124 145
92 120 135
82 111 129
85 114 148
89 119 151
84 114 146
93 120 143
88 116 137
81 111 139
93 121 147
95 122 148
101 128 153
84 113 141
90 118 150
102 128 158
87 116 152
87 115 140
97 124 149
99 126 151
106 132 160
97 124 143
96 123 141
104 129 151
96 123 145
105 131 154
96 123 140
105 131 144
88 116 143
90 119 147
83 112 147
99 126 151
90 119 157
77 110 178
71 105 169
74 107 171
87 116 168
80 111 166
74 107 168
91 119 174
82 110 167
72 102 152
77 106 160
67 100 154
60 96 156
61 97 157
61 97 152
61 96 152
61 96 156
61 97 153
59 94 143
60 96 150
63 97 144
61 95 137
62 97 148
62 96 146
66 100 143
68 101 133
62 96 138
64 97 136
59 93 135
59 94 136
58 93 131
60 95 151
60 95 145
60 95 139
59 93 129
59 94 140
58 92 141
61 97 151
59 93 144
60 95 142
61 96 150
59 93 137
60 95 145
58 93 129
59 93 133
58 93 131
60 95 135
59 94 139
61 96 145
59 94 131
60 96 145
62 97 153
60 95 139
60 95 143
60 96 143
59 94 143
59 94 129
59 94 141
59 94 135
60 95 140
59 94 141
59 94 136
60 95 137
59 94 143
61 96 147
60 94 140
61 97 150
61 97 145
60 95 145
61 97 147
61 96 145
61 96 145
61 96 144
60 94 139
59 94 139
62 97 148
59 94 139
61 97 153
59 94 129
60 95 135
59 93 131
61 96 148
59 94 133
61 95 142
60 95 135
60 96 143
61 96 141
61 96 139
62 97 145
60 94 137
60 95 141
61 97 148
60 95 136
60 95 136
60 95 135
59 94 131
61 96 144
61 97 150
61 96 147
61 96 141
61 96 142
61 95 133
59 94 128
60 95 141
60 95 137
60 95 140
61 96 145
60 94 136
57 91 126
60 95 133
61 96 140
60 95 129
59 94 124
60 94 139
61 95 135
59 94 126
60 94 135
59 93 121
60 94 131
60 95 135
60 94 134
60 95 143
60 94 129
61 96 135
61 96 139
58 92 117
60 95 135
59 94 134
59 93 131
58 92 108
59 93 129
59 93 120
59 93 125
57 90 108
57 90 114
57 90 108
57 89 123
73 99 101
113 124 18
122 132 0
116 125 0
124 137 0
132 143 0
117 125 0
128 138 0
126 138 0
129 141 0
127 138 0
115 123 0
128 139 0
128 139 0
129 142 0
130 138 0
117 126 0
118 126 0
118 128 0
129 140 0
124 136 0
126 134 0
127 136 0
117 125 0
128 141 0
124 132 0
117 127 0
121 131 0
130 138 0
134 145 0
131 138 0
135 145 0
127 133 0
130 140 0
131 142 0
136 143 0
131 139 0
129 139 0
136 143 0
126 133 0
127 135 0
132 138 0
137 147 0
122 126 0
128 133 0
133 137 0
137 146 0
140 151 0
130 136 0
132 139 0
133 141 0
145 156 0
139 148 0
130 139 0
138 146 0
135 143 0
130 137 0
132 141 0
138 146 0
139 148 0
144 153 0
140 148 0
139 145 0
140 149 0
143 153 0
140 148 0
142 148 0
138 147 0
137 144 0
148 156 0
145 152 0
145 153 0
143 149 0
144 150 0
148 156 0
139 146 0
152 160 0
155 163 0
149 158 0
150 157 0
150 160 0
153 162 0
151 160 0
154 164 0
153 162 0
147 153 0
153 165 0
151 161 0
145 155 0
152 159 0
149 158 0
153 161 0
152 161 0
152 164 0
158 170 0
152 163 0
151 161 0
156 166 0
156 168 0
157 168 0
153 165 0
153 164 0
157 168 0
157 167 0
152 161 0
153 167 0
161 174 0
154 166 0
162 176 0
156 166 0
157 169 0
160 171 0
160 172 0
155 165 0
159 171 0
164 179 0
161 176 0
161 176 0
159 170 0
157 172 0
156 165 0
162 179 0
162 176 0
163 178 0
162 177 0
161 175 0
159 171 0
162 177 0
163 177 0
163 178 0
167 182 0
162 177 0
164 180 0
165 181 0
162 177 0
168 186 0
164 180 0
164 181 0
166 182 0
161 177 0
164 178 0
164 181 0
166 185 0
164 183 0
165 182 0
163 178 0
165 183 0
166 185 0
166 185 0
164 183 0
163 180 0
171 195 57
168 191 44
170 195 67
172 195 80
174 198 80
172 195 72
172 196 57
171 195 84
172 196 76
171 195 84
173 197 72
174 199 84
168 192 72
170 194 57
170 194 67
173 198 72
170 194 80
169 193 57
174 198 67
169 193 72
170 194 76
171 195 62
170 195 76
168 191 57
168 192 76
170 192 57
172 197 95
173 197 84
174 198 80
167 191 80
176 200 62
173 197 76
170 194 67
173 197 76
169 194 92
170 194 80
172 196 92
170 195 67
168 192 76
170 194 88
169 194 88
172 196 76
171 195 57
171 196 88
170 194 88
162 185 62
173 196 76
167 191 76
170 194 76
164 187 76
166 190 76
171 195 67
167 191 84
162 186 62
170 193 72
173 196 95
170 193 72
164 187 57
166 189 44
163 188 88
161 185 88
163 187 67
166 190 72
161 185 80
166 191 72
161 184 67
161 184 72
164 187 72
166 190 72
160 184 57
160 184 67
161 183 51
166 189 67
158 181 67
164 187 62
166 189 51
157 180 67
160 183 76
162 185 80
131 156 95
85 112 128
103 129 140
99 126 149
93 120 140
96 124 139
80 109 131
80 109 133
82 111 133
74 104 134
88 117 150
91 119 140
83 113 147
92 119 140
86 114 139
100 127 151
95 122 157
97 123 133
103 129 149
95 121 146
98 125 150
92 118 156
105 130 142
100 127 144
92 119 148
102 128 146
116 140 171
104 129 150
97 124 135
108 133 140
89 117 142
97 124 150
84 113 143
90 117 154
89 117 149
78 110 173
74 106 166
75 107 169
77 109 172
76 107 163
74 106 164
75 106 161
77 104 153
72 103 156
77 105 153
61 97 154
61 97 160
60 95 152
62 98 164
60 96 152
61 96 153
63 98 150
60 95 138
60 95 139
62 96 147
66 100 148
61 96 145
66 99 140
63 96 136
63 96 134
58 93 129
58 92 133
60 95 141
60 95 145
60 95 146
59 94 137
58 93 134
60 94 142
59 94 135
60 95 140
60 95 138
60 94 142
59 94 125
59 94 136
60 95 148
59 94 139
60 95 143
60 95 140
60 95 134
59 94 135
60 96 149
60 95 134
59 94 141
60 95 137
59 94 137
60 95 136
59 94 140
61 96 141
59 94 140
61 97 153
59 93 136
61 96 147
60 95 136
60 95 141
60 95 130
60 95 143
61 96 137
60 95 139
60 95 136
61 96 141
61 96 142
60 95 135
60 95 139
61 97 150
60 95 134
61 96 142
59 94 139
60 95 136
61 96 148
60 95 135
59 94 129
60 94 131
61 96 144
60 95 137
61 95 143
61 96 140
61 96 139
59 94 133
61 96 140
60 95 137
60 95 126
61 96 145
60 96 145
61 97 145
61 96 144
59 94 134
60 94 133
60 95 131
60 95 130
62 97 147
60 94 130
59 93 133
60 95 135
60 95 131
60 95 137
59 93 139
61 97 143
60 96 135
60 95 137
61 96 142
60 95 137
60 94 136
60 95 136
59 94 131
58 92 128
58 92 134
60 94 136
61 95 131
59 94 136
59 94 129
59 92 125
59 92 125
59 94 131
57 91 120
58 92 124
57 91 126
57 91 117
61 96 136
60 94 131
60 94 129
58 92 118
58 92 124
60 94 130
58 91 124
58 91 120
59 92 125
58 91 122
58 90 113
57 90 113
57 90 110
110 125 60
130 143 0
122 134 0
115 126 0
134 147 0
137 151 0
118 129 0
116 126 0
116 125 0
134 147 0
126 137 0
133 145 0
126 137 0
128 138 0
126 137 0
131 145 0
128 139 0
126 138 0
121 132 0
125 134 0
128 140 0
131 142 0
126 135 0
114 120 0
126 137 0
128 135 0
134 143 0
123 130 0
133 142 0
124 134 0
130 140 0
136 146 0
127 135 0
134 143 0
134 144 0
137 147 0
124 134 0
137 147 0
129 139 0
138 147 0
135 141 0
132 141 0
135 144 0
136 146 0
137 147 0
137 144 0
143 153 0
132 142 0
140 152 0
140 149 0
134 145 0
135 144 0
134 139 0
141 150 0
139 149 0
131 139 0
135 141 0
131 140 0
142 152 0
137 146 0
142 150 0
136 142 0
145 152 0
145 151 0
145 150 0
133 144 0
140 149 0
138 142 0
140 148 0
141 151 0
150 159 0
148 156 0
147 155 0
143 153 0
144 151 0
143 150 0
139 147 0
141 148 0
155 168 0
146 156 0
151 161 0
150 159 0
143 152 0
151 159 0
152 163 0
150 160 0
150 161 0
146 154 0
148 158 0
149 159 0
151 161 0
151 161 0
150 158 0
154 166 0
158 170 0
150 160 0
144 154 0
154 166 0
153 165 0
156 168 0
155 169 0
156 167 0
159 172 0
153 166 0
160 170 0
157 170 0
156 170 0
155 167 0
162 176 0
156 166 0
157 171 0
165 178 0
157 172 0
163 181 0
157 171 0
159 172 0
159 174 0
163 182 0
163 178 0
156 169 0
162 176 0
162 177 0
163 176 0
163 180 0
157 171 0
162 176 0
160 173 0
160 173 0
166 181 0
161 177 0
162 177 0
163 176 0
162 177 0
160 178 0
159 173 0
164 180 0
162 177 0
162 180 0
163 180 0
166 182 0
164 178 0
162 181 0
167 186 0
163 178 0
163 182 0
166 183 0
166 183 0
165 181 0
165 180 0
169 187 0
163 181 0
170 194 72
175 197 72
173 196 76
171 195 51
171 194 44
173 197 67
173 196 72
172 196 76
170 195 62
171 195 76
170 194 72
170 194 80
171 195 72
167 193 57
172 195 67
170 193 67
173 197 72
168 193 44
172 195 76
172 197 67
165 188 67
167 192 80
173 198 95
169 193 57
168 192 67
173 197 88
170 194 72
169 193 88
169 194 76
169 193 80
170 195 67
168 192 67
170 194 76
170 194 72
169 193 62
170 195 76
170 194 62
165 189 80
168 192 62
170 194 62
168 192 72
165 188 51
171 195 67
168 192 80
168 192 84
164 187 67
167 191 76
165 188 62
168 192 72
169 193 57
168 192 95
168 191 72
168 193 84
163 187 67
166 189 76
165 190 67
166 190 92
168 192 67
169 193 84
167 192 76
167 191 84
162 186 62
162 186 62
165 188 67
168 191 67
170 194 80
167 190 80
163 186 62
161 184 51
163 186 84
160 182 72
160 184 72
166 189 72
164 187 72
162 185 84
154 177 72
156 178 62
164 187 72
160 184 88
153 177 80
109 135 125
97 124 147
82 111 133
86 114 131
102 129 141
89 117 136
89 117 134
101 128 150
81 110 140
90 117 141
91 119 137
92 121 157
90 118 124
102 128 137
97 124 146
92 120 147
86 115 147
106 132 159
89 117 145
87 115 139
100 126 150
93 120 143
96 123 145
102 129 155
85 114 151
97 125 145
98 125 139
92 120 132
105 130 148
95 120 141
82 111 143
90 118 134
96 123 145
86 115 152
83 113 165
83 113 176
75 107 169
77 108 170
77 108 170
88 117 169
74 107 168
73 104 164
72 104 163
73 102 148
75 103 147
60 96 160
62 98 157
60 96 153
60 95 148
62 96 148
60 95 145
59 94 146
59 94 141
60 95 149
61 96 150
58 93 134
62 95 130
62 97 144
66 99 138
61 96 133
59 93 134
57 92 128
60 95 136
59 93 131
59 93 133
59 93 137
59 94 133
60 94 133
59 94 134
59 94 129
60 95 147
62 97 150
60 95 134
60 95 140
59 94 126
60 95 141
59 94 136
60 94 142
60 95 141
59 94 137
59 93 122
60 96 144
59 94 133
60 96 143
59 94 134
59 93 139
60 95 134
60 95 141
61 96 140
59 94 130
61 97 148
60 95 136
60 95 142
60 94 134
59 94 140
60 95 136
60 95 141
60 95 143
61 96 148
60 95 135
61 96 147
60 95 139
59 94 136
60 94 135
60 95 147
61 96 141
60 95 145
60 94 139
59 94 133
59 94 137
60 95 131
61 96 144
60 95 140
59 94 141
60 95 142
59 93 128
62 97 150
59 94 133
59 94 134
60 95 145
61 96 140
59 94 126
60 95 137
59 94 126
59 94 121
60 94 137
60 95 139
59 93 134
61 96 139
61 95 143
60 94 133
60 95 136
61 96 142
60 95 139
60 95 139
61 96 144
60 95 137
60 94 134
60 95 130
60 94 130
60 94 135
59 93 125
59 93 129
61 96 140
61 96 136
60 94 131
61 96 141
60 94 135
59 93 129
59 93 129
58 92 121
59 93 129
60 94 137
58 92 121
60 94 129
60 93 131
59 92 125
58 92 121
60 94 136
58 92 123
57 90 111
59 93 123
58 92 125
58 91 118
58 91 121
58 92 124
57 88 111
56 88 108
88 112 92
111 121 0
119 130 0
115 126 0
133 145 0
123 135 0
129 142 0
120 130 0
112 123 0
118 128 0
126 134 0
129 142 0
132 145 0
130 143 0
129 136 0
126 138 0
128 140 0
119 127 0
130 141 0
126 137 0
120 131 0
131 142 0
122 133 0
132 145 0
133 145 0
124 135 0
132 140 0
128 138 0
128 140 0
134 147 0
136 143 0
127 138 0
133 147 0
138 149 0
135 146 0
124 134 0
137 145 0
133 143 0
126 136 0
148 157 0
137 148 0
135 143 0
144 155 0
135 147 0
127 135 0
131 135 0
143 151 0
136 142 0
135 141 0
139 146 0
135 144 0
143 152 0
135 146 0
143 149 0
133 142 0
140 148 0
144 150 0
143 155 0
136 143 0
140 149 0
145 154 0
136 144 0
139 144 0
145 154 0
140 150 0
133 141 0
149 158 0
147 156 0
138 149 0
142 153 0
141 150 0
141 152 0
149 159 0
143 149 0
152 162 0
145 151 0
153 164 0
145 157 0
155 166 0
150 161 0
146 156 0
147 155 0
155 167 0
144 150 0
152 161 0
155 165 0
153 163 0
148 160 0
145 155 0
152 162 0
153 163 0
151 156 0
149 162 0
152 162 0
147 159 0
148 156 0
149 161 0
154 164 0
153 166 0
149 159 0
152 164 0
157 168 0
155 168 0
157 170 0
159 174 0
157 169 0
153 164 0
161 173 0
154 165 0
154 166 0
154 165 0
160 171 0
156 169 0
156 166 0
156 169 0
158 171 0
162 177 0
158 172 0
159 175 0
164 175 0
161 177 0
165 181 0
164 180 0
163 179 0
161 176 0
163 178 0
159 174 0
160 174 0
160 176 0
164 181 0
164 179 0
160 175 0
168 187 0
159 175 0
165 183 0
163 180 0
165 181 0
163 178 0
164 179 0
164 183 0
167 185 0
165 182 0
166 183 0
165 182 0
168 187 0
162 176 0
165 184 0
164 181 0
167 184 0
164 182 0
166 184 0
167 182 0
173 196 62
175 198 62
172 196 76
173 196 57
173 196 57
172 195 80
169 192 62
172 196 80
171 195 44
171 193 80
170 194 44
174 197 80
170 194 57
169 193 67
172 196 88
168 191 62
169 194 72
169 194 84
167 191 62
170 194 72
172 196 67
170 194 62
170 194 67
169 194 84
169 194 84
169 193 72
168 192 88
170 194 76
173 197 80
169 194 80
162 186 57
171 195 76
170 194 88
171 195 51
169 193 84
172 195 80
168 193 67
170 194 67
171 194 57
164 189 88
168 192 80
170 194 67
169 193 67
167 191 62
164 187 51
167 190 67
170 193 76
164 188 67
163 188 72
169 193 95
167 190 67
165 189 80
166 190 80
166 191 88
167 191 72
164 187 67
167 192 88
164 188 80
168 191 99
170 194 80
168 191 62
160 184 80
160 184 67
162 186 62
167 191 80
168 191 76
160 183 51
163 186 62
162 185 80
167 190 62
160 183 62
169 192 67
163 186 76
162 185 76
160 184 62
159 181 62
165 188 92
156 178 51
163 187 88
164 187 92
144 168 107
94 122 132
92 121 143
83 112 130
93 121 136
85 113 126
94 120 126
83 112 131
83 113 141
90 118 142
86 113 133
89 117 136
90 118 136
103 129 157
92 120 149
101 127 141
88 116 149
90 117 141
89 117 142
97 124 143
95 122 149
92 120 143
100 127 151
101 127 154
95 121 139
87 116 141
91 119 144
104 129 141
115 140 156
110 134 140
107 132 139
90 119 158
94 122 156
90 118 146
78 109 151
80 111 167
71 104 159
80 111 174
79 110 165
83 113 172
94 122 172
74 106 166
65 99 158
72 101 153
68 99 151
74 103 155
61 97 154
59 95 149
61 96 148
60 95 150
60 95 147
60 95 147
60 95 145
61 96 140
61 96 151
62 96 137
64 98 141
65 98 143
65 98 133
64 97 132
61 95 138
63 96 133
59 94 129
59 94 135
59 94 140
59 93 126
60 95 137
61 96 144
59 93 141
59 93 141
61 96 148
59 94 139
60 95 140
59 94 143
60 94 138
60 95 144
60 95 145
59 94 135
57 91 134
60 95 141
61 96 145
60 96 141
61 95 136
61 96 140
60 95 144
60 95 139
59 94 136
59 94 131
60 95 139
59 93 139
61 96 145
61 96 147
61 96 142
61 96 140
59 94 129
59 93 134
59 93 129
60 95 140
59 94 133
61 96 148
61 96 145
59 94 134
61 96 143
59 94 127
62 97 148
61 96 142
61 96 144
59 94 130
60 95 137
60 95 134
60 95 141
59 94 131
60 95 137
60 95 135
58 93 129
61 96 139
61 96 140
60 94 134
60 95 134
59 94 126
58 92 126
60 95 134
60 94 130
58 93 126
60 95 139
62 97 149
60 95 133
61 96 144
61 96 142
60 94 136
60 95 133
60 95 129
60 95 139
60 95 134
60 95 133
60 94 133
61 96 140
59 94 129
58 92 118
61 96 139
61 96 136
60 95 135
59 93 137
59 94 130
60 95 140
59 94 134
59 93 124
59 93 124
58 92 124
59 94 135
60 94 135
58 92 118
59 93 124
57 90 108
59 94 136
59 93 125
61 95 131
58 91 118
61 95 133
57 90 118
58 92 129
58 92 120
57 90 105
59 93 118
56 89 115
58 90 123
57 89 110
64 93 104
114 128 18
109 121 0
121 133 0
122 132 0
127 138 0
131 144 0
121 130 0
132 146 0
111 124 0
126 138 0
120 132 0
124 134 0
134 146 0
124 134 0
127 141 0
118 131 0
129 140 0
123 134 0
120 131 0
125 134 0
126 138 0
133 145 0
123 135 0
140 149 0
125 135 0
131 144 0
133 144 0
135 143 0
133 144 0
122 132 0
135 147 0
131 145 0
134 143 0
130 140 0
129 138 0
133 142 0
135 146 0
135 146 0
129 136 0
136 145 0
129 138 0
133 145 0
138 146 0
141 151 0
143 151 0
136 143 0
134 143 0
141 147 0
135 146 0
131 139 0
137 143 0
137 146 0
132 142 0
139 148 0
140 149 0
136 146 0
138 148 0
147 158 0
143 157 0
139 149 0
152 164 0
144 154 0
134 138 0
138 148 0
144 150 0
144 153 0
137 144 0
152 163 0
139 148 0
145 154 0
143 152 0
139 146 0
148 157 0
148 155 0
144 153 0
150 157 0
150 162 0
146 156 0
157 166 0
152 163 0
151 161 0
149 161 0
153 162 0
145 156 0
151 161 0
154 163 0
150 160 0
156 168 0
150 162 0
153 161 0
149 158 0
152 162 0
154 164 0
157 169 0
156 168 0
158 170 0
149 157 0
154 166 0
151 164 0
159 170 0
151 164 0
154 166 0
152 160 0
153 164 0
159 174 0
158 169 0
152 164 0
156 169 0
158 172 0
162 176 0
161 174 0
157 170 0
160 174 0
156 168 0
162 179 0
158 171 0
158 171 0
161 177 0
160 176 0
159 172 0
161 177 0
162 176 0
161 177 0
166 182 0
157 171 0
164 181 0
158 175 0
160 175 0
166 182 0
159 175 0
160 174 0
164 181 0
166 182 0
162 178 0
165 181 0
162 178 0
163 179 0
164 182 0
165 183 0
163 179 0
164 180 0
162 179 0
163 180 0
169 188 0
165 182 0
166 184 0
165 184 0
166 184 0
165 185 0
166 184 0
166 184 0
161 177 0
171 194 80
170 194 67
170 194 36
171 194 80
171 194 51
171 196 62
168 192 84
174 199 76
171 197 84
170 194 67
168 193 84
168 192 80
170 194 84
172 196 84
170 194 72
173 197 67
171 195 72
175 199 95
169 192 57
169 192 57
171 196 72
171 195 76
171 194 72
169 194 95
171 196 92
169 193 72
175 199 88
172 196 84
168 192 72
172 196 84
169 193 67
170 194 67
166 190 57
168 192 67
167 190 62
167 191 51
161 186 84
164 188 57
171 195 62
168 192 67
169 193 80
170 194 84
168 193 80
171 195 84
166 190 57
166 190 76
167 192 80
167 191 80
165 189 76
167 191 92
172 196 76
164 187 67
164 189 88
165 189 80
163 188 84
165 188 57
166 189 72
159 183 51
167 191 62
164 187 57
165 189 80
163 187 72
162 184 70
166 189 76
165 190 72
163 186 57
162 184 62
166 190 80
165 188 67
162 186 88
163 187 84
159 183 72
161 184 67
158 181 84
160 183 72
161 183 67
161 184 57
161 184 80
166 188 57
161 184 84
161 184 76
116 141 107
89 117 124
81 111 143
85 113 126
97 124 147
89 117 137
84 112 120
87 114 125
95 121 136
100 126 142
105 131 153
103 128 135
88 116 144
105 131 148
90 118 150
92 119 143
103 128 145
95 122 144
94 121 137
95 122 141
97 124 139
92 120 146
96 123 144
103 130 153
88 116 145
97 124 140
93 119 142
85 113 139
107 133 149
101 127 134
97 122 146
96 124 150
81 112 151
86 115 150
97 125 162
73 105 162
72 105 165
77 108 164
77 109 169
81 111 158
93 121 177
83 112 165
73 103 151
76 104 158
77 103 148
64 97 143
60 95 148
60 95 141
60 95 140
60 96 152
60 95 149
62 97 148
62 97 140
61 96 145
62 97 147
63 96 125
62 96 133
60 95 135
61 95 134
64 97 138
66 98 129
59 94 137
60 95 139
59 94 136
58 92 136
60 95 134
60 95 141
60 94 139
60 95 144
59 93 133
60 94 128
58 93 141
61 96 143
59 94 133
60 95 141
60 94 140
60 95 136
59 95 138
60 95 142
59 93 133
59 93 133
61 96 145
60 95 136
60 95 137
60 94 137
58 92 136
59 93 131
61 96 147
60 94 137
60 95 137
60 96 137
61 96 138
59 94 130
59 94 136
60 96 141
60 95 140
60 95 136
60 94 129
59 94 133
60 94 131
61 96 136
59 93 131
58 93 120
60 94 135
59 94 137
59 94 135
60 94 135
60 96 145
60 95 137
61 96 140
61 96 145
61 96 142
61 95 134
61 96 145
60 95 134
59 94 134
59 93 130
60 94 140
60 94 133
60 95 139
60 95 135
60 95 140
61 96 139
60 94 135
60 95 141
60 94 129
59 94 133
61 96 141
60 95 135
59 94 121
60 94 131
58 92 125
61 96 143
60 95 130
60 94 133
60 95 139
61 96 139
60 95 137
59 94 133
60 95 133
60 94 131
60 94 129
60 95 136
58 92 121
60 95 130
60 94 131
60 95 140
60 95 133
57 90 120
59 93 125
58 92 121
59 94 125
57 90 111
59 93 124
60 94 135
58 91 118
57 91 121
59 92 124
61 96 136
59 93 130
59 92 121
58 92 122
59 92 123
58 92 115
57 90 110
57 90 115
112 128 51
131 141 0
117 132 0
131 144 0
128 141 0
120 132 0
119 133 0
123 136 0
115 129 0
124 135 0
131 142 0
110 121 0
128 141 0
126 139 0
123 136 0
124 135 0
127 138 0
134 147 0
123 132 0
130 144 0
128 138 0
140 155 0
128 141 0
126 137 0
128 138 0
117 130 0
135 148 0
136 148 0
128 138 0
135 148 0
127 136 0
124 131 0
132 141 0
124 134 0
143 153 0
136 144 0
134 144 0
138 149 0
129 140 0
128 136 0
131 139 0
131 139 0
135 145 0
130 137 0
132 143 0
136 147 0
134 140 0
132 142 0
143 154 0
134 148 0
136 143 0
135 144 0
124 133 0
138 148 0
131 138 0
133 139 0
133 139 0
137 145 0
134 142 0
141 150 0
139 147 0
146 156 0
140 150 0
127 135 0
138 142 0
149 160 0
146 156 0
139 147 0
141 151 0
143 153 0
145 150 0
146 155 0
146 154 0
146 158 0
153 166 0
143 152 0
155 168 0
151 160 0
148 160 0
149 158 0
146 155 0
154 165 0
148 155 0
150 160 0
152 165 0
153 162 0
152 163 0
148 158 0
150 159 0
160 172 0
151 165 0
157 171 0
153 165 0
148 156 0
154 165 0
151 162 0
158 171 0
157 169 0
152 166 0
155 168 0
157 169 0
156 171 0
155 169 0
155 168 0
157 171 0
155 165 0
154 164 0
158 171 0
159 173 0
154 167 0
151 165 0
161 175 0
159 171 0
160 176 0
160 174 0
154 169 0
161 177 0
159 172 0
156 167 0
156 168 0
165 180 0
161 177 0
161 175 0
159 174 0
160 176 0
165 180 0
161 176 0
163 177 0
159 173 0
155 167 0
163 179 0
160 178 0
162 178 0
160 175 0
165 182 0
161 179 0
166 183 0
167 185 0
167 186 0
166 181 0
162 178 0
164 183 0
162 180 0
162 180 0
165 183 0
165 182 0
160 176 0
166 183 0
165 184 0
165 183 0
166 185 0
166 182 0
164 184 0
174 198 84
172 196 62
173 196 67
171 195 51
171 195 62
170 194 76
172 196 57
171 195 76
172 195 72
172 195 72
167 191 51
173 197 76
170 194 99
167 190 62
167 192 80
168 192 57
168 192 57
172 197 72
168 192 57
170 193 62
174 198 80
175 199 80
170 194 88
166 190 72
168 193 99
168 192 62
171 195 72
169 193 72
169 193 76
168 193 76
166 191 80
172 195 72
170 194 72
166 190 67
169 194 80
168 191 57
165 189 57
165 189 44
171 195 67
166 190 76
165 189 57
169 193 67
166 190 67
163 188 95
166 189 80
168 192 72
166 190 80
165 189 57
158 182 84
168 191 80
164 188 62
167 190 88
167 191 44
166 191 62
166 190 80
167 190 67
167 191 80
167 190 67
165 189 76
170 193 72
165 189 76
166 189 72
161 184 67
160 183 62
165 189 72
165 188 80
163 187 67
166 191 84
164 188 67
159 182 57
162 185 57
160 183 57
160 183 67
161 185 62
160 183 72
163 186 80
165 187 76
156 178 57
157 181 36
161 185 51
161 183 62
155 178 78
79 106 110
90 117 126
89 118 142
91 118 129
102 128 133
95 123 134
86 114 129
91 118 129
89 117 139
98 125 145
96 123 143
82 110 126
95 123 145
93 119 137
82 111 136
103 129 152
92 120 141
97 124 154
97 123 141
95 122 154
98 125 139
87 115 144
90 118 150
99 125 147
87 116 149
108 133 149
103 128 147
95 123 136
104 128 142
87 113 138
83 112 148
81 111 149
100 127 151
96 123 144
92 120 166
90 118 177
82 112 165
74 106 167
74 106 164
74 106 163
71 104 157
72 102 154
74 104 161
75 104 152
72 103 156
69 101 155
61 96 149
61 97 149
61 96 148
60 96 146
61 96 143
60 95 141
60 95 142
60 95 148
62 96 142
68 101 134
62 96 143
68 100 136
66 97 125
63 97 129
67 100 140
59 93 134
59 93 126
58 91 124
60 95 136
59 94 129
59 93 147
59 93 137
59 94 139
59 94 140
58 92 129
58 91 127
58 93 140
60 94 141
59 94 131
60 95 142
60 94 141
60 94 129
60 95 140
58 92 137
59 93 140
59 94 136
60 94 136
58 92 130
59 94 137
58 92 128
61 96 143
60 95 136
60 95 135
60 94 136
60 95 135
58 93 128
61 96 144
59 94 126
59 93 131
60 95 141
60 95 137
60 95 137
60 95 131
60 95 137
59 94 130
60 95 141
61 95 142
60 95 142
59 93 129
62 97 150
60 94 134
60 95 141
59 94 134
61 97 147
61 97 142
60 95 137
60 95 131
59 94 130
61 96 137
60 95 129
59 93 129
60 95 139
60 95 144
59 93 129
58 93 122
60 95 133
60 95 132
59 94 133
61 95 133
59 93 134
60 94 136
61 96 137
59 94 140
61 95 141
58 92 117
60 95 135
60 95 136
61 95 137
61 95 139
58 93 128
60 94 134
59 93 121
60 94 125
59 93 130
59 93 128
59 93 122
58 92 117
58 92 122
59 93 130
58 91 121
58 93 125
59 94 128
60 94 133
58 92 126
58 92 117
59 92 118
59 92 128
59 94 128
59 92 118
57 89 117
59 93 124
58 91 134
58 92 120
59 93 124
58 91 118
57 91 114
57 89 111
55 86 101
98 116 54
123 135 0
127 141 0
123 136 0
119 131 0
121 134 0
130 143 0
130 144 0
122 134 0
126 138 0
124 132 0
131 144 0
127 138 0
116 125 0
118 128 0
125 137 0
128 140 0
129 142 0
116 126 0
123 134 0
131 144 0
128 141 0
131 141 0
134 145 0
136 148 0
135 147 0
130 139 0
127 137 0
122 134 0
137 148 0
124 136 0
133 146 0
132 139 0
126 139 0
122 135 0
128 136 0
133 143 0
137 146 0
123 133 0
143 154 0
137 146 0
140 152 0
127 137 0
134 142 0
138 147 0
127 139 0
142 154 0
136 146 0
140 149 0
138 150 0
136 145 0
144 156 0
143 154 0
133 142 0
145 156 0
143 155 0
144 155 0
146 156 0
138 150 0
136 145 0
141 148 0
137 144 0
140 153 0
151 160 0
137 146 0
133 140 0
141 149 0
133 140 0
144 153 0
143 153 0
153 164 0
145 156 0
151 163 0
147 158 0
158 170 0
150 161 0
148 159 0
149 162 0
147 160 0
153 164 0
148 158 0
143 152 0
152 163 0
150 159 0
150 159 0
145 155 0
155 165 0
156 164 0
157 166 0
154 163 0
151 158 0
151 162 0
157 167 0
147 155 0
151 162 0
150 159 0
151 163 0
151 163 0
156 168 0
154 163 0
156 169 0
153 166 0
149 163 0
158 173 0
163 176 0
155 169 0
160 174 0
160 171 0
157 172 0
159 173 0
161 175 0
160 176 0
157 170 0
160 174 0
153 168 0
158 173 0
163 180 0
163 176 0
154 167 0
160 175 0
158 171 0
159 176 0
162 177 0
159 176 0
164 180 0
162 177 0
163 181 0
156 172 0
161 176 0
155 170 0
159 172 0
156 172 0
163 180 0
165 181 0
162 179 0
166 183 0
165 182 0
164 181 0
161 178 0
162 177 0
163 181 0
167 186 0
167 183 0
161 179 0
169 187 0
166 183 0
165 183 0
166 185 0
167 185 0
169 188 0
164 181 0
164 184 0
164 180 0
169 189 0
171 194 72
170 194 76
169 193 67
174 198 92
166 189 62
169 193 62
167 191 80
169 194 92
171 195 72
169 193 80
170 195 84
170 194 84
171 196 67
173 197 76
173 197 76
171 196 80
171 195 80
171 196 95
166 191 88
173 196 72
170 194 76
170 193 62
172 196 72
167 192 67
170 194 76
169 194 67
168 192 67
170 194 88
166 191 92
168 193 84
163 187 72
168 192 57
167 191 62
170 194 88
167 191 80
167 191 84
169 194 84
170 194 80
171 195 95
167 191 72
169 193 84
169 194 95
168 192 76
163 188 72
168 192 67
161 185 62
168 193 72
169 193 80
165 188 57
161 185 72
162 185 62
167 191 88
170 193 62
163 186 62
169 193 99
164 187 72
156 180 72
164 187 44
162 186 62
166 190 80
164 187 57
162 186 67
165 188 67
165 189 80
163 186 62
164 188 76
164 188 95
166 189 62
163 186 78
154 176 25
161 185 92
165 189 57
160 184 67
156 180 72
161 185 51
162 185 67
167 190 88
165 189 80
160 183 80
160 183 62
161 184 95
167 190 102
145 168 107
93 120 129
85 113 118
94 122 147
82 111 120
92 119 125
87 114 125
85 113 125
85 113 133
86 115 140
88 115 132
88 116 142
88 116 141
92 118 131
81 109 139
102 127 151
93 120 147
92 119 144
83 111 141
90 116 145
95 122 138
93 120 140
107 132 143
89 118 156
89 117 134
103 129 148
92 119 143
112 137 154
93 120 142
102 127 135
105 128 138
92 121 160
86 115 143
90 117 141
98 125 159
79 109 154
77 109 166
80 110 170
83 113 173
74 106 163
75 107 166
79 108 156
75 103 152
70 101 157
73 101 146
73 101 143
60 95 145
61 97 153
60 95 139
58 93 141
61 96 149
62 96 143
59 94 139
60 95 136
60 95 137
65 99 137
60 95 143
69 101 130
67 100 130
57 91 131
69 100 130
58 92 133
57 90 122
59 93 130
58 92 130
59 92 136
59 93 135
58 92 129
58 92 126
59 93 134
60 95 140
59 94 141
59 94 134
59 93 125
59 94 134
58 93 129
59 94 140
60 95 136
59 94 136
59 93 131
59 94 128
60 94 136
59 94 137
59 94 131
62 97 143
59 93 124
60 95 136
59 93 135
60 95 143
60 94 135
60 95 142
59 94 136
60 94 130
60 94 136
59 94 133
60 95 137
59 95 130
59 93 128
59 94 139
60 95 133
60 95 140
60 94 135
61 96 143
60 95 144
59 94 137
60 95 136
59 93 122
60 95 135
59 94 133
59 94 131
60 94 135
59 94 125
58 92 121
60 94 130
61 96 136
60 95 136
59 94 131
59 94 129
60 95 133
60 95 129
60 95 136
60 95 137
58 92 121
60 95 139
61 96 135
62 97 142
59 94 128
60 94 134
59 94 134
60 94 130
60 95 140
60 94 131
61 96 141
60 95 130
60 94 134
60 95 126
59 94 133
59 93 134
60 95 134
60 95 134
60 94 133
59 94 133
60 94 130
61 95 128
60 94 129
58 92 113
59 93 124
59 93 126
60 95 136
59 93 126
59 93 125
59 94 124
60 95 131
58 92 122
59 93 125
60 94 129
59 93 122
55 87 105
58 91 115
59 92 122
59 93 125
57 90 114
55 86 103
80 104 92
114 124 0
128 140 0
116 129 0
124 135 0
109 122 0
123 134 0
119 131 0
115 125 0
124 137 0
129 139 0
118 131 0
128 142 0
128 139 0
127 140 0
127 140 0
123 136 0
118 128 0
121 132 0
118 129 0
129 141 0
125 135 0
132 145 0
121 135 0
123 135 0
129 141 0
126 136 0
128 139 0
137 150 0
133 142 0
131 143 0
123 133 0
124 133 0
128 137 0
137 149 0
142 154 0
131 140 0
133 145 0
142 154 0
143 153 0
135 148 0
145 156 0
132 142 0
143 155 0
134 145 0
134 144 0
138 151 0
141 155 0
143 154 0
142 155 0
143 155 0
135 143 0
135 145 0
134 145 0
141 152 0
147 157 0
130 138 0
136 146 0
135 144 0
140 152 0
143 155 0
143 153 0
148 159 0
147 158 0
140 151 0
143 153 0
138 148 0
144 154 0
152 167 0
146 156 0
148 161 0
146 158 0
148 158 0
151 162 0
145 155 0
137 146 0
136 145 0
150 162 0
145 156 0
148 159 0
149 159 0
150 162 0
150 162 0
147 158 0
150 163 0
155 167 0
147 158 0
151 162 0
146 154 0
150 159 0
154 166 0
155 168 0
156 167 0
151 161 0
149 163 0
157 170 0
159 171 0
147 158 0
159 174 0
158 169 0
149 161 0
154 169 0
154 167 0
156 168 0
152 163 0
153 164 0
156 170 0
150 165 0
162 177 0
158 169 0
159 174 0
159 172 0
155 168 0
158 172 0
158 172 0
153 166 0
157 171 0
160 171 0
155 168 0
157 170 0
163 179 0
162 178 0
161 176 0
153 166 0
160 174 0
161 176 0
161 175 0
163 177 0
159 173 0
163 180 0
161 176 0
162 175 0
158 172 0
160 177 0
162 176 0
163 181 0
164 181 0
164 181 0
165 184 0
163 181 0
162 179 0
162 179 0
161 177 0
162 179 0
163 178 0
170 188 0
161 177 0
165 181 0
169 189 0
170 188 0
165 186 0
166 183 0
166 184 0
167 186 0
165 183 0
168 192 72
171 195 51
172 196 62
171 194 76
172 197 72
168 192 80
173 197 67
170 195 57
168 192 36
171 195 62
170 195 76
171 196 72
174 197 80
165 189 57
170 194 76
170 195 62
174 197 67
170 194 67
169 193 76
168 192 84
171 194 44
169 192 51
173 197 88
171 197 80
171 195 57
171 196 84
166 190 57
170 195 92
166 190 57
165 189 72
168 192 72
166 191 62
171 195 80
164 189 88
168 192 67
169 193 57
169 192 67
168 192 84
167 192 76
166 190 62
167 191 72
164 188 67
167 191 72
166 191 72
165 190 88
169 193 102
166 190 76
168 193 76
163 187 67
165 190 67
164 187 51
165 190 95
169 192 84
166 190 92
165 189 62
168 192 67
164 188 84
162 185 51
165 187 62
165 189 62
165 188 57
167 191 76
169 194 76
164 188 67
160 184 57
161 185 95
161 185 80
159 182 57
165 188 72
163 188 67
167 191 62
164 188 62
162 187 80
159 181 80
156 179 72
160 183 62
158 181 51
162 185 80
155 177 72
161 184 88
159 182 67
161 184 57
155 179 76
120 145 120
87 115 133
92 119 133
82 109 122
95 123 143
90 118 133
87 115 141
83 111 126
90 118 142
101 127 131
85 114 138
76 106 125
82 111 133
97 124 144
83 111 137
98 125 137
103 128 145
97 124 143
103 129 153
98 125 152
93 121 150
86 114 142
103 128 146
101 127 147
87 115 144
95 122 132
96 122 130
103 129 138
101 123 137
97 123 136
104 130 125
87 115 137
89 116 140
97 124 153
94 121 153
75 108 170
83 113 167
75 107 166
80 110 163
74 106 160
75 107 162
71 101 156
72 101 153
66 98 147
72 101 144
61 97 148
63 97 147
60 95 148
61 97 150
60 96 157
59 94 140
61 96 145
64 98 140
61 95 129
60 94 140
61 95 140
67 101 138
59 93 143
61 96 145
61 94 136
65 98 129
60 96 145
58 93 135
57 91 118
58 92 124
59 94 145
59 93 128
59 93 128
59 94 133
60 95 139
58 93 131
58 92 125
57 92 128
61 95 139
59 93 131
58 93 130
59 93 124
60 95 134
59 94 131
59 94 138
58 93 129
60 95 136
58 92 130
61 96 141
59 94 129
60 94 134
61 96 143
59 93 128
60 94 137
60 95 143
60 95 139
59 93 137
60 95 135
60 94 135
60 94 133
61 96 141
61 96 138
60 94 136
59 94 129
60 95 133
60 95 135
60 95 140
62 98 150
60 95 131
59 94 129
59 94 136
61 96 140
61 96 139
60 95 136
59 93 135
61 96 139
61 95 137
60 94 133
60 95 136
61 95 133
60 94 136
60 94 129
60 95 133
60 95 133
61 96 139
58 93 120
59 93 125
60 94 133
60 95 134
58 92 115
58 92 128
59 93 122
59 93 125
59 94 131
59 93 125
58 92 111
60 95 139
61 95 139
59 93 126
60 95 130
59 94 131
59 93 125
58 91 117
59 93 130
60 94 120
62 96 142
58 92 115
58 92 129
58 92 120
60 95 136
58 92 114
58 92 110
58 92 120
60 95 128
60 94 129
57 90 120
60 94 125
57 90 117
59 93 128
58 91 108
57 91 111
58 91 114
57 90 115
55 86 105
57 90 102
58 91 105
59 89 95
110 125 44
114 128 0
128 141 0
128 141 0
114 125 0
118 132 0
121 134 0
116 128 0
126 139 0
110 122 0
118 129 0
123 135 0
128 140 0
130 146 0
135 150 0
121 132 0
123 137 0
118 130 0
127 136 0
121 135 0
133 146 0
129 142 0
129 143 0
137 149 0
134 146 0
139 152 0
133 148 0
134 146 0
128 140 0
130 142 0
135 148 0
135 146 0
133 145 0
128 139 0
140 148 0
134 144 0
134 146 0
135 144 0
138 151 0
143 154 0
146 158 0
132 145 0
139 152 0
140 149 0
134 146 0
137 146 0
136 149 0
135 148 0
134 147 0
142 154 0
139 151 0
139 149 0
139 150 0
136 145 0
145 157 0
142 154 0
132 140 0
138 151 0
145 155 0
140 149 0
143 155 0
144 155 0
138 146 0
145 156 0
136 149 0
136 148 0
147 158 0
147 159 0
145 155 0
151 164 0
145 155 0
147 160 0
145 156 0
149 159 0
140 151 0
147 158 0
147 157 0
145 157 0
151 164 0
154 165 0
143 154 0
135 146 0
158 167 0
151 162 0
151 163 0
146 155 0
150 163 0
149 161 0
152 164 0
149 161 0
154 170 0
157 172 0
159 173 0
155 167 0
154 167 0
157 169 0
154 164 0
158 170 0
154 164 0
154 165 0
150 164 0
158 170 0
157 168 0
153 163 0
156 170 0
161 175 0
160 173 0
163 177 0
159 172 0
158 175 0
155 168 0
162 177 0
161 174 0
157 171 0
153 165 0
162 175 0
159 173 0
159 174 0
160 175 0
156 168 0
153 166 0
157 173 0
162 176 0
162 180 0
161 177 0
161 175 0
165 179 0
161 175 0
160 178 0
169 186 0
158 173 0
160 176 0
163 182 0
162 179 0
165 183 0
164 181 0
160 176 0
164 179 0
165 182 0
162 178 0
166 181 0
163 178 0
162 178 0
166 185 0
166 184 0
165 181 0
166 184 0
164 183 0
164 181 0
164 181 0
165 181 0
166 183 0
164 182 0
166 185 0
164 182 0
168 192 76
169 191 67
174 197 76
169 193 80
167 191 36
168 193 88
172 196 72
172 196 92
170 194 76
170 193 62
171 195 67
171 195 57
169 194 76
169 192 36
167 191 80
165 190 92
168 192 67
169 193 76
169 194 76
172 196 80
169 193 80
167 191 62
170 193 44
169 194 67
168 191 76
173 196 76
169 194 62
172 196 92
174 199 76
169 195 80
165 189 67
167 192 92
167 192 92
169 193 72
168 191 51
163 187 57
171 195 72
171 195 80
166 189 67
167 191 67
168 193 84
168 192 57
164 188 67
166 190 76
168 191 57
168 191 51
162 186 51
170 193 62
162 186 72
166 189 51
168 192 72
166 191 84
171 196 84
163 187 95
167 191 92
165 189 76
166 189 84
166 190 44
165 189 67
160 183 51
167 191 76
159 182 72
164 188 57
170 194 80
162 187 80
165 189 76
166 189 62
160 183 80
156 179 67
165 188 80
164 188 80
159 183 67
161 185 62
166 188 62
154 177 80
161 185 72
163 186 62
154 177 62
161 184 99
158 181 67
157 180 62
165 187 76
149 172 57
155 179 82
101 127 131
82 112 128
95 122 142
85 113 118
85 113 121
87 115 135
91 119 137
84 112 130
87 115 147
86 113 132
110 136 157
86 114 133
91 118 134
87 114 130
98 124 144
92 119 141
95 121 140
96 124 149
95 121 137
100 126 146
96 122 144
98 125 144
88 115 141
100 127 140
92 119 135
99 125 150
103 129 164
93 120 148
98 123 139
108 131 133
99 123 137
81 109 147
96 123 163
75 106 142
81 111 150
83 113 173
90 119 173
86 115 175
74 106 157
81 111 162
88 115 164
74 103 150
70 101 147
72 100 146
81 106 148
73 102 145
61 96 151
61 96 145
61 96 141
61 96 145
61 96 153
60 95 133
59 94 139
60 94 139
65 97 135
62 95 126
65 98 133
61 95 131
64 97 127
68 98 124
60 94 119
57 91 124
59 93 131
59 93 131
60 94 143
60 94 133
60 95 144
61 96 140
60 95 134
59 94 139
59 93 139
59 94 133
59 93 121
60 94 139
58 93 133
59 93 141
60 95 137
60 95 141
59 94 137
60 95 135
59 93 122
59 94 140
60 94 134
60 94 129
60 95 129
59 94 134
59 93 131
61 96 140
61 96 145
61 96 137
59 94 134
60 94 134
60 95 141
60 95 140
60 95 133
59 94 125
61 95 140
58 92 124
58 92 126
59 93 125
60 95 137
60 95 139
60 95 136
59 94 140
60 95 137
59 93 130
58 93 126
60 95 136
61 96 139
59 93 128
59 94 122
60 94 133
61 96 137
59 93 135
60 95 130
60 94 131
59 94 124
60 95 142
61 96 142
59 94 130
59 94 126
60 95 133
61 95 141
60 95 135
60 95 131
60 95 137
59 94 129
59 94 128
59 93 129
60 94 130
59 93 133
60 94 131
59 94 131
60 94 135
59 94 128
58 92 115
58 92 125
60 95 136
61 96 139
59 94 124
58 92 118
57 91 117
59 94 122
59 93 124
59 94 128
61 95 128
59 93 129
59 92 124
60 94 125
56 89 103
57 91 120
59 93 129
56 89 108
57 90 110
56 89 105
57 90 117
57 90 105
57 89 108
58 91 121
57 90 110
109 125 44
119 130 0
120 133 0
126 141 0
123 137 0
115 127 0
114 128 0
121 134 0
118 133 0
121 133 0
132 148 0
127 140 0
119 132 0
130 143 0
129 137 0
122 134 0
128 141 0
129 141 0
131 143 0
130 144 0
126 140 0
129 143 0
133 144 0
133 146 0
131 143 0
123 133 0
136 149 0
135 146 0
130 141 0
130 142 0
137 152 0
123 136 0
131 141 0
135 147 0
129 140 0
133 143 0
138 150 0
141 153 0
142 154 0
136 148 0
139 150 0
134 143 0
143 153 0
134 148 0
134 145 0
139 149 0
136 148 0
136 146 0
146 157 0
146 159 0
135 146 0
140 150 0
138 149 0
137 146 0
140 150 0
142 151 0
141 153 0
144 151 0
137 150 0
152 166 0
146 157 0
136 146 0
137 147 0
140 153 0
147 160 0
138 150 0
147 158 0
146 157 0
151 163 0
147 160 0
149 160 0
142 153 0
142 151 0
143 151 0
145 156 0
145 153 0
150 162 0
147 158 0
150 162 0
152 164 0
147 160 0
142 150 0
149 161 0
150 162 0
153 166 0
150 163 0
147 159 0
153 168 0
152 162 0
146 156 0
146 160 0
155 169 0
154 165 0
148 161 0
152 165 0
153 164 0
150 165 0
152 163 0
154 163 0
156 170 0
156 170 0
153 164 0
157 171 0
159 173 0
161 177 0
160 175 0
151 164 0
154 166 0
159 172 0
153 166 0
157 170 0
157 173 0
152 166 0
156 171 0
159 174 0
157 169 0
154 170 0
160 173 0
155 169 0
161 176 0
159 175 0
156 168 0
160 177 0
157 170 0
163 177 0
164 179 0
163 176 0
163 177 0
166 184 0
161 176 0
164 182 0
163 181 0
162 179 0
161 177 0
162 177 0
164 180 0
162 177 0
161 177 0
166 185 0
163 181 0
167 181 0
162 179 0
162 178 0
165 182 0
162 176 0
166 185 0
162 178 0
161 178 0
167 185 0
164 182 0
166 183 0
167 186 0
164 183 0
165 184 0
165 183 0
164 182 0
169 192 57
170 194 62
173 198 67
171 195 76
173 197 76
169 193 76
170 194 67
170 193 76
174 197 80
170 194 80
173 196 51
171 195 72
169 193 72
171 195 76
167 191 51
170 194 57
172 196 80
169 193 80
168 193 84
170 193 57
171 196 92
170 194 72
168 192 76
171 194 57
167 191 88
169 194 72
169 193 84
168 192 44
169 193 67
170 193 57
169 194 67
170 194 92
171 194 72
169 193 88
169 194 62
167 192 76
165 188 62
171 195 84
166 191 72
165 189 84
164 189 67
170 196 117
167 191 62
168 192 72
169 193 57
164 189 84
167 192 67
166 191 80
163 187 57
165 190 72
162 186 51
161 185 88
165 190 67
163 187 80
160 185 88
160 182 72
164 188 72
168 192 84
164 188 76
165 189 67
157 182 80
164 187 67
163 187 67
160 184 72
166 190 80
160 184 51
162 186 76
157 180 80
165 188 67
159 182 57
157 181 67
159 182 84
158 182 88
161 185 76
155 178 76
160 183 67
157 180 62
156 179 62
164 186 62
161 185 76
159 183 88
149 172 72
151 175 51
158 180 57
138 162 105
81 109 115
94 121 139
95 122 122
84 112 128
83 110 118
90 118 133
83 111 137
98 125 135
100 126 140
94 120 139
88 116 132
86 114 132
82 109 123
97 123 144
86 114 148
89 116 139
88 115 143
100 126 126
97 123 133
94 120 145
92 121 152
96 124 150
101 126 150
105 130 149
90 118 148
99 125 143
109 135 143
88 113 133
104 130 139
93 120 121
88 116 140
82 111 145
102 128 151
82 110 138
71 103 154
75 107 173
71 105 168
80 111 163
66 100 159
78 109 166
69 101 155
67 99 152
74 103 149
79 106 149
75 103 145
64 98 151
60 95 143
59 94 145
63 97 137
57 92 125
60 94 145
62 97 148
59 94 136
57 91 133
61 95 124
58 92 125
59 93 122
61 94 118
63 96 118
69 99 120
60 95 144
59 93 131
58 92 130
59 94 135
59 93 129
59 93 133
57 91 132
58 93 127
58 92 122
58 92 131
57 91 121
58 93 136
59 93 135
59 93 141
60 94 124
59 93 133
58 92 128
59 94 135
59 94 126
58 93 133
60 95 139
59 93 120
60 95 140
59 93 133
59 94 134
60 94 141
60 95 137
59 93 122
60 95 131
59 93 137
61 96 140
61 96 141
59 94 135
59 94 133
58 92 130
59 94 128
59 93 122
60 94 130
60 94 131
59 94 125
59 93 129
61 95 134
60 94 135
59 94 134
60 95 134
59 93 131
60 94 137
59 93 125
60 95 141
59 94 122
59 94 135
62 96 137
59 93 134
59 93 136
60 95 140
59 94 130
58 92 125
61 96 137
60 94 128
60 94 130
59 94 133
60 94 137
58 92 125
61 96 141
58 92 125
60 94 130
60 95 129
60 95 136
57 91 113
60 94 134
60 94 130
59 93 140
58 92 125
60 94 133
59 93 126
59 93 125
58 93 120
59 93 128
59 92 120
59 94 130
59 92 122
59 93 125
59 93 128
59 93 128
56 89 110
58 92 118
59 94 128
60 94 122
60 94 133
58 91 117
58 92 118
56 88 110
58 91 120
57 90 113
57 91 108
57 89 107
57 90 111
53 84 97
93 111 51
123 134 0
118 130 0
116 128 0
115 128 0
118 130 0
124 136 0
126 138 0
123 137 0
132 146 0
121 131 0
123 134 0
131 145 0
118 130 0
123 135 0
118 128 0
127 139 0
133 150 0
131 144 0
118 129 0
135 149 0
125 137 0
135 149 0
129 141 0
125 137 0
133 145 0
134 147 0
133 146 0
135 149 0
130 141 0
130 142 0
129 143 0
120 132 0
136 148 0
135 147 0
129 141 0
127 137 0
135 149 0
126 137 0
134 144 0
136 149 0
130 140 0
136 148 0
148 161 0
138 152 0
139 151 0
131 142 0
136 149 0
138 151 0
150 163 0
141 150 0
135 147 0
142 154 0
143 156 0
139 150 0
139 147 0
141 153 0
147 156 0
133 144 0
135 146 0
135 143 0
139 152 0
138 148 0
148 161 0
140 153 0
147 160 0
138 147 0
143 156 0
153 165 0
151 164 0
135 146 0
149 159 0
151 162 0
152 164 0
150 161 0
151 162 0
145 159 0
146 158 0
156 171 0
149 165 0
149 160 0
149 159 0
151 163 0
151 163 0
156 166 0
143 154 0
143 152 0
146 155 0
139 149 0
154 168 0
153 166 0
146 158 0
151 163 0
151 162 0
154 167 0
159 174 0
149 160 0
153 168 0
147 160 0
158 173 0
159 170 0
155 168 0
156 169 0
158 175 0
159 175 0
150 166 0
150 162 0
159 172 0
155 164 0
162 174 0
160 177 0
155 168 0
156 170 0
158 172 0
161 178 0
160 174 0
161 177 0
161 176 0
156 170 0
166 183 0
160 174 0
157 171 0
157 172 0
163 178 0
162 177 0
159 173 0
164 181 0
160 172 0
158 175 0
158 173 0
157 172 0
163 177 0
164 179 0
160 177 0
161 178 0
165 183 0
160 176 0
160 176 0
163 179 0
163 180 0
167 180 0
165 183 0
161 178 0
164 183 0
162 178 0
164 182 0
159 177 0
166 185 0
165 183 0
167 185 0
162 180 0
164 183 0
163 180 0
165 183 0
164 182 0
166 187 0
167 186 0
172 196 62
172 195 57
172 196 72
170 194 80
172 196 72
171 195 92
172 196 62
166 190 67
174 198 95
174 198 76
169 193 62
168 192 80
171 194 57
167 191 62
168 192 76
171 194 72
170 194 76
170 195 57
171 195 72
169 194 102
167 191 44
170 194 67
169 194 76
169 193 67
170 195 92
171 195 67
173 196 57
171 194 72
172 197 95
170 195 80
167 192 62
168 192 72
170 194 67
167 191 62
166 191 95
166 191 51
167 191 62
166 190 72
168 192 62
170 194 72
165 190 72
164 187 57
165 190 84
165 190 76
160 184 72
169 194 76
164 188 72
166 191 57
161 184 72
164 188 80
164 190 80
164 187 36
167 192 80
165 189 51
168 192 62
166 189 72
162 185 67
159 183 80
159 183 67
167 192 72
163 187 72
168 192 80
160 184 44
159 182 72
163 186 76
165 189 62
161 185 67
158 182 62
158 181 67
164 187 57
156 180 72
157 180 62
160 184 95
158 182 76
162 186 72
162 186 67
165 188 62
158 181 80
157 179 80
155 178 80
152 175 67
150 172 51
154 175 67
151 173 72
150 174 76
115 139 110
84 112 124
83 111 120
76 106 122
89 117 139
95 122 137
90 116 129
89 116 126
88 116 136
86 114 127
86 114 127
94 120 141
92 119 138
86 113 140
95 121 128
96 122 143
88 115 139
90 117 143
91 117 137
96 123 139
101 127 144
85 113 147
92 119 151
106 131 150
102 128 147
92 118 137
95 121 146
96 122 120
100 126 149
107 131 145
99 125 137
98 123 147
90 117 139
83 112 145
80 109 142
75 107 160
72 105 163
90 118 168
88 116 164
90 118 171
90 118 159
79 105 146
73 102 146
73 103 150
72 101 146
77 104 140
60 96 145
61 96 151
60 95 140
60 95 144
60 96 145
59 93 131
61 95 139
63 97 143
66 99 137
65 97 126
59 91 113
66 98 136
60 94 131
74 104 122
59 94 140
59 94 140
59 93 136
58 92 119
59 94 132
59 94 135
59 94 136
60 94 138
58 92 126
59 93 129
60 95 129
58 93 129
60 94 128
60 95 136
58 92 118
59 94 129
60 94 133
59 93 129
59 93 120
59 93 128
57 90 129
58 92 126
60 95 131
58 92 128
60 94 133
61 95 144
61 96 145
60 94 149
60 94 134
59 94 136
61 95 135
59 93 139
61 95 135
60 95 134
58 92 122
60 94 136
59 94 131
60 95 131
59 94 137
59 93 125
60 94 126
60 93 128
60 95 137
60 94 133
59 93 129
60 94 135
59 94 128
59 93 125
59 93 130
60 95 133
59 94 126
60 94 135
60 94 135
62 97 144
60 94 139
61 95 139
59 93 135
60 94 142
59 93 126
59 93 120
58 92 130
60 94 139
60 94 130
60 94 137
60 95 134
59 92 131
59 94 121
59 93 129
58 92 125
59 93 130
58 92 122
61 95 136
59 94 121
60 94 124
60 94 124
59 93 126
59 93 130
59 93 130
59 93 124
58 92 122
59 93 124
58 92 122
59 92 124
57 91 110
57 90 122
59 93 122
57 90 120
60 93 122
58 91 125
58 91 111
57 90 114
57 90 113
58 92 114
56 89 102
57 91 107
57 89 111
58 91 111
97 116 74
130 143 0
121 134 0
113 124 0
122 134 0
127 143 0
117 126 0
117 132 0
130 145 0
116 129 0
119 132 0
122 134 0
128 144 0
125 141 0
127 139 0
122 133 0
124 137 0
117 129 0
132 145 0
121 135 0
131 143 0
130 142 0
133 144 0
124 136 0
133 148 0
129 141 0
121 134 0
135 149 0
134 147 0
124 137 0
139 153 0
128 141 0
120 131 0
129 144 0
135 148 0
135 147 0
138 150 0
144 158 0
142 154 0
130 142 0
137 149 0
125 137 0
136 152 0
133 145 0
139 151 0
134 146 0
141 153 0
141 158 0
142 154 0
139 151 0
141 154 0
143 156 0
133 145 0
134 147 0
149 160 0
145 157 0
140 151 0
139 151 0
146 158 0
144 156 0
146 162 0
142 155 0
141 152 0
136 149 0
148 160 0
146 159 0
144 157 0
143 155 0
139 153 0
141 149 0
143 157 0
140 153 0
146 160 0
142 153 0
152 163 0
149 161 0
148 161 0
149 163 0
140 151 0
153 166 0
151 162 0
148 161 0
154 166 0
151 162 0
151 163 0
150 161 0
147 159 0
151 162 0
150 164 0
145 155 0
149 161 0
154 168 0
155 168 0
153 165 0
155 171 0
152 165 0
156 168 0
152 163 0
145 157 0
150 163 0
153 167 0
158 173 0
159 175 0
157 169 0
154 168 0
158 172 0
161 175 0
154 165 0
152 164 0
160 176 0
159 173 0
154 170 0
158 174 0
158 174 0
153 166 0
165 180 0
158 173 0
156 172 0
159 173 0
159 172 0
158 172 0
159 174 0
161 174 0
165 183 0
165 180 0
165 180 0
162 176 0
162 178 0
163 179 0
161 176 0
158 173 0
162 179 0
163 177 0
160 176 0
162 178 0
166 183 0
159 177 0
163 181 0
166 181 0
164 182 0
164 181 0
165 184 0
162 179 0
163 180 0
166 186 0
165 183 0
168 187 0
168 187 0
166 183 0
166 183 0
162 179 0
161 180 0
161 179 0
165 185 0
163 182 0
163 181 0
168 185 0
165 183 0
171 194 72
170 193 62
171 195 62
173 197 80
170 194 72
174 197 80
171 196 88
167 191 51
176 199 72
171 195 92
172 196 76
174 197 72
165 188 72
169 193 80
173 196 57
166 190 76
168 192 76
170 194 88
168 193 84
166 192 76
164 188 57
170 194 57
168 190 51
171 195 80
165 189 67
171 195 84
166 191 80
166 191 84
169 193 67
170 194 57
171 195 72
167 190 62
169 194 102
168 193 76
170 195 67
169 194 88
165 190 80
169 193 72
171 195 57
169 193 76
168 192 80
169 192 57
165 190 76
164 189 72
159 181 57
162 186 67
163 186 72
170 194 105
171 195 84
168 192 57
162 185 44
163 186 62
166 191 67
164 188 72
165 190 84
165 189 76
160 185 80
159 183 44
165 189 99
161 185 62
163 186 72
164 188 72
166 190 88
160 184 51
160 182 51
159 182 44
162 186 84
170 194 92
162 186 67
156 179 72
157 181 80
159 183 72
154 177 57
156 179 67
157 180 62
154 177 94
161 183 76
162 185 84
150 172 72
161 184 57
155 177 72
152 176 51
163 186 80
153 175 67
157 179 62
153 176 84
92 119 111
82 111 134
90 116 121
97 123 133
99 125 135
79 108 105
89 117 134
98 124 144
84 112 123
92 118 131
93 121 133
89 116 133
89 116 129
94 120 143
96 123 147
103 128 146
97 123 149
87 114 135
94 120 144
90 117 134
98 124 156
92 118 140
92 119 145
95 120 143
87 114 141
89 117 136
99 125 138
92 117 143
94 120 138
99 124 125
103 127 142
89 116 135
98 125 133
92 119 146
82 111 154
78 109 165
77 108 161
71 103 156
76 107 155
74 106 158
81 108 154
72 103 154
66 98 141
84 105 133
71 100 141
73 101 135
59 94 140
60 95 149
60 95 137
61 97 151
58 92 123
60 94 139
60 95 139
66 100 142
65 97 136
65 97 128
61 93 120
57 91 126
78 107 120
62 94 117
56 90 119
57 90 120
59 93 129
58 93 133
59 93 129
60 94 139
59 93 126
59 94 140
60 95 133
59 94 134
58 93 131
60 95 137
59 94 132
58 92 128
58 92 124
59 94 132
60 94 134
58 92 128
58 92 125
59 93 133
61 95 139
60 95 136
59 93 134
59 94 129
60 94 139
59 93 124
58 92 125
60 95 136
60 95 140
60 94 130
58 92 128
59 94 133
57 90 121
58 92 130
59 93 122
60 94 130
60 94 129
60 95 137
59 93 133
59 94 129
60 95 140
59 94 137
59 94 128
60 95 137
60 94 137
59 93 135
60 95 139
59 93 128
60 95 130
59 93 130
58 92 122
60 94 125
60 95 133
58 92 118
60 94 129
59 93 125
59 93 129
60 94 128
60 94 133
61 95 139
60 94 131
60 94 131
60 95 137
60 94 129
59 93 125
59 93 130
59 93 125
58 92 130
61 96 140
59 93 125
60 94 131
58 92 122
59 93 131
59 93 117
59 92 117
58 93 128
57 90 117
59 94 125
59 93 124
58 91 121
57 90 120
57 89 120
59 93 126
57 90 117
58 92 120
58 92 122
57 91 113
58 91 114
57 89 118
57 91 110
57 90 113
55 88 102
56 89 110
54 86 100
55 87 100
83 101 92
117 128 18
121 136 0
125 137 0
121 133 0
115 129 0
116 128 0
118 127 0
120 133 0
128 141 0
121 136 0
120 134 0
129 140 0
127 139 0
134 149 0
122 135 0
119 131 0
124 137 0
124 135 0
133 146 0
130 144 0
135 150 0
130 142 0
128 144 0
124 138 0
137 151 0
120 132 0
132 144 0
134 148 0
126 138 0
140 155 0
133 149 0
140 152 0
130 144 0
126 138 0
136 149 0
136 149 0
139 151 0
132 143 0
132 144 0
133 148 0
133 144 0
138 150 0
138 152 0
131 142 0
140 154 0
143 155 0
141 151 0
130 142 0
139 151 0
134 144 0
137 150 0
137 148 0
134 146 0
140 153 0
136 145 0
137 148 0
139 152 0
144 155 0
143 156 0
147 160 0
147 161 0
147 160 0
152 167 0
148 162 0
140 153 0
147 161 0
149 161 0
151 163 0
142 155 0
147 162 0
142 153 0
146 157 0
141 152 0
143 155 0
145 157 0
153 167 0
147 162 0
151 163 0
142 153 0
153 167 0
159 175 0
156 170 0
149 163 0
149 163 0
153 166 0
158 173 0
150 163 0
151 166 0
147 159 0
154 168 0
154 169 0
154 168 0
152 166 0
153 168 0
147 161 0
149 161 0
155 169 0
153 167 0
152 166 0
158 170 0
151 164 0
159 175 0
149 161 0
150 162 0
154 169 0
150 165 0
157 173 0
153 168 0
161 177 0
155 172 0
162 178 0
156 170 0
160 174 0
158 174 0
159 174 0
159 174 0
159 176 0
156 172 0
156 168 0
163 179 0
156 170 0
164 180 0
157 172 0
156 169 0
163 177 0
164 180 0
158 175 0
160 175 0
158 175 0
163 180 0
157 173 0
163 181 0
163 181 0
167 185 0
164 179 0
161 181 0
158 174 0
166 185 0
164 181 0
165 182 0
163 181 0
162 178 0
164 181 0
166 185 0
165 183 0
167 185 0
164 181 0
166 185 0
160 177 0
158 173 0
163 180 0
168 187 0
168 187 0
167 185 0
163 181 0
167 186 0
167 186 0
167 186 0
172 196 92
169 192 51
172 197 102
172 195 84
170 194 80
168 191 57
171 194 62
171 196 76
172 196 80
169 192 51
170 193 62
169 193 57
172 195 62
170 193 51
166 191 62
172 196 76
170 193 62
168 193 76
171 196 92
169 194 76
163 187 76
167 191 51
167 191 72
169 194 84
167 192 80
172 195 76
166 190 84
170 194 62
172 196 57
168 192 80
168 191 72
169 192 67
168 192 72
162 186 95
172 196 80
164 188 57
171 195 67
164 189 72
168 193 76
171 195 72
167 189 62
163 187 67
170 194 76
168 192 72
166 190 67
162 185 36
167 190 76
167 191 72
161 186 76
166 190 67
164 188 88
167 192 84
164 189 99
165 189 80
164 188 76
162 186 67
165 190 95
162 186 95
162 187 76
165 189 67
163 186 67
158 181 72
163 187 84
153 176 76
161 185 67
162 186 72
163 187 80
164 188 88
166 190 51
161 184 51
159 183 76
164 187 95
156 180 72
158 180 44
157 181 80
156 179 51
156 179 70
160 184 88
157 179 76
162 186 80
156 179 67
148 170 76
152 175 84
160 182 67
152 174 72
153 175 76
133 155 80
85 112 124
89 116 135
92 118 131
87 114 118
92 118 134
85 112 123
91 118 124
81 110 114
105 130 140
81 109 120
85 112 120
108 131 146
93 119 126
83 111 135
95 121 130
73 102 112
91 117 136
93 119 142
95 121 138
93 120 146
94 121 136
108 134 150
96 122 143
91 119 137
100 127 145
90 117 134
87 115 145
99 124 135
107 131 130
99 125 147
87 113 143
80 110 135
88 115 133
82 111 143
74 106 157
68 102 159
83 113 168
83 113 166
75 106 163
84 113 165
74 102 146
71 101 147
77 104 153
77 103 143
68 98 140
62 97 144
61 97 149
62 96 134
60 94 141
60 95 140
60 95 138
59 94 137
61 95 141
65 98 131
63 97 128
65 98 128
56 90 119
58 92 117
75 104 120
59 93 136
57 91 129
57 91 123
58 92 122
58 92 120
58 92 129
58 93 124
59 93 128
59 93 126
59 93 127
57 91 128
58 92 115
58 92 122
59 94 124
58 92 124
59 93 131
60 94 137
59 93 118
59 93 139
59 94 126
59 93 128
59 93 133
60 94 133
59 94 137
58 92 125
59 93 126
59 94 133
59 93 124
59 94 137
59 93 122
59 94 133
60 95 137
58 92 126
61 95 141
57 91 124
59 93 125
58 93 128
60 95 137
60 95 133
59 93 134
60 94 129
62 97 150
59 93 125
60 95 133
59 93 133
61 96 137
59 94 136
60 95 136
58 92 122
59 94 133
59 93 114
58 92 128
59 94 126
59 93 124
60 95 128
60 95 133
60 95 131
58 92 115
58 92 128
60 94 129
58 93 131
58 92 118
60 95 129
60 94 122
59 93 129
59 92 120
58 92 121
59 93 124
60 94 128
59 93 118
60 94 136
59 93 131
61 95 129
59 93 126
59 94 126
59 93 126
57 90 120
58 92 117
58 92 122
59 93 125
59 93 120
57 91 126
59 93 117
58 91 117
58 91 115
57 91 114
58 91 122
58 92 118
56 89 110
55 88 102
55 87 110
55 87 100
55 88 105
56 89 115
80 104 97
116 130 0
112 122 0
120 134 0
111 124 0
113 124 0
121 136 0
124 140 0
126 140 0
119 133 0
123 136 0
120 131 0
128 141 0
128 141 0
119 132 0
127 139 0
131 143 0
129 144 0
118 131 0
134 147 0
124 138 0
131 144 0
135 148 0
123 139 0
128 143 0
132 147 0
134 147 0
116 127 0
134 149 0
134 148 0
134 148 0
134 148 0
132 148 0
138 150 0
139 154 0
138 152 0
134 150 0
135 151 0
135 148 0
131 145 0
132 148 0
141 153 0
134 148 0
138 151 0
129 138 0
140 149 0
137 151 0
137 149 0
143 155 0
145 159 0
130 142 0
135 148 0
142 154 0
145 157 0
139 151 0
138 151 0
140 152 0
136 151 0
141 154 0
142 154 0
146 157 0
138 150 0
143 159 0
137 150 0
149 164 0
146 156 0
145 158 0
149 162 0
145 157 0
143 150 0
150 164 0
144 157 0
143 155 0
151 163 0
151 164 0
142 153 0
153 164 0
145 156 0
152 165 0
145 158 0
145 159 0
149 162 0
149 162 0
143 155 0
151 165 0
154 167 0
148 160 0
148 161 0
154 169 0
152 165 0
156 171 0
152 166 0
158 173 0
154 170 0
160 173 0
153 171 0
151 165 0
151 163 0
159 175 0
151 161 0
155 169 0
153 167 0
153 166 0
152 167 0
158 172 0
157 170 0
157 169 0
159 173 0
159 173 0
159 173 0
160 174 0
158 173 0
160 175 0
159 175 0
154 166 0
159 173 0
162 179 0
159 175 0
160 174 0
159 174 0
160 176 0
159 176 0
164 178 0
160 175 0
159 174 0
161 179 0
153 168 0
162 178 0
159 174 0
159 174 0
160 176 0
162 181 0
166 183 0
162 177 0
165 183 0
157 170 0
164 183 0
164 180 0
169 188 0
158 172 0
165 183 0
159 175 0
166 184 0
165 183 0
164 182 0
161 178 0
161 177 0
159 177 0
164 181 0
167 186 0
166 183 0
165 182 0
163 182 0
167 184 0
167 186 0
165 184 0
170 189 0
166 184 0
167 185 0
164 183 0
171 195 57
171 196 88
168 191 57
173 197 67
167 191 76
170 193 72
164 187 67
174 197 84
171 195 80
171 195 92
172 196 80
167 191 72
169 193 67
165 188 57
173 197 92
170 194 84
170 195 51
170 195 67
171 195 88
169 192 62
170 193 72
170 194 62
168 191 67
163 188 80
171 194 51
167 191 76
173 197 76
168 191 44
166 190 36
167 191 76
170 194 84
166 190 67
165 188 62
165 190 67
170 193 62
161 186 51
160 184 51
167 191 76
170 194 62
166 189 51
166 189 36
163 187 62
169 193 72
168 192 72
167 192 67
164 188 92
168 193 76
164 189 76
166 190 62
157 180 51
166 189 88
168 192 88
162 186 62
163 187 72
167 191 88
166 190 84
158 181 62
159 183 62
158 181 36
161 186 95
162 185 62
165 188 84
162 187 84
159 183 76
165 188 76
152 176 57
155 179 57
154 177 57
158 180 51
159 183 62
158 182 72
162 185 80
164 187 62
160 181 57
163 186 76
150 173 92
154 177 57
154 177 51
155 177 76
159 181 67
155 179 76
152 173 62
156 179 92
157 181 76
156 177 72
154 176 76
160 182 88
122 146 105
87 114 114
77 107 136
91 118 143
94 121 139
92 118 124
99 124 129
91 118 131
81 109 110
84 112 120
92 119 120
89 115 133
99 125 133
92 119 143
98 123 138
87 115 129
92 119 134
87 114 126
94 121 134
82 110 128
98 125 140
91 117 137
99 124 136
93 120 139
83 110 126
105 129 139
96 122 137
87 115 151
101 125 126
103 127 134
94 119 141
84 112 140
98 125 138
81 110 140
77 107 156
77 108 159
85 113 158
72 104 163
68 102 159
83 113 164
79 108 153
78 104 143
69 100 154
73 102 148
72 101 143
78 103 140
61 96 149
60 95 135
60 96 147
58 93 137
59 94 142
60 94 141
58 92 129
62 95 128
63 96 120
68 99 117
64 96 114
59 93 129
78 106 113
65 98 120
57 90 120
58 92 123
58 92 124
57 90 110
57 91 123
57 91 124
60 94 145
60 94 127
57 91 121
60 93 128
58 92 128
57 90 126
59 94 128
58 92 122
58 92 117
59 94 112
59 94 139
57 91 124
58 92 130
60 94 134
60 94 131
59 94 132
57 91 122
58 93 120
60 95 145
59 94 126
59 94 131
59 93 132
59 93 125
59 93 125
59 93 129
60 95 134
59 93 126
60 95 128
60 94 136
58 92 133
61 95 139
60 94 130
58 92 125
61 95 136
58 92 125
59 94 121
57 91 125
60 95 139
59 93 130
59 94 129
59 93 137
59 94 132
58 92 117
60 94 133
59 94 124
59 94 129
60 95 139
59 92 124
60 94 132
59 94 130
59 93 120
59 92 124
59 94 130
61 96 142
58 92 111
60 94 129
59 94 122
59 93 126
59 92 128
59 94 134
59 94 128
58 93 118
57 91 115
59 94 130
58 92 115
60 94 135
57 91 110
58 92 117
59 94 126
59 93 128
59 92 124
57 91 115
58 92 125
59 92 114
59 93 122
59 92 121
59 93 121
59 92 120
57 90 117
58 92 121
57 90 114
56 89 113
58 92 117
57 90 114
56 89 102
56 88 105
72 96 82
115 130 0
96 108 0
119 134 0
125 137 0
122 134 0
119 133 0
120 134 0
111 125 0
114 129 0
112 125 0
124 138 0
123 135 0
129 145 0
126 138 0
130 145 0
128 143 0
119 134 0
125 140 0
114 127 0
130 144 0
128 142 0
127 141 0
128 141 0
135 150 0
129 144 0
138 153 0
120 133 0
129 142 0
141 157 0
128 141 0
132 145 0
129 140 0
137 151 0
132 147 0
131 143 0
138 152 0
135 148 0
140 156 0
130 144 0
142 157 0
129 141 0
144 158 0
143 158 0
143 157 0
147 161 0
136 152 0
140 153 0
132 146 0
143 157 0
140 151 0
141 154 0
137 150 0
142 155 0
141 154 0
139 151 0
140 155 0
139 153 0
145 159 0
136 151 0
143 157 0
143 157 0
141 152 0
144 154 0
150 162 0
145 159 0
146 161 0
143 158 0
140 153 0
148 160 0
151 168 0
141 152 0
146 159 0
145 158 0
140 153 0
149 158 0
147 161 0
148 162 0
146 159 0
151 164 0
148 161 0
155 169 0
153 167 0
144 157 0
155 168 0
147 161 0
144 158 0
156 172 0
153 169 0
157 170 0
154 169 0
153 169 0
146 158 0
145 159 0
157 172 0
159 173 0
161 174 0
158 173 0
150 165 0
154 167 0
157 171 0
154 167 0
153 164 0
155 167 0
148 163 0
157 172 0
157 174 0
155 170 0
151 164 0
158 172 0
157 172 0
152 165 0
161 177 0
157 169 0
151 165 0
156 171 0
159 174 0
163 181 0
162 179 0
161 178 0
162 181 0
161 177 0
161 175 0
160 178 0
159 178 0
161 177 0
167 185 0
157 173 0
157 173 0
166 182 0
158 170 0
163 178 0
164 179 0
156 171 0
161 177 0
163 183 0
163 180 0
163 182 0
167 185 0
163 180 0
162 179 0
166 184 0
167 185 0
161 179 0
167 183 0
162 181 0
163 180 0
163 180 0
163 183 0
163 182 0
164 181 0
167 184 0
163 182 0
168 184 0
168 186 0
160 178 0
165 184 0
165 182 0
162 181 0
169 187 0
166 183 0
169 193 76
169 193 57
171 195 72
172 196 72
170 195 51
169 193 62
171 196 67
172 197 67
165 188 84
172 195 62
174 197 67
171 195 72
171 195 67
167 190 57
171 195 57
168 193 76
172 196 72
168 193 72
169 194 72
167 191 80
163 187 76
168 193 84
163 186 62
169 194 67
166 189 51
171 195 80
168 191 62
171 194 62
169 194 72
164 189 62
164 188 57
168 192 44
166 190 67
164 189 84
166 191 92
169 191 44
168 192 76
169 192 67
171 195 67
165 188 67
162 186 80
165 190 80
163 188 88
167 191 72
169 193 95
166 190 67
162 187 76
163 188 88
158 182 57
164 189 92
165 189 57
164 188 51
162 186 84
160 184 67
159 183 84
164 188 88
165 188 57
162 186 76
157 181 76
164 186 67
164 188 62
156 181 76
158 181 62
165 189 57
162 185 67
160 182 62
160 183 62
164 188 67
162 185 80
153 176 62
159 182 72
159 182 67
158 181 51
160 183 67
162 185 80
158 181 84
154 177 72
158 181 72
155 178 76
155 178 76
161 184 88
155 179 72
150 172 57
151 174 80
144 165 67
158 181 76
148 170 67
155 178 92
104 129 105
80 108 97
87 114 123
92 119 127
86 114 133
98 124 140
86 113 126
86 113 129
79 108 140
82 111 130
86 113 118
82 111 130
96 121 143
94 120 134
79 108 133
106 131 149
88 115 134
102 128 139
95 120 144
100 126 143
91 117 127
104 129 143
89 117 130
107 132 129
91 117 140
91 118 135
106 131 150
83 111 138
118 140 132
99 125 135
94 119 143
86 114 141
90 117 142
94 121 131
83 112 156
80 111 170
71 104 158
80 111 169
83 112 160
74 105 153
71 100 141
67 98 143
70 99 142
76 103 145
66 97 137
69 98 130
60 94 134
62 97 145
61 96 143
59 93 129
58 92 120
58 92 126
63 97 130
58 92 134
64 96 121
58 93 127
60 94 134
71 102 129
75 105 120
59 94 136
57 90 126
58 92 126
58 91 113
59 93 127
59 93 126
59 93 120
58 93 129
58 91 118
57 91 123
57 91 126
61 96 139
59 93 128
59 94 133
59 94 134
59 93 130
59 93 133
59 93 131
58 92 125
58 92 120
58 92 124
59 93 128
59 94 129
60 95 134
59 94 140
60 94 136
59 93 128
60 94 125
59 93 133
59 93 129
59 93 129
59 94 126
60 94 124
59 94 136
59 93 126
59 93 131
60 94 139
60 94 130
59 93 128
59 94 126
58 92 118
61 96 141
59 93 129
59 93 128
59 93 126
57 91 115
59 93 120
58 92 129
58 92 125
57 91 118
59 93 130
59 93 129
60 94 139
58 92 118
59 94 121
59 93 120
59 93 122
60 94 136
58 92 117
59 92 121
58 92 125
59 93 124
58 92 117
60 94 126
59 93 124
60 95 124
60 94 120
60 94 131
60 93 122
58 92 118
58 92 111
58 92 117
56 89 105
58 92 117
59 94 124
58 92 125
58 91 120
58 92 115
58 91 121
58 92 117
56 89 110
57 90 107
59 92 131
58 91 121
56 89 102
57 90 118
58 91 120
55 87 102
56 88 111
55 86 105
56 88 115
74 99 90
116 129 18
112 125 0
126 140 0
114 128 0
113 126 0
120 135 0
118 133 0
119 133 0
129 143 0
119 133 0
120 130 0
123 137 0
120 131 0
123 137 0
125 141 0
116 130 0
125 140 0
127 144 0
126 141 0
131 147 0
136 153 0
125 138 0
119 134 0
131 146 0
131 145 0
133 148 0
121 136 0
127 142 0
130 145 0
134 147 0
131 147 0
137 152 0
139 153 0
123 137 0
137 152 0
127 139 0
133 147 0
140 155 0
135 151 0
134 149 0
136 147 0
142 156 0
138 152 0
134 147 0
140 153 0
138 152 0
136 148 0
138 151 0
140 154 0
140 156 0
143 157 0
140 154 0
141 153 0
137 151 0
147 160 0
145 160 0
142 155 0
150 163 0
143 154 0
142 157 0
141 154 0
145 156 0
145 160 0
138 150 0
148 163 0
145 160 0
144 157 0
149 163 0
151 166 0
139 150 0
147 160 0
149 161 0
144 158 0
148 162 0
150 166 0
147 159 0
152 166 0
144 157 0
145 158 0
145 158 0
149 163 0
150 162 0
145 160 0
142 154 0
158 174 0
150 164 0
151 165 0
158 174 0
151 163 0
153 168 0
146 158 0
156 173 0
152 168 0
158 174 0
153 167 0
156 171 0
149 161 0
156 170 0
150 164 0
153 167 0
156 171 0
151 164 0
159 173 0
152 168 0
160 176 0
160 174 0
153 166 0
154 168 0
154 165 0
157 170 0
151 165 0
156 171 0
159 173 0
153 168 0
154 168 0
153 169 0
160 177 0
157 169 0
161 176 0
156 170 0
162 178 0
158 176 0
150 163 0
158 174 0
159 176 0
159 174 0
163 179 0
161 180 0
154 171 0
161 180 0
162 180 0
160 177 0
163 181 0
162 178 0
158 174 0
160 178 0
162 177 0
160 177 0
161 178 0
163 182 0
161 176 0
162 180 0
161 177 0
166 184 0
165 181 0
165 183 0
162 180 0
164 182 0
162 180 0
163 182 0
167 187 0
163 181 0
162 181 0
165 182 0
162 180 0
161 178 0
166 186 0
167 186 0
165 184 0
167 187 0
163 181 0
172 195 76
171 196 72
171 195 84
173 197 72
172 196 72
167 192 76
170 195 72
169 193 62
167 191 62
172 196 67
172 195 76
173 196 51
170 195 76
172 195 72
166 190 51
168 192 67
171 194 67
166 191 72
171 195 72
165 189 57
172 196 57
170 194 84
165 190 67
173 197 92
172 196 57
166 190 72
165 189 57
169 192 51
167 192 72
168 191 72
164 188 95
167 191 72
165 190 72
168 193 80
165 191 84
167 191 76
165 190 62
170 194 57
160 184 80
164 188 67
167 192 92
167 192 92
167 190 72
164 188 67
169 193 62
166 189 72
165 190 76
169 193 67
162 186 72
166 190 67
167 192 80
168 193 92
162 186 67
165 190 99
163 187 80
168 192 72
163 187 72
161 185 95
160 184 62
163 187 72
155 178 57
157 180 57
165 188 72
163 187 67
159 182 67
162 186 62
163 187 102
161 186 84
155 178 76
160 183 76
157 180 76
161 185 67
161 184 62
153 176 62
155 179 80
159 182 57
155 178 72
149 172 62
155 178 76
155 177 76
156 178 57
150 173 67
157 179 84
149 171 76
157 178 67
154 177 72
156 178 92
152 173 57
142 165 97
89 116 130
86 113 115
89 116 124
83 111 111
88 114 115
77 106 110
86 113 124
87 113 118
94 120 136
88 116 130
84 111 119
88 115 140
98 123 133
98 124 133
92 118 138
100 124 143
77 106 132
98 123 137
93 120 138
98 122 153
99 124 144
101 127 135
94 120 136
108 132 134
97 124 139
114 138 143
99 125 147
92 115 139
100 125 132
118 140 128
94 120 146
90 118 134
92 120 151
83 111 138
75 106 159
71 103 154
74 105 154
93 120 168
86 114 155
82 110 151
75 102 145
73 102 145
73 101 139
83 105 129
81 105 135
61 95 131
60 94 134
60 95 134
61 96 142
60 95 135
60 95 140
61 96 141
64 97 129
70 100 122
57 91 120
61 94 124
61 93 107
74 104 121
58 92 122
58 92 120
59 93 127
58 93 125
57 91 120
57 91 126
58 92 118
59 93 131
59 93 129
58 92 117
58 92 121
58 92 126
57 91 124
59 93 130
58 92 118
60 95 137
58 92 129
59 93 125
59 93 120
58 92 125
58 92 134
57 91 124
58 92 120
57 91 124
58 92 131
58 92 126
59 93 122
59 93 125
58 92 117
59 94 132
59 94 117
59 93 122
58 92 120
59 94 133
59 94 137
58 91 111
56 90 117
60 94 122
58 92 117
58 92 125
59 94 128
58 92 124
60 94 126
58 92 124
59 94 126
58 92 128
61 95 139
59 94 124
60 94 131
58 92 125
60 94 128
58 93 122
59 93 126
61 96 137
59 93 117
60 94 125
60 95 129
59 94 126
59 94 124
60 94 136
59 94 126
58 92 117
58 92 121
58 92 120
58 92 113
59 93 130
60 94 124
57 90 115
58 92 120
60 94 129
58 91 121
56 90 120
59 93 124
58 92 125
57 90 114
58 91 120
58 92 117
56 90 113
60 93 121
58 92 117
57 89 108
56 89 122
57 90 114
57 90 115
58 92 111
56 88 115
56 88 101
57 90 111
55 87 107
55 87 95
73 100 88
110 124 18
120 134 0
115 129 0
107 122 0
108 123 0
121 135 0
110 126 0
115 128 0
110 123 0
119 133 0
130 143 0
128 142 0
122 136 0
132 145 0
133 148 0
125 139 0
127 141 0
128 145 0
123 135 0
134 148 0
123 138 0
124 140 0
117 131 0
124 139 0
126 138 0
124 137 0
129 144 0
129 144 0
127 139 0
143 156 0
135 153 0
131 144 0
130 144 0
132 146 0
143 160 0
132 144 0
138 152 0
132 146 0
137 151 0
136 152 0
130 142 0
139 154 0
147 160 0
141 156 0
141 155 0
147 163 0
134 147 0
142 155 0
146 163 0
142 157 0
138 149 0
140 152 0
134 147 0
151 169 0
150 164 0
137 151 0
138 152 0
151 164 0
144 159 0
139 152 0
150 167 0
134 149 0
143 157 0
145 158 0
140 154 0
135 149 0
148 163 0
142 155 0
147 162 0
148 161 0
155 168 0
148 165 0
148 159 0
137 151 0
140 155 0
157 173 0
149 164 0
154 170 0
152 167 0
141 154 0
143 158 0
147 160 0
151 165 0
150 165 0
150 164 0
149 165 0
149 162 0
151 168 0
155 171 0
144 153 0
151 167 0
148 160 0
152 166 0
152 166 0
156 170 0
149 163 0
157 173 0
154 170 0
152 166 0
152 167 0
159 176 0
157 171 0
149 164 0
156 174 0
148 163 0
155 170 0
152 167 0
153 167 0
155 169 0
157 169 0
152 167 0
156 171 0
157 172 0
160 175 0
159 175 0
160 174 0
161 179 0
150 165 0
158 174 0
165 184 0
160 176 0
156 171 0
159 177 0
159 175 0
164 181 0
155 171 0
162 177 0
164 180 0
164 181 0
163 178 0
164 180 0
156 174 0
163 180 0
162 180 0
165 182 0
164 182 0
159 175 0
165 183 0
162 182 0
165 183 0
167 186 0
166 185 0
162 179 0
163 181 0
169 186 0
158 176 0
166 185 0
163 182 0
164 180 0
164 182 0
167 186 0
162 179 0
163 183 0
163 179 0
166 184 0
162 178 0
166 185 0
165 185 0
163 180 0
166 184 0
163 180 0
164 183 0
169 193 84
171 196 72
173 196 62
171 194 72
173 197 62
171 195 76
166 190 57
174 198 88
172 196 51
169 193 57
169 193 62
169 193 62
171 195 80
167 192 76
167 193 80
171 195 76
169 193 51
165 189 57
170 194 67
171 195 80
165 189 51
168 192 80
166 189 62
169 194 80
168 193 76
171 195 62
168 192 76
170 194 80
165 189 57
170 194 84
167 190 67
171 195 95
169 193 88
169 193 57
159 184 57
165 189 84
168 192 88
163 187 67
164 188 84
169 193 72
164 188 80
168 192 80
164 188 80
168 192 80
164 188 57
163 187 57
168 193 72
166 190 62
167 191 57
163 188 80
166 190 88
166 189 67
165 188 44
161 184 44
162 187 84
164 188 80
163 187 57
166 191 95
163 186 80
159 183 80
163 187 67
164 186 62
161 184 76
161 185 76
162 186 67
162 185 67
161 184 76
161 184 88
162 185 51
155 178 76
156 179 44
150 173 62
160 183 76
157 181 80
159 182 84
154 176 80
157 180 67
162 185 67
154 177 80
163 186 84
157 180 80
157 179 76
154 175 72
151 174 57
155 178 84
154 177 67
156 178 76
153 176 76
149 171 80
141 163 80
75 103 103
90 117 126
85 112 115
98 124 143
93 120 113
89 116 122
86 113 115
93 119 128
92 118 120
96 122 133
85 112 126
92 118 140
101 127 143
94 120 134
96 122 138
93 119 137
82 110 124
100 126 151
92 119 138
86 113 142
87 114 137
102 128 140
88 115 136
100 126 149
86 114 139
102 127 134
103 128 140
94 119 127
102 125 138
98 121 131
95 119 139
86 114 127
74 105 134
87 115 152
80 110 157
81 111 166
91 119 171
74 104 144
77 107 154
85 112 152
76 103 149
70 100 142
70 99 139
71 100 142
75 102 138
59 94 143
60 95 142
61 96 150
60 94 137
60 95 142
59 93 118
62 96 126
63 95 133
60 94 131
60 92 113
59 92 110
78 107 110
73 102 102
56 89 126
59 94 129
58 92 123
55 89 106
58 92 124
58 92 120
58 92 125
57 91 121
59 93 122
60 94 136
57 90 114
59 93 129
58 92 115
58 92 121
59 93 127
57 91 118
58 92 115
58 92 122
58 91 123
60 95 137
58 92 116
61 95 140
59 94 134
59 93 121
57 91 124
60 94 133
60 95 135
60 94 121
58 92 121
59 93 128
58 93 128
59 93 120
59 94 130
59 93 124
60 94 128
59 93 125
58 92 124
58 92 122
58 91 129
59 93 121
59 93 122
59 93 129
56 89 107
59 93 125
59 94 133
58 92 125
60 95 137
58 92 120
58 92 120
59 93 133
60 94 131
59 94 129
60 95 134
59 93 124
59 94 120
59 92 120
59 94 129
58 91 118
59 93 124
58 92 118
60 94 126
60 94 135
59 93 126
57 90 110
57 91 120
57 90 113
59 94 125
60 94 124
57 91 107
59 93 117
59 93 125
59 93 118
58 92 122
59 93 122
59 93 118
59 92 120
57 89 117
57 90 113
58 91 114
59 92 126
57 89 108
60 94 118
56 89 105
56 89 105
56 89 100
57 90 113
54 86 99
54 85 92
65 92 92
114 131 25
112 126 0
117 131 0
120 134 0
113 127 0
117 129 0
116 129 0
120 135 0
115 126 0
108 122 0
127 143 0
118 131 0
115 127 0
118 133 0
123 138 0
134 148 0
125 140 0
120 136 0
132 146 0
127 144 0
117 132 0
128 146 0
118 130 0
105 119 0
117 130 0
126 140 0
135 150 0
125 139 0
130 145 0
125 141 0
134 149 0
133 146 0
126 138 0
138 154 0
143 159 0
128 142 0
140 153 0
138 154 0
138 152 0
131 147 0
134 150 0
132 144 0
139 156 0
139 153 0
139 152 0
138 151 0
133 147 0
138 153 0
141 157 0
133 150 0
130 143 0
140 155 0
139 152 0
142 157 0
134 147 0
152 169 0
144 159 0
140 156 0
140 155 0
140 155 0
143 156 0
137 150 0
140 153 0
149 163 0
139 154 0
147 161 0
144 156 0
141 154 0
138 151 0
140 154 0
153 169 0
145 160 0
149 162 0
153 166 0
149 165 0
141 156 0
148 161 0
149 163 0
147 161 0
148 160 0
155 169 0
148 163 0
151 167 0
147 160 0
151 164 0
150 162 0
152 166 0
156 171 0
153 167 0
149 164 0
150 165 0
149 165 0
152 170 0
150 163 0
153 168 0
157 173 0
152 167 0
154 170 0
154 170 0
153 167 0
157 174 0
161 175 0
158 171 0
157 171 0
152 166 0
159 175 0
156 170 0
159 177 0
158 174 0
157 173 0
159 173 0
159 175 0
162 179 0
157 173 0
160 177 0
158 174 0
160 177 0
156 173 0
157 172 0
160 178 0
159 174 0
156 170 0
159 176 0
162 177 0
159 177 0
158 175 0
157 173 0
164 183 0
160 177 0
158 174 0
160 177 0
160 179 0
162 179 0
166 185 0
159 176 0
164 180 0
160 175 0
157 174 0
162 178 0
160 175 0
164 181 0
162 181 0
167 184 0
165 184 0
163 180 0
161 178 0
164 182 0
167 186 0
160 180 0
163 180 0
163 180 0
164 182 0
164 182 0
167 185 0
161 181 0
165 183 0
166 186 0
164 183 0
169 188 0
165 186 0
166 184 0
168 188 0
169 188 0
169 192 72
171 195 57
171 195 67
172 196 88
170 195 88
172 196 76
172 195 57
169 193 62
171 195 88
171 195 44
171 195 62
169 192 67
173 197 67
170 194 67
171 195 57
170 194 84
168 192 51
169 194 84
168 192 62
166 189 51
168 192 72
170 192 51
166 190 76
171 195 67
166 191 72
166 190 44
163 188 76
165 190 84
168 192 62
167 190 57
163 187 76
161 185 67
171 196 80
167 192 80
170 195 80
169 193 67
167 191 72
162 187 80
168 191 62
169 193 80
162 185 44
167 191 84
167 192 76
164 188 80
166 189 44
170 194 88
164 188 67
160 184 76
165 189 99
164 188 84
160 184 51
169 193 72
160 185 67
162 187 76
167 192 57
160 185 84
162 186 67
163 187 67
160 184 80
164 189 57
154 177 51
162 185 62
160 183 67
162 185 57
160 183 76
154 178 76
163 187 80
154 177 57
153 176 72
159 183 80
156 179 72
150 173 57
158 181 57
152 174 57
156 178 67
153 177 80
157 180 76
156 178 84
150 173 88
153 175 72
150 173 54
156 179 92
153 175 62
147 169 70
152 175 95
157 180 76
160 182 67
154 176 62
147 168 84
141 163 62
120 143 97
88 114 115
85 112 116
99 124 126
90 116 107
88 115 123
97 124 126
89 117 121
95 121 122
76 106 122
81 109 121
92 118 131
76 106 116
94 121 134
92 118 139
96 122 143
97 122 141
85 111 131
85 112 135
102 127 139
84 113 133
108 131 148
94 119 130
103 129 145
94 121 136
97 123 135
88 116 132
97 122 144
94 120 117
85 113 132
98 122 124
86 114 145
103 129 137
86 114 155
90 118 170
80 110 158
80 110 160
72 104 159
83 112 156
85 113 154
75 103 150
78 104 142
78 104 140
75 101 120
71 101 137
69 99 129
60 95 136
60 95 142
60 93 128
60 95 140
57 91 123
65 97 125
63 96 128
67 98 120
58 92 117
59 92 128
62 94 119
76 103 94
59 92 121
56 89 107
58 92 122
58 92 117
57 91 123
58 92 115
57 91 124
59 93 122
60 94 134
60 94 133
56 90 105
60 94 136
57 91 118
58 92 125
59 94 126
58 92 124
58 91 117
57 91 110
58 92 121
59 93 124
61 96 139
60 95 143
59 93 122
57 91 118
59 93 118
60 95 133
59 93 124
57 90 118
57 91 118
59 94 130
60 95 133
60 94 128
60 95 134
58 92 115
58 92 122
60 94 130
59 94 130
61 97 142
58 92 121
59 93 120
59 93 124
60 95 135
59 94 126
61 95 134
59 93 128
59 93 128
58 91 110
61 96 139
58 92 122
58 92 118
59 92 125
58 93 120
60 94 133
59 93 120
58 92 118
59 93 120
59 93 129
60 93 124
58 92 129
60 95 128
58 92 122
59 93 124
58 92 111
59 93 126
58 91 122
58 92 121
59 93 126
59 93 117
58 92 114
58 92 115
57 90 105
56 89 100
58 92 113
58 92 111
57 90 113
57 91 108
59 93 122
56 89 113
55 87 103
57 90 102
57 90 110
56 88 102
56 89 107
54 86 107
55 88 103
55 87 108
55 86 90
82 106 82
110 123 25
108 120 0
118 133 0
113 127 0
118 130 0
109 124 0
114 128 0
116 131 0
123 137 0
119 131 0
121 132 0
114 129 0
113 124 0
135 151 0
114 128 0
110 124 0
122 136 0
115 129 0
122 137 0
124 140 0
131 144 0
129 143 0
119 132 0
125 139 0
145 161 0
134 149 0
130 146 0
125 140 0
126 142 0
123 138 0
125 141 0
130 147 0
134 150 0
133 145 0
135 152 0
128 141 0
131 145 0
133 147 0
141 156 0
121 134 0
129 145 0
142 154 0
144 160 0
139 155 0
139 153 0
129 144 0
143 157 0
137 150 0
136 152 0
138 150 0
142 156 0
143 158 0
140 154 0
139 152 0
145 160 0
139 155 0
134 150 0
143 159 0
138 156 0
148 163 0
136 150 0
146 161 0
146 162 0
144 157 0
134 148 0
150 164 0
151 164 0
153 168 0
148 164 0
148 163 0
145 158 0
150 163 0
148 162 0
152 166 0
145 160 0
146 160 0
153 166 0
150 163 0
149 164 0
153 166 0
147 162 0
150 164 0
145 161 0
148 163 0
148 165 0
146 162 0
147 160 0
151 166 0
143 157 0
154 166 0
150 164 0
154 171 0
154 169 0
152 168 0
154 169 0
148 160 0
150 166 0
153 166 0
154 170 0
150 164 0
154 167 0
157 173 0
150 166 0
157 174 0
155 172 0
154 169 0
154 170 0
156 173 0
151 166 0
158 174 0
157 173 0
159 174 0
157 169 0
159 177 0
154 170 0
157 174 0
159 175 0
163 179 0
155 171 0
161 178 0
161 178 0
156 171 0
161 178 0
159 178 0
164 181 0
157 174 0
162 176 0
159 174 0
159 173 0
162 180 0
162 179 0
157 175 0
161 177 0
163 178 0
167 187 0
164 181 0
161 178 0
157 173 0
163 182 0
166 185 0
160 175 0
166 183 0
165 182 0
162 182 0
163 181 0
164 182 0
163 180 0
160 176 0
165 184 0
166 184 0
163 181 0
165 182 0
166 184 0
164 183 0
164 182 0
160 178 0
162 181 0
165 182 0
159 177 0
166 185 0
167 186 0
165 184 0
163 183 0
165 182 0
169 194 72
171 196 92
168 192 57
172 196 44
172 195 72
169 193 84
172 196 92
171 194 76
170 194 76
170 195 76
169 192 36
167 191 72
167 192 72
173 197 80
168 191 57
170 194 62
171 195 84
169 193 57
170 194 84
169 193 62
162 186 72
166 191 84
167 192 92
168 192 57
166 191 72
168 192 76
169 194 62
169 192 84
162 186 67
164 189 88
169 193 62
167 191 80
168 193 99
169 193 57
168 192 80
170 194 51
166 190 76
166 190 51
165 188 72
165 189 72
167 191 84
162 187 44
165 190 92
168 194 95
162 186 80
161 185 36
160 183 67
166 190 72
156 179 44
162 186 51
164 188 84
157 180 57
162 185 62
164 188 62
162 186 51
166 189 72
165 189 88
164 189 76
165 190 84
156 179 62
162 186 92
162 186 72
165 190 95
156 181 72
159 181 67
162 186 67
163 186 57
158 182 67
153 177 57
163 186 76
161 185 84
159 182 76
157 180 51
156 179 72
151 175 88
156 179 76
154 177 72
159 183 72
157 180 57
159 182 84
146 169 67
157 180 92
150 173 67
147 169 62
156 177 80
145 167 67
150 171 44
155 176 80
156 177 51
143 164 51
143 164 62
110 134 86
85 111 115
85 113 122
80 108 111
90 118 128
105 130 137
91 117 128
87 113 120
82 110 116
90 116 123
84 111 122
94 120 131
104 129 142
81 109 130
87 113 128
102 127 129
88 115 128
96 122 143
93 119 134
85 112 126
97 123 128
89 117 137
89 115 120
104 128 140
99 123 136
97 123 118
101 125 132
101 127 134
98 123 132
98 123 120
103 126 141
85 112 131
96 122 156
77 108 147
83 112 162
81 111 165
83 112 159
74 105 152
88 115 156
80 108 138
71 100 140
69 98 146
71 100 135
77 102 125
75 103 142
64 96 132
58 92 124
59 94 129
58 93 132
59 94 136
61 94 121
64 96 128
63 97 131
68 99 124
59 93 129
63 95 103
93 118 101
58 91 120
57 90 119
58 92 114
58 91 111
57 91 114
56 89 118
58 93 136
57 90 110
58 92 120
58 91 131
58 91 120
59 93 124
59 93 122
59 94 130
59 93 125
56 89 107
56 89 113
59 93 122
59 94 136
59 94 136
58 92 115
60 94 126
57 91 118
59 93 122
61 95 137
57 91 121
58 91 122
58 91 121
59 93 125
60 94 130
59 94 130
57 91 119
57 90 122
58 92 118
58 92 111
59 93 124
59 93 126
58 92 117
59 93 120
59 93 124
59 93 128
58 92 128
60 94 117
58 92 121
59 92 117
57 91 113
60 94 133
60 95 131
59 94 130
60 94 131
57 91 126
59 93 118
58 92 126
59 93 129
58 91 108
57 91 118
58 91 126
57 90 118
58 92 124
57 90 113
57 90 111
57 91 108
58 92 121
57 90 115
59 92 125
56 90 115
59 93 122
56 89 110
56 89 107
59 93 126
57 90 113
56 89 105
58 92 113
57 91 108
58 92 121
58 91 111
56 88 110
56 89 107
56 89 105
58 91 111
56 89 105
55 87 110
56 89 105
54 87 97
54 85 99
55 87 110
78 100 72
107 121 0
113 126 0
109 124 0
114 128 0
109 122 0
112 126 0
122 134 0
117 130 0
118 131 0
122 137 0
133 148 0
128 144 0
128 142 0
131 147 0
125 139 0
121 136 0
119 131 0
120 135 0
128 142 0
128 141 0
127 143 0
130 147 0
127 142 0
134 151 0
135 152 0
133 149 0
125 139 0
138 153 0
134 151 0
131 144 0
127 141 0
138 152 0
124 137 0
138 155 0
141 157 0
137 152 0
132 147 0
135 147 0
134 148 0
131 144 0
142 158 0
135 148 0
135 148 0
138 155 0
142 157 0
133 147 0
132 147 0
137 151 0
139 156 0
147 164 0
137 151 0
143 160 0
140 156 0
145 160 0
138 152 0
140 154 0
141 157 0
147 164 0
144 157 0
148 162 0
145 159 0
143 157 0
146 164 0
144 159 0
142 156 0
151 168 0
148 163 0
143 156 0
154 169 0
151 167 0
153 168 0
150 166 0
142 156 0
149 161 0
146 162 0
148 159 0
145 158 0
152 167 0
153 166 0
149 164 0
147 161 0
147 163 0
148 160 0
152 166 0
148 162 0
149 165 0
155 171 0
151 167 0
147 161 0
149 164 0
155 170 0
153 167 0
149 164 0
148 165 0
154 169 0
147 161 0
151 168 0
155 171 0
155 172 0
150 164 0
154 168 0
153 169 0
157 171 0
149 163 0
157 174 0
156 172 0
154 168 0
158 173 0
161 176 0
152 165 0
156 172 0
162 178 0
161 178 0
156 172 0
157 174 0
153 169 0
158 175 0
157 172 0
157 173 0
151 166 0
157 172 0
159 173 0
158 174 0
155 172 0
160 177 0
163 179 0
159 175 0
158 175 0
157 174 0
161 178 0
159 172 0
163 181 0
160 177 0
165 180 0
158 174 0
159 177 0
162 181 0
161 178 0
162 181 0
161 179 0
163 179 0
163 183 0
163 181 0
163 181 0
165 181 0
163 182 0
163 181 0
165 183 0
162 180 0
159 176 0
159 177 0
166 183 0
162 181 0
165 183 0
165 183 0
167 185 0
165 183 0
165 184 0
166 185 0
164 185 0
166 186 0
167 187 0
166 185 0
164 183 0
167 187 0
169 192 51
169 193 51
169 193 80
166 189 57
175 199 88
172 197 76
170 194 72
169 193 84
170 194 67
169 193 62
170 194 72
173 197 76
171 196 67
169 193 80
172 197 92
169 193 80
173 197 62
168 193 62
166 191 72
167 192 51
170 195 80
168 192 57
172 196 76
166 191 88
167 191 80
168 191 51
164 188 62
169 193 80
172 196 76
168 192 72
168 192 84
164 188 88
163 187 67
162 186 80
168 193 76
164 188 72
165 188 67
166 191 95
164 187 44
167 192 76
165 189 72
167 190 76
163 187 67
171 195 88
160 184 62
165 190 84
163 187 95
167 191 67
159 184 67
170 194 88
161 185 76
163 187 51
164 188 62
164 188 67
159 182 62
163 187 62
160 183 51
162 186 57
161 185 88
160 183 67
164 187 76
161 185 84
157 180 80
163 186 72
153 176 62
162 186 84
158 181 72
160 183 62
160 184 80
163 187 76
150 173 44
156 179 67
152 175 67
158 181 72
154 177 62
152 174 72
155 179 76
154 178 72
146 168 36
149 172 72
153 175 67
145 167 57
150 172 57
159 181 57
156 179 51
149 171 62
143 164 67
146 167 76
152 174 94
146 168 76
132 154 76
144 165 67
102 127 113
86 113 115
91 118 135
93 119 120
90 116 129
89 114 120
86 113 127
99 125 124
89 116 134
72 102 114
84 110 116
94 120 122
91 116 127
86 113 124
98 125 122
86 114 126
96 122 137
98 123 140
103 128 143
94 120 139
106 130 137
80 108 134
103 128 136
103 128 145
96 122 134
94 120 123
92 118 120
94 119 128
100 123 128
83 108 127
104 128 132
92 119 134
81 110 148
87 115 160
91 118 163
68 102 153
98 124 162
74 106 149
91 118 158
83 110 149
72 101 131
76 102 136
76 103 138
72 99 127
70 100 142
60 95 144
60 94 137
61 96 137
59 93 134
58 92 122
61 94 126
64 96 125
64 97 133
66 98 118
60 93 117
66 96 113
69 100 118
56 89 112
58 91 120
57 91 121
56 89 110
57 91 113
60 94 130
57 91 126
58 93 129
57 91 121
59 93 118
58 92 128
59 93 125
59 93 134
58 92 111
57 91 118
58 92 118
59 93 125
58 92 117
59 93 122
58 93 124
61 95 131
58 93 119
58 92 122
59 94 126
59 93 128
59 93 121
59 93 128
59 93 128
60 94 121
57 91 107
57 91 110
59 94 131
57 90 115
59 92 125
58 92 118
60 94 131
56 90 110
60 94 130
61 95 131
58 92 111
59 93 118
60 95 133
57 90 117
58 92 130
58 91 113
59 93 118
57 91 118
58 92 122
58 92 128
59 93 126
59 93 126
59 92 128
58 92 121
58 92 120
58 92 117
59 94 125
60 94 133
58 92 115
58 91 118
59 92 118
57 91 115
59 93 128
59 93 122
57 89 108
58 92 120
59 93 121
58 92 126
56 89 114
59 92 121
57 91 121
58 91 117
57 90 111
58 91 118
58 92 117
58 91 115
57 90 111
57 91 115
59 93 114
55 87 99
56 89 111
56 88 103
56 89 107
57 90 102
58 90 110
69 88 62
109 122 0
118 130 0
109 123 0
108 121 0
118 133 0
117 129 0
118 132 0
122 133 0
118 133 0
117 132 0
123 136 0
129 143 0
134 148 0
132 146 0
121 136 0
123 138 0
117 131 0
122 135 0
122 138 0
126 142 0
119 136 0
132 147 0
136 152 0
125 140 0
123 138 0
131 146 0
136 152 0
121 137 0
133 148 0
125 139 0
129 143 0
138 152 0
133 150 0
138 154 0
135 148 0
134 150 0
134 150 0
138 156 0
137 151 0
143 157 0
138 155 0
139 156 0
125 141 0
136 150 0
137 155 0
138 152 0
144 160 0
129 143 0
138 153 0
137 151 0
142 155 0
137 149 0
143 156 0
141 155 0
144 160 0
136 152 0
142 156 0
145 160 0
133 145 0
145 162 0
142 157 0
142 158 0
142 156 0
144 158 0
147 162 0
139 153 0
142 157 0
140 155 0
142 157 0
144 162 0
141 155 0
143 158 0
152 169 0
149 165 0
142 155 0
152 168 0
148 163 0
152 169 0
153 167 0
152 168 0
154 170 0
152 165 0
149 163 0
151 165 0
150 164 0
153 168 0
155 171 0
148 163 0
157 173 0
141 153 0
157 173 0
150 164 0
157 172 0
150 165 0
152 169 0
150 165 0
150 165 0
154 169 0
155 172 0
154 168 0
154 168 0
160 176 0
151 166 0
152 168 0
153 170 0
155 167 0
155 171 0
156 174 0
156 174 0
157 173 0
160 174 0
159 174 0
158 175 0
163 180 0
158 175 0
155 171 0
158 175 0
154 170 0
164 181 0
159 174 0
156 171 0
160 176 0
162 179 0
159 178 0
161 178 0
160 174 0
164 181 0
155 171 0
159 176 0
163 180 0
161 178 0
161 178 0
165 182 0
168 187 0
157 175 0
159 178 0
160 177 0
161 178 0
158 174 0
163 181 0
160 178 0
162 179 0
164 184 0
163 184 0
161 179 0
164 182 0
164 182 0
161 179 0
160 177 0
161 179 0
167 185 0
166 185 0
163 181 0
163 182 0
163 181 0
167 185 0
165 185 0
166 185 0
167 186 0
165 183 0
162 180 0
166 185 0
165 182 0
164 185 0
161 181 0
167 186 0
168 192 62
175 198 72
171 194 62
173 197 95
171 196 92
169 193 76
170 194 67
166 189 84
167 191 62
170 194 84
172 196 80
168 191 51
174 198 92
165 188 72
164 189 67
165 190 84
166 190 51
169 194 76
167 191 80
167 191 62
167 192 80
168 191 76
163 187 72
165 188 67
167 190 67
170 195 57
163 187 62
169 192 62
166 190 67
168 193 72
170 194 80
168 192 72
172 196 95
166 191 99
167 191 62
166 191 72
166 191 72
168 191 62
167 191 72
167 190 72
163 187 80
166 191 84
161 186 88
164 187 67
162 186 76
168 192 80
167 192 95
164 188 80
161 185 76
161 185 76
164 187 80
170 194 95
161 184 67
163 187 72
162 186 80
166 191 84
161 185 92
161 184 67
168 190 72
159 182 76
162 185 88
164 186 76
164 188 76
158 182 80
159 182 62
160 183 57
157 181 67
156 179 67
165 188 67
162 185 108
155 178 51
159 183 84
156 179 44
159 183 88
160 181 62
161 185 72
148 171 67
159 182 80
159 181 57
157 179 62
147 169 67
149 172 62
144 166 51
159 181 88
156 178 62
143 165 51
147 170 67
148 170 72
149 170 51
151 172 67
148 170 82
146 167 76
136 158 103
99 124 121
88 115 129
84 111 113
87 114 125
100 124 124
81 108 111
97 123 122
96 122 117
90 116 122
97 122 134
93 119 130
101 126 135
89 115 129
88 115 131
86 113 126
84 111 131
87 114 127
90 117 125
92 118 139
96 123 135
95 121 144
87 115 132
104 129 130
99 125 120
105 129 126
97 123 129
96 120 109
100 124 120
88 115 120
85 112 144
96 121 111
90 117 133
84 113 150
83 112 156
74 105 145
72 104 158
83 111 155
81 110 161
81 110 157
71 98 131
71 100 136
78 103 139
78 103 131
76 102 136
72 98 122
60 95 139
59 93 126
61 96 145
59 93 131
58 92 124
65 97 124
63 96 110
59 91 117
65 98 122
65 96 101
77 104 94
58 91 119
57 91 110
57 91 118
56 90 110
58 92 123
58 92 118
57 90 118
58 92 121
57 90 115
57 90 110
59 94 134
57 91 114
56 89 99
58 91 120
59 92 127
58 92 125
59 94 122
59 93 126
59 94 133
57 90 119
58 91 109
57 90 113
60 94 128
57 91 118
58 92 117
59 94 128
59 93 121
57 91 118
59 93 133
60 94 124
59 92 117
59 93 129
57 91 111
59 93 125
59 93 117
58 92 121
59 94 126
59 93 124
58 92 124
59 93 121
60 95 133
58 92 126
58 92 114
60 95 140
58 92 114
59 92 131
57 90 111
59 93 118
59 93 115
59 93 128
58 92 124
61 95 130
58 92 121
58 92 124
56 89 108
58 91 118
57 90 111
57 90 115
59 92 124
57 91 115
59 93 124
56 88 99
57 91 120
56 89 103
56 89 105
56 89 113
59 93 124
58 91 117
56 90 105
57 90 105
58 91 118
57 91 113
55 88 95
56 89 92
57 91 115
56 89 110
58 91 120
55 87 94
56 88 102
55 86 107
54 85 97
54 85 94
53 84 92
86 105 62
109 123 0
112 126 0
110 122 0
107 121 0
118 130 0
108 122 0
121 135 0
123 136 0
129 146 0
117 133 0
109 124 0
125 138 0
124 139 0
123 136 0
119 135 0
128 141 0
122 133 0
125 142 0
125 141 0
115 131 0
126 141 0
125 140 0
135 153 0
134 149 0
127 141 0
123 138 0
116 131 0
129 148 0
140 156 0
142 157 0
129 144 0
133 151 0
136 153 0
122 136 0
135 150 0
136 153 0
135 151 0
144 160 0
131 147 0
136 152 0
140 154 0
135 151 0
138 153 0
135 149 0
136 152 0
133 150 0
139 155 0
140 156 0
132 145 0
150 165 0
137 153 0
138 150 0
147 163 0
143 159 0
138 155 0
144 156 0
149 166 0
145 159 0
142 158 0
150 167 0
144 160 0
150 163 0
142 158 0
144 159 0
146 161 0
151 168 0
143 158 0
149 165 0
147 162 0
150 165 0
147 163 0
141 157 0
151 166 0
139 156 0
146 160 0
152 169 0
144 160 0
140 154 0
149 162 0
141 154 0
146 162 0
144 159 0
150 168 0
150 164 0
151 165 0
147 161 0
152 166 0
148 165 0
152 166 0
155 171 0
152 165 0
154 170 0
153 171 0
147 162 0
153 170 0
153 167 0
152 168 0
153 170 0
149 164 0
152 167 0
159 175 0
157 174 0
158 173 0
154 171 0
153 169 0
162 180 0
154 171 0
154 170 0
154 168 0
163 181 0
160 176 0
159 176 0
154 169 0
155 172 0
160 176 0
161 179 0
162 178 0
159 177 0
158 178 0
158 174 0
153 167 0
161 180 0
158 174 0
157 174 0
158 175 0
159 176 0
161 179 0
156 171 0
160 177 0
162 180 0
164 180 0
161 178 0
161 177 0
163 182 0
163 181 0
158 176 0
162 178 0
162 180 0
163 181 0
164 183 0
159 175 0
163 180 0
162 178 0
162 180 0
155 172 0
169 187 0
163 181 0
157 173 0
166 183 0
163 181 0
164 183 0
161 179 0
168 186 0
163 182 0
166 185 0
163 180 0
166 185 0
163 182 0
162 179 0
164 183 0
170 188 0
166 185 0
165 185 0
160 179 0
164 183 0
165 184 0
166 186 0
175 199 84
166 191 72
171 195 88
172 195 76
170 194 76
164 189 62
167 191 72
170 194 84
169 193 72
168 191 99
169 194 72
170 194 80
167 191 57
168 193 57
170 193 67
172 196 57
170 193 57
168 192 72
163 187 62
166 190 72
170 195 51
171 195 80
167 190 57
169 194 80
171 195 62
161 186 62
169 193 76
169 193 67
171 196 95
168 191 44
169 194 80
168 193 92
164 187 92
164 189 72
170 195 92
165 189 67
170 194 62
163 188 62
163 187 67
171 196 92
163 186 72
167 191 84
166 190 76
167 190 88
168 191 88
165 189 88
167 191 67
166 189 99
165 188 67
166 190 84
164 187 80
163 186 88
165 189 102
159 183 95
162 185 72
170 193 95
156 179 67
167 191 108
167 191 99
158 182 80
168 191 95
161 185 80
164 187 92
163 185 95
165 187 88
164 188 80
161 184 99
156 179 84
151 173 76
163 186 80
161 185 80
163 186 51
151 173 67
154 177 62
158 181 84
149 172 72
160 184 88
149 172 67
147 169 76
156 179 84
153 175 72
155 177 67
161 183 92
152 175 76
159 181 62
157 180 84
149 172 82
152 173 72
151 173 76
152 173 99
145 167 67
130 151 54
139 159 62
131 153 88
92 117 122
94 120 124
92 118 121
93 119 130
95 119 122
98 124 117
87 114 120
89 114 114
93 119 131
85 112 122
88 115 124
97 123 136
96 121 136
91 116 111
81 108 116
91 116 136
96 121 125
96 122 118
101 125 122
97 122 133
97 122 137
96 121 135
90 116 136
102 127 134
98 124 140
101 125 132
95 119 119
111 132 110
105 127 136
101 123 131
83 111 125
88 115 152
77 107 154
89 117 166
88 115 156
91 117 155
75 105 155
85 113 148
93 118 151
73 102 142
76 101 134
73 99 129
76 101 132
72 100 132
67 97 128
60 94 135
60 94 129
57 90 120
64 98 133
59 94 134
60 92 116
63 96 126
64 96 112
60 93 118
97 123 94
57 91 115
59 92 129
56 89 107
58 91 110
57 89 113
57 91 110
58 91 115
57 90 114
58 92 115
57 90 107
56 88 103
58 92 116
59 93 129
57 90 115
58 92 121
56 89 110
56 89 108
58 92 132
59 93 124
58 91 122
58 92 113
59 92 125
57 91 120
58 92 120
59 92 125
59 94 126
59 93 120
58 92 113
57 91 110
58 91 120
58 92 110
59 92 121
59 93 125
59 93 126
60 94 132
58 92 129
57 91 124
57 90 107
59 93 120
57 91 103
59 93 118
58 92 126
58 92 120
58 91 121
59 93 122
57 91 103
59 93 121
58 92 107
59 93 125
58 91 118
59 93 120
60 94 130
59 93 130
58 92 121
58 92 122
58 92 126
57 91 115
58 92 117
56 89 102
58 91 114
58 93 117
55 88 100
60 94 121
56 90 110
58 92 117
56 89 107
58 92 114
56 89 118
56 88 108
58 91 117
57 90 111
56 89 99
58 91 122
56 89 108
57 90 111
54 86 90
57 90 113
58 91 122
56 88 107
56 88 100
53 85 86
67 94 97
96 111 47
112 125 0
114 129 0
122 138 0
119 134 0
122 135 0
116 132 0
121 137 0
116 131 0
113 127 0
116 131 0
115 132 0
111 125 0
118 133 0
126 142 0
124 141 0
120 132 0
123 139 0
109 126 0
124 141 0
130 147 0
112 128 0
116 130 0
142 157 0
140 157 0
125 138 0
120 135 0
132 148 0
131 145 0
126 140 0
130 145 0
134 150 0
130 144 0
137 152 0
135 150 0
136 151 0
139 154 0
126 140 0
142 159 0
133 151 0
140 153 0
126 141 0
134 151 0
135 150 0
142 157 0
140 153 0
133 148 0
142 160 0
125 140 0
144 164 0
135 149 0
147 162 0
141 157 0
144 159 0
143 159 0
142 159 0
140 157 0
146 162 0
146 160 0
137 153 0
145 159 0
147 164 0
144 159 0
143 160 0
139 154 0
145 160 0
144 158 0
148 163 0
136 152 0
148 165 0
144 159 0
135 151 0
147 161 0
147 165 0
147 163 0
147 163 0
140 157 0
148 164 0
143 158 0
159 173 0
146 163 0
153 167 0
148 162 0
147 162 0
147 163 0
146 162 0
148 162 0
148 163 0
152 167 0
147 162 0
154 167 0
153 167 0
154 171 0
155 171 0
150 166 0
150 165 0
152 167 0
155 171 0
155 169 0
148 163 0
158 173 0
153 167 0
155 170 0
153 169 0
147 164 0
156 174 0
159 176 0
154 170 0
154 172 0
156 174 0
153 168 0
160 176 0
161 176 0
161 177 0
157 173 0
161 177 0
155 171 0
160 176 0
155 171 0
159 176 0
150 166 0
156 172 0
156 171 0
159 175 0
159 176 0
163 181 0
163 181 0
161 177 0
161 177 0
163 181 0
158 174 0
164 182 0
155 173 0
156 172 0
160 177 0
155 172 0
165 183 0
159 174 0
163 182 0
162 181 0
163 182 0
165 183 0
162 180 0
162 178 0
164 182 0
163 181 0
166 183 0
160 177 0
165 184 0
166 185 0
165 184 0
168 188 0
157 176 0
164 182 0
161 178 0
164 182 0
167 184 0
167 189 0
165 184 0
162 183 0
164 185 0
162 181 0
168 189 0
168 186 0
163 182 0
164 184 0
164 183 0
165 184 0
168 189 0
169 194 67
171 195 76
167 192 72
171 195 84
171 195 88
171 195 80
171 194 44
171 194 36
170 194 72
170 194 51
169 194 76
172 196 72
166 190 62
166 190 62
170 194 62
168 193 72
167 190 36
174 196 51
168 193 67
166 190 44
170 194 88
167 191 62
167 190 44
166 191 67
163 187 51
171 195 62
169 194 80
164 188 62
168 192 92
167 190 67
168 192 67
162 185 76
164 188 84
167 191 72
171 195 80
167 191 67
164 188 84
168 192 67
164 188 72
165 188 80
167 191 88
168 191 80
164 187 67
170 195 99
165 189 84
167 191 92
165 187 95
165 189 95
169 192 102
165 189 99
160 184 76
169 192 92
169 192 84
163 186 84
169 193 99
162 185 84
162 186 88
159 183 88
161 185 72
162 185 88
162 184 62
164 187 95
161 184 76
162 185 80
161 183 76
162 183 92
163 186 80
167 191 84
168 191 95
158 182 80
157 180 80
156 179 92
157 179 88
155 177 76
158 180 72
151 174 92
158 181 92
152 176 99
150 172 72
156 177 36
152 174 80
156 179 76
142 165 84
159 182 80
144 165 76
154 177 92
144 165 57
141 163 80
151 172 57
155 176 57
144 166 105
148 169 88
142 163 80
143 164 88
135 158 102
79 106 105
88 114 118
88 114 118
91 117 116
87 113 122
101 126 134
75 103 103
98 124 139
93 119 124
94 119 125
85 111 110
90 116 137
94 120 135
93 119 131
94 119 124
104 128 137
110 135 147
107 131 139
106 131 139
102 127 149
108 132 141
89 115 126
92 119 134
97 122 123
114 137 141
109 132 138
90 116 115
104 127 128
92 117 129
105 130 135
96 122 144
79 108 150
75 106 155
82 110 149
80 109 142
83 112 161
81 110 156
82 110 144
73 101 133
67 98 131
75 100 124
74 101 135
78 102 128
73 99 136
61 93 124
60 95 133
58 93 136
62 96 137
57 91 122
66 98 125
64 95 115
60 92 123
60 94 115
91 117 107
64 96 121
57 90 116
57 90 117
59 93 126
56 89 107
57 91 121
57 90 123
58 91 111
58 91 120
57 91 115
55 88 104
58 92 120
57 91 103
58 92 120
57 90 113
57 91 122
58 92 122
56 89 114
58 92 120
58 92 126
57 91 113
59 93 120
56 89 116
58 92 124
58 93 118
58 92 114
57 90 114
58 92 131
58 92 107
58 91 110
59 92 118
59 93 121
58 92 122
59 93 120
58 92 114
57 91 113
58 92 115
59 93 122
58 92 126
58 92 118
59 93 126
58 92 125
57 90 111
58 92 120
60 94 128
57 91 107
58 92 121
58 92 122
59 93 122
58 91 115
59 93 130
58 91 114
56 89 110
58 92 114
56 90 103
58 92 111
59 92 118
56 90 108
56 89 114
56 89 110
59 94 122
57 91 110
57 91 115
57 91 111
58 92 115
56 89 103
57 91 110
57 90 114
53 83 92
57 90 107
57 90 121
56 89 108
55 88 100
57 90 114
58 91 124
56 88 110
55 86 100
54 86 100
55 87 94
56 89 103
66 92 76
108 124 31
101 115 0
106 120 0
110 123 0
102 118 0
118 131 0
116 131 0
116 128 0
117 130 0
112 127 0
111 125 0
114 127 0
121 137 0
119 134 0
129 145 0
119 134 0
125 140 0
122 135 0
124 140 0
142 160 0
126 141 0
124 138 0
131 148 0
134 148 0
127 143 0
119 134 0
129 147 0
127 141 0
130 147 0
126 143 0
132 149 0
134 150 0
136 153 0
127 140 0
135 150 0
131 147 0
137 154 0
124 139 0
135 149 0
136 153 0
138 153 0
135 151 0
134 149 0
136 153 0
137 152 0
126 142 0
135 152 0
132 148 0
137 153 0
143 157 0
134 148 0
142 157 0
141 157 0
143 159 0
131 149 0
146 163 0
147 164 0
144 159 0
140 153 0
150 167 0
147 161 0
144 159 0
150 168 0
148 165 0
146 162 0
138 151 0
151 169 0
142 158 0
148 165 0
143 158 0
148 165 0
151 168 0
150 164 0
149 164 0
146 159 0
153 170 0
143 157 0
149 165 0
143 159 0
151 168 0
148 162 0
148 164 0
152 167 0
143 159 0
149 164 0
155 173 0
152 167 0
147 162 0
158 172 0
153 168 0
154 169 0
145 159 0
155 171 0
160 175 0
159 177 0
156 176 0
155 171 0
153 169 0
160 176 0
155 173 0
153 171 0
159 176 0
158 172 0
154 170 0
154 169 0
161 177 0
155 173 0
154 170 0
157 173 0
160 177 0
156 173 0
165 182 0
154 171 0
160 179 0
163 182 0
159 174 0
157 175 0
147 162 0
161 178 0
159 177 0
158 176 0
160 178 0
160 178 0
154 170 0
159 176 0
162 181 0
161 178 0
157 175 0
165 182 0
156 173 0
159 174 0
164 183 0
164 183 0
164 183 0
163 180 0
161 180 0
159 177 0
157 174 0
161 177 0
165 184 0
163 178 0
165 184 0
158 173 0
161 178 0
161 178 0
163 181 0
160 177 0
162 180 0
163 182 0
160 177 0
162 178 0
164 184 0
161 177 0
162 180 0
159 179 0
167 183 0
164 184 0
161 178 0
167 186 0
165 186 0
166 181 0
161 179 0
164 181 0
165 186 0
167 187 0
168 186 0
164 184 0
168 184 0
168 189 0
167 187 0
175 198 67
167 192 72
169 194 88
167 191 76
168 193 57
172 196 84
166 190 76
167 190 51
168 192 57
168 192 67
164 187 62
172 195 72
172 195 44
175 199 67
173 198 84
169 194 88
170 193 62
171 195 67
167 191 76
171 196 67
169 193 67
167 192 84
163 187 72
167 191 62
168 192 51
163 186 67
170 194 72
169 194 57
170 194 51
167 192 99
167 191 67
164 189 88
162 184 44
169 193 72
166 190 84
168 193 92
166 190 76
170 193 92
171 195 92
163 187 88
166 190 99
167 191 92
165 189 95
162 185 84
165 188 88
171 197 102
167 189 88
167 191 80
160 182 62
166 191 84
163 186 76
161 184 84
163 185 84
161 185 92
162 186 84
166 190 92
158 182 92
160 183 72
165 188 92
156 178 92
165 189 95
165 188 80
157 180 80
161 184 88
155 178 67
164 187 105
158 180 80
155 176 88
157 180 80
154 177 99
163 186 76
155 177 84
157 179 57
162 184 76
157 179 92
160 183 84
155 177 95
153 176 76
158 181 51
146 169 72
160 183 95
154 177 84
151 173 72
147 168 62
144 166 72
151 173 72
148 170 67
135 156 57
145 166 67
150 172 84
137 158 72
133 154 57
137 159 76
139 160 84
132 153 76
117 139 83
98 122 113
88 113 113
95 120 117
97 122 137
90 115 110
94 119 124
97 122 126
92 118 117
85 112 121
109 133 143
84 111 126
94 120 122
84 111 124
108 132 137
92 118 126
93 119 129
93 119 131
100 126 135
93 119 130
103 128 137
107 131 146
108 132 151
93 119 124
100 124 125
94 120 125
104 128 124
104 128 131
95 119 130
98 121 132
93 118 132
80 110 148
73 104 151
73 103 143
85 112 149
88 114 142
82 111 157
80 109 149
75 106 141
72 101 136
77 102 138
74 100 124
80 103 124
77 101 123
62 93 120
57 91 115
60 93 129
58 91 115
64 97 120
63 95 120
61 92 114
58 92 126
66 99 122
80 108 100
83 110 105
57 91 110
58 91 121
55 88 105
57 91 108
57 90 113
59 92 128
57 91 110
58 92 115
58 92 115
57 91 114
56 89 107
58 92 114
57 91 128
58 91 122
58 91 113
57 91 114
59 93 121
57 90 118
58 92 110
57 91 115
58 91 114
59 93 125
57 91 108
57 91 114
58 92 120
59 93 118
57 90 111
58 92 113
58 92 113
58 92 121
58 92 117
59 94 117
56 89 110
58 92 125
59 93 128
58 91 121
57 91 113
57 91 124
59 93 121
57 90 110
58 92 114
60 94 122
58 92 115
57 90 114
57 90 113
56 89 107
58 92 124
59 93 129
57 90 108
59 93 122
58 91 120
59 92 121
59 92 117
59 93 118
57 90 113
57 90 111
57 90 105
58 91 117
57 91 114
56 89 107
56 88 102
57 90 115
58 92 121
56 90 97
57 91 105
57 91 108
56 90 110
55 88 100
57 90 111
57 90 105
56 88 103
54 86 107
55 87 99
57 90 100
56 89 108
54 85 94
54 84 95
54 86 95
90 110 78
103 116 18
110 123 0
109 123 0
103 116 0
99 112 0
115 130 0
113 130 0
110 124 0
105 120 0
120 136 0
123 138 0
111 125 0
111 126 0
114 128 0
109 122 0
120 136 0
117 129 0
113 130 0
125 139 0
130 144 0
116 130 0
132 148 0
125 140 0
127 141 0
134 148 0
124 139 0
127 143 0
129 143 0
126 139 0
120 136 0
125 139 0
127 142 0
128 141 0
122 136 0
124 139 0
133 149 0
145 162 0
139 155 0
130 144 0
137 151 0
125 143 0
136 154 0
132 149 0
135 151 0
133 146 0
140 157 0
138 154 0
144 161 0
137 153 0
138 154 0
134 151 0
145 162 0
147 165 0
140 154 0
138 156 0
143 158 0
139 154 0
136 152 0
146 161 0
147 164 0
142 161 0
143 161 0
145 164 0
151 168 0
141 157 0
146 165 0
144 161 0
146 161 0
151 168 0
138 154 0
143 160 0
146 163 0
152 168 0
145 161 0
145 159 0
151 166 0
138 153 0
154 171 0
150 168 0
142 157 0
152 168 0
148 162 0
156 171 0
153 168 0
154 171 0
148 165 0
150 167 0
151 168 0
156 173 0
156 173 0
154 172 0
155 172 0
152 167 0
154 171 0
149 164 0
158 173 0
146 161 0
158 172 0
153 169 0
152 169 0
156 173 0
158 175 0
153 168 0
161 178 0
159 173 0
158 176 0
154 170 0
158 174 0
158 175 0
157 172 0
158 176 0
162 177 0
153 168 0
159 176 0
163 181 0
158 175 0
161 178 0
163 181 0
159 177 0
156 175 0
159 177 0
156 172 0
157 172 0
158 173 0
158 174 0
160 177 0
152 167 0
165 184 0
158 176 0
163 180 0
161 179 0
161 176 0
163 182 0
151 168 0
160 177 0
158 175 0
164 182 0
162 181 0
161 180 0
162 181 0
164 179 0
160 179 0
164 183 0
162 181 0
167 185 0
163 181 0
163 180 0
167 184 0
160 179 0
164 182 0
166 185 0
167 185 0
165 186 0
165 185 0
164 183 0
162 182 0
164 183 0
164 185 0
163 181 0
170 189 0
167 188 0
166 185 0
162 181 0
162 180 0
163 182 0
162 183 0
165 184 0
166 184 0
164 182 0
167 187 0
167 187 0
170 195 92
170 195 67
167 191 72
171 196 76
169 193 62
169 193 76
169 192 67
171 195 62
170 194 80
172 195 76
168 193 67
171 195 76
172 196 72
172 197 92
165 190 72
169 193 80
167 191 72
168 193 102
171 195 72
165 190 84
170 194 88
166 190 62
166 191 80
164 189 80
166 191 67
171 195 80
168 192 62
168 192 72
168 192 80
170 194 92
166 190 76
168 191 88
168 191 84
171 195 105
165 189 84
169 193 102
163 187 76
167 191 95
168 192 76
166 188 67
170 194 76
166 189 84
165 188 80
165 188 62
164 188 67
166 189 84
161 185 88
163 187 84
165 189 92
165 189 102
156 178 84
166 188 117
162 185 95
162 186 99
160 184 92
167 191 88
167 190 105
163 186 114
163 186 80
165 188 88
167 190 92
162 185 95
168 191 80
156 179 72
163 185 88
164 186 80
167 190 95
161 184 88
155 178 92
161 184 88
162 184 92
163 186 88
165 188 84
158 181 102
159 181 88
159 182 105
154 176 84
151 173 102
149 171 95
157 180 88
154 176 88
152 174 67
155 175 76
151 172 72
147 169 62
154 175 76
141 163 62
153 175 80
144 166 80
147 169 72
135 156 36
141 162 57
153 174 92
136 156 62
142 163 76
145 165 95
109 131 110
94 120 121
86 113 88
86 112 115
87 113 122
88 115 118
83 111 122
98 123 120
97 122 128
95 120 121
89 116 133
87 114 124
91 117 133
99 124 139
95 120 128
90 115 124
90 116 127
107 130 135
85 112 107
100 124 131
91 116 131
94 120 129
108 132 144
103 126 146
98 122 136
99 124 128
95 120 116
84 110 124
83 110 124
102 126 136
93 117 130
78 105 140
74 105 147
71 102 143
75 106 147
86 114 154
83 111 149
72 105 144
77 108 136
69 97 126
68 97 126
67 98 144
78 101 111
81 103 122
58 92 122
58 92 125
59 93 127
61 95 126
58 91 118
57 90 117
59 93 121
66 96 111
74 103 96
90 116 97
61 94 114
59 93 120
58 92 116
57 91 108
57 90 114
55 87 105
55 88 105
57 91 118
55 88 95
57 91 111
57 91 122
56 89 117
57 90 117
56 90 108
58 92 117
59 93 129
57 90 105
58 91 113
58 92 124
57 90 115
57 90 111
58 92 118
59 93 126
59 93 128
57 90 120
57 90 124
57 91 103
58 92 120
58 92 117
57 90 110
57 91 108
55 88 110
57 90 115
59 94 128
56 89 110
58 92 129
56 89 108
59 92 115
56 89 108
57 91 113
57 90 114
56 89 115
57 91 115
55 88 103
57 90 117
58 91 119
58 91 107
56 89 113
57 90 113
58 91 117
58 91 103
58 91 110
57 91 108
57 91 113
56 89 107
59 92 124
56 89 107
57 90 121
59 93 120
56 89 99
58 92 117
56 88 95
56 89 97
56 88 111
56 88 115
56 89 110
55 87 100
58 91 118
58 91 115
57 90 95
57 89 103
56 89 88
55 87 108
54 85 102
55 87 100
56 88 97
58 88 90
88 106 70
97 110 0
108 123 0
110 125 0
91 103 0
106 119 0
103 117 0
106 122 0
102 117 0
114 130 0
112 127 0
110 126 0
118 134 0
108 121 0
116 132 0
120 133 0
116 133 0
121 137 0
113 128 0
127 144 0
120 134 0
117 133 0
127 145 0
119 133 0
121 136 0
132 148 0
132 149 0
121 137 0
125 141 0
123 138 0
131 147 0
120 135 0
131 146 0
130 144 0
125 139 0
133 145 0
135 153 0
142 158 0
137 154 0
131 148 0
140 157 0
130 148 0
134 152 0
143 160 0
139 155 0
141 157 0
140 154 0
145 160 0
139 157 0
131 146 0
137 153 0
149 166 0
144 158 0
136 151 0
140 155 0
144 162 0
141 157 0
142 158 0
131 149 0
148 164 0
150 168 0
146 165 0
148 164 0
130 143 0
146 160 0
141 159 0
141 156 0
148 165 0
145 161 0
143 160 0
139 157 0
145 161 0
145 162 0
149 167 0
146 163 0
150 166 0
154 172 0
155 174 0
145 161 0
141 156 0
149 162 0
151 167 0
151 168 0
154 171 0
148 165 0
142 158 0
145 160 0
152 167 0
147 162 0
153 169 0
153 172 0
151 167 0
155 169 0
154 169 0
152 169 0
153 167 0
150 167 0
158 173 0
155 172 0
157 174 0
149 164 0
147 161 0
148 165 0
152 170 0
159 176 0
152 167 0
160 176 0
157 174 0
156 171 0
156 172 0
154 170 0
161 177 0
159 177 0
158 175 0
160 175 0
150 166 0
156 173 0
158 175 0
156 173 0
157 177 0
159 178 0
161 176 0
161 179 0
161 178 0
163 180 0
154 172 0
164 181 0
163 184 0
150 166 0
156 175 0
162 182 0
160 178 0
161 178 0
159 176 0
158 172 0
161 179 0
162 181 0
161 180 0
162 180 0
164 180 0
160 176 0
160 177 0
167 186 0
166 184 0
161 177 0
160 178 0
162 179 0
162 181 0
163 183 0
158 178 0
163 182 0
164 183 0
164 182 0
164 181 0
164 181 0
166 186 0
163 183 0
162 181 0
167 185 0
168 189 0
169 189 0
164 184 0
165 186 0
168 188 0
167 187 0
164 183 0
164 184 0
165 185 0
163 182 0
170 190 0
167 188 0
166 188 0
165 185 0
168 191 76
169 192 80
170 195 88
166 191 72
164 189 72
172 196 72
170 194 72
171 196 88
168 193 72
170 194 76
172 196 67
166 191 72
163 188 95
171 195 76
168 191 51
167 192 84
167 191 72
167 191 57
163 187 62
167 192 67
166 190 80
168 193 76
170 194 72
168 192 84
165 190 84
161 185 67
171 195 80
172 196 72
172 196 99
170 193 76
164 189 72
169 193 88
167 191 76
164 187 80
169 193 95
169 193 95
170 193 76
172 196 95
167 191 76
166 191 99
167 190 76
172 195 111
163 187 84
173 195 114
164 189 95
165 189 95
163 187 92
170 193 114
168 190 95
163 186 99
171 193 102
165 188 105
165 188 84
171 193 108
170 193 120
155 178 67
161 184 80
164 186 99
165 187 92
161 183 84
164 187 92
172 196 128
165 187 95
160 182 88
166 188 111
163 186 102
160 183 108
163 186 99
163 188 105
159 183 95
158 179 76
161 184 95
165 188 102
158 182 76
154 176 84
162 184 92
146 168 76
160 182 95
157 179 95
160 183 80
143 166 88
157 179 84
151 173 72
150 172 72
154 176 92
147 169 62
150 172 67
147 168 67
135 157 51
150 172 88
136 157 76
140 160 76
144 165 72
141 163 62
125 145 44
147 168 76
133 153 67
108 130 97
81 106 102
82 110 125
96 121 125
92 117 116
88 113 103
100 125 122
80 108 107
71 99 95
89 114 113
88 113 122
106 131 144
87 114 122
82 109 135
94 119 128
95 121 118
80 108 123
93 119 124
96 121 124
90 116 134
94 119 124
92 116 118
107 131 133
98 123 133
99 124 133
98 123 126
98 122 124
94 117 124
94 120 120
87 113 125
113 125 126
81 110 154
75 106 153
77 106 148
65 98 145
84 111 140
79 109 128
79 109 128
77 105 128
69 97 124
79 102 139
66 93 115
78 99 120
66 96 126
61 94 131
59 93 118
61 93 114
60 94 133
56 90 115
59 91 111
60 93 114
62 95 115
87 113 94
71 101 110
58 91 121
56 88 111
56 89 115
57 90 120
56 89 106
57 90 118
58 91 120
55 88 108
56 89 118
57 90 110
59 93 118
58 91 118
58 92 122
58 91 113
55 88 108
56 89 105
57 91 120
58 92 119
56 89 107
57 91 113
57 91 117
57 91 120
57 90 108
59 93 120
57 90 115
58 92 118
58 92 117
57 91 115
58 92 121
59 93 125
57 90 113
57 90 110
59 92 118
56 88 107
59 93 126
54 87 105
56 89 114
59 92 118
56 89 113
58 91 114
58 92 115
57 91 114
58 91 110
57 90 114
57 90 103
57 91 113
56 89 108
58 91 111
57 90 114
58 92 114
58 91 113
57 91 102
58 92 111
55 87 105
56 88 105
56 89 107
57 90 107
56 90 113
56 88 111
56 89 100
55 87 100
57 89 110
55 87 108
55 87 103
56 89 100
57 90 102
56 89 100
54 86 102
56 88 100
55 87 100
56 87 103
55 87 99
55 88 97
53 84 95
64 88 80
105 120 31
104 115 0
101 115 0
105 120 0
104 119 0
103 116 0
102 116 0
128 141 0
122 139 0
121 135 0
109 122 0
112 129 0
117 133 0
106 122 0
114 130 0
120 137 0
115 131 0
122 139 0
118 134 0
129 144 0
118 134 0
132 148 0
124 140 0
131 144 0
125 141 0
117 131 0
119 135 0
126 141 0
129 145 0
130 148 0
129 144 0
130 146 0
135 151 0
138 155 0
135 151 0
136 153 0
136 153 0
133 148 0
134 150 0
137 157 0
130 147 0
133 151 0
128 145 0
139 155 0
139 156 0
134 152 0
134 147 0
141 159 0
135 150 0
138 156 0
144 160 0
133 146 0
134 149 0
143 160 0
140 158 0
142 159 0
141 158 0
140 158 0
152 170 0
143 161 0
148 165 0
140 157 0
141 158 0
141 158 0
147 166 0
140 155 0
137 154 0
142 158 0
149 166 0
136 153 0
145 161 0
148 164 0
145 159 0
155 170 0
143 158 0
148 163 0
141 157 0
148 163 0
145 161 0
153 172 0
146 163 0
147 163 0
151 166 0
150 168 0
155 170 0
158 177 0
152 169 0
153 169 0
148 163 0
145 159 0
155 173 0
151 166 0
157 176 0
147 161 0
156 172 0
160 175 0
153 169 0
157 174 0
156 174 0
151 168 0
157 173 0
145 164 0
150 167 0
157 176 0
154 170 0
156 174 0
152 170 0
154 168 0
152 167 0
155 172 0
155 172 0
162 181 0
154 172 0
158 175 0
156 172 0
160 177 0
156 171 0
162 180 0
160 177 0
159 176 0
159 177 0
158 174 0
162 182 0
153 170 0
160 179 0
162 178 0
157 173 0
156 173 0
164 182 0
164 183 0
156 175 0
155 170 0
162 180 0
165 182 0
157 172 0
158 176 0
159 177 0
167 184 0
161 179 0
160 176 0
165 184 0
163 181 0
156 175 0
163 180 0
166 185 0
157 174 0
165 185 0
160 180 0
163 182 0
167 187 0
161 179 0
161 179 0
159 176 0
164 183 0
160 176 0
160 179 0
164 183 0
167 187 0
164 183 0
163 183 0
163 183 0
163 183 0
167 188 0
168 188 0
166 185 0
163 183 0
168 189 0
167 186 0
163 183 0
161 181 0
163 182 0
166 186 0
165 184 0
165 184 0
172 196 67
169 193 72
169 193 80
171 195 72
168 192 72
172 196 84
168 192 84
172 196 67
169 193 67
173 198 88
170 194 62
171 195 80
166 190 62
170 195 84
161 185 36
172 196 88
168 193 84
168 193 80
170 193 80
170 195 51
168 192 72
166 190 67
165 189 51
164 187 76
172 196 102
169 193 72
169 192 92
166 189 76
173 196 95
170 193 88
168 192 62
167 190 84
168 192 95
168 192 99
162 184 62
165 188 80
168 191 114
168 191 95
168 191 84
167 191 95
169 192 111
169 193 99
159 182 72
170 193 111
169 193 105
167 190 99
173 196 111
165 188 84
167 190 111
170 193 88
171 194 108
170 193 95
166 189 108
161 184 114
159 182 92
167 191 84
165 188 111
162 185 92
169 190 117
169 192 102
164 187 111
163 186 105
161 183 95
166 188 102
161 183 99
163 186 102
163 185 88
162 183 111
160 183 92
155 178 67
160 183 95
159 181 102
168 190 114
155 177 99
160 182 80
165 187 105
156 179 88
155 177 92
156 178 84
159 182 76
149 171 76
141 162 76
159 182 95
156 178 105
158 179 92
148 168 88
140 162 62
152 173 80
148 170 80
138 159 80
137 158 80
142 162 51
154 176 92
132 152 57
141 161 62
133 154 72
131 151 72
152 171 76
106 129 111
85 112 107
96 121 110
91 117 111
85 112 124
86 112 113
83 110 115
88 114 108
81 108 123
91 117 112
94 119 124
100 124 123
86 113 119
82 108 124
95 119 126
78 105 118
106 130 136
108 131 141
116 139 139
105 129 145
99 123 135
114 137 135
93 118 128
102 127 141
101 126 126
112 135 125
94 117 116
99 124 133
90 116 134
109 122 118
109 121 125
88 115 149
75 106 150
89 115 149
73 104 139
77 107 129
65 99 136
68 101 134
70 100 126
75 100 125
79 104 135
70 98 124
67 97 124
68 96 113
58 92 125
66 98 126
61 93 115
60 93 117
62 95 133
58 90 102
55 88 108
93 117 94
78 106 117
56 90 105
57 90 110
56 89 110
57 91 117
58 91 113
58 91 113
57 90 113
56 90 102
57 90 114
59 93 129
58 92 117
57 91 115
57 89 103
58 91 113
57 90 103
57 91 118
58 91 124
59 93 118
56 89 116
55 88 109
57 90 115
58 91 118
57 89 118
56 89 116
56 90 110
55 88 103
58 92 120
59 93 117
57 91 110
59 92 120
57 89 103
59 92 126
58 92 108
58 91 119
57 91 110
58 92 121
58 92 118
57 91 107
56 89 113
58 91 110
58 91 120
58 92 118
58 92 117
56 90 107
55 88 105
56 90 100
59 93 125
55 88 94
57 91 124
56 90 111
58 91 115
56 89 107
57 90 108
58 92 118
57 90 107
57 90 105
55 88 100
53 84 90
57 90 110
58 91 105
56 89 107
57 90 103
56 89 103
56 90 113
56 88 97
56 89 108
56 88 102
55 87 95
54 85 94
55 87 97
54 86 88
54 86 95
57 90 108
76 96 60
98 112 0
113 125 0
110 125 0
103 116 0
111 127 0
107 122 0
118 132 0
108 123 0
111 126 0
116 131 0
112 129 0
103 117 0
113 127 0
109 123 0
109 123 0
121 136 0
118 132 0
115 131 0
113 129 0
111 126 0
120 135 0
118 133 0
121 138 0
113 130 0
124 140 0
119 135 0
120 134 0
135 151 0
124 138 0
144 161 0
129 144 0
132 151 0
132 148 0
128 145 0
135 152 0
139 154 0
139 156 0
129 144 0
143 159 0
127 144 0
142 161 0
134 151 0
140 157 0
151 166 0
140 157 0
144 161 0
132 148 0
142 157 0
137 152 0
135 151 0
144 159 0
136 153 0
141 159 0
139 156 0
134 149 0
145 163 0
148 165 0
141 156 0
140 157 0
149 167 0
144 158 0
148 167 0
142 159 0
137 154 0
147 163 0
141 157 0
139 152 0
145 162 0
151 170 0
150 167 0
145 162 0
142 158 0
152 169 0
152 168 0
148 164 0
141 158 0
155 173 0
145 162 0
149 165 0
146 162 0
144 160 0
149 167 0
149 166 0
139 156 0
148 164 0
150 167 0
148 163 0
152 169 0
155 172 0
154 172 0
151 167 0
152 169 0
151 168 0
147 162 0
150 167 0
150 168 0
159 176 0
153 168 0
155 172 0
158 176 0
152 169 0
155 171 0
156 174 0
158 176 0
154 173 0
153 170 0
151 166 0
155 172 0
157 174 0
156 173 0
157 172 0
157 173 0
160 177 0
157 172 0
146 161 0
152 167 0
158 174 0
150 164 0
156 172 0
158 176 0
157 175 0
160 176 0
157 174 0
162 181 0
152 167 0
159 177 0
156 173 0
166 186 0
167 184 0
157 174 0
160 178 0
159 179 0
155 173 0
163 183 0
161 178 0
155 174 0
161 179 0
159 178 0
161 179 0
162 180 0
161 180 0
162 178 0
162 181 0
159 177 0
163 181 0
163 181 0
159 178 0
165 183 0
166 186 0
162 181 0
161 183 0
163 180 0
163 179 0
166 186 0
166 187 0
163 182 0
159 178 0
165 185 0
164 181 0
165 184 0
166 185 0
162 181 0
165 182 0
164 182 0
162 182 0
165 182 0
169 190 0
165 186 0
163 183 0
167 186 0
167 186 0
166 185 0
169 189 0
168 187 0
163 182 0
168 193 76
169 192 80
166 189 62
171 195 92
169 193 57
170 194 76
167 191 72
172 196 84
169 193 57
170 195 80
167 191 36
169 193 80
171 195 76
166 190 67
171 196 95
169 193 57
166 190 51
166 191 95
167 191 84
170 194 76
164 189 84
167 192 105
173 197 67
170 194 88
176 200 88
173 196 88
170 194 92
167 191 76
170 193 102
169 193 99
165 188 95
168 191 72
171 195 80
169 192 84
173 195 99
165 188 88
170 193 76
172 194 99
167 191 88
174 197 102
170 194 122
170 193 80
170 193 92
169 192 102
158 181 76
165 189 102
168 190 105
167 190 88
168 191 114
167 190 117
174 197 111
171 194 130
173 195 111
164 187 92
164 188 111
165 188 88
164 187 95
164 187 99
169 190 114
167 190 111
163 187 95
162 185 117
161 184 102
159 181 84
159 182 92
167 190 108
157 180 88
160 182 105
156 178 84
160 182 88
150 174 76
162 184 105
159 182 88
159 181 92
159 180 80
154 176 95
151 173 84
159 181 102
157 179 72
160 182 95
149 171 80
152 173 72
149 169 84
147 169 72
152 173 84
138 160 88
152 173 80
151 172 88
141 162 57
142 162 76
140 161 36
135 156 62
136 157 62
133 154 76
127 148 62
138 159 67
147 168 88
136 157 57
132 152 76
97 121 92
85 111 115
93 119 114
97 122 121
93 118 114
97 122 111
96 120 111
83 109 122
94 120 128
107 131 126
99 124 141
89 115 120
92 117 118
97 122 126
89 115 120
98 123 143
92 117 136
98 123 128
102 127 131
102 126 132
96 121 114
99 123 139
97 123 135
98 122 134
98 124 137
90 114 116
96 120 127
100 123 116
89 110 118
147 143 89
99 120 144
74 105 150
71 103 144
84 112 156
71 103 131
78 108 134
76 106 129
70 102 131
77 105 117
77 101 129
71 96 119
71 96 110
69 94 116
57 91 120
60 94 114
62 95 108
67 99 125
60 93 120
63 95 108
60 94 118
94 119 90
88 115 107
57 91 115
57 90 111
57 90 105
56 89 102
57 90 119
57 90 97
57 90 105
58 91 113
57 90 113
56 89 105
57 90 118
55 88 108
58 91 110
57 90 112
58 91 111
57 90 113
57 91 118
56 89 100
56 89 116
59 93 123
57 90 111
58 92 114
58 92 121
57 90 110
57 91 103
57 91 115
59 93 118
57 90 110
59 93 122
58 92 118
56 89 108
57 90 118
57 90 114
58 91 114
58 92 114
57 90 99
59 92 118
57 90 108
57 90 108
57 90 118
58 91 115
57 90 114
57 91 113
58 92 110
58 91 110
58 91 111
56 88 100
56 89 102
58 92 118
58 91 113
58 91 113
55 88 107
57 91 121
54 87 92
55 87 97
56 89 99
56 90 94
57 90 111
57 91 102
56 89 110
55 87 113
57 89 103
55 88 99
56 88 102
55 87 94
55 87 103
54 86 88
54 86 88
56 88 102
54 85 99
55 87 97
66 92 84
97 113 40
99 115 0
103 117 0
101 114 0
100 115 0
103 117 0
127 142 0
104 120 0
111 126 0
116 130 0
111 126 0
118 134 0
112 128 0
113 129 0
109 126 0
109 125 0
103 119 0
126 142 0
119 133 0
121 137 0
128 143 0
125 138 0
120 138 0
122 139 0
127 144 0
131 146 0
117 131 0
133 150 0
125 144 0
139 157 0
132 149 0
122 137 0
128 145 0
140 155 0
137 155 0
135 148 0
135 151 0
136 153 0
137 153 0
136 154 0
129 144 0
133 152 0
132 149 0
129 144 0
132 149 0
123 141 0
142 162 0
135 151 0
134 152 0
146 164 0
137 152 0
131 147 0
140 155 0
141 159 0
152 166 0
140 156 0
141 157 0
140 154 0
146 164 0
144 160 0
135 151 0
145 163 0
144 161 0
137 152 0
148 164 0
144 161 0
142 160 0
146 161 0
143 160 0
148 165 0
141 156 0
149 164 0
140 157 0
153 169 0
149 169 0
146 164 0
147 164 0
149 167 0
145 159 0
150 166 0
152 169 0
153 171 0
147 164 0
149 168 0
150 168 0
145 161 0
153 170 0
144 160 0
156 174 0
149 165 0
155 173 0
156 172 0
153 170 0
152 168 0
158 176 0
153 173 0
145 161 0
148 165 0
158 178 0
141 154 0
159 178 0
155 174 0
146 164 0
151 169 0
149 163 0
158 174 0
159 175 0
159 176 0
153 171 0
151 169 0
161 178 0
156 174 0
150 165 0
156 174 0
158 177 0
161 177 0
155 171 0
161 178 0
159 176 0
161 181 0
157 175 0
157 175 0
157 176 0
159 175 0
158 175 0
157 176 0
162 182 0
158 176 0
161 179 0
157 175 0
165 184 0
165 186 0
150 166 0
156 176 0
157 174 0
165 183 0
163 180 0
158 175 0
159 179 0
161 176 0
160 179 0
161 181 0
162 180 0
162 180 0
163 180 0
162 179 0
160 177 0
158 177 0
161 180 0
162 182 0
157 174 0
162 180 0
164 185 0
163 183 0
166 185 0
160 177 0
158 175 0
163 182 0
162 180 0
162 182 0
167 185 0
167 184 0
166 184 0
164 180 0
162 182 0
167 188 0
163 184 0
166 187 0
165 185 0
165 185 0
165 185 0
165 184 0
165 186 0
166 187 0
167 187 0
165 184 0
170 190 0
169 193 57
168 192 84
173 196 62
172 197 76
172 196 76
167 191 62
171 195 67
172 197 72
172 196 76
170 194 67
169 193 72
167 191 76
169 192 51
164 188 67
164 187 51
169 193 76
167 192 84
167 191 76
167 192 76
171 195 84
168 193 102
165 189 76
171 194 80
171 195 88
166 190 76
168 191 88
170 194 95
168 191 95
169 194 95
169 194 108
175 199 111
169 192 105
177 199 120
168 191 84
167 190 88
173 196 108
170 192 76
167 191 99
174 197 102
172 196 88
171 193 84
168 191 88
162 185 88
172 195 92
171 194 114
170 193 102
163 186 80
157 179 99
170 193 95
167 191 88
165 190 76
163 186 102
168 191 80
165 188 99
167 190 99
166 189 114
168 190 105
168 191 108
161 185 105
160 182 76
163 185 92
164 186 92
165 188 95
169 192 111
164 187 99
167 189 117
166 190 108
161 183 111
164 186 105
163 185 84
154 177 67
158 179 92
163 185 95
155 176 105
158 180 105
154 176 80
162 184 80
156 177 92
151 172 92
154 176 99
156 178 95
156 178 105
150 172 72
156 177 72
147 169 92
153 176 92
144 164 62
146 168 76
149 170 99
152 173 99
150 170 84
145 165 72
128 148 36
137 158 62
139 160 62
137 157 102
139 160 76
133 152 57
132 152 76
123 143 72
98 120 84
83 109 86
76 103 92
97 121 127
89 113 115
87 112 107
95 120 117
87 113 110
95 120 120
92 116 107
93 118 120
92 116 128
98 122 132
81 108 115
91 117 131
105 130 128
93 119 133
103 127 120
89 114 117
116 138 143
100 124 128
104 128 111
84 112 126
91 119 121
114 139 114
98 120 125
91 116 117
93 117 132
134 135 91
138 134 84
80 107 140
73 103 136
73 103 137
68 100 128
61 96 145
75 106 122
73 104 133
75 106 121
75 104 131
70 96 120
71 93 96
77 96 107
65 92 104
61 95 121
60 93 121
59 92 107
59 91 100
64 96 111
54 86 88
76 103 95
87 112 76
56 88 103
57 91 110
56 90 107
56 89 111
57 91 100
59 92 115
56 90 99
56 89 102
56 88 109
57 91 113
58 91 103
58 92 108
57 90 110
56 89 118
57 91 117
56 89 113
56 89 100
58 91 111
55 88 98
57 91 108
56 89 118
57 90 121
57 91 110
57 90 108
57 89 110
56 89 109
56 89 110
56 89 103
56 88 100
58 91 114
57 91 122
58 91 115
56 89 103
56 90 107
58 92 115
56 89 110
58 91 111
56 89 114
58 91 122
58 92 122
58 92 118
57 90 107
57 90 114
57 90 107
58 91 117
57 89 114
57 90 113
57 90 115
56 89 108
56 89 105
56 89 110
56 89 99
56 89 102
56 89 110
55 87 108
57 90 105
56 88 100
56 89 100
54 86 92
55 87 99
55 88 95
55 87 97
55 86 94
56 88 105
56 89 107
55 87 95
56 89 117
53 85 92
55 87 95
66 92 78
92 111 67
107 120 0
102 116 0
93 106 0
111 125 0
102 118 0
114 126 0
119 135 0
114 127 0
120 136 0
116 129 0
119 134 0
110 125 0
123 140 0
120 136 0
113 129 0
120 135 0
111 124 0
116 134 0
122 139 0
112 127 0
126 142 0
114 128 0
114 131 0
121 138 0
126 142 0
122 139 0
115 131 0
131 148 0
124 139 0
119 135 0
135 149 0
125 142 0
132 149 0
127 142 0
136 151 0
120 137 0
135 151 0
130 146 0
131 149 0
124 139 0
128 144 0
137 153 0
134 152 0
134 150 0
149 166 0
136 155 0
138 156 0
129 145 0
131 148 0
134 152 0
129 144 0
137 155 0
134 151 0
145 164 0
131 147 0
146 164 0
147 164 0
136 153 0
137 154 0
138 153 0
144 160 0
144 160 0
144 160 0
146 162 0
146 163 0
145 164 0
138 155 0
145 163 0
145 161 0
145 164 0
150 166 0
143 160 0
140 156 0
151 168 0
142 159 0
153 170 0
154 171 0
152 170 0
144 161 0
156 172 0
149 165 0
152 166 0
149 165 0
150 167 0
153 170 0
149 168 0
152 169 0
146 162 0
152 170 0
145 160 0
155 173 0
155 174 0
143 159 0
156 170 0
156 174 0
158 176 0
152 170 0
149 166 0
159 177 0
152 167 0
151 168 0
157 173 0
154 173 0
157 176 0
151 169 0
151 169 0
154 173 0
152 169 0
157 175 0
156 173 0
154 171 0
156 173 0
163 182 0
158 174 0
162 178 0
157 174 0
155 172 0
153 169 0
154 171 0
158 178 0
163 182 0
159 174 0
160 178 0
157 173 0
160 178 0
155 174 0
153 169 0
158 176 0
161 179 0
160 177 0
156 173 0
162 182 0
162 181 0
164 183 0
158 176 0
164 184 0
161 179 0
163 180 0
162 181 0
158 177 0
164 180 0
164 185 0
163 182 0
159 177 0
164 183 0
161 178 0
161 182 0
167 187 0
164 183 0
161 176 0
164 184 0
162 180 0
156 174 0
165 186 0
163 181 0
162 181 0
169 189 0
165 181 0
161 179 0
161 179 0
160 177 0
165 185 0
164 184 0
163 184 0
163 182 0
165 184 0
164 183 0
163 182 0
164 184 0
163 181 0
171 190 0
162 180 0
161 179 0
165 183 0
163 180 0
167 186 0
164 183 0
166 186 0
171 195 80
171 195 76
172 196 88
173 197 76
169 193 80
168 192 80
173 197 88
170 194 72
168 193 72
172 196 84
171 195 80
173 197 76
171 195 51
172 195 76
173 196 80
173 197 80
172 197 105
171 194 95
170 195 80
172 196 95
172 195 62
167 191 80
168 191 67
165 189 88
168 192 99
170 194 80
171 194 88
174 196 114
172 196 99
166 189 92
169 192 95
170 193 95
174 197 122
164 187 80
174 197 111
172 194 99
167 191 84
165 189 95
171 195 95
165 188 105
166 190 99
169 192 111
169 192 84
170 194 95
167 190 117
160 183 80
171 194 105
159 182 84
169 192 105
163 186 72
167 190 102
166 189 92
167 189 92
161 184 88
164 187 99
164 187 92
166 188 92
162 185 80
160 182 102
165 188 72
162 186 80
168 191 99
154 176 88
159 181 99
162 184 99
163 185 114
155 179 99
160 182 80
157 179 92
162 185 105
157 179 95
164 186 114
160 182 99
155 177 80
154 175 99
153 174 88
160 182 114
167 189 111
162 184 108
156 177 128
144 166 76
158 180 76
156 177 76
153 175 88
161 182 80
150 171 80
151 172 84
139 160 88
151 172 80
151 172 99
150 170 105
148 169 92
138 157 95
141 161 72
137 157 88
137 158 67
139 159 72
126 145 58
131 150 67
131 151 62
130 149 84
103 126 99
93 118 115
77 103 93
81 107 109
102 125 115
93 118 124
94 118 120
81 108 102
91 116 107
86 112 103
100 125 117
90 117 114
97 120 120
120 142 149
93 118 137
108 132 146
87 113 122
94 119 118
102 126 133
95 120 129
105 128 133
102 126 121
87 114 124
98 122 110
92 118 124
86 112 107
103 128 130
115 128 126
149 139 81
126 127 109
79 107 137
77 105 131
70 103 136
81 112 130
65 97 117
66 99 126
77 108 133
83 110 117
85 111 107
71 96 121
70 96 116
75 97 110
63 93 108
69 99 121
60 93 110
58 91 111
61 93 100
64 95 97
71 99 94
97 120 80
68 97 103
57 89 103
57 90 115
55 87 94
56 89 99
58 91 103
56 89 114
55 88 100
58 91 113
57 89 108
57 90 111
57 90 99
56 89 108
56 89 97
55 88 108
59 92 125
55 88 107
58 92 105
58 92 113
56 88 104
57 91 107
54 86 97
55 88 105
58 91 110
58 92 126
57 91 111
56 89 95
56 89 100
55 88 99
55 87 90
57 90 114
57 91 112
57 91 111
58 91 117
59 92 128
56 90 114
56 89 102
58 91 107
57 90 108
58 92 111
57 90 108
55 87 92
56 89 107
56 88 99
56 89 99
57 90 117
57 91 108
55 88 90
55 88 97
57 90 114
56 88 99
57 90 108
56 89 103
56 89 99
54 86 94
55 87 107
56 89 111
54 86 102
55 87 102
54 86 97
56 88 99
53 85 97
57 89 103
54 86 88
51 82 82
53 83 84
54 86 82
55 85 90
71 93 67
97 110 25
94 107 0
101 114 0
111 126 0
109 124 0
114 128 0
103 117 0
112 128 0
107 122 0
109 123 0
110 123 0
110 123 0
106 122 0
108 126 0
117 134 0
123 140 0
114 132 0
121 136 0
111 125 0
110 126 0
121 138 0
121 137 0
124 140 0
129 147 0
126 142 0
126 142 0
120 136 0
125 140 0
130 147 0
123 139 0
125 141 0
129 145 0
138 152 0
134 151 0
129 145 0
125 142 0
132 147 0
129 146 0
141 154 0
131 149 0
137 150 0
137 154 0
136 154 0
134 150 0
138 153 0
133 149 0
129 146 0
142 161 0
146 164 0
141 158 0
131 149 0
140 157 0
136 152 0
137 153 0
137 156 0
137 155 0
140 157 0
144 162 0
141 157 0
146 164 0
146 164 0
148 168 0
145 161 0
145 162 0
144 163 0
144 163 0
149 167 0
145 163 0
144 162 0
143 161 0
143 161 0
149 168 0
146 161 0
144 159 0
151 171 0
145 163 0
143 159 0
145 164 0
148 164 0
146 163 0
147 165 0
154 171 0
148 168 0
154 171 0
154 172 0
149 168 0
141 159 0
145 161 0
152 169 0
154 173 0
155 172 0
154 174 0
147 164 0
155 171 0
151 169 0
153 170 0
151 168 0
154 171 0
139 154 0
160 179 0
152 171 0
154 171 0
150 166 0
157 173 0
149 166 0
157 174 0
151 168 0
152 167 0
159 178 0
156 175 0
159 178 0
153 172 0
159 176 0
156 174 0
156 174 0
154 171 0
155 172 0
157 176 0
158 173 0
156 173 0
161 180 0
153 170 0
155 173 0
159 176 0
161 177 0
156 173 0
158 176 0
160 178 0
154 172 0
156 173 0
162 179 0
159 178 0
160 177 0
161 177 0
160 178 0
163 182 0
160 179 0
159 178 0
163 181 0
156 174 0
163 180 0
159 176 0
167 187 0
160 178 0
167 185 0
158 175 0
162 180 0
160 179 0
166 185 0
161 181 0
165 183 0
165 186 0
161 179 0
158 177 0
164 183 0
157 177 0
167 187 0
165 185 0
163 183 0
163 181 0
161 182 0
159 179 0
160 181 0
161 183 0
162 181 0
164 181 0
167 187 0
166 184 0
168 188 0
167 186 0
162 181 0
166 186 0
164 184 0
168 186 0
167 184 0
168 189 0
164 183 0
168 188 0
167 186 0
167 188 0
171 194 72
171 195 72
170 193 67
167 191 51
172 197 76
166 190 76
171 196 80
165 190 88
169 193 80
172 196 62
167 191 80
170 193 62
167 191 80
171 195 76
169 192 80
170 193 80
172 195 88
170 195 95
172 196 80
171 195 88
168 192 72
173 197 99
168 191 84
168 191 84
173 196 80
168 192 102
172 196 99
170 194 102
167 190 88
166 188 80
173 197 120
176 197 114
169 192 76
171 194 117
165 189 88
167 190 84
168 191 84
172 196 84
166 188 102
173 196 108
172 196 111
169 193 105
165 188 105
168 191 92
165 187 92
167 190 102
169 193 105
164 187 92
162 185 84
168 190 88
161 182 80
163 187 88
166 189 92
166 189 88
170 193 88
164 187 88
166 188 92
171 195 117
163 186 84
157 179 92
166 189 111
166 188 95
162 185 99
160 183 80
155 178 92
165 188 102
154 177 84
154 175 88
161 184 108
160 183 108
158 180 84
158 181 88
163 185 111
156 179 99
162 184 102
161 183 117
163 185 105
161 182 105
162 183 108
158 179 99
164 185 92
148 169 92
157 178 88
153 174 92
151 172 92
158 180 92
155 177 92
142 164 62
137 159 72
151 172 88
144 165 72
144 165 95
134 155 84
147 167 88
135 155 84
143 164 76
128 148 72
135 154 72
138 157 72
126 145 76
132 151 88
134 153 80
104 127 111
93 117 117
103 127 126
90 115 111
88 112 111
91 116 122
77 104 110
91 116 109
97 122 121
90 115 110
98 122 124
88 113 114
105 128 134
91 117 114
85 110 120
90 115 128
100 124 133
104 127 126
99 124 132
98 124 121
111 133 126
98 124 122
102 128 118
89 116 93
88 115 114
102 124 122
90 113 119
152 144 86
141 135 79
97 109 125
90 117 142
77 109 142
83 111 110
74 105 128
71 101 115
77 107 122
71 102 124
78 107 120
80 108 99
68 99 115
71 99 105
73 98 103
58 91 115
59 91 112
58 89 110
56 87 93
61 93 99
68 95 94
98 121 72
69 97 99
55 87 94
56 89 100
57 90 107
57 90 107
54 85 95
56 89 103
55 87 91
53 85 91
55 87 90
57 90 105
56 89 103
55 87 101
56 89 108
55 88 113
56 89 107
56 89 86
55 88 92
56 89 110
56 89 97
55 87 106
55 87 105
60 93 128
57 90 95
56 89 97
56 89 108
57 90 114
55 87 103
57 90 100
57 90 102
59 92 113
57 90 111
56 89 102
55 88 95
55 87 105
55 89 110
56 89 100
56 89 108
58 92 111
55 88 99
56 89 103
56 89 100
57 90 113
56 89 111
54 86 88
57 90 102
57 90 102
55 87 99
54 86 90
58 91 117
56 88 94
55 87 107
54 86 102
54 86 97
57 90 107
56 89 102
55 88 105
56 89 105
56 88 105
53 85 95
55 87 99
55 87 102
54 86 94
55 87 95
54 86 84
54 85 97
67 90 74
88 102 36
75 89 0
91 107 0
100 115 0
90 103 0
104 119 0
107 121 0
103 119 0
94 110 0
116 131 0
120 138 0
106 122 0
105 120 0
110 124 0
116 132 0
106 122 0
110 127 0
119 134 0
118 135 0
117 132 0
115 131 0
125 143 0
124 141 0
115 132 0
112 130 0
128 145 0
126 139 0
135 152 0
132 150 0
120 135 0
134 152 0
129 144 0
126 140 0
135 151 0
118 135 0
131 148 0
127 144 0
130 147 0
135 153 0
126 143 0
133 150 0
127 143 0
145 163 0
130 145 0
133 150 0
127 144 0
141 160 0
138 156 0
137 154 0
136 155 0
132 150 0
133 151 0
131 147 0
138 155 0
136 154 0
141 161 0
131 146 0
139 158 0
142 159 0
139 157 0
140 156 0
135 154 0
146 162 0
141 160 0
138 156 0
136 153 0
150 167 0
139 156 0
136 154 0
142 158 0
143 159 0
148 166 0
149 165 0
147 167 0
139 156 0
145 165 0
146 163 0
150 168 0
150 168 0
147 165 0
152 169 0
142 159 0
148 163 0
154 171 0
147 163 0
144 160 0
146 161 0
151 170 0
141 157 0
151 168 0
158 178 0
151 165 0
157 176 0
154 172 0
151 168 0
149 167 0
156 174 0
147 165 0
153 170 0
154 171 0
155 173 0
151 169 0
153 170 0
153 171 0
154 170 0
149 165 0
154 173 0
157 172 0
152 170 0
155 169 0
155 171 0
155 173 0
152 171 0
153 170 0
151 168 0
158 177 0
157 176 0
155 170 0
155 170 0
159 177 0
154 170 0
160 178 0
151 167 0
155 173 0
155 174 0
152 167 0
157 173 0
162 179 0
160 179 0
164 182 0
162 180 0
152 169 0
160 176 0
163 179 0
158 178 0
162 179 0
165 186 0
167 188 0
166 185 0
163 181 0
158 176 0
160 178 0
160 180 0
161 180 0
161 178 0
160 180 0
160 178 0
161 178 0
168 189 0
164 182 0
160 180 0
163 185 0
167 185 0
166 185 0
162 184 0
162 181 0
165 184 0
159 176 0
162 181 0
161 179 0
165 184 0
155 171 0
167 187 0
161 179 0
159 178 0
166 186 0
166 186 0
166 186 0
167 187 0
165 186 0
163 185 0
163 182 0
164 184 0
166 185 0
165 186 0
168 189 0
164 185 0
165 185 0
167 185 0
162 182 0
166 187 0
168 188 0
172 196 62
170 193 57
170 195 76
171 196 57
166 190 72
170 194 67
169 193 95
172 196 76
169 193 57
169 192 72
167 190 72
170 194 57
169 192 80
172 196 84
170 193 92
167 190 76
171 194 62
166 190 92
173 197 92
163 187 80
173 196 92
174 198 108
173 197 99
166 189 67
170 194 102
170 193 95
170 194 105
171 195 92
167 190 114
171 195 99
168 191 76
167 190 80
165 190 114
169 192 92
168 190 80
167 191 84
174 197 114
168 191 102
168 191 84
169 192 99
164 187 67
162 185 80
167 190 102
161 183 76
171 194 102
165 188 84
167 190 102
170 193 88
166 189 120
164 187 102
170 193 95
169 192 128
166 189 111
159 182 108
162 184 95
163 186 108
164 187 84
165 187 92
163 186 105
165 187 117
161 184 92
165 189 94
168 191 108
162 185 95
157 179 99
161 182 111
163 186 108
164 187 111
160 182 80
163 185 92
164 186 99
159 180 88
157 179 88
163 185 117
158 180 84
162 184 114
164 187 120
160 182 88
149 171 99
152 174 88
158 180 108
152 174 67
157 177 108
150 171 67
149 170 99
137 159 80
157 177 120
152 172 80
147 168 92
150 171 80
143 163 72
145 166 76
144 164 95
145 165 92
137 158 76
135 155 80
141 161 72
147 167 67
144 163 88
130 149 76
139 160 62
134 154 51
139 158 60
111 132 113
94 119 115
101 124 117
96 119 111
92 115 113
89 114 101
88 113 110
97 122 130
86 112 110
82 108 121
92 117 122
86 112 118
90 114 125
104 127 125
96 121 126
101 125 127
105 128 133
92 115 112
94 119 126
87 113 113
92 119 100
103 128 128
100 126 121
95 120 117
100 124 110
98 123 117
134 131 88
147 136 73
133 126 75
96 110 113
71 102 115
69 100 124
63 96 121
64 97 131
74 104 117
79 109 117
76 106 105
70 100 122
89 116 113
74 101 117
87 108 97
68 96 113
61 93 108
59 92 107
56 88 103
55 87 97
64 93 107
102 126 79
78 107 105
54 86 100
54 86 99
55 88 99
55 87 81
55 87 92
55 88 99
57 90 99
55 87 99
55 88 99
57 90 108
55 88 95
56 89 107
57 90 107
57 91 111
54 86 88
54 86 94
57 90 108
57 90 115
56 89 115
55 88 86
57 90 107
57 90 113
54 87 95
56 89 108
55 87 104
55 88 108
56 89 107
57 89 114
55 87 88
57 90 115
55 87 100
57 90 107
57 91 105
55 88 99
57 89 115
56 88 99
56 88 105
54 86 90
54 87 99
57 90 117
56 89 95
56 88 110
56 89 88
55 87 100
56 88 99
55 87 107
55 87 99
54 87 88
57 90 97
55 87 99
55 87 95
58 91 107
56 89 107
52 83 88
55 87 107
54 86 84
54 85 88
55 87 94
53 84 86
52 82 82
53 84 88
51 81 80
54 86 107
54 82 67
88 104 31
109 123 0
100 116 0
97 112 0
114 130 0
111 128 0
105 119 0
95 107 0
101 115 0
112 128 0
110 124 0
100 115 0
114 129 0
110 123 0
117 131 0
106 122 0
117 132 0
118 134 0
121 137 0
115 128 0
118 133 0
109 125 0
117 134 0
119 135 0
125 141 0
120 136 0
123 140 0
118 135 0
118 135 0
125 140 0
128 146 0
121 138 0
124 139 0
120 136 0
124 141 0
136 151 0
119 135 0
120 135 0
125 141 0
123 139 0
128 143 0
125 141 0
137 154 0
137 154 0
134 150 0
142 159 0
128 146 0
133 151 0
139 156 0
131 147 0
133 149 0
130 144 0
137 154 0
146 163 0
139 156 0
142 160 0
142 158 0
139 157 0
142 159 0
137 154 0
137 156 0
137 154 0
144 161 0
149 168 0
140 156 0
145 163 0
145 164 0
147 167 0
139 155 0
145 164 0
141 159 0
143 161 0
148 168 0
148 166 0
149 165 0
145 165 0
146 160 0
138 154 0
143 160 0
153 172 0
153 171 0
152 170 0
140 158 0
152 171 0
150 167 0
150 166 0
152 169 0
157 176 0
148 165 0
149 164 0
150 170 0
155 173 0
148 167 0
155 173 0
142 159 0
152 169 0
151 169 0
149 164 0
152 170 0
155 171 0
148 165 0
160 176 0
152 168 0
147 162 0
155 173 0
156 174 0
157 175 0
154 174 0
155 173 0
152 171 0
155 175 0
156 175 0
156 176 0
152 168 0
154 171 0
152 169 0
159 178 0
160 178 0
154 172 0
160 177 0
161 181 0
152 166 0
156 173 0
159 177 0
161 181 0
155 174 0
159 177 0
153 171 0
160 178 0
160 179 0
164 179 0
163 183 0
159 179 0
157 174 0
163 180 0
159 178 0
161 177 0
161 180 0
166 186 0
158 174 0
161 178 0
155 172 0
159 175 0
161 178 0
160 176 0
162 180 0
162 182 0
160 179 0
158 177 0
161 180 0
158 178 0
161 179 0
163 181 0
162 181 0
154 173 0
164 184 0
168 186 0
162 182 0
161 179 0
163 181 0
168 188 0
161 178 0
169 189 0
167 188 0
161 181 0
166 185 0
166 187 0
166 185 0
164 183 0
168 187 0
169 188 0
162 183 0
166 186 0
168 188 0
169 190 0
167 185 0
162 182 0
166 185 0
167 187 0
165 184 0
162 183 0
163 183 0
165 188 0
166 186 0
171 195 62
171 195 84
168 191 67
169 193 88
171 195 76
169 194 95
170 194 76
169 194 84
170 194 84
171 194 76
171 195 80
167 191 88
170 194 62
166 190 88
171 194 92
176 198 92
175 198 102
170 193 76
171 194 67
170 194 88
173 197 88
168 192 105
172 195 88
174 196 95
170 192 62
172 195 95
173 196 111
169 193 76
170 193 95
171 194 84
173 196 92
169 192 105
168 191 95
167 190 80
169 192 99
168 192 67
172 195 114
169 193 114
170 192 105
167 190 80
164 187 99
167 190 95
169 192 84
166 189 111
169 192 88
171 194 99
169 192 99
166 189 105
172 194 92
163 186 102
173 197 108
165 188 99
162 185 88
162 185 105
166 188 111
163 187 76
161 184 99
169 191 99
161 185 108
159 181 95
160 184 90
161 182 95
155 178 88
169 192 99
167 190 100
153 176 76
169 191 114
158 181 92
160 182 76
157 179 76
161 184 114
162 185 99
158 180 99
158 180 92
157 178 72
154 176 99
165 186 114
164 186 122
161 184 95
165 187 99
165 187 99
157 178 114
165 186 92
152 173 111
157 178 108
151 172 92
154 175 111
146 167 88
144 164 88
146 166 76
148 169 99
147 169 95
150 170 84
143 164 72
154 175 95
139 158 84
135 154 67
144 164 76
140 160 88
132 151 76
139 158 76
131 149 80
127 146 44
126 144 72
110 131 110
88 113 111
87 111 117
103 127 115
105 128 115
78 104 86
83 109 111
87 113 103
90 115 114
91 117 99
94 120 125
101 124 124
100 124 113
97 122 139
96 121 124
93 118 125
99 123 113
100 123 129
96 123 111
102 127 117
96 121 111
99 124 118
97 121 135
94 118 105
93 118 107
130 144 103
153 149 63
140 135 62
137 136 74
78 107 125
63 96 129
67 100 126
67 99 122
74 105 126
74 105 122
73 103 117
76 105 100
78 108 118
74 100 117
82 104 103
67 94 108
60 91 113
62 93 108
57 90 112
67 96 94
63 94 107
99 120 67
90 116 88
59 91 108
56 89 103
55 87 92
56 88 110
55 87 95
56 89 100
54 87 96
57 90 107
57 91 115
54 85 82
58 91 107
54 86 82
55 87 90
54 85 103
56 88 103
55 87 97
57 90 99
54 86 99
56 89 111
56 89 113
54 86 86
55 88 97
56 88 100
57 90 107
57 90 105
57 89 118
56 89 108
57 90 107
56 89 109
57 90 108
55 88 99
57 91 111
56 89 94
57 90 115
54 86 102
56 89 95
56 89 105
56 88 108
55 88 99
56 89 82
54 86 103
55 87 103
56 89 114
57 90 113
56 89 108
54 86 90
53 84 70
57 91 110
56 88 108
58 90 115
52 83 82
56 88 95
55 87 97
53 85 92
56 89 92
54 85 97
54 86 90
54 86 97
55 88 94
53 84 84
53 85 102
65 90 84
95 111 36
105 120 0
107 121 0
116 131 0
107 121 0
108 124 0
101 115 0
109 123 0
96 112 0
109 123 0
99 111 0
107 122 0
104 118 0
111 125 0
110 127 0
111 125 0
111 128 0
110 125 0
119 136 0
111 125 0
118 133 0
120 135 0
126 141 0
111 126 0
109 122 0
120 136 0
116 133 0
121 135 0
129 146 0
119 135 0
121 138 0
124 140 0
128 142 0
133 151 0
138 155 0
124 141 0
122 138 0
129 147 0
122 140 0
134 152 0
134 150 0
128 145 0
133 151 0
139 157 0
129 148 0
130 147 0
118 132 0
131 148 0
132 150 0
134 151 0
133 150 0
135 153 0
131 147 0
139 156 0
139 156 0
134 152 0
140 157 0
145 162 0
130 146 0
141 161 0
132 150 0
146 165 0
138 154 0
138 156 0
136 154 0
142 160 0
144 158 0
151 171 0
145 164 0
142 157 0
135 152 0
142 160 0
148 166 0
132 149 0
141 157 0
147 166 0
144 161 0
150 169 0
147 164 0
146 162 0
149 166 0
145 163 0
149 167 0
138 155 0
150 170 0
148 166 0
150 168 0
154 173 0
153 170 0
153 172 0
154 171 0
154 172 0
155 172 0
154 172 0
153 170 0
146 163 0
151 170 0
151 169 0
150 168 0
156 173 0
150 166 0
145 162 0
161 179 0
150 168 0
150 169 0
156 175 0
157 175 0
151 171 0
149 167 0
149 166 0
165 183 0
162 181 0
148 166 0
156 175 0
157 179 0
150 166 0
154 172 0
157 175 0
154 171 0
157 175 0
155 172 0
160 178 0
158 175 0
155 173 0
160 178 0
155 172 0
150 165 0
158 175 0
156 174 0
159 177 0
163 181 0
156 174 0
155 173 0
161 178 0
156 174 0
159 178 0
157 175 0
159 178 0
164 182 0
155 173 0
162 180 0
166 185 0
162 181 0
162 181 0
164 185 0
162 178 0
161 180 0
167 187 0
163 182 0
159 177 0
163 181 0
159 176 0
161 180 0
168 188 0
164 184 0
162 182 0
161 180 0
165 184 0
159 179 0
165 184 0
164 183 0
161 182 0
158 176 0
163 183 0
162 181 0
164 184 0
163 182 0
159 177 0
161 179 0
161 181 0
166 185 0
165 183 0
162 179 0
164 184 0
164 184 0
166 188 0
162 182 0
166 185 0
167 189 0
164 183 0
167 185 0
165 184 0
163 182 0
168 189 0
165 185 0
167 186 0
171 195 72
174 198 72
169 194 62
170 195 99
172 195 57
171 195 72
169 194 67
172 197 88
170 194 67
173 197 95
173 196 108
171 195 72
174 198 99
173 197 108
170 194 105
176 200 95
169 192 88
175 198 102
174 198 84
170 193 95
176 198 128
176 200 117
167 190 95
173 195 88
167 191 88
176 198 114
170 194 80
173 195 99
172 194 102
167 191 88
177 200 117
173 195 105
163 186 88
172 194 111
165 189 84
169 192 105
166 189 99
169 192 88
161 185 84
167 191 102
170 193 114
174 197 117
168 192 84
168 191 99
171 193 92
168 192 99
172 196 92
171 194 108
165 188 92
171 194 105
168 191 108
164 187 105
161 183 99
167 190 108
161 184 86
165 188 103
169 192 111
168 192 125
169 192 99
164 187 95
155 178 84
165 187 107
158 181 105
160 182 97
158 181 110
160 181 105
161 185 84
164 187 108
159 181 84
157 179 88
161 184 108
154 176 80
164 186 88
151 173 95
168 190 105
157 179 95
150 170 72
159 181 84
162 183 95
154 176 88
155 176 120
161 182 114
156 177 99
151 173 95
144 164 80
156 177 84
147 169 72
154 175 95
143 164 99
148 168 88
149 169 95
149 169 80
140 160 76
137 157 92
150 170 92
130 149 67
149 170 88
130 149 80
126 146 80
135 155 80
120 140 72
138 157 88
124 143 72
124 143 80
125 143 57
93 113 72
90 116 111
95 119 108
85 111 105
98 122 111
94 118 111
104 127 122
91 116 121
87 110 110
98 122 124
99 123 130
101 124 128
92 117 120
98 123 130
103 126 131
91 117 110
93 117 115
98 123 118
93 119 111
92 119 122
98 123 114
103 127 129
96 122 126
98 124 124
111 134 107
169 186 67
167 181 70
155 161 44
131 138 72
61 93 113
67 99 130
76 106 118
77 107 118
77 107 126
81 111 114
70 99 107
70 101 110
72 101 113
70 96 103
78 100 90
74 99 90
61 92 95
69 98 105
66 96 95
58 88 84
97 119 60
95 119 76
62 93 94
55 88 105
54 86 94
53 85 95
54 87 103
55 88 102
55 87 92
57 90 105
56 90 97
55 87 92
55 87 95
53 85 92
55 87 102
56 90 111
57 90 110
57 90 107
54 86 95
55 88 94
55 87 103
56 89 95
54 86 88
55 87 100
54 87 90
56 88 107
57 91 110
56 89 108
54 86 92
57 91 118
54 86 90
58 91 102
56 88 105
57 90 111
56 88 107
56 89 94
57 90 103
57 90 107
55 87 95
57 90 111
56 89 95
55 88 86
55 88 95
56 89 100
54 86 94
56 89 99
55 87 86
56 88 97
55 87 92
56 89 99
55 88 92
54 86 95
54 86 94
55 87 95
55 86 95
55 87 97
53 84 80
54 86 97
54 86 94
54 86 90
52 83 82
70 93 84
81 98 44
88 100 0
99 114 0
93 106 0
91 106 0
89 103 0
102 116 0
122 138 0
109 125 0
96 111 0
105 121 0
106 121 0
99 114 0
100 114 0
97 111 0
118 132 0
109 126 0
104 118 0
112 129 0
119 135 0
121 138 0
119 135 0
121 138 0
120 137 0
115 132 0
111 129 0
118 134 0
120 136 0
120 137 0
120 136 0
129 146 0
130 149 0
138 155 0
123 141 0
121 136 0
130 148 0
122 138 0
136 154 0
134 151 0
136 154 0
126 144 0
132 150 0
128 145 0
125 144 0
140 157 0
127 144 0
134 154 0
138 154 0
134 151 0
125 142 0
143 161 0
141 160 0
128 145 0
132 147 0
143 161 0
146 164 0
139 158 0
144 163 0
136 154 0
146 165 0
134 153 0
140 157 0
143 161 0
142 159 0
138 155 0
146 164 0
139 159 0
140 159 0
147 165 0
146 164 0
142 163 0
141 159 0
146 165 0
142 160 0
142 158 0
143 159 0
144 160 0
142 160 0
151 169 0
145 164 0
148 165 0
154 170 0
149 168 0
151 166 0
150 169 0
144 162 0
150 167 0
152 171 0
148 167 0
145 164 0
152 169 0
159 178 0
156 173 0
146 164 0
152 170 0
152 170 0
148 167 0
151 168 0
154 173 0
152 168 0
154 172 0
151 168 0
147 162 0
150 168 0
159 176 0
157 173 0
158 176 0
152 171 0
157 175 0
152 170 0
155 172 0
155 172 0
156 174 0
151 168 0
159 178 0
158 178 0
158 177 0
155 171 0
158 178 0
159 178 0
154 170 0
160 177 0
151 168 0
153 172 0
157 174 0
161 180 0
157 174 0
162 183 0
152 171 0
161 179 0
159 178 0
161 179 0
162 182 0
159 178 0
160 179 0
160 179 0
165 185 0
164 183 0
155 174 0
158 175 0
153 171 0
163 183 0
159 180 0
163 183 0
162 181 0
156 175 0
155 175 0
159 178 0
162 181 0
161 180 0
159 180 0
163 183 0
164 184 0
168 186 0
163 181 0
161 180 0
164 182 0
160 180 0
159 178 0
162 181 0
162 183 0
159 176 0
163 180 0
165 184 0
166 186 0
161 179 0
167 186 0
164 182 0
166 184 0
166 186 0
163 182 0
165 184 0
163 183 0
163 183 0
168 185 0
165 185 0
166 187 0
165 185 0
168 188 0
165 186 0
166 187 0
162 183 0
166 186 0
166 186 0
162 181 0
161 182 0
166 187 0
168 189 0
168 192 88
171 195 76
170 193 36
171 196 76
171 195 72
169 193 57
169 193 51
172 196 102
171 195 84
165 188 76
172 196 95
172 196 88
169 193 76
173 197 92
175 197 80
171 194 102
170 194 102
174 196 92
174 198 105
171 195 95
176 199 120
177 199 102
167 191 99
172 195 102
165 189 92
172 195 105
172 195 105
164 187 80
172 194 102
173 196 92
166 190 111
166 190 105
168 190 92
172 195 111
166 188 99
171 194 88
164 187 95
173 196 105
169 192 95
161 184 95
170 193 84
168 191 80
163 187 80
163 187 99
166 190 80
169 192 99
165 189 95
169 192 84
171 194 111
171 195 117
169 193 111
168 192 105
165 188 76
164 189 111
166 189 105
160 184 113
154 178 82
163 186 97
164 187 102
158 181 80
168 190 110
161 185 80
159 182 92
163 186 102
160 183 72
162 184 95
162 184 99
151 174 99
162 185 95
155 177 102
157 179 105
155 177 84
153 175 88
168 189 111
156 178 92
156 178 84
159 180 105
155 176 99
164 185 95
161 183 111
159 180 117
155 176 95
162 183 111
157 178 102
148 170 95
148 169 99
153 175 111
156 176 102
153 174 125
149 170 102
151 172 114
145 165 76
150 171 92
144 164 92
146 166 92
151 172 95
136 156 84
141 160 76
148 166 111
134 152 99
131 151 57
133 152 76
126 143 72
128 147 67
127 146 72
115 133 51
104 124 78
89 112 97
95 118 108
89 113 104
82 108 110
96 120 115
72 98 92
83 110 110
85 110 108
89 114 102
90 116 102
96 120 133
99 122 129
104 127 110
103 125 115
90 115 123
94 121 118
91 117 94
96 121 118
98 124 107
109 133 113
98 123 121
94 120 124
94 120 131
160 179 60
162 176 36
152 160 18
145 150 31
98 114 84
73 103 111
72 103 120
74 104 122
91 117 111
69 100 114
72 100 113
81 107 107
73 100 99
83 108 103
80 106 95
76 100 94
62 93 108
65 96 100
59 90 92
59 91 107
94 115 80
103 126 78
71 99 84
55 88 103
54 86 80
53 84 72
54 85 92
55 87 97
54 86 99
55 87 97
53 85 99
54 86 99
55 87 94
55 87 90
56 88 100
55 88 99
54 87 88
56 88 102
55 87 92
55 88 95
58 91 113
56 89 102
56 89 108
57 90 115
56 89 97
56 88 94
57 90 105
57 89 111
55 87 94
55 87 100
55 88 90
55 87 95
56 89 95
56 89 113
56 88 92
53 85 82
55 87 97
55 87 88
54 87 92
54 86 108
54 85 90
56 88 95
55 88 100
55 87 97
56 89 105
57 90 99
53 85 95
54 86 92
54 86 100
54 85 95
56 88 105
56 89 102
54 85 94
55 88 94
52 83 80
53 84 95
52 82 84
52 84 92
53 84 86
65 87 65
82 97 25
91 104 0
102 117 0
95 109 0
97 110 0
100 114 0
112 127 0
100 116 0
106 121 0
108 124 0
107 121 0
103 119 0
118 134 0
98 115 0
119 135 0
100 116 0
121 138 0
108 123 0
114 132 0
105 121 0
122 138 0
115 132 0
114 129 0
119 137 0
125 142 0
129 146 0
118 135 0
123 140 0
129 144 0
130 148 0
126 145 0
133 152 0
129 146 0
129 145 0
124 140 0
128 144 0
115 131 0
121 139 0
124 140 0
123 140 0
138 156 0
143 160 0
135 152 0
139 155 0
133 151 0
135 151 0
136 154 0
131 149 0
126 142 0
128 146 0
134 150 0
135 152 0
126 144 0
130 147 0
142 160 0
139 157 0
146 163 0
152 170 0
147 168 0
148 166 0
135 151 0
144 162 0
135 153 0
140 157 0
141 161 0
137 155 0
131 149 0
139 159 0
138 153 0
142 160 0
145 165 0
145 162 0
142 158 0
146 162 0
149 168 0
142 159 0
149 167 0
143 162 0
150 170 0
143 159 0
144 162 0
148 166 0
149 167 0
152 172 0
150 169 0
147 162 0
150 169 0
146 163 0
148 166 0
155 175 0
146 162 0
155 173 0
148 164 0
147 164 0
147 164 0
152 170 0
160 178 0
156 173 0
153 171 0
147 164 0
154 174 0
161 181 0
153 171 0
155 175 0
150 168 0
159 176 0
157 177 0
152 169 0
158 179 0
151 171 0
152 172 0
156 178 0
154 174 0
159 177 0
159 179 0
157 176 0
161 178 0
156 176 0
151 169 0
160 177 0
156 175 0
159 176 0
156 175 0
155 174 0
154 174 0
158 176 0
157 174 0
154 172 0
161 180 0
154 172 0
156 174 0
153 173 0
157 178 0
160 176 0
164 184 0
163 182 0
155 173 0
162 185 0
156 174 0
160 179 0
157 177 0
164 183 0
157 177 0
161 177 0
162 181 0
162 180 0
161 181 0
158 177 0
161 181 0
160 177 0
164 182 0
163 181 0
164 183 0
163 182 0
161 179 0
164 183 0
164 182 0
162 181 0
159 179 0
162 182 0
161 180 0
156 177 0
160 180 0
165 184 0
163 181 0
162 179 0
162 183 0
164 184 0
161 180 0
167 188 0
162 180 0
161 179 0
164 183 0
169 190 0
170 189 0
163 183 0
165 184 0
160 179 0
164 184 0
163 182 0
161 180 0
168 190 0
165 184 0
165 186 0
162 181 0
168 188 0
165 186 0
169 190 0
168 188 0
163 184 0
165 189 84
169 194 72
169 193 51
173 197 92
171 196 99
167 191 76
169 192 72
170 193 62
167 191 76
171 195 114
164 188 51
171 194 76
168 192 99
171 195 76
174 196 108
175 198 95
171 194 99
172 194 108
172 194 84
171 194 114
169 192 80
174 196 95
171 195 105
172 196 95
172 195 114
173 195 102
172 195 99
174 197 102
167 191 88
167 191 95
171 194 88
168 191 76
169 193 99
172 196 105
172 194 105
165 189 120
170 193 99
169 191 99
170 194 95
168 192 102
167 190 111
171 194 99
165 188 92
162 186 62
166 190 102
171 194 108
172 194 105
172 195 102
166 188 88
166 190 108
164 187 92
159 183 74
168 191 108
165 189 120
164 187 92
173 195 125
157 180 92
164 188 97
161 184 99
153 178 110
163 186 110
163 185 84
159 182 95
161 184 92
157 180 99
163 185 102
160 182 111
164 186 94
164 188 111
157 180 100
155 177 88
164 186 88
156 179 72
150 171 102
159 182 95
157 179 102
155 177 114
158 180 99
159 181 80
152 173 105
155 176 84
157 179 88
159 180 105
151 173 76
144 166 80
152 174 108
147 167 92
152 173 99
148 168 95
153 173 108
158 179 84
154 174 114
139 159 92
144 164 99
153 173 95
137 157 80
145 164 88
139 158 92
140 160 88
130 149 72
130 148 80
127 145 76
126 144 80
136 154 76
128 146 67
133 152 84
133 152 84
104 121 90
80 104 94
88 112 100
79 104 94
90 114 99
81 106 110
87 112 111
92 117 113
96 120 110
103 126 127
99 123 119
106 128 124
90 113 103
106 129 124
103 127 124
109 134 115
85 111 101
100 126 118
100 125 121
105 129 124
95 119 111
89 115 105
87 114 110
151 167 82
160 173 70
159 172 18
150 158 18
141 151 25
89 113 111
65 97 121
80 108 103
76 105 113
74 104 122
77 106 105
73 101 103
59 91 105
75 101 95
83 106 90
83 106 102
69 96 100
63 93 103
57 89 94
56 87 90
102 122 60
100 123 95
83 110 88
54 85 81
54 86 84
55 88 99
54 86 92
54 86 86
55 87 100
54 86 74
56 89 105
54 86 102
54 86 86
54 86 97
55 87 97
55 88 99
53 84 80
56 89 109
55 88 99
52 84 84
55 86 97
56 88 95
54 86 90
53 84 88
55 87 94
56 89 99
56 88 100
57 90 99
54 86 100
53 84 84
56 88 105
53 85 88
53 85 90
55 87 102
54 85 94
53 85 86
57 89 108
53 85 88
54 86 84
56 89 105
53 85 92
52 83 84
55 88 86
54 85 90
54 86 90
54 86 97
53 84 94
54 86 90
55 87 94
52 83 88
50 81 74
51 82 82
52 82 90
54 86 102
52 83 84
53 84 78
63 90 76
81 97 47
100 114 18
93 108 0
106 122 0
101 116 0
104 120 0
95 109 0
92 106 0
86 100 0
99 115 0
108 123 0
117 133 0
101 115 0
95 111 0
121 138 0
112 129 0
115 131 0
111 128 0
112 129 0
111 126 0
118 135 0
107 122 0
121 136 0
119 136 0
110 128 0
107 123 0
114 130 0
111 128 0
113 129 0
117 133 0
113 128 0
114 132 0
124 140 0
125 141 0
124 139 0
124 141 0
126 142 0
123 140 0
133 152 0
124 140 0
124 141 0
128 147 0
130 148 0
137 154 0
121 138 0
130 146 0
130 148 0
135 152 0
131 149 0
122 137 0
137 155 0
131 148 0
136 152 0
131 149 0
140 158 0
132 148 0
141 159 0
139 156 0
136 154 0
144 165 0
136 156 0
131 149 0
138 156 0
137 155 0
138 157 0
144 161 0
151 170 0
151 169 0
140 154 0
141 158 0
142 161 0
141 160 0
151 171 0
135 150 0
146 162 0
147 167 0
150 167 0
148 166 0
148 167 0
144 164 0
149 166 0
145 163 0
144 162 0
145 164 0
151 170 0
151 169 0
148 166 0
147 167 0
149 168 0
150 168 0
153 172 0
149 165 0
144 163 0
151 171 0
153 171 0
142 160 0
154 174 0
150 168 0
147 164 0
152 170 0
149 167 0
149 167 0
156 174 0
156 175 0
146 163 0
150 169 0
150 167 0
157 176 0
150 166 0
154 170 0
155 174 0
154 173 0
152 170 0
163 182 0
156 175 0
149 165 0
158 175 0
155 174 0
156 176 0
156 175 0
156 175 0
146 162 0
160 179 0
154 172 0
155 174 0
159 175 0
157 174 0
156 175 0
166 185 0
158 176 0
159 177 0
161 181 0
161 181 0
149 167 0
160 179 0
149 169 0
160 178 0
161 179 0
159 177 0
159 179 0
160 177 0
160 179 0
161 179 0
157 176 0
162 180 0
160 178 0
156 175 0
159 176 0
159 175 0
156 171 0
162 183 0
164 184 0
162 182 0
164 180 0
160 180 0
159 178 0
159 178 0
165 184 0
157 175 0
164 183 0
163 183 0
165 184 0
161 180 0
160 179 0
159 180 0
165 186 0
168 189 0
162 181 0
159 180 0
163 184 0
164 183 0
161 181 0
168 187 0
164 182 0
162 182 0
165 185 0
163 181 0
165 184 0
166 186 0
164 182 0
164 185 0
164 182 0
169 188 0
164 181 0
170 189 0
167 187 0
167 186 0
166 188 0
162 183 0
167 188 0
167 187 0
167 187 0
165 184 0
173 196 84
170 194 51
168 192 51
172 196 76
166 190 57
174 198 88
175 198 88
172 195 76
175 197 88
171 194 67
170 194 88
173 196 88
168 192 80
171 195 102
173 196 95
170 192 102
170 193 125
177 201 117
167 190 76
172 195 95
172 195 88
172 196 122
170 194 76
174 197 114
174 197 120
171 195 111
167 191 84
168 191 102
168 191 95
173 197 84
173 195 92
173 196 88
171 195 95
167 189 72
168 191 84
171 195 92
173 197 114
167 190 88
166 189 92
168 192 88
167 191 92
169 192 92
169 192 114
164 188 111
166 190 102
172 195 105
162 185 92
164 187 88
163 186 80
164 187 95
166 190 88
165 189 111
163 188 88
163 186 88
167 191 117
165 188 76
161 184 95
161 182 103
161 185 86
160 183 80
157 180 88
163 185 99
161 184 84
163 184 100
157 180 94
160 183 102
157 180 78
153 175 90
159 182 97
157 180 92
161 183 99
165 186 114
165 187 108
161 183 111
160 183 99
161 183 105
157 179 99
162 183 92
163 185 105
158 179 111
159 179 105
157 178 95
161 182 111
150 171 95
163 184 99
146 168 99
137 157 95
153 175 111
143 164 92
141 161 88
139 158 88
142 163 88
151 171 114
137 156 105
147 167 105
139 158 72
142 161 76
145 165 76
135 155 72
130 149 72
141 160 108
145 164 88
132 150 67
130 149 72
131 149 84
125 143 44
134 151 76
125 142 67
123 140 76
93 116 103
90 114 100
95 119 107
83 109 107
75 101 96
101 123 124
94 119 97
92 118 120
87 112 104
91 115 117
91 116 108
97 121 107
102 126 135
94 119 109
104 127 119
101 126 110
93 118 107
90 117 108
107 130 113
97 122 115
107 131 126
150 168 103
164 179 65
161 172 18
154 161 25
146 153 0
130 139 57
82 109 110
66 98 122
68 100 118
79 107 92
71 102 108
70 98 99
70 98 102
78 104 105
81 106 109
73 97 84
77 103 98
66 94 86
59 90 86
58 89 90
88 108 54
108 130 72
81 106 80
54 85 84
53 84 80
52 83 70
53 85 88
50 81 72
55 87 94
53 85 95
54 86 92
54 86 83
55 88 95
56 89 92
54 87 92
56 89 92
56 88 99
54 86 99
53 85 89
55 88 88
54 86 102
55 87 107
54 86 95
55 88 104
54 86 86
54 86 108
56 88 95
56 88 102
55 87 102
55 87 95
57 90 113
55 87 95
55 87 95
54 85 90
55 87 92
54 87 92
56 89 97
56 89 107
57 90 105
57 89 100
55 87 92
53 84 88
52 83 76
53 84 88
54 85 95
54 85 99
51 82 86
54 85 97
54 85 74
52 83 88
54 85 86
52 83 88
50 80 74
48 77 88
88 106 60
88 103 18
95 109 0
90 104 0
97 111 0
97 113 0
104 120 0
93 107 0
100 114 0
98 113 0
96 113 0
95 109 0
115 130 0
115 133 0
102 115 0
113 128 0
107 122 0
95 111 0
106 123 0
93 108 0
115 130 0
109 125 0
110 125 0
119 133 0
127 143 0
117 135 0
122 138 0
113 130 0
120 137 0
111 127 0
113 128 0
120 137 0
118 136 0
110 124 0
128 144 0
126 140 0
129 146 0
121 139 0
131 149 0
138 155 0
127 144 0
122 140 0
131 146 0
129 146 0
130 146 0
123 140 0
132 149 0
139 157 0
133 151 0
124 141 0
133 151 0
128 146 0
125 141 0
135 153 0
142 160 0
125 141 0
135 153 0
144 162 0
138 158 0
135 153 0
129 145 0
133 152 0
140 157 0
138 156 0
145 162 0
142 157 0
144 163 0
130 147 0
140 157 0
132 148 0
140 158 0
149 168 0
142 161 0
141 159 0
140 159 0
143 160 0
147 165 0
148 168 0
147 166 0
148 167 0
143 160 0
150 169 0
136 156 0
147 164 0
150 168 0
140 158 0
146 163 0
152 170 0
143 161 0
141 159 0
148 164 0
152 169 0
152 172 0
151 167 0
149 168 0
156 176 0
150 168 0
155 175 0
152 170 0
154 173 0
149 166 0
152 169 0
150 169 0
149 165 0
149 167 0
158 175 0
156 174 0
154 172 0
152 170 0
159 177 0
154 174 0
150 167 0
149 169 0
150 169 0
151 169 0
153 174 0
160 178 0
146 165 0
157 177 0
159 179 0
152 171 0
154 173 0
151 169 0
161 178 0
157 177 0
150 169 0
149 168 0
156 176 0
155 173 0
158 177 0
152 170 0
160 180 0
164 183 0
152 170 0
157 176 0
164 184 0
156 173 0
161 181 0
159 176 0
158 174 0
158 177 0
163 181 0
155 172 0
154 170 0
161 179 0
159 176 0
159 178 0
158 175 0
158 177 0
158 177 0
162 181 0
158 177 0
164 185 0
159 179 0
159 178 0
157 176 0
162 181 0
163 184 0
158 176 0
162 181 0
164 185 0
160 180 0
165 185 0
157 176 0
167 185 0
166 184 0
161 179 0
163 181 0
160 177 0
168 189 0
164 182 0
165 183 0
166 185 0
160 179 0
164 184 0
163 184 0
166 185 0
166 186 0
161 182 0
167 186 0
157 179 0
160 179 0
165 183 0
164 183 0
165 184 0
164 184 0
169 190 0
167 188 0
166 186 0
167 187 0
169 189 0
163 182 0
166 188 0
164 186 0
165 185 0
163 184 0
167 191 57
168 192 62
172 196 92
172 196 95
174 198 108
173 195 80
168 193 76
172 196 80
174 197 95
170 192 95
170 193 88
171 195 111
170 193 88
174 197 99
171 195 95
178 201 120
167 191 76
169 192 99
165 189 72
168 191 102
170 193 95
172 194 95
167 190 88
169 192 92
171 195 99
166 190 80
171 195 95
168 192 95
168 192 111
168 192 99
171 194 99
168 191 92
175 198 102
165 189 102
171 193 102
168 192 108
175 199 108
167 190 99
171 195 111
165 189 80
166 190 88
167 191 76
166 190 84
170 193 95
161 184 80
160 184 95
170 195 122
169 193 105
168 191 108
165 187 99
164 187 95
160 183 95
170 193 111
167 190 90
168 192 131
161 184 100
162 185 108
163 186 102
160 183 86
167 190 103
166 189 107
158 181 94
162 185 99
161 183 84
158 182 86
151 174 76
159 181 103
161 185 124
158 181 95
158 181 72
157 180 99
159 181 84
152 175 88
157 180 105
158 181 84
155 176 95
156 178 108
157 179 92
162 184 117
155 177 120
157 178 95
160 182 108
156 177 84
158 180 95
149 170 92
142 163 99
146 167 76
151 172 92
154 176 92
154 174 105
158 177 99
148 169 95
150 170 95
139 158 80
157 177 120
137 157 95
136 154 99
139 160 67
142 162 80
129 148 51
139 157 88
139 158 105
141 158 108
131 150 80
121 138 84
119 138 67
128 145 80
130 148 84
122 139 72
120 137 57
101 123 107
85 110 105
98 121 111
101 125 121
87 112 97
90 114 103
101 124 108
76 104 105
86 112 111
101 125 120
109 131 129
94 119 121
101 125 121
93 118 102
94 120 108
97 122 106
101 126 92
92 117 105
85 111 107
102 125 100
125 145 105
158 169 40
159 172 36
146 154 25
140 148 18
141 150 25
122 136 60
80 106 100
73 104 117
79 107 105
81 107 88
68 96 102
78 103 95
77 102 102
83 106 86
78 102 97
76 100 86
76 100 83
55 84 78
64 93 80
99 118 57
96 116 70
88 112 67
58 90 99
52 83 78
52 83 67
50 80 87
55 87 92
52 83 76
54 86 95
54 86 95
54 85 94
55 87 100
55 87 94
54 87 92
52 84 88
55 88 99
52 83 82
53 85 90
54 86 90
55 87 86
52 84 86
51 81 78
52 83 70
53 85 86
56 88 103
55 87 100
53 84 82
52 84 86
55 87 94
55 88 97
54 87 86
54 87 92
53 84 86
54 85 90
53 85 78
53 84 86
52 82 78
52 83 97
50 80 82
53 83 95
55 86 92
54 86 97
52 83 88
51 82 82
52 83 82
54 85 100
51 82 80
51 81 82
51 82 78
72 94 60
77 97 47
85 102 25
90 104 0
101 115 0
87 101 0
84 99 0
95 109 0
102 116 0
90 105 0
94 108 0
81 95 0
102 117 0
104 119 0
101 116 0
100 114 0
100 116 0
110 126 0
108 123 0
108 125 0
109 124 0
101 118 0
115 132 0
106 121 0
106 122 0
95 113 0
108 125 0
107 123 0
120 135 0
114 130 0
119 134 0
124 141 0
117 134 0
124 140 0
121 138 0
114 131 0
126 141 0
117 133 0
131 150 0
124 142 0
122 137 0
126 145 0
129 148 0
118 133 0
127 145 0
127 145 0
139 156 0
125 142 0
137 156 0
122 139 0
118 137 0
142 160 0
133 150 0
126 143 0
134 151 0
138 155 0
115 132 0
139 158 0
146 164 0
136 156 0
138 156 0
140 159 0
126 143 0
129 144 0
148 167 0
133 151 0
135 154 0
141 159 0
138 155 0
136 153 0
146 166 0
133 150 0
140 159 0
133 151 0
134 152 0
143 161 0
149 168 0
147 165 0
146 164 0
145 162 0
143 162 0
152 171 0
143 161 0
146 165 0
148 165 0
144 164 0
142 160 0
151 170 0
152 171 0
144 163 0
150 168 0
145 162 0
149 168 0
147 167 0
145 165 0
146 167 0
148 166 0
152 171 0
142 160 0
156 176 0
148 165 0
148 166 0
151 172 0
147 163 0
147 163 0
152 170 0
151 171 0
154 173 0
150 170 0
154 172 0
149 167 0
156 175 0
153 171 0
153 172 0
155 175 0
157 177 0
157 176 0
161 180 0
148 166 0
153 172 0
155 173 0
156 175 0
158 175 0
157 178 0
156 175 0
159 177 0
149 168 0
152 169 0
154 173 0
160 179 0
154 169 0
152 170 0
156 174 0
158 178 0
158 176 0
157 175 0
149 167 0
162 181 0
160 179 0
162 181 0
156 176 0
157 175 0
154 172 0
158 179 0
155 172 0
161 181 0
162 181 0
160 176 0
156 174 0
153 169 0
157 176 0
156 174 0
159 179 0
164 184 0
160 180 0
162 182 0
164 183 0
161 180 0
165 185 0
162 181 0
162 182 0
164 185 0
165 186 0
164 183 0
165 183 0
160 179 0
160 180 0
165 183 0
160 179 0
163 182 0
166 187 0
164 183 0
164 185 0
169 188 0
161 180 0
165 184 0
166 186 0
163 181 0
161 182 0
165 185 0
166 187 0
166 186 0
165 186 0
163 182 0
162 180 0
163 184 0
164 183 0
162 183 0
164 182 0
165 186 0
166 188 0
162 182 0
164 185 0
165 181 0
166 187 0
171 192 0
165 184 0
168 188 0
166 186 0
168 188 0
166 191 67
173 197 99
175 198 84
174 198 99
174 197 76
172 196 88
171 196 99
172 196 84
172 196 88
170 193 88
174 198 105
173 197 92
173 196 102
172 195 92
172 196 108
167 190 92
171 195 108
172 194 92
175 198 108
163 187 84
173 196 111
172 195 111
169 193 92
168 191 88
169 192 102
171 194 92
168 192 80
166 190 102
174 197 117
163 186 80
168 191 95
171 194 111
170 193 95
167 191 99
171 194 114
168 192 76
168 191 105
169 191 99
172 194 102
169 192 99
166 188 99
172 194 88
166 188 92
167 190 88
175 198 120
168 191 95
164 188 84
169 192 102
160 183 108
162 185 105
163 186 102
158 182 90
167 190 102
165 189 84
165 188 95
169 191 105
163 185 88
168 190 108
157 181 108
162 185 90
162 186 108
154 177 82
162 184 88
161 183 84
158 181 88
167 190 108
160 182 105
159 182 86
158 181 99
156 178 80
163 186 95
157 180 78
150 172 80
147 169 80
155 177 76
157 179 102
160 182 102
160 182 111
164 187 117
156 178 84
159 181 92
153 175 102
152 174 102
153 175 95
154 176 102
154 175 99
150 171 102
156 177 111
160 182 105
149 168 99
156 177 95
149 170 99
143 163 92
153 173 102
146 165 102
149 167 117
145 164 99
153 172 108
147 166 88
137 156 76
130 149 76
132 151 57
133 151 84
126 143 67
138 157 108
133 152 76
129 146 72
121 138 67
127 144 95
121 138 67
121 137 76
89 110 88
96 117 105
87 111 110
90 113 90
95 117 102
91 114 110
90 115 108
93 118 111
95 119 117
92 116 102
101 125 100
98 121 103
105 130 107
91 117 110
102 126 110
108 131 110
96 119 103
88 112 114
103 127 120
107 127 97
162 178 44
147 157 18
145 154 0
152 163 18
140 149 25
135 147 31
115 133 72
73 103 107
64 95 107
76 104 107
85 111 107
67 95 88
72 100 80
81 106 105
79 102 92
77 102 88
77 103 86
78 103 76
57 88 97
83 103 54
98 119 70
106 128 67
50 79 70
51 82 82
53 84 74
50 80 80
52 83 80
56 88 95
54 86 86
52 82 84
52 83 90
53 85 88
50 81 82
54 86 80
52 83 90
55 87 95
52 83 90
55 88 100
53 85 97
52 83 94
53 85 82
51 82 86
52 83 95
54 87 84
54 85 99
51 82 78
53 85 92
54 85 94
54 86 97
54 87 90
54 86 90
52 82 82
53 85 90
54 86 80
52 82 74
52 82 84
53 84 84
56 89 95
51 82 80
50 80 78
51 81 80
53 85 76
50 80 82
51 81 72
52 83 88
50 80 84
60 84 74
71 92 51
96 110 31
89 103 0
82 96 0
83 96 0
87 101 0
98 113 0
93 108 0
94 107 0
104 120 0
98 114 0
104 117 0
103 119 0
103 117 0
102 117 0
111 127 0
113 128 0
89 104 0
107 125 0
100 115 0
99 114 0
115 132 0
107 124 0
113 128 0
103 118 0
109 123 0
111 126 0
118 133 0
113 131 0
101 118 0
118 134 0
123 141 0
123 140 0
126 144 0
126 143 0
126 143 0
130 148 0
126 144 0
119 137 0
111 128 0
118 134 0
116 132 0
117 136 0
132 150 0
126 143 0
131 150 0
132 152 0
134 151 0
138 156 0
128 147 0
132 151 0
137 156 0
131 148 0
132 151 0
133 151 0
136 152 0
131 150 0
129 147 0
134 151 0
133 150 0
134 153 0
133 150 0
137 155 0
129 148 0
142 159 0
127 145 0
119 137 0
138 157 0
140 158 0
130 148 0
142 159 0
146 165 0
145 165 0
143 161 0
142 161 0
137 157 0
136 152 0
140 162 0
144 164 0
152 171 0
144 163 0
138 155 0
134 150 0
140 159 0
156 175 0
145 163 0
146 164 0
144 160 0
152 171 0
147 166 0
146 166 0
149 168 0
149 170 0
151 171 0
147 164 0
149 169 0
152 170 0
152 172 0
146 163 0
152 171 0
145 161 0
152 170 0
152 167 0
150 168 0
155 173 0
152 169 0
149 167 0
148 167 0
154 171 0
156 174 0
153 168 0
154 174 0
149 166 0
153 175 0
150 170 0
153 173 0
151 171 0
159 180 0
155 174 0
153 172 0
147 162 0
154 173 0
155 174 0
154 172 0
159 180 0
159 179 0
157 177 0
160 179 0
157 175 0
164 182 0
160 180 0
161 179 0
153 173 0
163 182 0
155 174 0
159 176 0
164 183 0
161 181 0
158 176 0
159 181 0
165 185 0
159 179 0
162 180 0
156 175 0
158 175 0
160 178 0
155 172 0
157 177 0
163 182 0
160 180 0
162 182 0
162 180 0
163 183 0
161 181 0
164 184 0
162 182 0
163 182 0
162 179 0
154 172 0
160 181 0
162 183 0
162 179 0
164 184 0
163 183 0
161 179 0
157 176 0
165 184 0
161 181 0
162 182 0
164 184 0
167 187 0
162 182 0
166 185 0
167 187 0
165 185 0
161 182 0
164 185 0
159 178 0
162 181 0
162 181 0
167 188 0
163 183 0
161 180 0
169 190 0
166 184 0
164 182 0
166 187 0
163 183 0
164 183 0
169 191 0
164 183 0
162 181 0
167 188 0
164 184 0
166 185 0
166 187 0
161 183 0
167 188 0
166 185 0
166 187 0
168 189 0
167 188 0
174 197 84
169 192 72
173 196 80
176 199 88
174 197 84
169 193 84
173 195 102
174 198 95
172 196 99
178 201 108
176 199 117
170 193 95
179 201 128
171 193 102
173 196 99
173 197 102
170 194 88
170 193 67
169 193 99
172 195 84
174 196 102
173 197 108
170 194 92
172 195 99
171 195 88
164 188 88
171 193 99
169 192 80
168 192 84
167 190 67
166 189 72
174 197 105
171 194 105
168 192 92
171 195 105
169 192 105
169 192 76
169 193 99
173 196 95
166 190 99
167 190 111
169 193 111
169 193 114
163 186 57
168 190 108
171 194 102
157 180 95
165 189 92
166 188 108
169 193 99
164 188 88
163 186 95
165 189 102
163 185 95
160 183 78
162 185 88
157 180 72
165 188 95
164 186 105
163 186 92
163 186 102
164 187 76
159 182 99
162 184 107
159 181 95
163 185 97
163 184 80
161 184 88
156 178 84
165 188 108
164 186 111
160 182 105
156 178 99
158 181 114
159 181 95
165 187 105
153 176 76
165 188 114
163 184 114
161 182 88
159 181 102
159 181 114
156 177 102
150 172 88
156 177 99
157 179 88
156 177 95
153 174 111
153 174 95
142 163 80
150 172 76
151 171 92
149 168 80
153 173 114
148 168 99
148 167 108
157 176 125
157 176 117
150 170 95
143 161 88
141 160 99
136 155 72
127 145 62
144 163 99
134 151 99
134 152 80
132 150 84
131 149 67
120 138 62
110 126 62
123 141 88
119 133 84
104 122 90
84 107 103
106 127 115
77 103 102
99 122 97
92 117 111
95 118 103
102 124 113
93 117 113
98 122 94
104 126 106
92 118 108
90 115 92
97 122 120
101 126 110
94 119 95
93 117 103
100 125 117
106 127 102
154 170 51
155 169 18
153 165 18
143 154 0
137 148 25
137 149 0
137 151 0
105 125 80
78 107 110
59 90 95
67 95 109
79 106 99
75 99 107
73 99 90
76 101 80
72 101 103
83 106 62
78 102 65
71 97 80
94 113 54
94 116 60
93 117 72
74 96 44
67 88 62
68 91 60
52 80 67
50 80 51
52 83 84
49 79 73
56 88 84
52 82 80
51 81 67
51 81 74
51 82 76
50 80 92
53 83 94
53 84 82
54 86 84
55 88 88
53 84 86
52 83 82
53 84 92
51 82 76
53 84 88
51 81 86
51 81 88
55 87 95
54 86 88
52 84 90
54 86 90
51 81 82
51 81 80
50 81 74
51 81 78
53 85 82
52 82 86
51 80 67
53 85 86
51 82 82
53 84 84
49 79 74
47 72 74
68 90 70
80 99 47
58 73 25
91 104 0
93 108 0
89 102 0
92 107 0
97 111 0
107 121 0
96 111 0
89 103 0
98 112 0
95 110 0
73 88 0
99 113 0
97 113 0
100 115 0
102 117 0
94 109 0
101 115 0
102 118 0
99 115 0
103 119 0
94 111 0
115 133 0
108 125 0
107 122 0
114 130 0
111 126 0
112 127 0
112 128 0
124 138 0
117 133 0
117 133 0
114 132 0
110 127 0
110 128 0
118 135 0
117 133 0
113 130 0
114 130 0
119 137 0
120 138 0
122 138 0
128 146 0
124 142 0
113 133 0
123 141 0
125 140 0
132 150 0
123 143 0
119 136 0
119 137 0
131 149 0
132 151 0
125 142 0
129 147 0
132 151 0
126 143 0
140 159 0
134 150 0
137 155 0
135 153 0
132 153 0
135 153 0
134 152 0
138 157 0
137 155 0
135 154 0
135 153 0
140 158 0
139 158 0
135 150 0
142 159 0
150 169 0
146 166 0
139 158 0
143 161 0
148 167 0
143 163 0
142 160 0
148 166 0
135 153 0
140 158 0
148 168 0
145 165 0
140 159 0
149 167 0
143 160 0
148 164 0
141 158 0
153 174 0
137 154 0
149 166 0
144 161 0
147 165 0
136 154 0
150 170 0
152 171 0
145 164 0
149 168 0
149 168 0
149 168 0
155 172 0
139 158 0
144 163 0
147 166 0
147 164 0
150 169 0
154 172 0
146 165 0
149 168 0
155 174 0
155 174 0
157 176 0
157 176 0
150 169 0
154 171 0
153 172 0
148 166 0
156 174 0
157 175 0
148 169 0
154 173 0
152 170 0
160 178 0
162 181 0
160 181 0
165 183 0
155 173 0
157 176 0
153 172 0
161 181 0
160 179 0
158 177 0
155 176 0
160 179 0
161 180 0
155 174 0
151 171 0
156 175 0
162 182 0
158 176 0
160 180 0
159 178 0
160 179 0
157 177 0
160 178 0
156 173 0
160 180 0
159 178 0
160 181 0
156 175 0
159 178 0
159 177 0
161 179 0
157 178 0
164 183 0
162 179 0
160 180 0
164 182 0
162 182 0
160 178 0
162 182 0
165 185 0
164 186 0
164 184 0
165 185 0
164 184 0
163 184 0
163 180 0
164 184 0
168 186 0
161 181 0
169 190 0
158 175 0
164 184 0
164 185 0
166 185 0
166 185 0
164 184 0
164 186 0
164 184 0
164 184 0
162 183 0
161 181 0
162 183 0
167 187 0
159 179 0
165 184 0
168 189 0
159 179 0
166 185 0
164 184 0
168 187 0
164 181 0
167 188 0
165 183 0
158 178 0
167 190 0
165 186 0
165 185 0
169 189 0
166 187 0
164 186 0
167 188 0
165 185 0
167 191 72
173 196 84
170 193 80
168 192 76
170 193 88
175 197 105
172 196 84
179 202 111
170 193 99
171 195 92
171 195 88
174 198 114
175 198 88
171 194 102
175 198 92
169 193 102
174 198 122
170 194 102
172 195 102
170 193 92
170 194 95
168 192 92
169 192 88
170 193 67
171 194 84
165 189 99
166 191 99
172 195 114
174 196 105
173 196 92
162 186 80
170 193 95
169 193 105
169 193 99
168 191 105
165 188 117
164 188 114
171 195 108
174 198 120
163 186 99
167 189 62
170 194 105
166 189 80
171 194 114
165 189 88
161 184 84
169 192 95
166 189 84
171 194 105
164 187 108
161 184 102
166 188 97
165 189 108
173 195 113
158 181 72
165 188 82
168 191 95
169 193 102
160 184 88
163 185 105
163 187 88
164 187 84
166 189 95
156 179 105
165 188 88
162 185 117
157 181 105
158 181 95
162 186 84
163 186 88
161 182 99
162 186 107
159 182 80
150 172 88
152 174 92
158 180 108
156 177 99
156 177 92
152 173 88
161 182 108
158 180 99
154 175 84
161 182 122
149 171 80
158 179 84
155 175 102
149 170 72
153 174 88
149 170 95
152 172 99
144 164 120
140 161 92
139 159 84
156 175 102
153 172 117
142 162 80
143 162 108
141 160 92
142 160 105
144 163 72
133 152 76
143 163 84
132 151 92
137 155 92
126 145 80
140 157 99
135 153 88
133 151 72
116 133 76
126 142 88
119 135 72
123 138 72
105 120 57
97 114 70
84 106 90
86 112 95
93 116 108
102 123 118
95 117 113
108 129 114
87 112 105
98 123 120
89 114 100
104 128 103
103 126 108
110 133 114
96 121 115
101 124 107
108 129 113
101 125 108
107 129 88
147 162 47
158 173 18
148 159 18
148 162 18
141 154 25
131 143 0
143 160 31
134 151 0
100 122 88
72 100 95
76 103 103
65 93 95
82 106 97
75 100 94
89 114 84
71 98 82
82 109 88
74 101 80
67 87 54
89 109 54
98 119 51
85 108 51
92 110 40
90 104 0
76 91 0
92 106 0
82 96 0
78 95 18
76 94 51
66 89 49
60 86 54
61 87 65
49 79 72
51 82 74
50 80 67
49 78 67
52 83 92
53 84 80
49 79 72
51 81 84
50 80 72
51 82 84
51 81 72
51 82 80
50 79 76
48 78 72
53 84 78
53 85 88
52 82 80
52 83 78
51 82 86
51 82 84
51 81 78
51 81 86
52 81 78
55 80 60
63 86 62
68 90 60
83 101 36
69 83 31
79 93 0
87 102 0
88 100 0
94 109 0
90 103 0
105 119 0
84 98 0
84 99 0
87 102 0
94 108 0
83 99 0
88 102 0
105 120 0
96 112 0
103 120 0
100 116 0
104 119 0
103 117 0
97 113 0
100 115 0
98 114 0
98 113 0
112 128 0
107 123 0
109 126 0
95 110 0
110 127 0
112 129 0
106 122 0
113 130 0
104 121 0
102 120 0
103 117 0
119 136 0
111 130 0
116 133 0
113 131 0
105 123 0
117 134 0
122 139 0
121 139 0
114 132 0
119 136 0
124 142 0
118 135 0
127 146 0
121 139 0
134 151 0
127 145 0
125 142 0
127 144 0
124 142 0
133 152 0
134 153 0
127 144 0
139 158 0
131 148 0
125 142 0
140 158 0
132 150 0
133 153 0
133 151 0
132 150 0
130 146 0
138 156 0
135 153 0
136 153 0
138 155 0
134 153 0
138 157 0
129 146 0
127 145 0
138 157 0
137 155 0
128 148 0
143 161 0
140 160 0
141 157 0
121 138 0
142 158 0
142 161 0
142 160 0
144 161 0
147 167 0
140 159 0
148 167 0
139 157 0
148 167 0
139 157 0
145 162 0
142 160 0
143 163 0
139 157 0
145 162 0
150 169 0
145 165 0
150 168 0
150 171 0
158 177 0
148 166 0
151 170 0
146 165 0
154 174 0
146 164 0
149 169 0
154 174 0
153 171 0
155 174 0
150 168 0
150 169 0
157 176 0
151 171 0
143 161 0
155 172 0
153 173 0
154 171 0
150 167 0
160 180 0
153 174 0
155 175 0
151 171 0
156 175 0
154 174 0
158 177 0
155 174 0
158 177 0
156 176 0
151 170 0
157 177 0
158 177 0
158 179 0
155 172 0
157 175 0
159 179 0
160 180 0
154 173 0
154 174 0
156 176 0
156 175 0
148 166 0
160 180 0
158 175 0
158 176 0
160 179 0
160 178 0
155 175 0
161 182 0
159 178 0
155 174 0
158 178 0
161 180 0
159 179 0
159 178 0
154 173 0
162 182 0
160 180 0
159 178 0
157 175 0
161 183 0
164 184 0
161 181 0
158 174 0
157 178 0
163 183 0
164 183 0
160 181 0
158 175 0
158 177 0
161 179 0
161 179 0
166 187 0
159 178 0
163 185 0
163 183 0
163 183 0
162 182 0
162 183 0
164 185 0
161 182 0
161 184 0
168 188 0
164 184 0
161 181 0
165 183 0
160 180 0
163 184 0
165 188 0
161 181 0
168 188 0
163 183 0
162 182 0
161 180 0
166 187 0
161 179 0
166 187 0
166 187 0
168 189 0
159 179 0
165 184 0
163 183 0
165 186 0
168 189 0
164 186 0
169 190 0
171 190 0
164 184 0
165 185 0
166 186 0
167 189 0
178 201 92
174 197 111
175 198 95
173 196 105
176 199 102
175 197 99
172 195 88
171 194 92
168 192 120
169 193 80
172 196 102
167 190 88
172 196 95
169 193 88
174 197 84
168 192 111
169 193 76
168 191 76
169 193 84
170 193 102
174 197 108
168 191 80
170 193 105
172 195 114
174 197 117
168 192 92
167 190 84
173 197 120
167 191 88
166 190 84
165 188 88
171 195 84
170 194 108
170 193 99
171 193 114
170 193 111
166 190 88
165 188 88
166 189 88
169 192 88
168 192 99
170 193 99
172 196 117
174 197 105
167 191 84
171 194 117
164 186 108
166 189 99
166 189 88
163 187 92
152 175 80
170 194 124
169 192 99
159 183 90
171 194 99
160 183 84
163 185 108
166 189 99
163 186 105
170 194 124
159 182 99
156 179 95
160 182 86
156 178 78
158 181 99
159 182 114
162 185 95
156 179 84
163 187 117
158 181 84
158 181 92
161 183 95
162 185 102
164 186 114
165 188 111
159 180 102
165 188 114
154 176 108
153 175 92
158 179 88
161 183 108
152 174 92
154 176 102
159 180 120
150 171 111
149 170 102
160 181 111
147 168 92
153 174 92
153 173 117
153 175 88
144 164 95
154 175 117
149 170 99
153 173 111
147 166 95
149 169 108
138 157 99
140 159 95
140 158 95
132 152 62
129 148 67
135 154 80
140 159 99
133 151 80
126 144 72
127 145 72
125 143 57
119 137 57
121 138 76
130 147 80
118 134 67
105 121 51
119 134 84
110 126 80
85 106 84
91 114 92
97 119 100
91 115 103
92 114 99
91 114 107
96 120 108
84 111 97
102 126 107
99 123 96
96 121 97
91 116 110
102 125 100
97 120 94
95 118 86
113 135 82
145 160 44
149 162 25
152 166 0
152 167 18
148 163 31
133 146 0
140 156 18
130 144 25
123 140 31
96 119 86
69 98 114
75 103 95
77 102 90
64 91 88
79 106 90
69 96 92
71 97 70
86 110 60
76 94 36
100 118 51
103 125 67
97 119 65
81 102 57
80 95 0
83 99 0
90 103 0
100 115 0
86 100 0
102 116 0
104 118 0
94 108 0
97 111 0
76 91 0
76 91 31
78 94 25
82 99 36
82 100 47
80 99 51
84 104 60
66 87 54
69 89 60
65 89 62
56 80 47
59 82 60
57 82 65
54 76 44
71 91 57
75 93 57
79 100 51
75 93 47
69 87 47
75 90 18
75 90 36
77 92 40
73 86 0
88 102 0
90 104 0
66 78 0
87 100 0
79 93 0
87 101 0
80 93 0
90 103 0
82 98 0
98 111 0
98 113 0
98 112 0
87 101 0
90 106 0
102 117 0
85 100 0
104 118 0
101 116 0
89 104 0
97 113 0
105 118 0
95 111 0
98 114 0
93 108 0
111 127 0
111 128 0
117 133 0
93 108 0
116 131 0
102 119 0
105 122 0
105 121 0
109 125 0
120 136 0
119 135 0
105 123 0
104 121 0
103 120 0
116 135 0
112 129 0
114 130 0
107 124 0
119 135 0
114 132 0
126 144 0
123 142 0
118 137 0
107 122 0
120 137 0
112 130 0
124 142 0
134 153 0
121 140 0
130 149 0
130 148 0
133 152 0
125 144 0
135 152 0
137 155 0
135 152 0
127 144 0
128 146 0
134 152 0
133 153 0
136 155 0
135 154 0
132 150 0
138 157 0
128 147 0
131 151 0
142 162 0
125 145 0
143 161 0
140 159 0
132 150 0
138 157 0
141 159 0
138 156 0
142 158 0
123 140 0
139 160 0
145 165 0
145 165 0
149 167 0
140 160 0
142 162 0
149 168 0
141 160 0
138 155 0
150 172 0
142 160 0
148 169 0
148 166 0
149 167 0
143 163 0
143 162 0
141 160 0
150 167 0
154 174 0
154 173 0
150 170 0
150 169 0
151 172 0
148 168 0
154 174 0
147 166 0
152 172 0
151 169 0
148 167 0
153 173 0
149 169 0
152 171 0
153 173 0
152 169 0
148 166 0
154 172 0
149 168 0
154 174 0
146 165 0
153 172 0
151 170 0
160 180 0
157 176 0
155 175 0
153 173 0
153 172 0
153 171 0
149 170 0
160 179 0
151 170 0
157 177 0
159 180 0
158 178 0
151 168 0
161 180 0
154 176 0
151 170 0
160 179 0
157 176 0
161 179 0
157 175 0
158 175 0
159 180 0
157 176 0
162 182 0
160 179 0
157 174 0
157 176 0
162 182 0
156 174 0
161 180 0
163 184 0
158 175 0
156 175 0
159 179 0
158 181 0
158 174 0
159 178 0
156 175 0
158 177 0
159 176 0
163 184 0
156 173 0
160 178 0
163 183 0
159 180 0
165 185 0
160 179 0
155 173 0
158 177 0
157 178 0
166 185 0
165 184 0
155 173 0
162 182 0
158 179 0
161 179 0
155 173 0
161 182 0
162 181 0
165 185 0
166 185 0
160 180 0
165 185 0
161 181 0
159 179 0
167 188 0
156 177 0
165 186 0
166 187 0
162 182 0
164 186 0
160 181 0
166 188 0
163 181 0
163 183 0
163 183 0
165 186 0
164 184 0
161 179 0
163 184 0
161 181 0
165 186 0
166 186 0
163 185 0
162 182 0
165 185 0
167 189 0
165 186 0
163 183 0
166 188 0
166 185 0
166 186 0
168 189 0
173 196 95
174 197 76
175 198 95
172 196 88
175 199 114
174 196 67
171 195 102
172 196 102
168 191 92
170 194 72
173 195 95
172 195 99
172 196 92
168 193 102
176 199 102
167 190 67
172 195 120
170 193 111
175 198 114
173 196 108
177 200 114
174 197 102
168 192 84
170 194 88
166 189 102
168 192 105
169 193 99
163 187 84
168 192 102
164 188 76
169 192 95
171 195 114
174 198 99
174 196 120
170 194 99
167 192 102
162 187 84
164 187 88
170 194 99
169 193 111
169 192 84
166 189 108
166 189 84
164 186 88
169 193 120
167 189 95
168 191 76
166 190 102
171 194 111
163 187 84
156 179 84
166 189 102
166 189 80
169 193 120
166 189 90
167 191 100
162 185 94
161 183 88
164 187 107
164 187 95
162 185 105
166 189 114
165 188 105
165 188 113
162 185 107
160 183 95
159 182 105
164 187 122
164 188 107
159 182 92
152 174 95
153 176 107
161 184 108
153 175 76
157 180 95
155 177 80
157 178 84
161 184 105
158 180 108
154 175 84
155 177 105
149 170 111
153 175 92
161 182 80
155 177 84
148 170 62
159 179 122
158 179 108
149 170 92
154 175 76
151 172 92
142 162 88
157 176 108
150 169 114
141 162 84
160 179 120
142 162 95
139 159 99
147 165 108
143 162 102
143 161 88
144 163 76
140 159 72
134 152 84
141 159 92
128 146 88
114 132 76
126 143 76
135 153 80
118 136 62
137 154 76
124 141 62
112 128 80
122 139 80
109 125 67
105 118 76
104 121 92
84 107 95
92 114 100
87 111 100
97 120 104
92 117 100
89 113 102
90 115 95
92 117 94
100 125 102
97 122 94
107 129 100
101 125 99
102 125 94
121 141 65
122 141 54
154 170 25
155 171 25
144 158 18
147 164 31
144 160 25
132 149 0
137 154 36
130 146 0
122 137 25
91 113 65
73 98 88
76 102 80
78 102 78
71 96 76
77 102 84
74 98 67
79 101 67
92 108 25
114 131 0
98 119 54
93 116 72
87 106 51
101 116 0
96 112 0
96 111 0
88 103 0
93 108 0
89 104 0
98 114 0
101 116 0
87 102 0
92 107 0
94 109 0
98 113 0
93 108 0
96 110 0
83 97 0
96 111 0
85 99 0
88 101 0
90 102 0
89 104 0
76 90 0
80 94 0
87 100 0
78 92 0
83 96 0
72 85 0
76 90 0
86 99 0
81 94 0
72 87 0
89 103 0
95 108 0
81 95 0
77 92 0
84 97 0
97 112 0
87 102 0
95 109 0
96 111 0
93 108 0
96 111 0
86 99 0
97 112 0
102 117 0
112 126 0
84 97 0
88 102 0
88 104 0
105 120 0
100 118 0
112 129 0
115 132 0
109 126 0
96 111 0
105 121 0
105 121 0
107 123 0
106 122 0
106 123 0
111 127 0
116 132 0
90 107 0
110 125 0
121 137 0
101 117 0
113 132 0
118 135 0
122 141 0
109 126 0
102 118 0
111 129 0
115 131 0
114 131 0
104 122 0
118 137 0
113 130 0
114 131 0
122 140 0
119 136 0
121 139 0
132 150 0
121 139 0
122 140 0
124 141 0
130 147 0
128 144 0
128 144 0
132 149 0
131 150 0
130 149 0
130 147 0
128 145 0
138 157 0
138 157 0
141 160 0
130 148 0
133 150 0
129 146 0
132 151 0
133 151 0
130 149 0
138 157 0
136 153 0
135 154 0
143 161 0
134 150 0
136 154 0
138 157 0
142 160 0
139 156 0
136 155 0
139 159 0
142 161 0
143 163 0
142 159 0
137 156 0
146 165 0
143 162 0
141 159 0
132 151 0
131 150 0
142 162 0
140 159 0
147 167 0
142 160 0
150 167 0
142 161 0
148 168 0
142 160 0
142 160 0
148 166 0
144 162 0
144 163 0
145 164 0
152 171 0
148 167 0
149 166 0
157 175 0
154 173 0
150 168 0
148 166 0
146 163 0
153 172 0
147 166 0
159 179 0
155 175 0
153 171 0
153 173 0
151 170 0
150 169 0
152 173 0
150 168 0
149 169 0
151 168 0
157 176 0
157 176 0
152 170 0
151 170 0
157 177 0
152 171 0
147 166 0
152 170 0
153 174 0
150 169 0
154 172 0
152 172 0
150 171 0
150 167 0
152 170 0
154 171 0
164 184 0
155 175 0
155 174 0
153 173 0
157 178 0
155 174 0
157 176 0
159 179 0
162 183 0
163 183 0
163 180 0
162 180 0
165 183 0
155 176 0
159 177 0
154 173 0
158 179 0
155 175 0
150 169 0
161 181 0
160 180 0
157 176 0
160 180 0
155 175 0
155 173 0
160 180 0
166 186 0
159 177 0
164 185 0
161 179 0
166 186 0
161 181 0
162 181 0
162 182 0
159 181 0
159 178 0
162 182 0
163 185 0
161 182 0
165 186 0
160 177 0
158 178 0
161 180 0
160 179 0
167 186 0
167 187 0
161 181 0
165 185 0
161 182 0
163 183 0
166 187 0
165 185 0
162 183 0
163 183 0
158 179 0
165 184 0
166 186 0
162 182 0
163 184 0
169 189 0
165 186 0
166 187 0
170 191 0
166 186 0
163 186 0
165 186 0
168 190 0
167 188 0
166 186 0
165 185 0
167 186 0
162 183 0
165 186 0
168 188 0
168 189 0
167 187 0
175 197 99
174 197 95
177 200 102
172 196 88
172 194 92
172 195 99
173 196 111
170 194 111
174 196 102
172 196 95
171 195 105
169 192 92
173 196 80
173 197 92
168 191 105
167 190 95
174 197 102
173 197 111
166 189 72
171 195 102
170 194 92
174 197 88
172 196 99
172 195 105
170 193 99
167 191 88
167 190 99
170 193 105
165 188 80
170 193 102
168 191 92
161 185 62
166 190 88
171 194 105
167 190 88
173 197 102
161 184 92
168 191 88
167 192 102
165 188 88
169 192 102
170 193 92
168 192 105
169 193 95
167 191 108
169 193 102
159 181 88
162 185 88
166 190 105
165 189 84
165 188 92
159 182 90
167 190 95
167 189 125
163 187 120
164 187 99
164 187 108
166 188 86
160 183 84
168 191 114
159 182 105
161 184 95
163 186 105
150 173 92
164 187 72
164 187 84
169 192 99
160 183 90
163 185 92
162 184 99
165 189 88
157 180 86
155 176 80
160 182 102
160 183 99
152 174 102
155 178 95
154 176 84
155 178 92
153 175 105
156 177 108
159 180 92
153 174 114
156 177 120
150 171 95
157 177 111
163 184 105
153 174 108
152 172 108
157 177 114
143 165 76
153 173 84
147 167 80
152 171 114
147 167 105
146 165 99
150 170 99
140 159 80
141 159 102
141 161 95
148 167 95
146 165 111
136 154 95
124 143 67
146 165 76
149 166 95
125 143 72
134 151 99
143 161 92
124 141 67
132 149 80
130 148 76
113 128 80
100 116 57
123 138 84
112 127 80
113 127 62
107 123 82
95 115 100
104 126 107
83 107 82
84 108 90
77 103 76
92 116 92
113 134 108
90 116 102
109 131 118
103 126 103
92 115 84
103 125 108
117 140 92
132 150 44
157 171 25
157 172 18
150 167 25
151 166 31
149 166 18
142 157 18
142 159 0
134 151 0
130 147 25
122 138 0
85 105 51
60 88 86
74 99 76
74 97 57
72 98 76
78 102 78
78 99 54
108 122 0
112 128 0
115 133 18
93 114 54
90 111 36
107 122 0
88 104 0
97 112 0
93 108 0
96 110 0
87 102 0
63 77 0
94 108 0
86 101 0
94 110 0
83 98 0
92 107 0
83 98 0
93 107 0
96 110 0
90 105 0
81 96 0
86 101 0
90 105 0
70 83 0
87 100 0
95 110 0
81 94 0
91 105 0
90 103 0
89 103 0
91 106 0
84 99 0
98 112 0
92 106 0
88 103 0
90 104 0
100 115 0
91 106 0
86 101 0
88 104 0
94 108 0
93 107 0
89 103 0
93 109 0
105 120 0
95 109 0
89 105 0
100 116 0
101 117 0
94 109 0
98 114 0
95 111 0
87 103 0
113 128 0
94 110 0
101 117 0
92 109 0
108 125 0
108 125 0
101 117 0
106 123 0
92 107 0
117 133 0
108 124 0
109 126 0
120 138 0
118 133 0
117 134 0
107 123 0
109 126 0
128 145 0
106 124 0
108 125 0
116 134 0
128 144 0
105 122 0
98 116 0
126 144 0
120 137 0
133 151 0
130 145 0
127 145 0
125 142 0
115 133 0
121 138 0
127 145 0
127 144 0
118 134 0
126 143 0
133 151 0
129 147 0
127 145 0
135 153 0
127 145 0
136 155 0
131 149 0
119 134 0
125 144 0
137 155 0
131 151 0
137 156 0
132 152 0
134 153 0
136 156 0
137 156 0
134 154 0
143 162 0
138 158 0
136 154 0
140 159 0
133 149 0
143 165 0
136 156 0
150 170 0
142 162 0
140 158 0
141 159 0
138 156 0
140 160 0
147 167 0
139 159 0
144 164 0
140 159 0
137 154 0
141 161 0
140 160 0
146 163 0
142 161 0
148 167 0
152 172 0
144 164 0
147 166 0
143 160 0
150 169 0
147 167 0
152 172 0
154 172 0
138 156 0
146 163 0
154 175 0
147 163 0
145 164 0
146 166 0
150 166 0
146 164 0
146 165 0
154 174 0
142 158 0
151 170 0
144 164 0
150 168 0
145 164 0
153 173 0
154 174 0
150 167 0
150 169 0
151 171 0
155 175 0
157 178 0
151 170 0
156 175 0
155 175 0
154 172 0
150 170 0
155 176 0
152 171 0
160 181 0
155 175 0
152 171 0
153 172 0
156 173 0
159 178 0
159 179 0
159 179 0
158 178 0
162 181 0
155 175 0
155 175 0
158 174 0
158 177 0
160 180 0
161 179 0
159 177 0
159 178 0
157 177 0
157 176 0
154 173 0
156 174 0
159 177 0
164 185 0
160 180 0
158 177 0
157 179 0
155 173 0
160 180 0
161 181 0
161 181 0
160 179 0
161 182 0
166 185 0
158 179 0
166 186 0
163 184 0
163 181 0
167 189 0
158 178 0
157 178 0
155 175 0
159 178 0
162 181 0
162 182 0
166 185 0
160 181 0
163 182 0
157 177 0
161 181 0
164 185 0
163 183 0
166 187 0
161 181 0
163 185 0
160 180 0
164 185 0
161 179 0
164 185 0
162 184 0
162 183 0
168 186 0
166 187 0
163 183 0
164 184 0
160 180 0
166 187 0
163 183 0
161 181 0
167 186 0
161 181 0
165 185 0
167 189 0
162 180 0
163 182 0
166 187 0
165 185 0
166 187 0
167 188 0
165 184 0
170 191 0
168 189 0
165 185 0
169 190 0
178 201 105
174 197 95
173 196 99
178 201 114
170 194 62
177 200 111
175 198 105
172 195 80
179 202 114
173 196 111
170 193 80
169 194 92
169 193 92
173 195 92
169 191 102
171 194 88
179 201 99
176 198 105
168 190 80
170 193 80
165 189 92
164 188 76
170 192 99
169 191 76
172 196 117
173 197 105
165 188 92
167 190 84
165 189 88
171 194 95
164 188 84
168 191 76
168 192 84
171 195 111
171 195 108
166 190 105
165 189 111
167 192 102
162 185 95
169 193 111
170 194 88
160 184 92
162 185 117
165 189 102
163 186 95
166 189 99
168 191 105
169 192 95
169 192 88
160 183 88
169 192 120
160 184 99
167 190 114
160 183 74
169 192 105
165 189 97
159 182 108
159 182 88
159 184 95
159 183 92
164 187 99
165 187 105
157 180 99
153 176 84
166 189 95
159 181 72
164 186 95
163 186 126
157 180 107
155 178 99
158 181 94
158 181 108
164 186 111
150 172 92
153 176 102
160 182 105
148 170 72
147 169 72
164 186 120
156 177 95
158 180 102
147 169 99
156 178 99
147 168 102
153 174 88
156 177 88
158 180 105
154 175 105
155 176 99
148 169 92
152 173 76
153 174 88
154 175 99
145 165 99
152 171 111
143 162 92
153 173 95
155 175 88
147 166 92
157 176 108
143 162 95
142 160 92
156 175 108
124 143 72
137 158 84
134 153 92
128 146 72
133 152 67
118 136 67
128 146 84
125 143 51
132 149 76
124 141 72
117 134 62
111 126 72
111 126 62
132 147 62
115 130 80
121 135 99
107 124 92
92 114 95
90 113 88
85 108 67
79 103 86
90 113 98
102 125 92
104 127 103
101 123 92
107 130 114
92 116 84
117 137 65
120 138 18
158 175 18
153 168 25
153 170 31
143 159 25
150 167 0
139 157 25
134 152 0
136 153 18
133 151 18
125 139 0
109 125 0
96 115 40
82 106 67
76 99 82
79 102 74
81 102 51
95 111 0
113 129 0
109 124 0
106 122 0
113 132 40
102 119 18
111 128 0
100 116 0
108 124 0
90 106 0
100 115 0
88 104 0
101 116 0
82 96 0
87 103 0
96 112 0
115 130 0
98 113 0
86 102 0
97 112 0
102 117 0
84 98 0
98 113 0
95 109 0
78 93 0
108 122 0
85 100 0
105 120 0
91 106 0
89 103 0
88 102 0
92 107 0
85 100 0
94 108 0
79 94 0
88 103 0
101 115 0
86 102 0
96 112 0
105 120 0
94 108 0
106 121 0
98 113 0
87 101 0
100 116 0
103 118 0
103 119 0
87 102 0
89 104 0
100 116 0
97 112 0
95 112 0
108 123 0
101 117 0
93 110 0
93 109 0
105 121 0
104 121 0
104 120 0
102 119 0
102 118 0
109 125 0
109 124 0
102 118 0
108 126 0
99 116 0
118 136 0
121 140 0
108 126 0
122 139 0
119 135 0
108 126 0
115 133 0
119 137 0
124 141 0
124 141 0
124 142 0
119 137 0
126 143 0
119 136 0
121 139 0
122 141 0
120 138 0
123 139 0
129 146 0
119 137 0
136 154 0
127 144 0
116 133 0
121 139 0
132 152 0
126 143 0
129 147 0
133 153 0
125 143 0
133 152 0
135 155 0
127 146 0
144 163 0
134 153 0
129 146 0
139 157 0
129 147 0
135 155 0
135 153 0
139 158 0
127 143 0
136 155 0
139 159 0
136 156 0
138 158 0
141 159 0
143 163 0
138 156 0
141 158 0
149 169 0
145 162 0
138 158 0
144 163 0
149 170 0
134 152 0
146 165 0
144 165 0
147 166 0
145 164 0
136 157 0
140 161 0
145 163 0
153 172 0
150 170 0
144 165 0
154 172 0
146 167 0
145 165 0
145 163 0
149 170 0
143 162 0
146 164 0
152 172 0
150 171 0
149 167 0
149 169 0
149 168 0
139 157 0
145 165 0
154 175 0
153 174 0
147 166 0
149 167 0
151 170 0
147 166 0
148 167 0
153 171 0
158 177 0
158 177 0
152 171 0
158 179 0
156 176 0
152 172 0
159 179 0
150 168 0
154 172 0
154 173 0
156 175 0
154 174 0
149 169 0
156 176 0
162 182 0
158 177 0
162 181 0
160 180 0
154 175 0
155 175 0
147 166 0
157 175 0
160 180 0
155 175 0
158 177 0
156 173 0
161 182 0
157 178 0
163 184 0
159 178 0
159 178 0
161 180 0
158 178 0
159 179 0
155 176 0
157 177 0
155 175 0
158 175 0
160 181 0
160 178 0
160 178 0
159 179 0
157 177 0
150 169 0
159 179 0
162 181 0
160 182 0
159 179 0
163 184 0
158 179 0
158 178 0
161 182 0
161 181 0
162 182 0
165 184 0
161 180 0
160 181 0
161 180 0
160 179 0
161 180 0
162 180 0
162 181 0
162 183 0
161 181 0
167 189 0
164 185 0
164 183 0
164 185 0
164 185 0
168 190 0
162 182 0
161 180 0
166 187 0
162 181 0
161 181 0
165 185 0
161 183 0
162 184 0
163 182 0
169 191 0
166 186 0
160 181 0
167 186 0
164 184 0
166 186 0
163 183 0
163 183 0
165 184 0
165 185 0
164 185 0
167 187 0
167 187 0
168 191 0
167 188 0
165 184 0
167 188 0
166 189 0
169 190 0
162 182 0
172 195 80
171 194 88
175 199 95
175 198 111
171 194 99
171 194 92
172 195 84
175 198 105
170 192 95
174 196 95
170 194 102
172 195 99
174 198 102
171 194 88
173 196 88
169 193 88
165 188 72
170 193 88
167 190 95
171 194 102
173 196 102
174 198 95
170 193 108
169 192 95
173 197 114
169 192 88
168 191 80
171 194 105
168 191 95
169 192 84
169 192 99
171 194 117
170 193 102
170 194 111
168 191 99
171 194 92
167 190 95
160 183 72
164 187 99
168 192 108
170 193 114
167 191 76
160 184 67
164 188 92
169 192 114
172 195 108
163 186 108
170 193 120
162 185 92
165 189 99
165 189 95
162 184 92
157 181 88
165 188 84
164 188 76
162 185 97
164 187 88
167 190 99
166 189 122
165 188 108
158 181 74
159 182 100
168 190 102
163 186 90
159 181 88
158 180 76
160 183 95
155 178 67
159 182 88
141 163 51
154 177 100
156 178 90
163 186 102
164 186 84
164 185 114
169 191 122
156 179 88
158 180 99
151 173 80
158 180 102
153 175 102
157 178 117
153 174 88
147 168 99
150 170 102
148 169 122
147 167 84
156 177 92
156 177 102
154 175 92
148 169 95
148 169 80
153 173 111
157 178 105
139 159 105
150 170 108
147 166 97
143 163 99
146 166 105
149 169 80
133 152 80
148 167 92
132 150 95
151 169 114
132 151 76
141 159 105
126 144 84
135 153 76
125 143 72
128 145 99
131 149 80
142 159 80
130 147 80
114 130 80
130 147 57
116 131 57
115 129 72
114 129 76
113 127 92
118 131 95
111 126 70
102 120 88
97 119 99
90 114 95
87 111 82
89 112 92
98 121 102
105 127 94
93 116 105
100 123 90
136 154 25
128 145 0
159 174 0
156 174 0
155 173 0
154 171 0
145 161 0
147 165 25
134 153 0
133 152 18
136 153 0
129 146 0
112 126 0
117 130 0
102 118 25
86 105 40
88 104 25
101 116 0
109 124 0
114 128 0
112 128 0
104 121 0
98 114 0
98 115 0
105 122 0
103 120 0
104 121 0
110 127 0
90 105 0
106 121 0
100 116 0
73 88 0
107 123 0
95 109 0
86 102 0
91 106 0
112 129 0
98 114 0
103 119 0
86 101 0
83 98 0
91 106 0
103 118 0
88 103 0
95 112 0
92 106 0
82 97 0
89 104 0
82 96 0
89 104 0
101 116 0
94 108 0
94 108 0
83 98 0
100 116 0
96 111 0
87 103 0
93 108 0
96 111 0
109 126 0
87 102 0
93 110 0
92 109 0
95 110 0
96 113 0
93 106 0
98 114 0
83 100 0
102 118 0
108 124 0
100 115 0
103 119 0
100 114 0
109 124 0
104 120 0
102 119 0
111 126 0
111 127 0
102 117 0
111 127 0
113 130 0
115 132 0
101 117 0
109 125 0
115 132 0
109 127 0
107 124 0
106 124 0
124 141 0
110 126 0
120 138 0
112 129 0
123 142 0
118 137 0
123 140 0
103 121 0
117 136 0
121 141 0
119 135 0
125 142 0
119 136 0
128 146 0
127 146 0
132 150 0
123 140 0
121 139 0
124 143 0
131 149 0
122 140 0
135 154 0
120 137 0
125 142 0
129 146 0
132 151 0
132 150 0
129 149 0
131 149 0
127 147 0
131 150 0
131 149 0
135 155 0
136 155 0
131 149 0
140 159 0
140 159 0
131 150 0
135 154 0
142 160 0
135 154 0
138 158 0
141 161 0
140 158 0
136 155 0
146 164 0
146 166 0
137 157 0
141 161 0
145 165 0
141 162 0
138 156 0
146 164 0
145 163 0
147 166 0
139 157 0
149 169 0
151 169 0
135 153 0
139 159 0
150 170 0
146 165 0
153 172 0
143 161 0
144 164 0
142 161 0
147 169 0
140 159 0
151 169 0
152 173 0
150 171 0
146 165 0
156 174 0
153 171 0
144 164 0
150 169 0
150 167 0
152 173 0
152 172 0
155 174 0
143 164 0
158 178 0
154 174 0
145 163 0
148 168 0
155 175 0
149 169 0
150 169 0
155 175 0
157 177 0
161 182 0
156 177 0
151 172 0
145 164 0
152 172 0
156 176 0
153 173 0
153 173 0
153 173 0
156 175 0
156 174 0
160 180 0
158 177 0
152 172 0
164 183 0
161 181 0
159 178 0
161 183 0
157 176 0
162 180 0
149 168 0
160 181 0
156 174 0
154 174 0
157 176 0
154 174 0
161 180 0
152 170 0
162 182 0
165 184 0
161 182 0
157 177 0
169 188 0
157 179 0
160 180 0
154 174 0
160 179 0
161 183 0
157 177 0
166 187 0
163 184 0
167 188 0
161 180 0
158 178 0
161 181 0
164 183 0
164 184 0
158 178 0
162 182 0
159 179 0
161 182 0
168 190 0
163 183 0
163 183 0
155 175 0
159 179 0
159 178 0
165 186 0
162 184 0
168 188 0
164 184 0
166 186 0
166 188 0
161 183 0
162 182 0
165 185 0
163 182 0
161 181 0
169 190 0
163 182 0
164 185 0
164 185 0
165 185 0
162 183 0
165 184 0
167 187 0
167 186 0
167 188 0
161 179 0
164 183 0
164 184 0
165 187 0
163 185 0
168 190 0
167 189 0
168 188 0
170 192 0
163 185 0
165 186 0
166 186 0
168 188 0
168 188 0
170 194 99
175 198 84
174 198 95
174 197 108
176 199 108
174 198 92
172 195 84
174 197 114
171 194 88
176 199 102
170 193 108
172 195 80
170 193 76
171 195 105
170 194 92
171 195 88
168 192 80
169 193 105
168 192 108
171 194 76
171 194 92
174 197 99
173 196 105
172 195 99
170 194 99
163 186 99
171 195 108
171 195 92
168 192 88
169 194 102
169 193 114
167 191 114
171 194 102
171 194 108
168 191 105
164 186 72
160 184 88
169 192 99
167 190 114
166 189 80
170 194 108
170 193 92
167 191 95
163 187 88
168 192 99
167 190 99
169 192 102
169 193 102
162 185 111
165 188 105
161 184 76
159 183 95
164 188 100
161 184 92
162 185 92
168 191 84
163 187 95
162 185 80
160 183 99
165 187 108
161 185 102
159 183 102
157 180 76
169 192 105
156 180 97
162 185 99
163 186 108
163 187 120
164 186 92
159 182 88
160 183 102
161 184 108
163 186 105
163 186 92
154 176 92
165 187 114
156 179 99
155 176 84
156 179 102
155 178 95
155 176 102
153 175 92
149 171 92
153 174 99
147 169 84
149 170 108
146 167 88
160 181 108
153 174 114
157 178 95
154 175 88
145 166 88
146 167 92
158 178 105
157 178 120
138 158 88
146 166 99
153 173 108
145 164 92
144 163 105
139 158 88
147 166 99
153 171 120
149 167 108
148 167 92
142 160 95
149 167 125
150 169 105
137 156 88
131 148 102
130 149 62
121 138 80
129 146 80
116 132 84
130 147 84
114 130 57
119 135 72
110 127 57
103 117 51
98 113 62
116 131 72
101 115 62
90 106 44
92 113 40
92 116 78
95 118 78
100 122 100
90 113 97
96 117 72
121 139 54
133 148 0
123 143 36
151 167 0
156 174 0
152 169 0
151 166 0
151 169 0
134 147 0
142 161 0
138 153 0
131 147 0
130 147 0
118 134 0
110 126 0
100 115 0
97 113 0
92 105 0
90 105 0
100 115 0
111 128 0
106 121 0
103 120 0
112 130 0
98 115 0
100 117 0
90 106 0
113 129 0
104 121 0
98 114 0
99 117 0
101 116 0
97 113 0
100 115 0
88 102 0
96 111 0
112 128 0
92 108 0
100 115 0
71 87 0
90 106 0
96 111 0
87 103 0
105 120 0
89 104 0
86 101 0
92 108 0
114 129 0
95 108 0
88 102 0
98 114 0
98 113 0
98 113 0
94 108 0
98 114 0
98 114 0
98 113 0
111 126 0
106 120 0
102 118 0
96 112 0
90 106 0
103 118 0
94 109 0
92 108 0
96 112 0
96 112 0
112 128 0
111 128 0
106 123 0
110 126 0
105 121 0
109 125 0
106 122 0
88 104 0
93 110 0
107 125 0
116 134 0
110 126 0
115 132 0
106 122 0
111 129 0
111 129 0
106 123 0
110 128 0
118 135 0
117 136 0
120 137 0
116 134 0
117 133 0
105 123 0
114 131 0
121 138 0
119 137 0
128 147 0
120 139 0
126 141 0
124 142 0
117 134 0
124 144 0
123 141 0
120 138 0
132 149 0
113 132 0
129 148 0
120 138 0
137 157 0
126 143 0
134 153 0
123 142 0
132 150 0
124 143 0
124 142 0
139 160 0
133 151 0
133 152 0
131 150 0
134 152 0
131 150 0
141 158 0
137 156 0
131 150 0
130 147 0
135 154 0
128 145 0
143 162 0
139 157 0
134 151 0
143 164 0
142 163 0
134 153 0
131 149 0
139 157 0
135 153 0
142 160 0
132 151 0
139 157 0
141 162 0
151 172 0
139 160 0
142 163 0
146 165 0
143 160 0
153 171 0
148 166 0
142 159 0
151 172 0
147 168 0
155 176 0
141 158 0
153 174 0
144 164 0
146 164 0
140 160 0
155 174 0
150 171 0
147 166 0
152 171 0
153 174 0
151 170 0
149 167 0
151 171 0
146 164 0
146 165 0
149 166 0
148 166 0
144 163 0
155 175 0
154 174 0
151 169 0
155 174 0
148 168 0
147 165 0
145 164 0
155 175 0
156 174 0
158 178 0
153 173 0
154 174 0
151 170 0
152 171 0
153 171 0
157 177 0
154 175 0
160 181 0
156 176 0
157 176 0
157 177 0
150 171 0
153 173 0
157 176 0
154 174 0
152 170 0
159 179 0
161 181 0
153 171 0
155 173 0
162 180 0
158 179 0
155 175 0
162 182 0
159 179 0
154 170 0
158 178 0
155 172 0
160 179 0
162 181 0
157 177 0
157 176 0
156 175 0
162 183 0
158 179 0
160 181 0
165 185 0
164 185 0
167 187 0
156 175 0
161 183 0
164 184 0
161 180 0
161 180 0
168 189 0
164 183 0
161 180 0
161 181 0
162 182 0
165 187 0
161 180 0
161 182 0
161 180 0
159 178 0
165 185 0
157 178 0
161 180 0
166 185 0
162 181 0
164 185 0
165 186 0
159 179 0
162 180 0
165 184 0
168 188 0
167 188 0
166 186 0
162 183 0
166 186 0
166 188 0
161 179 0
165 185 0
166 187 0
164 187 0
163 182 0
167 187 0
166 186 0
166 187 0
168 189 0
163 182 0
169 189 0
163 183 0
160 180 0
167 188 0
165 187 0
165 187 0
164 186 0
167 187 0
172 194 0
167 188 0
168 190 0
168 189 0
169 190 0
164 186 0
176 199 108
174 197 88
172 195 108
176 199 122
173 197 95
172 195 99
174 197 105
171 195 117
168 191 92
171 194 62
171 195 102
171 194 76
174 197 111
170 193 84
171 194 95
170 194 111
172 196 95
167 190 92
172 195 88
171 195 108
176 198 108
168 192 80
172 196 105
171 194 67
169 193 95
170 193 114
169 193 72
165 188 95
177 200 114
170 193 108
163 187 76
165 189 80
170 194 102
171 195 102
169 192 102
170 193 92
165 189 105
164 188 84
164 188 95
167 191 88
168 192 95
168 191 76
167 190 67
163 187 95
167 190 88
164 187 92
164 187 84
159 183 95
164 188 84
168 191 105
166 188 99
164 187 84
160 183 84
162 185 94
161 184 102
167 191 95
168 191 111
165 189 99
158 181 84
163 186 80
167 190 122
165 188 92
163 185 102
165 188 95
159 182 84
163 186 102
164 186 92
154 177 80
157 179 82
154 175 84
154 176 72
158 180 88
157 179 95
151 173 84
152 174 92
164 186 105
153 174 95
155 177 92
158 180 102
152 174 84
144 166 76
152 173 102
159 180 102
160 182 88
157 178 108
149 170 102
153 173 92
153 173 99
153 175 80
154 175 92
156 176 117
151 172 102
138 158 80
158 177 102
141 161 80
147 167 99
159 179 108
150 170 108
151 171 114
156 175 117
146 165 99
154 172 105
154 174 105
144 163 99
133 151 84
148 167 102
148 166 114
141 159 92
145 163 95
145 162 111
126 145 67
137 155 80
129 145 84
130 148 67
132 150 67
123 139 62
112 129 76
128 143 95
131 147 76
120 137 57
117 133 44
104 119 57
117 131 62
119 135 67
108 124 44
108 124 76
109 128 72
105 123 76
106 125 25
126 143 25
124 142 0
138 157 25
156 176 0
156 174 0
151 168 0
154 172 0
151 168 0
149 165 0
150 168 0
131 151 0
130 146 0
128 147 0
120 136 0
118 135 0
121 138 0
112 128 0
112 127 0
100 116 0
105 119 0
107 123 0
107 124 0
103 121 0
116 132 0
119 136 0
101 117 0
104 122 0
99 116 0
95 112 0
111 128 0
106 122 0
102 118 0
105 122 0
108 124 0
88 104 0
113 128 0
98 114 0
104 120 0
93 108 0
100 116 0
102 118 0
110 126 0
94 110 0
85 99 0
105 121 0
89 105 0
101 117 0
94 110 0
86 102 0
99 114 0
103 119 0
106 122 0
105 121 0
99 115 0
87 101 0
94 109 0
91 107 0
113 129 0
89 104 0
98 113 0
99 116 0
95 112 0
111 127 0
105 120 0
105 122 0
103 119 0
100 117 0
102 117 0
106 125 0
106 122 0
106 123 0
82 97 0
106 123 0
112 129 0
112 130 0
102 120 0
99 117 0
111 129 0
125 142 0
120 137 0
116 134 0
115 131 0
106 123 0
110 126 0
101 118 0
116 134 0
111 129 0
112 130 0
104 121 0
121 139 0
113 130 0
111 127 0
112 128 0
114 133 0
125 145 0
119 137 0
118 135 0
124 142 0
134 153 0
121 140 0
124 141 0
125 143 0
124 143 0
122 141 0
125 144 0
127 144 0
130 148 0
129 148 0
129 147 0
133 154 0
134 153 0
128 147 0
133 152 0
128 146 0
131 150 0
129 147 0
138 157 0
136 155 0
138 156 0
137 156 0
131 150 0
137 155 0
136 155 0
136 156 0
125 145 0
137 156 0
135 154 0
146 166 0
139 160 0
141 160 0
140 158 0
131 150 0
143 161 0
143 161 0
139 156 0
141 161 0
140 158 0
136 155 0
150 170 0
143 163 0
147 166 0
149 168 0
142 163 0
141 161 0
143 162 0
150 170 0
144 164 0
149 170 0
153 172 0
145 164 0
146 167 0
147 167 0
144 163 0
150 169 0
144 164 0
149 168 0
138 159 0
155 173 0
147 168 0
151 169 0
153 173 0
154 175 0
154 175 0
153 174 0
155 178 0
156 178 0
150 169 0
150 169 0
146 166 0
157 177 0
156 177 0
156 175 0
158 178 0
150 170 0
149 169 0
150 171 0
149 168 0
157 177 0
153 173 0
146 166 0
155 176 0
149 169 0
154 172 0
157 177 0
156 173 0
158 177 0
149 168 0
155 176 0
160 180 0
161 181 0
154 175 0
160 181 0
159 181 0
153 170 0
159 179 0
155 174 0
156 174 0
159 177 0
153 173 0
158 180 0
162 182 0
156 176 0
161 180 0
157 176 0
160 181 0
158 178 0
158 178 0
161 180 0
161 181 0
157 176 0
160 177 0
157 177 0
160 180 0
163 182 0
157 176 0
164 186 0
160 179 0
164 183 0
164 185 0
162 182 0
159 181 0
165 185 0
162 182 0
160 180 0
161 181 0
161 181 0
162 183 0
162 183 0
164 184 0
167 188 0
166 186 0
157 176 0
163 185 0
163 182 0
166 188 0
163 184 0
158 179 0
162 184 0
166 189 0
165 185 0
160 181 0
169 190 0
163 181 0
162 184 0
162 181 0
165 185 0
161 180 0
166 185 0
166 187 0
166 187 0
165 185 0
168 191 0
165 184 0
166 186 0
165 185 0
162 183 0
169 190 0
161 182 0
169 191 0
161 182 0
168 187 0
166 187 0
159 177 0
167 188 0
165 185 0
162 183 0
168 188 0
168 189 0
172 193 0
169 190 0
161 182 0
174 196 99
167 190 88
170 194 88
173 196 99
174 197 105
172 195 108
170 194 84
173 197 105
171 193 84
171 194 76
177 200 117
174 197 120
175 198 105
173 196 108
168 192 84
174 196 95
172 196 108
167 191 84
170 194 102
168 191 88
174 197 120
174 196 105
170 193 111
168 192 80
168 191 108
170 193 92
169 193 99
173 197 99
171 194 108
171 195 102
168 191 95
171 193 88
169 194 117
164 188 95
167 191 76
164 187 88
170 194 88
169 193 102
161 184 92
169 193 92
164 187 88
168 193 122
169 191 92
170 194 108
166 190 102
166 189 80
168 191 108
169 192 80
165 188 84
157 181 80
166 190 105
161 185 108
168 192 88
163 186 111
163 186 92
164 188 114
164 187 84
162 185 92
162 184 80
163 186 102
166 188 117
168 192 115
161 184 94
162 185 105
156 178 92
158 180 95
163 185 88
161 184 88
153 176 84
161 183 92
158 180 88
153 175 94
150 173 102
163 185 105
149 171 84
156 177 84
157 178 102
162 185 102
164 187 105
153 175 88
158 180 111
156 177 76
144 166 67
154 175 95
154 176 72
151 173 95
155 176 84
148 170 111
153 173 105
154 176 120
155 175 99
145 165 99
154 174 99
147 168 95
136 155 84
153 171 99
147 167 92
146 166 99
138 158 88
147 166 88
147 166 102
148 168 88
144 163 92
142 160 95
144 163 114
146 163 114
145 164 99
148 166 88
140 158 92
136 152 88
139 157 102
150 168 99
129 145 84
128 146 51
131 148 80
123 140 67
114 131 57
114 129 80
116 132 57
118 132 62
123 139 51
105 120 57
104 121 36
112 128 57
109 126 72
126 143 51
117 131 72
122 139 72
112 130 0
131 148 0
125 143 25
137 157 0
153 169 0
158 178 0
154 171 0
159 177 0
149 168 0
139 159 0
138 154 0
135 154 0
139 156 0
123 137 0
115 132 0
118 134 0
106 124 0
105 121 0
113 129 0
108 124 0
107 124 0
112 129 0
112 130 0
120 139 0
112 130 0
103 121 0
106 122 0
103 120 0
112 129 0
119 136 0
97 114 0
90 107 0
109 125 0
107 124 0
108 126 0
105 122 0
105 121 0
106 123 0
93 108 0
97 112 0
105 122 0
107 123 0
94 111 0
90 107 0
87 102 0
96 113 0
112 129 0
92 109 0
101 117 0
102 118 0
118 134 0
110 126 0
102 119 0
85 100 0
96 112 0
104 120 0
100 116 0
112 129 0
100 117 0
108 124 0
96 112 0
96 112 0
104 120 0
95 112 0
104 122 0
103 121 0
97 114 0
101 118 0
103 119 0
104 120 0
101 117 0
117 134 0
111 128 0
118 136 0
109 126 0
107 123 0
113 130 0
110 125 0
106 123 0
109 127 0
112 130 0
109 127 0
117 134 0
113 130 0
130 146 0
115 132 0
113 131 0
111 129 0
121 139 0
115 132 0
116 134 0
115 131 0
129 146 0
120 138 0
114 132 0
117 134 0
130 148 0
131 151 0
134 154 0
126 145 0
128 147 0
117 137 0
128 147 0
129 147 0
129 149 0
119 138 0
124 143 0
124 142 0
133 152 0
127 145 0
134 154 0
140 160 0
129 149 0
128 146 0
128 146 0
129 148 0
125 144 0
137 156 0
139 160 0
134 153 0
138 157 0
145 163 0
140 159 0
138 156 0
132 151 0
132 151 0
138 158 0
132 149 0
136 155 0
138 156 0
147 165 0
145 165 0
143 162 0
143 163 0
149 169 0
139 158 0
145 166 0
143 163 0
145 165 0
145 165 0
150 169 0
150 169 0
142 161 0
143 163 0
146 166 0
145 165 0
150 171 0
146 167 0
147 166 0
154 174 0
147 167 0
147 168 0
147 169 0
147 168 0
152 171 0
149 170 0
143 162 0
150 171 0
148 167 0
148 169 0
157 176 0
152 170 0
149 169 0
149 169 0
150 170 0
148 168 0
151 170 0
146 165 0
153 173 0
149 169 0
156 178 0
154 174 0
150 169 0
156 178 0
154 175 0
157 175 0
153 173 0
151 168 0
141 161 0
155 175 0
152 173 0
150 170 0
152 173 0
159 180 0
145 163 0
158 177 0
160 180 0
160 181 0
155 174 0
160 181 0
159 178 0
159 178 0
155 173 0
154 173 0
155 174 0
154 172 0
160 180 0
159 179 0
162 183 0
154 173 0
152 171 0
158 178 0
160 180 0
156 176 0
159 179 0
162 183 0
161 180 0
161 181 0
154 173 0
161 181 0
159 181 0
158 178 0
163 184 0
160 181 0
160 182 0
159 176 0
162 183 0
157 177 0
159 180 0
163 183 0
160 178 0
165 187 0
159 181 0
159 179 0
164 185 0
158 176 0
162 185 0
164 186 0
162 183 0
160 180 0
158 179 0
162 182 0
164 183 0
163 183 0
160 180 0
162 183 0
167 188 0
161 182 0
164 184 0
164 182 0
160 179 0
163 183 0
163 184 0
163 184 0
161 182 0
163 183 0
164 183 0
161 181 0
164 183 0
166 186 0
162 184 0
164 184 0
167 187 0
162 185 0
163 183 0
165 187 0
168 189 0
163 183 0
165 186 0
164 186 0
170 190 0
166 187 0
167 189 0
164 184 0
167 187 0
168 188 0
164 184 0
164 185 0
164 185 0
171 192 0
164 185 0
168 190 0
170 192 92
173 196 95
175 198 102
176 199 99
170 193 95
175 199 92
171 195 99
172 194 95
174 197 105
173 197 108
173 197 99
168 191 84
168 192 72
172 195 105
173 195 88
171 195 95
173 196 102
177 200 114
166 189 84
170 192 84
172 195 95
171 195 95
173 196 99
174 197 108
167 191 84
169 192 88
169 193 102
171 195 80
172 196 111
166 189 84
168 191 92
171 194 99
168 192 95
167 191 102
171 195 111
166 188 88
166 189 84
171 195 114
164 188 84
167 190 99
166 190 80
166 190 84
169 193 108
162 186 92
167 190 108
160 183 88
164 188 95
167 190 102
158 181 84
166 189 125
160 184 88
169 192 92
166 188 88
160 183 76
161 183 80
166 190 105
170 193 115
161 184 86
164 187 105
161 183 95
169 192 130
165 188 84
155 178 86
157 179 105
163 186 117
160 183 95
161 185 97
160 184 95
160 182 92
161 184 108
159 181 102
158 180 102
163 185 84
157 179 80
162 184 122
157 179 99
157 177 95
164 187 99
166 187 80
154 177 92
152 175 76
161 182 102
159 180 95
157 178 102
154 175 67
149 171 80
157 178 92
153 175 72
151 172 95
154 175 99
160 180 105
158 179 114
141 161 92
149 169 102
149 169 92
157 177 95
138 157 99
162 183 114
150 170 99
143 162 84
147 166 111
146 165 102
152 171 95
143 161 88
128 147 72
140 159 88
130 150 62
137 155 80
140 158 76
142 159 105
138 157 72
145 162 92
132 150 72
129 147 67
131 148 67
125 141 76
134 149 84
129 146 76
129 147 62
120 136 57
125 141 76
113 130 51
128 145 62
125 142 76
120 136 51
100 116 25
121 137 72
118 134 44
114 130 44
133 151 0
135 154 0
126 143 0
154 173 0
158 177 0
152 168 0
153 172 0
152 170 0
150 170 0
133 151 0
135 154 0
142 160 0
132 151 0
119 137 0
116 132 0
111 129 0
95 112 0
113 129 0
114 130 0
113 128 0
113 130 0
115 132 0
112 130 0
115 133 0
122 140 0
102 119 0
116 133 0
106 123 0
109 125 0
104 120 0
103 120 0
100 116 0
94 111 0
105 122 0
104 121 0
86 103 0
96 114 0
110 127 0
103 120 0
93 109 0
109 127 0
114 130 0
101 118 0
110 126 0
101 117 0
100 118 0
105 121 0
95 112 0
98 114 0
85 101 0
102 118 0
115 131 0
103 120 0
100 116 0
98 114 0
114 130 0
94 109 0
105 122 0
109 125 0
101 117 0
99 116 0
107 123 0
107 125 0
90 106 0
104 119 0
98 116 0
96 114 0
103 119 0
108 123 0
106 122 0
106 122 0
113 130 0
115 132 0
117 132 0
114 130 0
116 133 0
115 134 0
109 126 0
112 130 0
111 129 0
113 131 0
117 135 0
120 139 0
119 135 0
123 141 0
117 135 0
126 143 0
122 140 0
117 133 0
114 132 0
118 136 0
118 135 0
120 138 0
121 140 0
122 140 0
133 151 0
135 154 0
121 140 0
129 148 0
124 142 0
129 147 0
112 130 0
137 155 0
128 146 0
115 130 0
124 142 0
137 157 0
137 157 0
136 155 0
135 154 0
133 152 0
134 153 0
123 140 0
135 155 0
133 153 0
144 162 0
132 151 0
132 152 0
142 162 0
138 157 0
138 157 0
140 159 0
131 151 0
132 150 0
139 159 0
142 162 0
128 148 0
148 168 0
138 157 0
135 155 0
134 153 0
140 158 0
147 167 0
149 169 0
142 162 0
143 165 0
146 166 0
138 159 0
143 162 0
141 161 0
138 158 0
152 172 0
153 173 0
137 158 0
151 171 0
150 169 0
143 162 0
145 163 0
141 160 0
150 170 0
147 165 0
147 165 0
149 170 0
152 171 0
150 171 0
149 169 0
152 171 0
148 168 0
151 172 0
149 169 0
146 166 0
154 173 0
157 176 0
158 179 0
151 170 0
145 164 0
158 177 0
154 172 0
148 168 0
156 177 0
159 178 0
160 180 0
152 171 0
152 173 0
150 168 0
153 172 0
153 172 0
156 177 0
156 176 0
154 174 0
156 174 0
151 171 0
151 170 0
157 179 0
154 175 0
159 178 0
154 175 0
160 180 0
156 177 0
156 176 0
161 184 0
155 177 0
160 180 0
151 173 0
154 174 0
162 182 0
161 180 0
155 176 0
156 177 0
163 183 0
155 176 0
159 178 0
160 181 0
161 181 0
164 184 0
163 184 0
157 177 0
158 178 0
162 181 0
160 181 0
163 184 0
160 181 0
160 181 0
157 177 0
160 179 0
161 182 0
160 180 0
160 182 0
162 183 0
160 179 0
164 185 0
158 178 0
160 178 0
163 183 0
160 181 0
162 182 0
162 182 0
161 182 0
169 191 0
160 180 0
166 188 0
164 185 0
163 183 0
166 185 0
165 184 0
163 184 0
163 184 0
158 178 0
167 186 0
167 186 0
162 183 0
164 185 0
165 186 0
161 183 0
158 177 0
167 189 0
161 179 0
165 186 0
160 182 0
160 181 0
167 188 0
168 189 0
168 190 0
168 190 0
165 184 0
166 187 0
166 186 0
164 185 0
163 184 0
169 189 0
162 182 0
164 185 0
168 190 0
166 186 0
166 187 0
165 184 0
168 188 0
167 188 0
164 186 0
168 190 0
167 188 0
173 196 80
175 198 99
175 199 95
173 197 88
176 199 111
171 195 80
174 197 95
170 193 76
171 194 105
175 198 105
171 194 92
170 194 105
170 193 80
171 195 105
168 191 88
170 193 84
173 196 95
176 199 133
173 196 114
173 196 105
175 199 102
168 192 105
164 188 105
168 191 88
174 197 111
172 195 99
171 194 108
168 192 102
168 192 108
172 196 99
171 195 105
164 186 76
170 194 122
168 191 102
167 190 95
168 191 99
161 184 76
172 196 125
165 189 102
164 188 84
168 192 76
167 190 111
164 188 92
162 185 76
163 186 92
170 193 102
165 188 95
161 184 80
163 186 88
169 193 102
161 185 102
167 191 111
164 188 102
163 187 102
166 189 94
166 190 99
160 183 76
164 187 108
162 185 108
159 182 99
162 184 92
163 185 86
159 182 99
159 182 67
159 182 80
163 186 105
163 186 107
156 179 84
161 184 102
161 184 72
159 181 100
165 187 105
153 175 84
166 189 99
155 177 80
155 178 84
161 183 95
157 180 99
153 175 88
163 184 92
159 180 99
152 174 108
152 173 99
149 170 76
153 175 92
154 176 88
155 176 80
150 171 84
158 179 108
153 174 99
160 181 133
149 169 95
153 174 99
154 174 117
155 175 92
140 160 92
158 178 105
153 173 99
142 162 95
153 172 84
141 161 92
155 174 99
133 152 88
138 157 95
153 171 102
135 153 92
136 155 80
136 154 76
144 164 72
137 155 92
139 158 84
138 156 88
142 160 92
133 152 57
136 154 84
136 152 72
118 135 80
135 153 72
118 135 44
126 144 62
118 134 36
113 129 51
111 127 57
124 141 76
115 132 44
129 145 62
125 141 72
128 146 36
124 143 25
120 136 0
124 142 0
139 156 0
155 173 0
160 176 0
143 160 0
156 176 0
146 165 0
148 168 0
143 161 0
135 154 0
134 151 0
127 145 0
125 143 0
112 130 0
125 142 0
106 122 0
113 130 0
112 129 0
111 128 0
107 125 0
108 125 0
113 129 0
117 135 0
111 129 0
98 115 0
116 134 0
111 128 0
110 128 0
99 116 0
122 140 0
99 116 0
104 121 0
109 125 0
102 120 0
109 126 0
95 111 0
105 122 0
106 124 0
111 128 0
98 115 0
100 115 0
109 126 0
93 111 0
105 122 0
98 115 0
114 131 0
107 124 0
112 129 0
90 106 0
87 105 0
99 115 0
101 118 0
98 114 0
101 118 0
110 126 0
113 130 0
109 126 0
100 118 0
111 127 0
105 122 0
121 138 0
101 117 0
103 120 0
114 130 0
116 133 0
106 123 0
117 134 0
122 139 0
94 111 0
99 117 0
112 128 0
109 127 0
112 131 0
122 139 0
117 135 0
108 126 0
118 135 0
111 128 0
106 124 0
119 136 0
120 136 0
115 133 0
127 145 0
109 126 0
115 134 0
128 144 0
128 146 0
118 137 0
120 137 0
126 146 0
124 142 0
135 153 0
118 137 0
134 151 0
123 142 0
130 149 0
123 142 0
126 145 0
134 153 0
122 140 0
133 150 0
130 149 0
128 146 0
122 138 0
126 145 0
130 149 0
119 139 0
127 146 0
122 141 0
139 158 0
133 152 0
127 143 0
138 158 0
135 154 0
127 146 0
137 157 0
143 161 0
129 148 0
140 158 0
142 162 0
138 156 0
120 138 0
145 165 0
142 162 0
144 164 0
142 162 0
136 154 0
137 158 0
143 164 0
143 163 0
149 170 0
143 163 0
149 169 0
139 158 0
140 158 0
148 167 0
144 160 0
139 159 0
148 168 0
148 169 0
148 169 0
147 168 0
152 172 0
143 163 0
145 167 0
149 170 0
144 166 0
151 171 0
151 171 0
149 169 0
152 173 0
150 170 0
150 170 0
154 174 0
150 169 0
148 167 0
149 168 0
150 169 0
149 167 0
150 171 0
147 166 0
156 176 0
154 173 0
147 165 0
155 176 0
161 182 0
157 177 0
154 175 0
146 165 0
149 169 0
156 175 0
156 177 0
150 170 0
149 167 0
158 179 0
158 178 0
151 168 0
154 175 0
154 174 0
153 174 0
157 177 0
155 175 0
158 178 0
157 176 0
160 179 0
159 179 0
156 175 0
157 178 0
159 181 0
153 171 0
158 176 0
156 177 0
158 177 0
163 183 0
157 177 0
159 179 0
157 175 0
163 184 0
161 177 0
155 176 0
161 180 0
159 180 0
163 183 0
156 174 0
164 183 0
163 183 0
161 181 0
163 183 0
157 177 0
159 181 0
165 185 0
161 181 0
164 183 0
164 186 0
162 182 0
162 182 0
163 184 0
163 183 0
155 175 0
157 177 0
157 174 0
163 185 0
162 183 0
167 188 0
166 186 0
164 185 0
166 187 0
165 184 0
163 184 0
163 183 0
165 186 0
169 191 0
162 181 0
166 187 0
165 187 0
165 186 0
167 189 0
162 182 0
165 184 0
166 187 0
166 187 0
162 184 0
163 184 0
167 188 0
161 182 0
168 189 0
167 187 0
163 183 0
162 183 0
167 189 0
164 186 0
167 187 0
166 187 0
164 186 0
167 189 0
169 192 0
164 185 0
164 184 0
161 179 0
166 187 0
165 186 0
169 191 0
165 188 0
167 189 0
165 185 0
168 188 0
165 186 0
165 187 0
167 190 0
170 191 0
176 199 114
174 197 92
174 198 108
178 201 125
172 196 95
176 199 102
173 196 88
169 192 84
173 195 108
170 193 88
171 194 95
173 197 111
173 195 95
170 193 99
173 196 105
164 187 102
167 190 80
169 193 84
168 192 99
168 192 95
171 194 102
169 193 88
163 187 76
168 192 72
168 192 84
173 196 80
175 199 102
168 191 80
167 189 84
169 193 88
170 194 102
168 192 84
170 194 122
169 192 92
170 194 102
167 190 105
169 192 102
168 191 95
169 192 84
167 190 92
170 194 105
166 189 114
162 184 76
168 192 95
169 193 108
168 190 111
164 187 105
161 183 92
166 189 99
168 191 95
156 180 95
165 188 102
164 188 67
162 184 95
172 194 102
163 187 84
165 188 108
170 193 88
154 177 102
166 189 86
163 186 105
164 186 95
157 180 105
165 187 108
156 179 105
156 179 82
165 188 108
153 176 92
167 190 114
160 182 92
157 180 67
162 184 84
159 182 108
158 181 57
152 175 84
158 180 95
161 182 95
158 180 99
151 173 92
162 183 95
156 178 108
153 175 92
153 174 105
146 167 88
156 177 108
157 179 99
158 180 117
151 173 102
144 164 80
151 171 105
160 181 114
148 170 76
157 178 88
157 178 92
155 176 99
148 169 95
150 171 88
145 165 99
153 173 117
147 166 80
137 156 88
141 161 102
151 170 76
140 159 92
140 161 80
147 166 95
146 163 102
138 157 84
143 161 102
144 164 99
130 148 76
149 166 102
135 154 88
131 149 84
131 149 76
119 136 62
129 145 84
133 151 57
123 140 67
139 156 72
116 133 44
122 137 67
126 143 67
123 140 57
126 143 72
127 143 72
125 142 67
121 139 25
117 135 0
123 140 0
129 148 0
139 157 25
148 168 0
160 179 0
159 178 0
156 177 0
143 163 0
142 162 0
144 162 0
136 155 0
130 148 0
138 156 0
116 133 0
135 153 0
119 136 0
113 131 0
116 133 0
113 130 0
121 138 0
112 131 0
128 145 0
117 135 0
119 137 0
113 131 0
118 137 0
112 130 0
102 119 0
116 134 0
117 135 0
104 121 0
116 134 0
121 138 0
100 115 0
106 123 0
101 117 0
107 124 0
112 130 0
116 134 0
115 133 0
112 128 0
108 126 0
105 121 0
102 119 0
103 120 0
106 123 0
90 106 0
107 123 0
103 119 0
108 125 0
99 116 0
110 127 0
114 132 0
104 121 0
99 115 0
103 120 0
113 130 0
100 117 0
95 111 0
105 123 0
104 122 0
105 123 0
105 121 0
101 118 0
108 127 0
106 125 0
115 131 0
119 137 0
112 131 0
109 124 0
125 143 0
108 125 0
114 132 0
122 141 0
114 132 0
117 135 0
113 131 0
119 139 0
116 133 0
119 137 0
114 132 0
109 128 0
126 143 0
106 125 0
118 135 0
121 139 0
127 145 0
124 142 0
127 146 0
124 143 0
125 144 0
123 141 0
114 131 0
126 143 0
125 144 0
132 152 0
130 148 0
123 141 0
127 145 0
129 147 0
139 159 0
116 135 0
129 148 0
128 147 0
134 152 0
136 156 0
129 148 0
121 141 0
132 152 0
139 159 0
137 156 0
133 151 0
134 154 0
141 160 0
135 153 0
139 160 0
135 154 0
128 149 0
138 156 0
132 151 0
133 153 0
127 146 0
139 158 0
135 154 0
139 159 0
140 159 0
145 164 0
137 155 0
141 160 0
139 159 0
142 161 0
142 163 0
137 157 0
144 165 0
148 167 0
140 158 0
139 156 0
141 160 0
146 167 0
144 164 0
148 168 0
139 158 0
147 167 0
146 166 0
147 167 0
151 172 0
137 156 0
148 169 0
145 164 0
149 168 0
144 163 0
150 170 0
154 175 0
157 179 0
153 173 0
150 170 0
148 168 0
150 169 0
153 175 0
157 178 0
150 170 0
152 172 0
151 172 0
154 175 0
154 174 0
151 171 0
155 176 0
153 174 0
154 175 0
154 173 0
157 176 0
153 173 0
155 173 0
159 178 0
152 172 0
151 172 0
153 174 0
153 174 0
152 174 0
153 173 0
160 181 0
158 178 0
160 180 0
159 179 0
159 180 0
154 173 0
159 179 0
165 185 0
157 176 0
153 175 0
157 177 0
156 175 0
160 181 0
160 180 0
156 177 0
158 178 0
157 177 0
162 183 0
163 184 0
155 176 0
158 178 0
151 171 0
159 178 0
155 174 0
159 179 0
160 182 0
164 183 0
158 179 0
164 185 0
162 183 0
156 175 0
161 182 0
162 183 0
158 180 0
162 180 0
164 185 0
158 179 0
159 179 0
157 178 0
158 178 0
165 185 0
161 180 0
163 183 0
159 178 0
164 185 0
161 182 0
162 181 0
162 183 0
161 180 0
163 184 0
164 185 0
168 190 0
161 183 0
163 182 0
163 183 0
165 186 0
166 188 0
166 185 0
164 185 0
162 182 0
164 184 0
164 184 0
166 186 0
169 191 0
161 182 0
164 185 0
163 183 0
159 180 0
162 183 0
165 186 0
165 185 0
164 185 0
169 191 0
166 188 0
166 188 0
166 187 0
164 187 0
163 185 0
169 191 0
165 185 0
169 189 0
163 184 0
169 189 0
162 183 0
165 187 0
166 186 0
166 185 0
161 180 0
165 187 0
167 188 0
165 185 0
173 196 99
174 197 99
177 200 111
174 197 92
176 199 108
177 200 108
172 195 92
172 195 108
172 195 111
171 194 102
172 195 102
174 198 111
171 194 99
171 194 92
173 197 99
168 192 99
168 192 72
172 195 102
171 195 72
168 192 76
170 193 102
174 197 95
171 195 80
167 191 95
170 194 88
169 193 108
174 196 108
169 192 99
169 192 88
167 191 99
171 193 108
163 187 84
166 190 92
168 192 76
164 187 84
163 186 99
169 192 84
163 186 99
161 184 105
169 193 114
163 187 88
170 193 111
166 189 84
169 193 92
165 189 88
163 186 88
164 187 92
172 195 111
169 191 111
167 190 99
165 188 80
164 188 102
165 188 92
163 186 99
164 187 84
159 182 84
163 186 88
159 183 102
165 188 102
165 188 95
162 185 80
166 189 88
170 193 105
159 181 92
164 186 88
158 181 80
162 185 86
162 186 117
170 193 102
154 176 99
162 185 114
165 188 105
166 188 111
154 177 72
152 175 92
164 187 95
154 176 80
152 173 95
162 184 99
164 186 102
154 175 92
154 176 62
155 177 72
159 180 105
157 179 95
156 177 95
150 172 108
158 180 120
154 175 99
160 180 122
143 165 72
153 173 122
163 183 105
161 181 114
157 177 111
152 172 99
147 168 76
152 171 92
157 177 105
151 171 99
150 169 114
154 174 114
144 162 84
146 165 108
156 174 111
149 167 108
145 163 111
158 176 108
143 163 99
130 149 80
145 163 84
136 154 88
150 169 84
130 150 67
133 151 76
131 148 76
126 144 57
116 135 44
117 135 44
127 145 25
133 151 57
112 130 36
120 137 62
121 139 72
119 135 62
124 140 84
126 143 62
117 134 0
110 129 25
120 138 0
123 143 0
128 147 0
143 162 0
158 176 0
149 168 0
152 173 0
147 167 0
153 171 0
141 160 0
151 169 0
133 152 0
133 152 0
139 158 0
125 141 0
132 151 0
113 130 0
118 136 0
120 137 0
106 124 0
113 130 0
114 133 0
119 138 0
120 139 0
110 127 0
108 125 0
110 127 0
116 132 0
108 126 0
104 121 0
112 131 0
102 120 0
110 128 0
102 120 0
104 122 0
94 114 0
106 122 0
112 130 0
109 126 0
116 133 0
115 132 0
106 122 0
112 130 0
95 112 0
106 123 0
100 118 0
106 121 0
107 123 0
108 126 0
116 133 0
119 137 0
110 127 0
99 116 0
112 129 0
105 122 0
105 122 0
95 111 0
108 126 0
108 125 0
117 134 0
112 129 0
111 129 0
109 127 0
121 138 0
101 119 0
114 133 0
111 129 0
99 117 0
117 134 0
107 124 0
112 131 0
105 122 0
111 129 0
109 126 0
113 131 0
111 129 0
122 140 0
114 133 0
128 148 0
110 129 0
115 132 0
118 135 0
123 140 0
126 144 0
121 138 0
117 136 0
133 152 0
113 132 0
119 138 0
121 139 0
130 148 0
130 149 0
123 142 0
126 145 0
130 150 0
138 157 0
134 154 0
119 138 0
132 151 0
133 153 0
128 148 0
141 161 0
132 151 0
127 145 0
122 142 0
133 151 0
128 149 0
133 153 0
133 150 0
132 152 0
126 146 0
132 152 0
144 162 0
133 155 0
132 151 0
146 165 0
142 163 0
133 151 0
141 161 0
137 157 0
130 149 0
136 155 0
133 154 0
146 166 0
138 158 0
140 160 0
145 163 0
144 164 0
143 162 0
151 170 0
145 164 0
146 165 0
145 166 0
142 163 0
147 166 0
147 166 0
140 158 0
138 156 0
139 159 0
149 168 0
148 168 0
143 165 0
142 161 0
152 172 0
148 168 0
149 168 0
153 172 0
147 167 0
153 175 0
152 174 0
154 174 0
150 169 0
153 173 0
155 174 0
148 169 0
154 174 0
153 173 0
148 167 0
150 171 0
150 171 0
147 167 0
155 174 0
151 171 0
152 172 0
158 178 0
152 173 0
151 172 0
145 164 0
151 170 0
153 173 0
156 177 0
149 170 0
152 173 0
159 179 0
154 176 0
152 172 0
155 176 0
158 179 0
160 180 0
157 179 0
154 174 0
157 178 0
158 177 0
156 176 0
161 182 0
152 172 0
162 184 0
158 177 0
156 174 0
159 180 0
160 180 0
155 173 0
164 186 0
155 174 0
155 176 0
151 170 0
155 175 0
157 178 0
159 180 0
162 184 0
160 182 0
160 181 0
158 176 0
159 179 0
157 179 0
157 179 0
161 182 0
163 182 0
160 182 0
163 182 0
160 180 0
164 185 0
154 175 0
160 178 0
162 182 0
163 183 0
166 187 0
160 181 0
161 180 0
158 178 0
160 179 0
164 185 0
157 177 0
158 178 0
162 183 0
161 180 0
158 178 0
162 184 0
164 185 0
162 182 0
164 185 0
162 182 0
158 178 0
163 184 0
164 185 0
164 184 0
166 186 0
156 179 0
164 185 0
167 189 0
161 182 0
165 187 0
164 186 0
167 190 0
163 185 0
164 184 0
162 183 0
169 188 0
161 181 0
161 180 0
167 187 0
164 185 0
165 186 0
164 184 0
163 185 0
165 186 0
165 187 0
166 187 0
170 192 0
166 188 0
164 184 0
165 186 0
168 188 0
167 188 0
164 185 0
165 186 0
165 187 0
169 190 0
170 192 0
170 190 0
164 184 0
175 198 95
171 195 99
174 197 95
178 201 108
172 195 76
173 196 114
167 190 76
169 192 80
169 193 80
171 194 105
172 195 102
168 191 84
179 202 125
169 192 102
173 196 95
168 192 99
170 194 99
169 193 92
166 189 92
174 197 108
172 195 114
172 195 92
173 197 108
172 195 99
170 194 102
168 191 92
168 191 84
168 191 95
166 190 88
167 190 102
168 193 95
168 191 95
170 195 111
168 191 88
171 194 102
165 189 80
169 191 88
167 191 120
167 190 88
162 185 67
164 187 92
164 187 102
166 190 114
169 194 114
168 191 84
164 187 80
157 181 102
164 188 108
161 185 88
165 188 99
164 187 99
164 188 108
160 184 88
162 186 92
159 182 76
168 191 108
165 188 84
166 188 102
161 184 88
161 184 95
160 184 80
159 182 76
159 182 92
167 190 80
159 183 95
158 181 76
167 190 110
160 183 99
161 183 88
157 179 76
158 180 84
166 189 88
159 182 88
167 190 122
153 176 76
162 184 102
161 183 99
157 178 99
151 173 84
160 182 92
152 173 108
163 184 114
154 176 80
161 183 95
156 177 117
161 183 111
156 178 102
157 178 105
159 179 111
157 177 105
153 174 99
151 172 108
156 177 99
154 174 92
151 171 99
145 165 102
143 162 80
147 167 88
148 168 62
146 165 95
150 171 102
150 170 92
148 168 95
153 172 114
142 161 99
151 170 108
160 179 102
149 167 105
137 156 57
136 155 67
146 164 95
142 160 88
149 167 99
147 166 95
130 147 67
131 148 72
123 142 62
126 143 51
124 143 57
126 143 67
134 152 57
133 150 51
139 157 72
130 149 44
129 146 67
110 127 36
120 138 25
129 148 0
124 143 0
126 144 0
137 157 0
131 150 0
147 167 25
156 177 0
157 176 0
151 172 0
154 173 0
147 167 0
151 169 0
136 158 0
142 162 0
139 158 0
126 144 0
130 149 0
125 144 0
123 139 0
119 136 0
121 139 0
111 129 0
122 139 0
128 146 0
117 135 0
114 132 0
126 145 0
119 138 0
119 137 0
113 131 0
110 128 0
101 119 0
110 128 0
107 125 0
109 126 0
116 133 0
113 131 0
115 133 0
119 136 0
93 110 0
108 126 0
114 131 0
111 127 0
102 119 0
106 124 0
111 128 0
107 123 0
95 112 0
106 123 0
113 130 0
120 138 0
100 117 0
107 125 0
120 137 0
108 127 0
107 124 0
109 126 0
114 132 0
108 127 0
105 122 0
112 129 0
109 127 0
90 108 0
105 121 0
111 128 0
109 126 0
111 129 0
115 133 0
126 144 0
102 120 0
110 127 0
112 131 0
115 134 0
120 139 0
108 127 0
118 136 0
124 143 0
111 129 0
117 136 0
123 142 0
133 152 0
121 140 0
110 130 0
127 146 0
125 144 0
126 143 0
135 155 0
127 145 0
121 141 0
117 133 0
124 142 0
127 146 0
117 136 0
126 145 0
129 147 0
120 138 0
122 140 0
136 155 0
134 152 0
129 149 0
111 130 0
130 149 0
132 150 0
134 153 0
126 144 0
132 152 0
138 158 0
133 153 0
131 149 0
128 146 0
135 154 0
146 164 0
131 151 0
133 153 0
136 156 0
137 157 0
131 151 0
136 154 0
139 157 0
136 156 0
139 159 0
137 155 0
134 154 0
135 154 0
144 163 0
142 162 0
132 151 0
135 155 0
139 160 0
145 165 0
150 170 0
143 162 0
146 166 0
149 169 0
151 172 0
140 159 0
153 173 0
144 166 0
143 163 0
148 168 0
156 176 0
143 163 0
149 167 0
146 167 0
150 169 0
145 165 0
153 174 0
147 165 0
154 175 0
151 171 0
149 169 0
149 169 0
152 170 0
151 172 0
153 173 0
151 171 0
149 169 0
152 172 0
153 174 0
146 165 0
155 174 0
154 175 0
147 168 0
153 173 0
152 174 0
158 179 0
146 166 0
144 163 0
156 177 0
156 178 0
147 167 0
151 171 0
153 173 0
151 173 0
154 173 0
158 178 0
151 172 0
157 178 0
155 173 0
157 178 0
161 182 0
156 177 0
153 174 0
158 179 0
159 178 0
158 178 0
158 178 0
151 171 0
153 174 0
153 174 0
155 174 0
160 178 0
155 175 0
159 179 0
162 184 0
158 179 0
160 180 0
159 182 0
162 181 0
154 175 0
159 177 0
150 170 0
164 185 0
157 175 0
159 178 0
163 183 0
157 176 0
160 180 0
156 176 0
161 183 0
163 184 0
158 178 0
160 181 0
163 184 0
157 176 0
156 176 0
163 182 0
156 176 0
164 185 0
159 179 0
161 183 0
163 184 0
164 186 0
159 179 0
163 182 0
160 181 0
164 184 0
165 186 0
164 185 0
163 185 0
162 182 0
160 181 0
162 182 0
159 181 0
162 183 0
160 181 0
163 183 0
163 183 0
168 189 0
162 183 0
163 183 0
161 181 0
164 185 0
168 190 0
165 185 0
163 185 0
164 184 0
163 183 0
163 185 0
165 185 0
162 182 0
165 186 0
166 185 0
161 181 0
162 183 0
170 192 0
167 187 0
163 183 0
166 187 0
165 188 0
161 182 0
162 183 0
167 187 0
167 189 0
166 187 0
168 189 0
167 187 0
166 187 0
166 188 0
169 189 0
169 190 0
169 190 0
167 188 0
176 199 108
177 199 105
171 194 102
173 195 76
173 196 99
166 189 80
174 197 92
173 197 111
176 199 125
166 190 88
172 195 102
172 195 102
172 195 95
170 193 105
168 192 88
168 192 102
170 193 92
171 195 105
166 190 99
172 196 105
173 197 111
169 192 92
166 190 80
164 188 76
168 191 95
175 198 92
171 195 122
167 190 105
166 189 99
163 187 92
168 192 108
170 194 108
164 188 99
164 188 108
163 187 76
164 187 84
162 186 84
167 191 111
164 188 84
168 192 120
163 186 92
169 192 105
165 188 92
168 191 120
165 189 95
165 188 88
165 186 88
161 184 84
165 188 102
159 182 72
162 185 102
164 188 102
162 185 105
160 183 84
160 183 99
164 188 92
162 185 84
156 179 99
166 189 111
166 189 95
159 181 88
160 183 95
163 186 84
160 183 99
160 182 84
162 185 105
161 183 92
159 181 84
156 180 111
161 183 95
161 183 102
147 169 80
159 182 105
157 179 105
161 183 92
159 183 111
165 187 122
163 186 111
161 182 114
161 184 84
162 183 92
155 177 95
160 182 95
157 179 88
166 188 95
160 180 111
155 177 76
156 176 99
153 175 84
163 184 114
153 173 111
149 170 84
155 176 99
161 180 99
158 179 114
143 164 84
153 173 108
157 177 92
150 170 92
154 173 120
158 177 120
157 176 111
150 169 84
145 164 76
142 161 105
138 157 84
151 170 92
148 166 111
149 167 99
141 159 67
139 158 67
145 163 99
137 155 80
139 157 92
139 159 62
137 156 67
141 160 62
131 150 62
129 147 67
134 152 67
136 154 88
128 146 36
124 141 51
120 139 51
129 147 57
123 139 57
123 141 25
121 140 0
133 152 36
126 145 25
132 151 25
133 153 0
156 178 0
164 184 0
157 176 0
151 170 0
149 169 0
141 160 0
144 164 0
131 151 0
132 153 0
142 163 0
139 159 0
129 148 0
120 137 0
117 135 0
115 134 0
114 132 0
109 127 0
125 142 0
118 137 0
112 129 0
117 134 0
122 142 0
109 128 0
108 126 0
125 143 0
113 132 0
129 147 0
115 134 0
117 135 0
112 131 0
99 116 0
93 112 0
113 130 0
106 125 0
121 140 0
118 135 0
106 123 0
111 129 0
115 132 0
98 117 0
112 130 0
117 136 0
122 140 0
106 124 0
103 121 0
111 130 0
103 120 0
122 140 0
119 137 0
116 135 0
125 143 0
120 137 0
122 141 0
127 145 0
119 137 0
99 115 0
117 135 0
114 132 0
120 138 0
122 139 0
119 136 0
113 130 0
116 134 0
116 135 0
120 139 0
116 134 0
117 135 0
132 150 0
112 131 0
129 147 0
108 127 0
114 132 0
123 140 0
129 148 0
115 132 0
119 139 0
116 136 0
124 143 0
123 141 0
127 144 0
111 128 0
109 129 0
117 136 0
128 145 0
125 143 0
125 144 0
129 147 0
128 146 0
135 155 0
123 141 0
122 143 0
127 145 0
140 160 0
121 141 0
138 156 0
133 152 0
133 151 0
126 146 0
129 148 0
136 155 0
129 148 0
134 152 0
132 153 0
138 158 0
132 150 0
140 159 0
127 146 0
125 144 0
139 158 0
136 155 0
130 150 0
140 161 0
139 157 0
133 154 0
130 150 0
140 161 0
144 164 0
135 154 0
148 169 0
146 165 0
149 168 0
143 164 0
144 166 0
137 156 0
131 147 0
141 161 0
150 171 0
144 163 0
150 172 0
146 165 0
148 168 0
145 165 0
141 161 0
142 163 0
150 169 0
149 167 0
146 165 0
143 163 0
140 159 0
140 161 0
145 167 0
151 172 0
153 174 0
150 170 0
148 168 0
151 171 0
152 172 0
146 166 0
151 173 0
149 170 0
152 172 0
144 163 0
150 170 0
156 175 0
151 172 0
149 167 0
152 171 0
150 172 0
149 169 0
153 174 0
154 176 0
156 178 0
157 177 0
156 177 0
152 171 0
146 166 0
155 173 0
146 164 0
157 177 0
154 174 0
156 176 0
151 168 0
154 174 0
153 175 0
155 176 0
153 174 0
149 169 0
155 176 0
155 175 0
156 175 0
157 178 0
161 181 0
156 176 0
159 180 0
155 175 0
156 177 0
159 180 0
159 179 0
154 176 0
157 177 0
158 179 0
156 176 0
162 183 0
160 179 0
154 174 0
150 169 0
156 176 0
156 177 0
160 180 0
162 182 0
151 172 0
157 179 0
157 177 0
162 183 0
166 189 0
161 183 0
159 181 0
160 182 0
162 183 0
167 186 0
164 185 0
163 183 0
165 184 0
163 183 0
161 183 0
164 185 0
164 185 0
163 184 0
159 180 0
161 183 0
159 180 0
161 181 0
163 185 0
166 187 0
159 180 0
164 185 0
163 183 0
164 185 0
161 182 0
161 182 0
156 177 0
164 185 0
159 180 0
166 185 0
161 181 0
162 183 0
165 185 0
167 188 0
163 184 0
166 187 0
164 185 0
165 186 0
162 184 0
164 185 0
167 190 0
164 185 0
165 186 0
165 186 0
166 188 0
167 188 0
160 181 0
166 188 0
165 186 0
163 184 0
159 179 0
168 189 0
169 192 0
166 187 0
165 186 0
165 187 0
168 190 0
169 191 0
168 189 0
166 189 0
165 187 0
166 188 0
163 184 0
166 188 0
173 195 88
173 196 120
172 195 105
174 197 88
169 192 95
172 194 99
171 195 80
171 193 88
169 193 84
171 194 92
175 198 95
167 191 76
174 199 95
172 196 122
172 196 105
174 197 117
173 196 95
173 197 114
168 190 76
173 197 105
168 192 92
170 193 99
170 193 99
170 193 95
170 193 111
167 191 95
167 191 84
164 187 88
166 189 114
165 189 95
169 192 95
164 188 95
166 190 92
170 194 99
171 195 92
171 194 95
167 190 88
164 187 95
166 189 99
166 189 95
165 189 99
159 182 88
163 186 80
162 185 99
164 187 76
160 183 92
167 190 80
163 186 76
166 189 84
167 190 88
164 188 95
169 193 114
162 186 92
169 191 80
161 185 102
160 183 76
166 188 117
162 185 108
161 184 92
165 187 84
167 190 102
161 184 76
162 185 105
155 179 99
157 180 102
162 184 80
159 182 108
162 184 111
165 188 99
160 183 92
155 177 72
157 179 111
160 182 95
169 192 105
159 181 105
155 178 95
155 176 92
163 184 108
156 178 88
166 188 122
162 184 108
160 182 92
159 181 84
154 176 92
158 179 99
155 176 84
164 186 105
161 182 125
153 174 92
155 175 92
145 167 72
152 172 95
154 175 102
150 170 105
147 166 108
158 179 99
148 168 80
152 172 99
153 173 95
148 167 99
151 170 99
153 173 108
152 172 76
145 164 99
155 175 92
150 169 125
147 166 92
147 166 111
154 170 125
148 167 80
137 156 80
151 171 76
142 160 84
140 159 84
139 158 72
140 159 57
135 154 72
131 151 51
128 146 51
131 150 57
136 154 44
132 149 62
132 150 67
129 148 25
124 142 51
126 143 36
122 141 25
121 140 0
128 147 0
127 145 0
143 164 25
134 153 0
148 168 25
157 175 0
160 179 0
153 174 0
153 174 0
146 166 0
135 155 0
139 156 0
141 160 0
132 151 0
128 147 0
127 146 0
128 148 0
126 145 0
127 145 0
113 130 0
110 127 0
115 134 0
121 139 0
126 145 0
115 133 0
134 153 0
119 138 0
123 142 0
115 133 0
102 119 0
117 135 0
113 133 0
119 137 0
104 122 0
109 127 0
106 124 0
115 134 0
116 135 0
110 128 0
119 137 0
115 133 0
114 132 0
125 143 0
120 137 0
108 126 0
109 127 0
116 134 0
117 134 0
106 124 0
102 120 0
126 142 0
111 129 0
115 134 0
121 140 0
119 137 0
111 128 0
110 127 0
125 144 0
114 132 0
117 134 0
122 141 0
116 134 0
110 129 0
123 142 0
122 142 0
114 131 0
117 136 0
119 137 0
119 137 0
116 134 0
119 136 0
118 135 0
125 145 0
137 154 0
122 141 0
119 137 0
124 142 0
122 141 0
118 136 0
128 148 0
128 147 0
129 148 0
107 126 0
124 143 0
119 138 0
123 141 0
126 146 0
136 154 0
126 145 0
126 146 0
125 145 0
123 143 0
121 139 0
130 150 0
128 147 0
122 143 0
123 143 0
128 147 0
128 148 0
127 145 0
138 159 0
137 156 0
128 147 0
121 140 0
125 143 0
122 140 0
143 162 0
135 154 0
128 148 0
133 152 0
140 161 0
147 167 0
140 160 0
139 159 0
136 154 0
141 160 0
137 155 0
138 157 0
133 152 0
146 167 0
142 161 0
138 158 0
146 167 0
145 166 0
136 155 0
136 157 0
145 166 0
135 154 0
139 159 0
150 172 0
146 167 0
147 168 0
142 159 0
148 169 0
148 169 0
142 162 0
143 163 0
146 166 0
151 171 0
145 165 0
148 169 0
149 169 0
153 172 0
144 163 0
147 167 0
148 166 0
142 161 0
149 169 0
146 166 0
146 166 0
143 162 0
151 168 0
150 171 0
147 167 0
154 176 0
152 175 0
151 173 0
150 170 0
149 168 0
154 174 0
153 174 0
149 170 0
157 176 0
154 175 0
155 176 0
155 177 0
158 179 0
156 177 0
152 172 0
156 178 0
155 175 0
153 174 0
151 172 0
157 178 0
156 177 0
154 175 0
156 178 0
158 177 0
158 180 0
160 179 0
153 173 0
153 174 0
161 181 0
159 179 0
156 178 0
153 172 0
166 187 0
162 183 0
154 175 0
155 175 0
157 178 0
158 177 0
154 174 0
157 176 0
158 178 0
158 177 0
160 181 0
157 175 0
163 186 0
161 183 0
160 180 0
158 179 0
161 181 0
160 181 0
165 185 0
158 177 0
168 189 0
160 180 0
159 179 0
158 179 0
161 182 0
160 181 0
158 178 0
156 175 0
157 178 0
163 183 0
160 180 0
167 190 0
162 182 0
158 179 0
162 184 0
163 184 0
163 185 0
162 184 0
161 181 0
160 181 0
162 181 0
160 181 0
162 182 0
165 186 0
166 186 0
163 185 0
165 187 0
165 186 0
164 184 0
166 187 0
165 186 0
165 186 0
168 190 0
168 189 0
162 182 0
167 188 0
161 182 0
168 188 0
162 182 0
163 183 0
161 182 0
161 183 0
163 184 0
163 185 0
163 184 0
167 188 0
159 179 0
161 181 0
162 182 0
165 187 0
166 186 0
165 184 0
164 185 0
165 188 0
166 188 0
168 188 0
167 188 0
167 190 0
164 186 0
166 189 0
166 188 0
167 188 0
162 183 0
168 190 0
168 190 0
170 192 0
171 194 88
172 195 105
170 194 84
175 198 120
174 197 105
174 197 95
171 195 51
175 198 108
169 192 88
169 193 92
170 194 92
176 200 108
170 193 84
173 196 102
168 192 92
168 190 84
165 189 99
175 199 111
171 194 88
171 194 95
171 194 102
173 197 105
171 195 99
169 193 72
169 192 99
167 191 92
164 188 88
170 194 108
166 190 95
172 196 105
173 197 114
171 194 84
170 193 95
169 192 102
159 182 92
162 185 80
166 189 95
168 191 111
171 194 105
163 187 95
164 187 80
172 195 105
168 191 108
167 190 92
162 185 108
161 184 72
159 182 95
167 190 114
166 190 99
165 188 92
166 189 99
164 188 80
161 184 84
167 190 102
166 189 105
164 187 76
161 184 99
164 188 99
162 185 80
165 187 84
159 183 88
155 178 99
159 182 102
160 183 88
155 178 76
159 181 95
165 187 95
164 187 102
161 184 80
160 183 108
167 190 99
164 185 95
165 188 102
169 192 114
156 178 88
168 189 114
154 176 92
149 171 88
152 173 92
159 181 114
161 183 108
159 180 108
157 179 111
165 186 95
153 174 102
157 178 95
163 185 108
158 178 105
158 179 95
165 186 111
164 186 105
152 172 105
157 179 92
156 177 108
152 173 92
158 179 92
155 175 105
152 172 102
159 180 102
148 167 102
145 164 88
151 170 102
157 176 108
156 175 108
148 168 92
154 173 99
150 169 99
157 176 117
161 179 114
137 156 80
153 172 88
131 149 72
136 154 99
138 156 88
134 154 51
140 160 62
130 148 72
128 147 62
128 148 44
142 161 67
133 153 51
134 152 62
121 139 57
128 145 67
131 150 25
131 149 25
134 154 0
121 139 0
130 149 36
135 155 25
142 162 36
130 151 0
144 164 0
157 178 0
155 177 0
153 174 0
145 165 0
149 169 0
149 171 0
144 163 0
136 157 0
137 155 0
142 160 0
129 149 0
131 151 0
119 137 0
123 142 0
115 133 0
112 131 0
116 135 0
124 143 0
127 146 0
128 147 0
132 152 0
119 138 0
119 138 0
116 135 0
127 146 0
117 134 0
118 137 0
112 131 0
121 140 0
113 131 0
120 138 0
121 138 0
126 146 0
117 135 0
116 135 0
123 142 0
110 129 0
111 129 0
116 134 0
119 135 0
109 126 0
113 130 0
111 129 0
114 131 0
113 130 0
106 124 0
119 137 0
116 134 0
119 137 0
115 133 0
129 148 0
117 136 0
118 136 0
117 135 0
120 139 0
114 133 0
118 136 0
106 124 0
124 141 0
122 140 0
114 132 0
128 147 0
119 138 0
125 143 0
119 139 0
119 136 0
124 142 0
124 144 0
118 135 0
128 148 0
115 133 0
116 134 0
115 134 0
124 143 0
125 145 0
129 147 0
126 146 0
123 140 0
128 147 0
119 138 0
127 147 0
128 147 0
134 151 0
126 145 0
129 148 0
125 144 0
130 148 0
128 149 0
134 152 0
134 154 0
136 153 0
131 150 0
130 149 0
130 149 0
133 152 0
141 161 0
132 152 0
129 149 0
137 156 0
136 157 0
127 147 0
134 154 0
134 153 0
133 152 0
135 155 0
143 163 0
126 145 0
142 163 0
138 158 0
141 161 0
141 160 0
135 155 0
135 156 0
140 158 0
145 166 0
133 154 0
144 166 0
137 158 0
149 169 0
150 170 0
135 154 0
138 160 0
140 161 0
143 164 0
142 161 0
146 168 0
137 157 0
142 159 0
145 166 0
148 168 0
145 165 0
150 170 0
151 171 0
150 169 0
147 168 0
144 165 0
146 166 0
146 167 0
147 167 0
152 174 0
158 179 0
147 166 0
137 157 0
150 168 0
150 171 0
156 176 0
149 169 0
147 168 0
142 161 0
158 178 0
149 170 0
154 175 0
151 171 0
155 175 0
142 161 0
149 170 0
153 173 0
151 170 0
155 176 0
153 173 0
153 174 0
156 177 0
156 176 0
156 176 0
152 171 0
157 178 0
150 171 0
154 175 0
153 174 0
147 167 0
154 176 0
155 176 0
155 176 0
158 177 0
159 180 0
154 174 0
155 177 0
151 173 0
159 178 0
155 175 0
165 185 0
156 178 0
161 182 0
151 171 0
156 177 0
158 178 0
157 177 0
157 177 0
160 178 0
158 178 0
154 173 0
157 177 0
156 174 0
157 177 0
161 182 0
152 172 0
162 183 0
162 182 0
156 175 0
156 176 0
161 180 0
156 174 0
164 185 0
158 177 0
162 183 0
162 185 0
162 183 0
162 183 0
163 184 0
161 181 0
164 185 0
161 182 0
162 182 0
157 177 0
161 182 0
163 183 0
160 181 0
166 187 0
161 182 0
161 183 0
159 180 0
157 178 0
161 180 0
159 179 0
159 180 0
162 183 0
164 184 0
161 183 0
164 184 0
167 188 0
167 188 0
166 188 0
163 185 0
165 186 0
165 185 0
161 182 0
166 186 0
164 185 0
160 180 0
166 188 0
164 185 0
163 183 0
163 185 0
165 187 0
170 191 0
167 189 0
163 184 0
167 188 0
166 187 0
167 187 0
168 190 0
165 186 0
166 187 0
164 185 0
166 186 0
164 186 0
162 184 0
170 193 0
164 184 0
162 183 0
170 191 0
164 185 0
169 192 0
163 184 0
164 186 0
167 188 0
171 192 0
173 197 114
174 198 102
168 192 102
173 196 99
172 195 108
170 194 88
174 196 84
173 196 99
168 191 88
170 194 92
174 197 102
170 193 99
172 195 108
169 193 80
171 194 88
170 193 99
171 193 108
166 189 92
170 194 92
169 192 92
165 188 105
172 195 108
171 195 120
166 191 95
170 192 95
175 198 95
168 191 95
168 191 114
172 196 102
172 195 95
171 195 114
169 192 108
165 188 72
161 185 95
160 184 76
164 188 88
170 193 88
164 187 62
163 187 92
161 184 88
159 182 80
162 185 88
170 193 92
165 188 99
166 190 92
164 188 105
162 186 88
163 186 125
165 188 88
167 191 92
160 183 88
163 186 105
166 189 72
162 186 102
159 181 84
170 193 102
162 185 92
166 190 111
161 184 95
163 186 108
167 191 88
168 190 108
159 181 99
163 185 99
164 187 84
164 187 122
163 185 111
163 185 88
151 174 84
163 186 95
162 186 105
156 178 92
167 189 120
164 186 67
163 185 102
161 184 108
162 183 92
155 178 76
157 179 111
160 182 99
159 180 84
161 184 102
163 184 108
160 182 99
160 181 99
159 180 108
156 177 92
162 183 108
159 180 99
163 184 88
151 172 88
158 179 114
163 184 117
155 175 95
151 171 102
149 170 102
156 176 105
156 176 111
154 174 95
145 165 84
155 173 117
156 176 99
148 168 95
147 167 72
140 159 92
147 167 88
150 170 92
145 165 92
149 168 108
137 156 84
138 156 99
139 158 88
131 150 67
132 152 72
147 167 80
145 165 44
134 154 25
129 149 67
129 149 36
134 153 67
136 156 44
132 151 57
141 161 36
125 145 0
138 157 67
122 142 0
127 147 0
128 149 0
139 159 25
140 159 25
141 161 0
142 162 36
152 173 0
150 170 0
154 174 0
157 177 0
143 165 0
151 173 0
147 168 0
138 157 0
141 160 0
133 155 0
127 147 0
131 150 0
132 152 0
136 155 0
125 144 0
116 136 0
142 160 0
113 132 0
123 141 0
121 139 0
132 151 0
124 143 0
128 146 0
136 155 0
118 136 0
118 137 0
111 130 0
121 140 0
123 143 0
128 146 0
117 138 0
115 133 0
129 148 0
110 129 0
111 130 0
114 133 0
119 138 0
118 137 0
114 133 0
116 133 0
120 138 0
117 136 0
120 138 0
111 128 0
122 140 0
122 141 0
123 142 0
120 139 0
114 134 0
125 142 0
116 135 0
104 123 0
111 130 0
118 137 0
125 144 0
121 140 0
119 138 0
129 147 0
125 144 0
110 128 0
111 130 0
118 137 0
121 139 0
117 136 0
113 132 0
124 143 0
121 139 0
120 137 0
118 137 0
118 137 0
120 138 0
116 133 0
125 143 0
120 138 0
122 141 0
126 143 0
110 129 0
133 153 0
129 148 0
118 137 0
133 151 0
136 157 0
136 156 0
127 144 0
131 151 0
123 144 0
129 147 0
133 152 0
130 148 0
131 152 0
121 140 0
127 147 0
135 155 0
139 157 0
140 159 0
136 154 0
124 145 0
126 144 0
131 148 0
134 154 0
131 149 0
121 141 0
137 159 0
137 157 0
132 152 0
136 157 0
136 155 0
135 155 0
133 152 0
139 158 0
135 155 0
135 156 0
136 155 0
142 162 0
141 160 0
129 149 0
138 158 0
142 163 0
138 158 0
139 159 0
139 159 0
153 173 0
153 172 0
139 159 0
148 169 0
139 158 0
143 164 0
143 163 0
146 164 0
140 160 0
147 167 0
152 172 0
145 164 0
140 160 0
143 163 0
149 170 0
147 168 0
146 167 0
142 161 0
151 171 0
143 164 0
150 172 0
149 170 0
149 170 0
146 166 0
148 167 0
148 168 0
149 167 0
151 170 0
153 175 0
148 169 0
140 159 0
151 172 0
154 172 0
155 175 0
157 177 0
157 178 0
151 171 0
156 177 0
147 165 0
147 167 0
154 175 0
160 182 0
155 175 0
156 177 0
158 180 0
158 178 0
151 171 0
149 171 0
155 175 0
156 177 0
159 179 0
152 172 0
155 175 0
157 177 0
154 176 0
162 183 0
151 170 0
147 167 0
152 172 0
156 176 0
152 172 0
164 184 0
155 176 0
148 169 0
152 171 0
158 180 0
160 181 0
156 177 0
160 179 0
159 180 0
163 186 0
156 176 0
157 177 0
158 177 0
162 181 0
158 178 0
157 177 0
154 173 0
157 179 0
163 184 0
160 180 0
168 189 0
162 183 0
159 179 0
163 185 0
154 175 0
157 179 0
159 179 0
159 181 0
163 184 0
160 181 0
160 181 0
161 180 0
160 180 0
161 180 0
163 183 0
162 182 0
162 182 0
163 185 0
166 187 0
165 186 0
157 178 0
164 185 0
164 185 0
159 180 0
164 185 0
163 185 0
164 183 0
165 189 0
167 188 0
164 185 0
163 183 0
164 185 0
163 183 0
167 189 0
165 187 0
168 191 0
159 179 0
163 183 0
162 182 0
166 188 0
167 188 0
167 189 0
167 189 0
165 186 0
168 191 0
168 189 0
170 191 0
164 185 0
166 188 0
162 184 0
167 188 0
165 184 0
170 192 0
164 184 0
167 188 0
167 189 0
166 187 0
165 186 0
165 187 0
169 190 0
166 188 0
162 183 0
167 189 0
168 191 0
163 185 0
166 187 0
172 196 76
170 193 99
171 195 105
174 197 92
169 192 92
168 192 88
172 195 92
177 200 108
173 197 99
171 194 76
170 193 76
176 199 120
173 196 111
171 195 95
175 198 102
168 192 72
172 195 95
164 187 92
165 188 95
172 195 102
171 195 111
164 188 72
168 191 102
173 196 99
169 192 111
167 191 76
172 195 108
163 187 95
168 192 105
166 190 105
164 187 80
169 192 88
165 188 99
171 196 128
169 191 95
171 195 92
170 193 108
163 186 88
161 184 76
167 190 117
164 186 72
171 193 95
171 195 128
167 192 105
163 186 95
163 186 84
171 195 102
166 189 99
170 194 99
164 187 95
162 185 88
161 183 80
162 185 72
166 189 108
168 191 105
166 188 105
165 188 76
168 191 133
163 186 92
158 181 84
159 182 72
162 185 102
165 187 88
154 176 67
164 187 102
166 188 67
158 181 102
161 183 102
158 180 105
159 181 111
160 183 84
158 180 95
169 192 117
156 178 111
165 187 88
156 177 84
164 187 92
160 182 95
160 182 95
164 186 122
157 179 76
161 183 92
159 181 99
152 173 80
157 179 72
158 179 111
151 173 76
161 183 111
166 186 111
146 167 88
166 187 92
152 173 92
151 172 92
157 177 92
161 181 111
154 175 92
152 172 111
150 171 80
155 175 108
151 171 99
156 176 92
147 168 67
152 172 108
143 162 99
137 156 88
150 169 99
140 160 80
142 162 80
143 163 72
149 167 102
145 164 92
143 163 80
146 165 84
141 160 67
149 169 95
137 157 51
137 156 57
144 164 62
132 151 57
134 153 36
141 159 72
143 162 62
127 145 44
130 150 51
140 160 25
122 140 25
138 158 36
135 156 36
139 159 0
142 162 36
140 160 0
134 155 25
148 169 0
154 175 0
158 180 0
152 173 0
141 161 0
155 176 0
144 165 0
148 169 0
140 160 0
139 159 0
143 163 0
131 150 0
133 153 0
124 143 0
122 141 0
124 143 0
129 148 0
123 142 0
128 147 0
126 145 0
125 145 0
126 147 0
131 151 0
111 130 0
125 146 0
121 140 0
129 148 0
130 149 0
116 135 0
126 145 0
109 127 0
120 138 0
108 126 0
124 144 0
127 147 0
127 146 0
121 139 0
116 134 0
122 141 0
118 137 0
125 144 0
108 126 0
111 130 0
129 147 0
123 141 0
115 134 0
120 139 0
118 136 0
127 146 0
107 126 0
110 128 0
118 136 0
122 142 0
105 124 0
120 140 0
113 131 0
118 137 0
110 129 0
119 138 0
123 143 0
128 147 0
122 142 0
116 134 0
114 133 0
119 139 0
121 140 0
118 137 0
116 134 0
121 140 0
123 141 0
123 142 0
113 133 0
117 138 0
127 148 0
133 153 0
130 147 0
126 144 0
122 140 0
122 142 0
121 139 0
133 153 0
129 149 0
131 151 0
134 154 0
124 143 0
131 152 0
130 148 0
137 157 0
135 153 0
131 152 0
138 157 0
133 153 0
135 155 0
131 149 0
132 152 0
133 153 0
124 143 0
136 155 0
137 158 0
131 151 0
133 153 0
128 149 0
138 158 0
131 151 0
127 147 0
137 157 0
143 164 0
136 157 0
135 154 0
141 162 0
129 149 0
141 161 0
137 157 0
147 168 0
146 166 0
138 157 0
146 168 0
140 159 0
140 159 0
142 162 0
141 161 0
142 162 0
141 162 0
141 162 0
134 154 0
145 166 0
148 169 0
139 159 0
147 167 0
154 174 0
149 168 0
143 162 0
144 165 0
149 169 0
153 174 0
144 164 0
142 162 0
151 172 0
148 169 0
148 168 0
148 169 0
150 171 0
154 174 0
152 172 0
143 164 0
150 171 0
146 165 0
146 167 0
157 178 0
146 166 0
150 171 0
152 172 0
153 173 0
156 178 0
152 173 0
151 171 0
155 176 0
149 170 0
151 172 0
152 174 0
146 166 0
149 169 0
153 174 0
150 171 0
158 179 0
154 174 0
155 176 0
148 167 0
148 168 0
158 181 0
146 166 0
160 184 0
155 174 0
155 175 0
161 182 0
155 177 0
163 185 0
159 180 0
149 170 0
158 179 0
155 176 0
155 177 0
152 172 0
155 176 0
161 181 0
157 177 0
158 177 0
161 183 0
162 183 0
154 175 0
162 183 0
164 185 0
166 186 0
160 181 0
157 178 0
161 183 0
162 184 0
160 179 0
161 182 0
163 183 0
154 174 0
164 187 0
160 181 0
162 184 0
162 184 0
162 182 0
163 184 0
165 187 0
161 182 0
161 181 0
165 184 0
166 187 0
155 176 0
162 183 0
163 185 0
163 185 0
165 187 0
164 187 0
164 186 0
161 182 0
160 182 0
160 181 0
161 182 0
167 189 0
158 179 0
155 176 0
165 186 0
168 189 0
161 181 0
160 180 0
167 188 0
162 182 0
164 187 0
166 189 0
168 189 0
165 185 0
163 184 0
164 186 0
164 186 0
164 184 0
168 188 0
167 190 0
161 182 0
164 184 0
162 184 0
164 185 0
166 188 0
161 183 0
166 187 0
162 183 0
166 189 0
165 187 0
166 187 0
169 189 0
164 185 0
159 177 0
170 192 0
165 185 0
159 179 0
166 188 0
162 183 0
166 188 0
167 189 0
168 190 0
162 185 0
167 189 0
164 185 0
166 187 0
178 200 111
177 200 108
173 196 99
172 194 102
172 195 108
173 196 99
172 195 84
176 199 102
172 196 105
176 199 125
171 194 99
177 200 120
167 190 92
171 195 88
171 194 105
173 196 108
173 195 99
177 200 105
167 190 108
172 194 105
169 192 80
169 193 99
171 194 105
170 193 95
171 195 105
161 184 92
169 193 102
171 194 122
166 189 84
172 195 122
169 192 102
166 189 88
170 194 99
164 187 102
164 187 92
166 190 62
168 192 102
162 185 76
167 191 105
169 193 76
165 189 95
167 191 76
169 193 125
167 191 95
165 188 72
167 190 88
163 186 88
161 183 80
158 180 95
164 188 122
168 190 88
165 188 95
166 189 102
155 178 67
165 187 84
162 185 80
171 194 111
156 179 76
170 193 92
166 189 111
163 186 95
157 180 95
160 183 95
160 183 95
163 185 99
161 184 99
165 187 76
161 183 84
165 187 99
156 178 80
160 182 76
166 188 76
167 189 108
165 186 111
158 181 80
157 180 88
157 179 105
162 184 95
153 175 92
159 181 95
163 185 111
154 176 80
147 168 76
160 182 108
152 174 105
159 179 84
153 174 88
147 168 99
164 186 114
158 180 95
159 179 88
156 177 95
156 176 99
145 165 80
160 181 92
160 180 114
157 178 95
150 170 102
162 183 117
148 168 88
159 179 108
154 174 102
146 166 76
153 173 102
150 169 102
152 172 108
148 168 105
154 173 105
158 176 120
144 163 95
148 167 92
148 165 92
133 152 67
142 160 76
135 155 72
144 163 62
141 161 51
131 150 57
141 160 57
133 153 25
134 154 44
147 167 62
130 150 57
131 150 51
134 154 51
136 156 25
118 138 0
139 159 0
130 150 36
137 157 0
148 168 0
149 170 0
151 172 0
163 185 0
150 171 0
151 172 0
159 180 0
141 162 0
154 174 0
137 158 0
149 170 0
137 157 0
135 155 0
139 159 0
119 139 0
131 151 0
130 149 0
137 157 0
133 153 0
137 157 0
124 143 0
118 137 0
126 145 0
123 143 0
128 146 0
121 139 0
121 139 0
134 154 0
121 140 0
133 152 0
124 142 0
126 146 0
128 146 0
119 137 0
122 141 0
124 143 0
120 138 0
126 146 0
113 131 0
111 130 0
117 136 0
132 151 0
126 144 0
123 143 0
116 135 0
123 141 0
115 134 0
109 128 0
120 139 0
116 134 0
129 149 0
118 136 0
131 150 0
132 152 0
107 125 0
119 136 0
121 140 0
113 130 0
118 136 0
131 150 0
120 138 0
118 137 0
132 151 0
125 142 0
123 141 0
117 135 0
111 129 0
121 139 0
122 142 0
117 136 0
123 142 0
128 147 0
126 145 0
132 154 0
120 140 0
126 144 0
127 146 0
129 149 0
132 153 0
132 152 0
125 142 0
133 152 0
130 149 0
138 158 0
125 144 0
127 147 0
129 149 0
128 148 0
119 138 0
129 150 0
127 147 0
128 147 0
133 153 0
135 155 0
129 147 0
134 152 0
133 153 0
136 157 0
138 158 0
140 160 0
132 152 0
128 149 0
136 157 0
142 163 0
143 164 0
139 161 0
130 147 0
128 148 0
135 156 0
142 161 0
137 158 0
153 173 0
139 159 0
137 157 0
143 164 0
141 161 0
138 157 0
148 170 0
142 162 0
147 168 0
147 167 0
144 163 0
140 159 0
146 166 0
141 161 0
150 171 0
146 166 0
148 167 0
136 158 0
146 167 0
148 169 0
148 168 0
148 169 0
147 167 0
144 165 0
146 167 0
150 170 0
138 158 0
154 174 0
145 163 0
148 169 0
142 162 0
143 164 0
148 168 0
151 172 0
149 170 0
159 180 0
152 174 0
152 173 0
152 175 0
149 169 0
149 170 0
149 170 0
153 175 0
153 174 0
150 170 0
149 169 0
149 169 0
149 169 0
152 173 0
153 175 0
157 176 0
154 174 0
153 173 0
154 175 0
159 180 0
155 176 0
159 180 0
160 180 0
157 177 0
160 183 0
157 180 0
159 179 0
154 175 0
155 174 0
153 174 0
157 178 0
157 178 0
155 175 0
161 181 0
156 177 0
154 175 0
155 178 0
157 178 0
157 178 0
159 178 0
158 180 0
167 188 0
152 171 0
155 175 0
151 170 0
160 179 0
158 179 0
152 172 0
161 181 0
154 176 0
162 184 0
159 178 0
155 175 0
160 182 0
164 185 0
161 183 0
168 190 0
163 183 0
164 185 0
158 178 0
164 181 0
153 173 0
158 178 0
160 182 0
162 183 0
162 182 0
160 181 0
160 181 0
164 186 0
161 182 0
166 187 0
163 184 0
163 184 0
167 187 0
161 183 0
164 185 0
164 184 0
162 184 0
161 183 0
166 186 0
159 180 0
160 181 0
160 182 0
163 184 0
158 180 0
169 190 0
163 184 0
167 189 0
159 180 0
163 184 0
162 183 0
165 187 0
168 190 0
163 184 0
167 190 0
162 184 0
161 181 0
165 186 0
165 185 0
163 184 0
164 186 0
166 188 0
166 188 0
169 191 0
162 183 0
168 188 0
161 183 0
167 189 0
163 185 0
161 180 0
164 185 0
167 189 0
161 183 0
169 191 0
170 189 0
170 194 0
164 184 0
166 187 0
166 188 0
165 186 0
163 181 0
166 187 0
161 182 0
167 189 0
176 199 102
175 198 92
172 195 95
172 195 84
165 188 80
175 197 105
171 194 88
172 195 67
177 200 111
170 194 76
171 193 92
175 198 108
174 197 111
173 196 84
171 195 99
171 194 84
163 187 80
172 196 102
174 197 120
172 195 102
169 193 95
167 191 99
172 196 88
170 193 84
170 194 95
170 194 99
166 189 95
171 194 111
167 191 105
168 192 95
170 193 92
168 191 95
163 187 105
169 192 111
169 192 67
166 189 95
170 193 76
166 189 108
165 188 95
168 192 95
166 188 92
160 184 95
171 194 114
172 195 105
166 189 92
168 190 84
164 187 84
163 187 80
161 184 67
168 191 92
171 195 105
159 182 99
163 186 95
163 186 92
165 188 88
162 185 84
167 189 92
159 182 88
166 189 72
155 177 62
165 189 105
168 191 108
158 181 84
165 187 102
165 188 92
159 182 125
155 177 111
167 190 95
161 184 88
161 184 92
159 182 95
157 179 76
161 183 95
164 186 88
162 184 88
160 182 80
159 180 88
161 183 99
156 178 99
162 184 99
159 180 99
158 180 105
160 181 99
157 180 105
152 172 105
157 179 95
158 179 84
165 187 108
156 178 105
150 172 92
154 175 92
153 174 88
159 180 102
157 177 105
158 179 105
158 179 102
158 179 92
147 168 99
155 176 88
151 172 80
146 166 95
159 178 99
158 177 95
157 177 105
161 181 102
151 171 84
147 166 84
147 166 92
146 166 95
142 161 88
144 162 95
147 166 76
146 166 67
138 158 51
151 170 72
142 162 57
147 166 57
137 157 44
141 160 62
141 161 44
134 153 62
141 161 62
138 158 36
135 155 0
144 163 44
139 159 25
147 167 25
139 159 36
143 163 36
138 156 25
133 153 0
142 162 0
148 169 0
157 177 0
158 180 0
155 176 0
152 174 0
155 174 0
149 170 0
149 171 0
141 163 0
146 167 0
141 160 0
150 170 0
138 158 0
129 149 0
117 137 0
134 155 0
133 153 0
121 141 0
124 142 0
113 132 0
133 152 0
132 151 0
120 139 0
124 143 0
135 155 0
112 132 0
121 140 0
120 140 0
136 155 0
118 138 0
127 146 0
127 146 0
127 147 0
118 136 0
126 145 0
122 142 0
123 143 0
131 150 0
126 146 0
118 137 0
115 135 0
123 142 0
128 145 0
124 142 0
122 141 0
141 159 0
125 144 0
118 137 0
123 142 0
113 131 0
116 136 0
120 138 0
126 144 0
113 132 0
121 140 0
125 144 0
124 143 0
128 147 0
123 142 0
124 144 0
124 143 0
126 146 0
124 143 0
126 144 0
121 140 0
126 145 0
124 143 0
118 137 0
120 139 0
134 153 0
117 138 0
129 149 0
126 147 0
123 141 0
138 157 0
125 145 0
130 149 0
131 150 0
128 146 0
127 147 0
132 152 0
133 153 0
133 153 0
129 149 0
125 145 0
134 155 0
134 154 0
126 148 0
126 145 0
135 155 0
137 157 0
134 155 0
127 146 0
138 158 0
134 154 0
134 154 0
142 163 0
131 149 0
141 161 0
145 164 0
131 151 0
128 148 0
135 154 0
136 157 0
133 152 0
136 157 0
134 155 0
140 160 0
140 159 0
142 162 0
135 156 0
136 156 0
143 163 0
145 165 0
146 166 0
145 165 0
144 163 0
141 162 0
141 162 0
141 160 0
146 167 0
141 163 0
138 159 0
139 160 0
142 162 0
150 169 0
146 167 0
144 163 0
142 162 0
146 168 0
152 173 0
146 166 0
151 171 0
140 160 0
141 161 0
143 163 0
141 161 0
147 169 0
150 171 0
149 169 0
145 166 0
142 162 0
152 173 0
152 173 0
152 173 0
156 175 0
150 172 0
154 175 0
152 172 0
148 167 0
155 174 0
154 174 0
152 172 0
155 173 0
155 176 0
155 176 0
145 165 0
155 176 0
152 172 0
151 171 0
157 178 0
153 174 0
153 174 0
153 174 0
150 169 0
154 174 0
149 170 0
160 182 0
156 178 0
157 178 0
154 176 0
159 181 0
158 179 0
155 176 0
160 180 0
149 171 0
160 180 0
158 179 0
160 180 0
154 174 0
155 177 0
156 176 0
162 184 0
160 182 0
156 177 0
159 180 0
156 177 0
154 176 0
151 172 0
146 167 0
152 171 0
165 186 0
157 176 0
163 183 0
157 176 0
164 184 0
158 180 0
160 180 0
163 184 0
164 184 0
162 182 0
163 184 0
161 181 0
158 179 0
159 179 0
160 182 0
162 183 0
158 177 0
165 185 0
167 188 0
161 181 0
165 187 0
164 184 0
164 185 0
157 177 0
164 185 0
168 189 0
161 182 0
165 186 0
170 192 0
165 188 0
157 179 0
162 183 0
164 185 0
161 182 0
162 183 0
163 183 0
165 186 0
169 191 0
163 183 0
163 184 0
162 181 0
164 185 0
166 187 0
160 182 0
162 183 0
167 188 0
162 183 0
163 185 0
165 186 0
159 178 0
168 189 0
167 188 0
161 180 0
166 187 0
166 188 0
167 189 0
165 186 0
164 184 0
169 189 0
167 189 0
163 185 0
168 190 0
165 187 0
165 186 0
169 189 0
166 189 0
165 189 0
166 187 0
164 184 0
170 193 0
168 190 0
169 191 0
165 186 0
167 188 0
167 189 0
163 184 0
167 190 0
172 196 102
176 198 111
174 197 111
173 196 84
170 193 80
171 194 99
170 192 111
171 194 108
170 194 114
173 196 102
172 196 95
170 193 88
174 197 114
169 192 114
172 195 95
166 189 95
170 193 88
166 189 76
172 195 111
174 197 122
176 198 105
170 193 88
167 190 92
165 188 92
170 193 88
169 192 95
172 195 88
168 192 102
172 195 108
165 189 92
169 193 108
167 190 95
169 193 84
168 191 105
172 196 111
167 190 88
169 192 95
164 186 99
160 182 99
166 189 95
169 192 99
167 190 108
166 190 92
163 186 92
167 190 88
167 190 92
172 196 111
165 187 95
168 191 88
169 192 95
164 187 102
170 194 102
169 192 84
169 192 102
158 181 99
165 188 95
157 180 80
163 186 80
165 188 92
161 184 84
168 190 99
160 183 92
168 191 117
161 184 88
162 185 120
165 187 99
162 183 62
162 185 95
157 179 76
160 182 114
163 186 88
163 185 84
161 183 102
161 183 84
158 179 99
151 173 84
164 186 102
154 176 80
161 183 102
161 182 92
158 180 80
154 176 80
156 178 117
157 179 99
159 181 99
151 172 92
163 184 102
158 180 105
155 176 88
155 176 92
163 183 105
157 178 102
151 172 99
150 171 95
151 171 84
160 181 117
159 180 92
160 180 111
158 179 99
157 178 80
157 177 95
162 181 99
152 172 102
152 171 99
149 169 95
135 155 72
149 168 95
160 180 111
139 160 84
148 167 102
153 172 99
152 172 80
147 167 72
145 165 72
148 167 72
144 163 67
144 164 51
143 163 57
146 167 51
140 159 62
135 155 51
136 156 36
137 157 44
143 163 0
142 163 25
142 162 0
137 157 25
138 158 25
136 157 0
135 155 25
144 162 0
146 167 36
157 178 0
153 174 0
155 176 0
151 172 0
156 177 0
151 173 0
145 166 0
140 161 0
150 169 0
141 161 0
129 150 0
143 162 0
136 155 0
123 143 0
137 156 0
137 156 0
131 151 0
121 141 0
133 151 0
132 152 0
140 159 0
132 151 0
123 143 0
110 131 0
128 147 0
130 148 0
120 138 0
123 141 0
132 150 0
132 152 0
121 140 0
128 147 0
130 149 0
125 145 0
116 136 0
120 138 0
123 143 0
129 148 0
123 142 0
117 136 0
110 130 0
124 144 0
120 138 0
130 148 0
119 139 0
114 133 0
122 141 0
120 140 0
124 144 0
115 134 0
132 151 0
125 143 0
124 144 0
128 146 0
117 137 0
132 152 0
132 151 0
123 142 0
117 137 0
122 141 0
123 142 0
134 153 0
116 134 0
130 150 0
121 141 0
129 148 0
125 145 0
123 143 0
125 145 0
126 145 0
127 146 0
118 139 0
136 156 0
121 141 0
129 150 0
132 151 0
134 154 0
127 147 0
129 149 0
135 154 0
135 155 0
136 157 0
143 164 0
127 146 0
131 152 0
132 154 0
136 155 0
129 149 0
128 149 0
137 156 0
141 161 0
126 145 0
134 154 0
130 150 0
137 158 0
137 156 0
128 148 0
131 151 0
144 164 0
123 144 0
140 161 0
132 152 0
140 160 0
143 164 0
141 160 0
141 161 0
141 162 0
140 159 0
141 162 0
141 160 0
137 157 0
141 160 0
147 168 0
141 163 0
140 161 0
152 172 0
140 161 0
146 167 0
131 151 0
141 162 0
137 156 0
143 164 0
143 163 0
136 157 0
144 164 0
159 179 0
149 169 0
151 173 0
140 161 0
154 174 0
145 167 0
150 171 0
143 165 0
146 168 0
156 176 0
150 170 0
155 176 0
151 173 0
147 168 0
149 170 0
144 166 0
148 167 0
137 157 0
148 168 0
146 166 0
156 177 0
151 171 0
153 173 0
158 181 0
153 174 0
150 171 0
152 173 0
150 171 0
161 182 0
160 180 0
151 173 0
154 176 0
156 175 0
155 176 0
147 167 0
156 178 0
156 177 0
153 173 0
156 179 0
152 173 0
154 175 0
157 178 0
156 178 0
152 171 0
155 177 0
154 175 0
157 178 0
154 174 0
156 176 0
158 179 0
152 171 0
153 173 0
163 185 0
158 180 0
162 184 0
158 179 0
157 180 0
156 177 0
158 179 0
162 182 0
162 184 0
156 177 0
157 178 0
161 183 0
158 177 0
159 179 0
161 181 0
155 177 0
156 176 0
158 179 0
158 178 0
165 185 0
162 181 0
161 182 0
158 182 0
163 185 0
162 183 0
160 180 0
157 177 0
165 186 0
166 186 0
158 180 0
165 185 0
158 179 0
162 184 0
164 186 0
158 179 0
164 184 0
162 182 0
165 186 0
158 179 0
162 184 0
161 182 0
163 183 0
162 184 0
167 189 0
158 179 0
163 185 0
165 188 0
161 183 0
167 188 0
160 181 0
162 183 0
160 183 0
161 181 0
162 184 0
164 186 0
165 187 0
164 186 0
164 185 0
161 181 0
164 185 0
163 184 0
167 188 0
164 187 0
159 180 0
166 189 0
160 182 0
165 188 0
165 185 0
171 193 0
165 185 0
165 185 0
168 192 0
167 189 0
160 181 0
170 192 0
159 180 0
167 188 0
165 186 0
169 191 0
169 190 0
167 190 0
168 190 0
169 191 0
167 189 0
165 185 0
162 183 0
169 190 0
167 189 0
168 190 0
164 186 0
164 186 0
170 193 88
171 194 88
172 195 92
172 195 88
168 191 99
174 196 92
170 194 99
171 196 111
174 197 80
172 196 88
169 191 88
172 195 80
173 196 108
172 194 102
169 192 84
169 193 88
168 191 72
172 195 88
174 198 92
171 194 88
173 197 99
175 198 105
169 193 92
167 190 76
169 192 88
172 195 84
168 192 99
171 194 92
166 189 108
171 195 108
158 182 95
169 192 99
168 191 99
161 185 84
166 189 92
165 188 102
170 192 99
165 188 95
168 191 125
166 189 105
167 190 102
167 190 105
168 191 105
162 185 84
170 193 88
168 190 92
165 188 92
169 192 108
159 181 105
167 191 99
168 191 88
165 188 105
171 194 99
164 187 95
169 191 102
163 186 108
162 185 92
160 184 114
156 179 92
163 186 120
165 188 117
164 186 108
163 186 102
170 193 114
163 185 84
160 183 99
161 184 108
163 185 102
157 179 80
160 182 99
162 184 114
164 187 76
163 185 105
160 183 117
158 181 88
155 176 88
156 178 108
164 186 114
155 176 84
163 186 117
156 177 88
159 181 102
160 181 111
167 188 105
161 182 108
155 177 99
156 177 95
162 183 95
163 184 105
159 180 102
161 182 108
149 171 84
153 174 88
156 176 95
158 178 88
158 179 99
162 182 111
153 174 105
160 181 117
156 176 95
151 171 95
149 170 88
150 170 95
151 171 102
148 168 92
152 172 95
148 167 72
158 177 114
141 161 80
143 163 57
148 167 102
155 175 80
154 175 72
153 172 62
142 162 62
157 177 76
140 161 25
137 156 44
138 158 25
146 166 51
139 159 44
140 160 0
133 154 36
140 161 36
147 168 44
144 164 0
138 159 0
141 162 36
143 164 25
133 154 0
139 159 25
140 161 25
155 177 0
157 177 0
154 177 0
158 180 0
151 174 0
153 174 0
146 165 0
144 165 0
141 162 0
141 163 0
135 156 0
140 159 0
130 150 0
126 146 0
124 143 0
128 150 0
136 157 0
129 149 0
136 156 0
136 156 0
130 150 0
137 157 0
128 147 0
129 149 0
120 138 0
123 142 0
132 152 0
134 153 0
128 148 0
123 143 0
125 145 0
118 137 0
133 152 0
129 148 0
115 135 0
122 141 0
126 146 0
135 153 0
131 150 0
133 153 0
122 141 0
124 142 0
121 142 0
128 147 0
136 155 0
129 149 0
123 143 0
133 152 0
130 149 0
129 147 0
128 147 0
124 142 0
124 143 0
117 136 0
125 143 0
132 152 0
124 143 0
119 139 0
119 139 0
124 143 0
122 142 0
140 160 0
132 151 0
123 142 0
140 159 0
116 136 0
140 159 0
123 143 0
126 145 0
130 151 0
123 144 0
136 155 0
123 143 0
120 140 0
131 151 0
136 157 0
133 154 0
132 151 0
136 156 0
137 158 0
128 147 0
138 157 0
131 152 0
131 152 0
132 152 0
120 140 0
135 155 0
128 148 0
131 150 0
134 153 0
134 155 0
144 165 0
131 151 0
132 150 0
132 153 0
140 160 0
140 161 0
133 155 0
132 153 0
135 156 0
145 165 0
142 162 0
140 161 0
145 165 0
125 145 0
135 154 0
143 163 0
135 156 0
147 166 0
138 159 0
128 149 0
137 157 0
144 166 0
144 165 0
141 162 0
135 156 0
144 166 0
135 155 0
142 163 0
136 156 0
137 157 0
146 167 0
146 167 0
145 165 0
147 168 0
142 164 0
146 168 0
150 171 0
152 172 0
151 172 0
149 170 0
158 179 0
148 167 0
155 176 0
147 167 0
145 166 0
151 171 0
150 171 0
151 171 0
150 171 0
148 167 0
150 171 0
151 171 0
154 176 0
156 177 0
156 177 0
161 181 0
147 167 0
148 169 0
151 170 0
150 172 0
155 176 0
155 176 0
148 169 0
151 172 0
152 173 0
155 177 0
151 171 0
157 178 0
150 170 0
158 180 0
153 174 0
157 179 0
155 175 0
158 180 0
156 177 0
151 171 0
156 179 0
158 178 0
156 179 0
156 178 0
160 181 0
161 183 0
155 176 0
159 179 0
159 181 0
161 180 0
162 184 0
158 180 0
157 177 0
162 183 0
157 178 0
156 178 0
156 176 0
160 181 0
164 185 0
160 181 0
155 175 0
168 191 0
158 180 0
156 176 0
157 179 0
160 181 0
159 179 0
160 180 0
161 183 0
162 183 0
157 178 0
161 183 0
160 181 0
159 180 0
157 176 0
156 177 0
163 183 0
162 181 0
165 186 0
161 181 0
162 185 0
162 183 0
165 185 0
164 186 0
158 179 0
164 186 0
165 186 0
166 187 0
167 189 0
167 190 0
159 181 0
161 184 0
160 182 0
165 186 0
166 187 0
163 185 0
162 183 0
167 190 0
162 184 0
167 189 0
165 187 0
165 186 0
168 189 0
168 191 0
159 180 0
165 187 0
165 185 0
166 188 0
166 186 0
161 183 0
167 188 0
164 186 0
163 184 0
167 189 0
165 186 0
165 187 0
169 190 0
164 187 0
165 187 0
164 186 0
168 191 0
167 188 0
169 190 0
165 185 0
169 190 0
165 186 0
163 185 0
163 183 0
165 185 0
167 189 0
165 186 0
169 189 0
169 191 0
164 186 0
167 188 0
168 189 0
165 186 0
164 184 0
167 189 0
162 183 0
165 187 0
173 196 80
173 196 105
171 194 95
171 194 80
179 202 120
176 199 99
172 195 88
173 197 99
175 198 120
168 191 108
173 197 102
170 193 60
172 196 108
172 194 105
170 193 108
171 195 108
171 194 95
176 199 84
167 190 128
167 192 76
168 190 84
171 194 92
174 197 120
169 192 105
171 195 114
165 189 80
168 192 99
166 189 114
167 190 105
171 195 120
172 195 92
163 186 76
164 188 99
166 190 76
164 187 92
168 191 102
160 184 92
166 190 92
166 189 88
168 192 111
163 186 84
170 193 99
160 184 95
165 187 84
164 188 88
162 185 95
163 186 72
169 192 88
165 189 102
166 190 99
160 182 99
155 177 88
164 187 108
162 186 88
162 184 88
156 179 99
164 186 95
165 188 111
164 187 84
160 183 88
161 184 80
160 183 99
161 184 105
165 188 99
168 190 114
167 190 95
165 187 111
164 187 102
161 184 80
163 184 76
161 183 102
158 180 120
166 188 92
162 184 80
163 185 108
157 178 95
168 189 99
154 176 92
155 177 80
168 190 133
151 173 99
160 182 99
156 179 84
162 183 95
158 179 114
161 183 92
157 178 111
154 174 99
158 178 80
152 173 95
156 178 92
154 176 88
158 178 102
154 176 80
148 169 80
155 176 102
158 178 80
156 178 88
161 181 102
163 183 111
155 176 95
156 176 102
145 165 102
163 181 114
155 175 95
151 169 95
157 177 111
154 174 99
150 169 95
154 173 88
144 162 80
154 175 67
146 166 62
146 167 62
137 157 72
150 170 76
138 159 36
138 158 51
147 166 62
150 168 67
136 156 44
148 169 0
141 162 0
137 158 25
148 168 36
140 160 44
145 165 25
138 158 36
137 157 25
135 155 0
146 167 25
144 166 0
147 167 0
153 174 0
156 178 0
152 173 0
152 175 0
149 169 0
144 166 0
151 170 0
149 170 0
138 159 0
144 164 0
137 158 0
132 154 0
132 151 0
132 152 0
145 165 0
130 150 0
134 155 0
137 157 0
134 154 0
139 160 25
132 152 0
130 150 0
127 147 0
130 150 0
123 143 0
132 152 0
117 136 0
120 139 0
132 152 0
127 146 0
129 149 0
126 146 0
128 147 0
119 138 0
120 139 0
126 145 0
130 151 0
134 153 0
126 146 0
119 138 0
134 154 0
120 138 0
117 136 0
127 147 0
114 133 0
122 143 0
122 142 0
113 132 0
125 146 0
126 146 0
125 145 0
121 141 0
117 136 0
119 137 0
137 158 0
126 146 0
137 156 0
127 147 0
136 155 0
136 155 0
127 146 0
132 152 0
127 147 0
119 139 0
128 148 0
134 154 0
134 153 0
135 154 0
136 156 0
127 148 0
128 147 0
124 144 0
129 149 0
140 159 0
131 150 0
146 166 0
120 139 0
130 150 0
135 154 0
141 162 0
137 158 0
132 152 0
134 153 0
132 152 0
125 145 0
129 148 0
134 153 0
143 163 0
132 152 0
133 154 0
138 157 0
135 155 0
136 156 0
142 162 0
135 155 0
141 161 0
130 150 0
146 166 0
144 163 0
139 157 0
137 157 0
137 158 0
136 157 0
142 162 0
140 161 0
139 160 0
136 156 0
136 157 0
139 161 0
147 167 0
146 166 0
141 161 0
141 162 0
142 163 0
143 163 0
141 161 0
151 172 0
135 154 0
139 160 0
151 173 0
132 154 0
149 168 0
145 166 0
148 168 0
144 164 0
144 166 0
150 170 0
152 173 0
148 170 0
148 169 0
147 167 0
148 170 0
145 166 0
145 165 0
157 178 0
147 165 0
149 170 0
153 175 0
146 168 0
154 174 0
144 166 0
146 166 0
157 179 0
156 177 0
150 172 0
150 169 0
154 175 0
153 174 0
157 179 0
156 177 0
149 169 0
145 165 0
155 176 0
156 179 0
151 173 0
155 177 0
155 176 0
153 173 0
161 183 0
163 182 0
150 170 0
152 172 0
157 178 0
152 174 0
156 177 0
157 177 0
153 174 0
161 183 0
151 172 0
157 179 0
150 172 0
156 176 0
158 179 0
159 181 0
159 180 0
161 183 0
157 180 0
157 176 0
156 176 0
163 185 0
160 181 0
160 181 0
159 182 0
155 176 0
162 181 0
158 181 0
169 192 0
155 176 0
161 183 0
154 173 0
162 182 0
156 177 0
158 179 0
158 179 0
163 186 0
167 187 0
159 179 0
162 182 0
157 177 0
158 179 0
161 179 0
162 181 0
158 179 0
161 181 0
162 184 0
162 183 0
162 183 0
166 187 0
161 182 0
163 183 0
164 185 0
168 189 0
162 183 0
159 178 0
164 186 0
166 188 0
165 186 0
159 181 0
158 179 0
161 182 0
158 179 0
163 185 0
157 179 0
163 184 0
163 184 0
164 185 0
164 185 0
161 183 0
166 186 0
167 188 0
165 185 0
165 188 0
160 181 0
168 190 0
167 188 0
166 188 0
161 180 0
165 188 0
166 187 0
164 187 0
166 187 0
163 184 0
168 191 0
166 187 0
166 188 0
166 189 0
163 182 0
170 192 0
168 190 0
161 183 0
167 188 0
170 191 0
169 190 0
167 187 0
166 187 0
166 188 0
164 184 0
166 189 0
163 183 0
169 191 0
166 187 0
167 188 0
164 187 0
165 184 0
169 191 0
163 183 0
165 188 0
170 193 95
175 197 111
175 197 102
169 193 95
167 191 80
172 195 99
174 197 108
175 198 111
172 195 92
173 197 105
170 193 80
170 193 84
175 198 120
172 194 95
176 198 95
170 193 92
169 192 99
177 201 108
171 194 88
171 194 105
166 189 84
174 196 111
172 195 114
174 198 117
170 193 88
172 195 114
171 194 99
167 190 95
168 193 99
170 193 95
173 198 92
170 194 122
167 191 99
170 192 108
164 188 99
164 187 102
170 193 111
166 189 72
168 191 114
166 190 114
167 191 95
169 193 105
168 191 76
163 186 102
164 187 92
169 192 95
166 189 120
163 187 95
164 187 95
167 191 108
166 188 102
172 195 102
165 187 92
166 189 102
170 193 111
160 184 84
161 183 76
165 188 88
168 191 105
160 183 84
167 189 111
156 179 105
165 188 105
170 193 117
163 186 95
161 185 88
163 186 102
160 183 105
151 173 84
159 182 102
158 181 108
156 178 99
155 178 67
155 176 92
157 178 88
161 182 102
161 183 108
167 189 108
153 176 88
160 182 84
153 174 95
160 183 99
157 178 102
162 184 95
159 181 84
163 184 114
153 173 80
153 174 92
160 181 108
164 185 105
153 175 92
158 179 114
159 180 105
154 174 76
165 186 120
152 173 92
157 176 105
157 177 92
160 180 95
151 171 88
158 177 111
151 171 102
155 176 95
151 170 99
160 179 99
157 176 108
158 177 108
144 163 80
149 168 111
148 168 76
141 160 95
153 173 76
150 171 62
147 167 72
148 167 84
146 166 67
139 160 36
145 165 67
145 165 57
142 163 36
132 152 36
139 161 36
139 159 44
145 166 51
139 159 36
138 159 36
149 171 25
139 159 0
139 160 25
145 166 36
139 160 36
147 169 0
155 175 25
156 176 0
156 180 0
161 183 0
152 174 0
152 174 0
153 173 0
151 173 0
143 164 0
140 161 0
137 158 0
135 154 0
137 157 0
130 151 0
143 164 0
138 157 0
131 152 0
137 157 0
125 144 0
130 149 0
135 155 0
128 147 0
135 156 0
130 149 0
130 150 0
131 150 0
135 155 0
133 153 0
142 162 0
128 147 0
136 155 0
121 141 0
134 154 0
123 143 0
132 153 0
130 151 0
130 150 0
123 144 0
122 141 0
126 145 0
129 148 0
145 164 0
133 153 0
129 149 0
129 147 0
120 140 0
126 147 0
129 149 0
122 142 0
132 152 0
126 145 0
121 141 0
119 139 0
132 152 0
134 153 0
133 153 0
131 150 0
137 157 0
126 145 0
129 149 0
123 142 0
124 143 0
124 144 0
125 145 0
121 140 0
130 150 0
133 154 0
133 153 0
130 149 0
119 139 0
123 143 0
127 147 0
137 156 0
135 155 0
131 152 0
126 147 0
132 152 0
132 152 0
128 148 0
132 154 0
139 161 0
128 150 0
127 145 0
136 157 0
129 149 0
128 149 0
142 162 0
139 160 0
135 155 0
133 153 0
141 162 0
137 158 0
132 153 0
135 154 0
133 153 0
141 162 0
148 169 0
128 148 0
137 158 0
128 149 0
139 161 0
140 157 0
142 162 0
142 163 0
137 156 0
128 148 0
133 154 0
141 161 0
140 160 0
140 161 0
141 161 0
138 158 0
137 157 0
144 166 0
142 164 0
145 166 0
148 169 0
145 166 0
147 168 0
143 164 0
140 160 0
147 169 0
146 167 0
148 169 0
147 167 0
150 169 0
153 174 0
148 169 0
153 175 0
142 165 0
138 158 0
150 169 0
154 175 0
152 171 0
150 169 0
145 167 0
145 166 0
145 166 0
154 176 0
151 171 0
150 172 0
154 176 0
152 174 0
155 175 0
148 168 0
152 173 0
156 178 0
156 176 0
157 178 0
156 177 0
156 178 0
153 175 0
160 182 0
151 172 0
157 179 0
156 177 0
164 186 0
155 176 0
150 172 0
148 169 0
158 179 0
154 174 0
156 178 0
160 181 0
151 173 0
159 179 0
158 179 0
159 180 0
154 174 0
161 183 0
159 180 0
156 177 0
151 172 0
160 183 0
159 181 0
156 178 0
162 182 0
161 182 0
162 183 0
154 177 0
160 181 0
160 180 0
155 175 0
157 180 0
161 183 0
162 184 0
160 180 0
163 184 0
162 183 0
163 184 0
157 177 0
162 182 0
158 179 0
165 187 0
163 185 0
156 178 0
166 187 0
168 189 0
165 187 0
155 176 0
160 181 0
162 182 0
169 192 0
168 190 0
161 182 0
158 180 0
160 181 0
159 180 0
160 181 0
165 185 0
161 181 0
165 185 0
163 185 0
161 183 0
163 183 0
163 184 0
168 190 0
160 181 0
155 174 0
164 185 0
165 186 0
160 182 0
166 186 0
165 185 0
164 186 0
161 181 0
165 186 0
163 184 0
165 187 0
164 187 0
159 181 0
164 186 0
165 187 0
167 189 0
164 188 0
166 186 0
160 182 0
163 185 0
164 185 0
165 185 0
161 181 0
160 180 0
166 189 0
164 187 0
166 189 0
165 187 0
166 188 0
162 183 0
163 185 0
170 193 0
167 188 0
168 190 0
162 185 0
167 188 0
169 189 0
166 188 0
163 184 0
171 192 0
167 189 0
164 186 0
168 190 0
163 185 0
170 193 0
164 185 0
169 191 0
165 187 0
162 183 0
167 189 0
173 196 92
170 193 99
169 192 80
173 197 95
170 194 92
168 191 105
172 195 102
176 199 108
171 193 72
176 199 117
168 191 102
170 193 99
169 192 95
167 191 108
172 196 99
166 189 99
173 195 95
173 196 105
171 194 99
167 191 105
173 196 99
168 191 80
173 196 102
168 191 80
169 193 95
168 191 102
170 192 95
168 192 88
171 194 95
168 191 92
168 192 88
165 188 102
170 194 92
171 194 102
173 196 114
167 190 84
165 188 84
168 191 99
165 187 80
169 192 80
171 195 114
164 187 108
166 189 84
167 190 95
170 194 102
169 192 102
167 190 111
163 186 84
165 189 99
168 191 92
168 191 99
167 190 76
160 183 95
164 186 95
165 188 80
161 184 92
162 185 76
168 192 117
171 194 122
163 186 102
164 186 108
162 185 76
162 184 92
165 187 99
165 188 99
162 185 105
164 187 122
164 186 84
163 185 99
161 183 88
162 184 102
161 183 84
171 193 111
158 181 114
162 184 102
165 187 99
160 181 95
165 186 108
160 182 99
148 168 92
165 188 114
156 178 72
169 190 92
164 185 117
159 181 92
153 175 88
165 185 128
163 184 105
159 180 99
157 179 95
156 177 84
160 180 95
157 178 84
162 182 114
162 183 92
152 174 76
166 186 102
152 171 88
158 178 84
155 175 95
150 170 99
156 176 111
160 179 102
156 176 105
159 179 108
155 175 108
154 174 88
146 165 88
154 174 84
154 173 102
160 180 99
140 161 80
144 164 67
151 171 67
142 162 51
141 160 62
151 171 72
153 174 72
151 171 51
147 168 25
143 164 25
144 165 44
148 169 25
143 164 25
142 163 44
148 169 25
143 163 36
141 162 0
143 165 0
145 167 0
143 164 25
152 172 25
161 181 0
164 185 0
156 178 0
155 177 0
154 175 0
155 175 0
154 175 0
152 173 0
148 170 0
136 157 0
137 159 0
144 164 0
142 164 0
142 162 0
135 154 0
138 158 0
133 153 0
134 153 0
123 143 0
130 151 0
131 151 0
137 158 0
144 165 0
126 146 0
131 152 0
130 149 0
128 148 0
126 146 0
129 148 0
126 146 0
134 153 0
130 150 0
131 151 0
129 149 0
138 159 0
134 153 0
131 151 0
132 152 0
132 152 0
129 148 0
131 151 0
122 142 0
134 154 0
124 143 0
122 141 0
129 149 0
130 150 0
128 149 0
139 160 0
131 152 0
129 149 0
121 141 0
119 138 0
128 148 0
132 151 0
133 152 0
124 144 0
133 152 0
129 150 0
131 151 0
135 155 0
132 152 0
135 156 0
125 145 0
127 147 0
139 159 0
132 151 0
130 151 0
131 151 0
134 154 0
137 158 0
133 153 0
127 146 0
140 160 0
131 151 0
136 156 0
125 147 0
132 151 0
140 159 0
131 149 0
137 158 0
139 160 0
133 153 0
116 135 0
141 161 0
140 161 0
137 158 0
137 157 0
138 157 0
131 151 0
130 151 0
135 155 0
139 161 0
145 166 0
136 157 0
138 159 0
144 164 0
137 157 0
143 164 0
138 160 0
144 165 0
143 162 0
138 159 0
132 153 0
144 164 0
140 159 0
147 167 0
145 166 0
148 168 0
153 173 0
135 156 0
147 167 0
144 165 0
142 161 0
147 166 0
136 155 0
144 163 0
143 163 0
145 166 0
148 168 0
146 166 0
137 157 0
143 162 0
148 170 0
148 169 0
144 164 0
145 166 0
142 164 0
159 180 0
144 164 0
153 174 0
150 172 0
155 176 0
141 162 0
147 167 0
154 175 0
154 176 0
150 172 0
154 175 0
146 166 0
152 172 0
147 166 0
149 170 0
151 172 0
151 172 0
154 176 0
150 172 0
150 171 0
152 175 0
151 171 0
141 162 0
146 165 0
157 178 0
150 172 0
157 179 0
155 176 0
150 172 0
154 176 0
155 175 0
146 167 0
159 182 0
154 175 0
157 178 0
155 176 0
161 182 0
157 179 0
160 181 0
158 179 0
161 181 0
156 178 0
158 179 0
157 178 0
156 178 0
162 181 0
156 178 0
160 181 0
156 176 0
162 184 0
158 179 0
157 179 0
154 174 0
164 186 0
158 179 0
164 186 0
157 178 0
162 184 0
166 188 0
160 181 0
159 179 0
163 186 0
160 181 0
157 178 0
159 179 0
168 190 0
161 183 0
165 188 0
155 177 0
161 183 0
159 180 0
165 186 0
160 181 0
164 186 0
163 185 0
163 183 0
164 185 0
159 181 0
165 188 0
164 185 0
161 182 0
157 177 0
163 185 0
163 184 0
159 180 0
162 184 0
161 182 0
162 182 0
159 180 0
161 181 0
170 192 0
163 184 0
160 180 0
161 182 0
162 185 0
163 185 0
162 184 0
161 181 0
165 185 0
165 187 0
165 187 0
164 186 0
160 180 0
164 185 0
162 184 0
164 187 0
162 182 0
161 182 0
164 185 0
162 183 0
161 184 0
166 186 0
164 184 0
165 187 0
167 188 0
167 188 0
169 190 0
166 188 0
165 186 0
168 188 0
163 185 0
166 187 0
168 189 0
165 187 0
167 187 0
163 184 0
165 186 0
170 192 0
166 188 0
167 189 0
164 185 0
163 184 0
165 186 0
168 188 0
167 188 0
171 193 0
167 188 0
172 194 0
168 190 0
169 192 0
174 196 105
172 195 92
173 196 105
175 198 95
168 190 80
175 197 84
171 194 76
172 196 95
173 195 105
172 195 95
174 196 120
176 198 114
174 197 99
172 195 99
175 198 99
173 197 102
171 194 99
171 194 111
174 197 111
166 190 80
175 198 108
171 195 84
170 193 80
168 191 88
166 190 88
165 189 95
168 191 84
167 191 80
167 192 102
161 184 72
172 195 92
165 188 105
171 194 92
165 189 102
169 192 80
166 189 95
164 187 92
168 191 80
164 188 88
174 197 111
164 187 92
166 190 88
166 190 111
167 190 72
173 196 108
167 190 99
163 186 62
167 190 88
162 185 80
168 192 114
158 181 80
171 194 122
166 189 99
167 190 105
166 189 130
162 184 84
163 185 80
163 186 95
161 184 105
163 186 95
162 185 108
166 189 105
165 187 84
165 188 99
167 190 105
169 191 99
161 184 84
160 183 105
157 179 102
155 177 92
166 188 102
160 182 88
164 187 92
162 184 95
162 183 88
161 183 76
164 186 111
161 183 88
162 184 102
155 176 99
157 178 84
159 180 102
150 171 80
166 187 102
165 187 105
162 184 80
158 178 92
155 177 95
155 175 99
158 179 92
161 182 95
162 183 99
166 186 95
158 178 84
160 181 95
157 177 76
154 176 84
162 183 117
154 174 99
147 167 95
164 185 111
159 179 105
162 183 105
145 165 80
157 177 102
162 182 108
151 170 111
156 176 95
160 180 105
151 171 76
150 169 84
159 178 99
154 174 72
155 175 88
153 173 92
140 160 67
138 158 44
147 168 44
156 177 36
148 169 36
141 161 44
147 168 0
143 163 44
141 161 44
142 163 51
135 156 44
141 163 51
147 169 25
147 168 25
141 163 0
146 166 0
154 176 25
161 184 0
150 171 0
155 177 0
155 177 0
148 171 0
150 172 0
149 170 0
154 175 0
151 171 0
140 161 0
139 160 0
144 166 0
150 170 0
135 156 0
142 163 0
135 156 0
127 148 0
144 164 0
138 159 0
136 157 0
143 164 0
137 157 0
133 154 0
123 143 0
133 153 0
137 157 0
129 149 0
116 136 0
128 148 0
139 159 0
133 152 0
131 151 0
140 161 0
129 148 0
130 150 0
133 153 0
140 161 0
137 158 0
128 148 0
130 150 0
134 154 0
132 153 0
130 150 0
121 140 0
135 155 0
133 152 0
131 151 0
132 151 0
126 147 0
134 154 0
130 150 0
133 152 0
115 135 0
135 156 0
138 158 0
136 156 0
137 156 0
133 154 0
129 150 0
125 145 0
130 150 0
126 147 0
133 153 0
135 156 0
130 149 0
125 144 0
136 155 0
129 149 0
138 158 0
136 155 0
137 156 0
125 144 0
135 156 0
135 154 0
130 151 0
127 147 0
135 155 0
134 155 0
133 153 0
146 166 0
133 154 0
140 161 0
149 171 0
141 161 0
139 159 0
128 147 0
137 159 0
133 152 0
132 152 0
142 162 0
129 148 0
143 164 0
139 161 0
140 161 0
142 163 0
142 163 0
147 166 0
134 155 0
140 160 0
141 160 0
141 161 0
142 164 0
143 164 0
140 161 0
147 168 0
144 163 0
129 148 0
154 174 0
147 167 0
146 167 0
146 167 0
145 165 0
142 162 0
143 164 0
147 167 0
150 170 0
134 155 0
152 174 0
138 159 0
145 167 0
153 174 0
152 172 0
154 176 0
150 172 0
146 167 0
148 169 0
146 166 0
150 170 0
154 177 0
145 166 0
146 168 0
146 168 0
147 167 0
158 179 0
149 170 0
154 174 0
149 170 0
151 173 0
154 175 0
153 173 0
149 170 0
158 179 0
153 175 0
148 168 0
142 162 0
152 174 0
148 171 0
157 178 0
158 179 0
147 166 0
157 178 0
150 171 0
151 172 0
154 175 0
155 176 0
146 167 0
160 182 0
160 181 0
162 182 0
153 175 0
151 171 0
156 178 0
153 173 0
157 178 0
150 170 0
158 180 0
152 174 0
158 178 0
156 177 0
158 179 0
162 184 0
159 181 0
153 175 0
154 177 0
159 182 0
159 179 0
155 177 0
156 177 0
157 179 0
154 175 0
161 182 0
160 182 0
155 174 0
160 181 0
162 183 0
158 177 0
164 187 0
165 186 0
158 179 0
156 177 0
160 181 0
159 180 0
155 173 0
161 182 0
158 181 0
161 183 0
159 182 0
159 180 0
159 180 0
165 186 0
159 179 0
162 183 0
158 180 0
161 183 0
160 181 0
154 175 0
158 179 0
163 184 0
163 184 0
158 178 0
162 183 0
163 185 0
159 179 0
166 187 0
167 189 0
160 180 0
164 185 0
164 185 0
162 183 0
163 185 0
164 184 0
167 188 0
159 180 0
164 187 0
167 190 0
162 183 0
168 190 0
166 187 0
165 186 0
166 188 0
167 188 0
164 185 0
167 190 0
162 183 0
164 185 0
163 184 0
169 191 0
166 185 0
165 187 0
167 190 0
163 185 0
162 184 0
160 181 0
166 187 0
169 190 0
163 186 0
166 188 0
164 185 0
163 185 0
167 189 0
162 184 0
165 187 0
164 186 0
164 185 0
168 188 0
166 188 0
164 187 0
170 191 0
168 191 0
163 185 0
169 191 0
167 187 0
166 188 0
168 189 0
167 190 0
171 193 0
168 188 0
165 188 0
176 199 102
177 199 108
172 195 95
172 196 95
176 199 114
173 196 95
176 199 117
171 194 84
169 192 76
174 197 99
172 195 102
171 194 76
172 195 88
170 193 80
173 196 105
170 192 99
169 192 117
172 195 99
169 193 100
169 192 76
165 189 99
171 194 102
169 193 99
164 187 80
169 192 80
170 194 99
174 197 102
166 190 92
172 196 108
165 188 95
172 195 105
172 195 92
171 195 114
172 194 95
170 193 122
172 195 92
164 188 95
162 186 72
168 191 80
164 186 99
166 189 105
169 192 102
167 190 99
168 191 95
169 192 114
169 192 80
160 183 102
162 186 80
166 188 102
164 187 80
165 188 72
160 183 92
167 191 108
162 185 95
166 188 92
160 181 76
165 188 108
166 189 105
165 187 72
164 187 102
163 186 88
159 182 92
169 191 105
161 184 102
167 189 95
157 179 76
163 185 72
165 187 102
163 185 102
165 188 92
162 185 111
162 185 117
151 172 72
162 184 111
165 186 95
160 182 80
160 182 92
158 181 102
166 188 105
160 181 117
159 181 102
165 186 108
163 185 108
152 172 99
166 186 120
159 181 84
154 175 99
155 176 84
155 176 67
159 180 99
144 164 80
156 176 102
167 189 120
162 183 105
167 187 102
155 175 95
160 180 102
152 171 88
164 184 114
157 177 92
144 165 84
155 176 80
160 180 114
155 175 99
158 178 84
159 179 102
151 171 67
148 168 67
157 177 67
149 170 84
153 172 72
151 172 76
152 173 67
153 173 51
140 161 62
161 181 80
139 160 44
136 157 36
140 161 44
147 168 36
148 168 0
151 173 44
134 155 25
148 169 25
142 163 25
139 161 44
146 168 36
151 173 36
143 165 0
152 173 36
147 168 36
147 168 0
160 182 0
155 177 0
159 179 0
162 184 0
152 174 0
157 179 0
149 169 0
152 174 0
137 158 0
146 166 0
146 167 0
143 164 0
145 167 0
134 155 0
149 168 0
143 163 0
142 162 0
135 157 0
140 160 0
136 156 0
141 160 0
135 157 0
141 163 0
140 160 0
137 158 0
126 147 0
138 158 0
127 148 0
132 152 0
131 151 0
136 156 0
115 135 0
124 145 0
132 151 0
133 154 0
130 150 0
137 157 0
129 149 0
136 155 0
128 148 0
127 148 0
131 151 0
131 151 0
132 153 0
127 146 0
131 150 0
130 150 0
132 152 0
134 155 0
129 149 0
122 142 0
126 147 0
137 157 0
135 155 0
135 154 0
125 146 0
128 147 0
137 156 0
131 151 0
143 163 0
131 151 0
130 150 0
134 154 0
124 145 0
123 143 0
128 147 0
140 160 0
134 154 0
141 163 0
131 150 0
129 148 0
134 154 0
139 160 0
140 160 0
130 150 0
138 157 0
123 143 0
130 152 0
146 166 0
135 156 0
147 168 0
133 153 0
141 162 0
139 159 0
137 156 0
142 163 0
142 162 0
138 160 0
139 159 0
140 161 0
147 167 0
135 156 0
140 161 0
132 153 0
139 160 0
142 163 0
140 161 0
147 168 0
143 165 0
138 157 0
141 160 0
136 157 0
137 157 0
150 169 0
140 160 0
145 164 0
138 157 0
141 160 0
138 160 0
144 165 0
146 167 0
144 166 0
143 163 0
146 168 0
137 158 0
140 161 0
144 164 0
141 163 0
146 166 0
141 160 0
153 174 0
143 164 0
150 171 0
145 165 0
143 164 0
156 177 0
149 170 0
149 171 0
150 172 0
147 168 0
143 162 0
157 178 0
153 175 0
158 179 0
150 172 0
149 171 0
147 167 0
147 169 0
153 174 0
147 170 0
152 172 0
149 171 0
152 173 0
148 168 0
156 178 0
154 174 0
152 174 0
154 175 0
152 173 0
158 181 0
156 178 0
154 174 0
158 180 0
153 173 0
157 179 0
158 180 0
157 178 0
154 175 0
149 170 0
155 176 0
152 173 0
157 178 0
157 177 0
156 176 0
161 181 0
159 182 0
155 176 0
155 176 0
155 176 0
155 176 0
162 181 0
157 178 0
160 181 0
163 184 0
161 183 0
161 183 0
160 181 0
160 182 0
156 177 0
156 176 0
158 179 0
155 176 0
160 182 0
156 177 0
161 183 0
162 183 0
157 177 0
159 181 0
160 182 0
159 179 0
157 179 0
161 182 0
159 182 0
157 180 0
158 180 0
162 183 0
164 186 0
161 183 0
163 184 0
158 179 0
163 184 0
157 178 0
160 181 0
163 184 0
158 179 0
163 184 0
162 183 0
163 185 0
161 181 0
165 187 0
166 187 0
164 185 0
163 185 0
163 186 0
162 184 0
166 187 0
166 189 0
160 182 0
161 182 0
164 186 0
168 191 0
165 185 0
159 180 0
164 186 0
168 188 0
165 187 0
162 183 0
163 186 0
166 188 0
165 188 0
164 186 0
160 182 0
165 187 0
165 187 0
163 184 0
168 189 0
164 184 0
160 182 0
167 187 0
167 190 0
163 185 0
167 189 0
163 184 0
166 187 0
166 188 0
161 182 0
164 185 0
166 187 0
162 184 0
165 187 0
164 186 0
168 191 0
167 188 0
166 188 0
164 184 0
168 190 0
162 184 0
166 189 0
167 188 0
163 185 0
168 191 0
169 192 0
170 191 0
163 185 0
162 183 0
168 189 0
166 189 0
170 192 0
174 197 108
171 195 84
173 195 88
174 198 92
170 194 67
174 197 99
171 194 76
172 195 102
174 196 114
173 196 114
173 196 84
174 197 84
162 186 95
175 198 111
172 194 92
166 189 67
174 197 99
172 195 108
168 191 92
170 193 102
170 194 99
169 193 105
167 190 72
167 190 92
171 194 84
170 193 111
170 194 92
169 192 108
167 190 114
168 191 84
166 190 95
170 194 114
168 192 99
170 193 102
163 187 102
170 193 80
171 194 108
165 188 84
161 183 76
166 189 99
169 192 84
168 190 88
170 194 128
162 185 84
173 195 102
166 188 105
165 189 108
163 186 95
161 183 80
166 189 95
163 185 67
160 182 80
163 186 80
168 191 92
159 181 76
161 184 76
167 189 84
169 191 95
166 188 99
168 190 95
171 194 111
163 186 84
150 172 72
167 190 105
160 183 114
164 187 95
167 189 80
164 186 84
154 176 67
165 188 99
167 189 111
167 189 80
159 180 88
163 185 102
164 186 92
159 181 102
154 176 76
157 179 95
164 185 108
158 181 84
158 179 105
158 179 84
157 178 92
159 180 95
159 180 92
167 188 102
161 183 117
162 183 108
156 177 76
161 182 99
164 184 105
165 186 120
162 183 120
159 179 92
154 175 88
153 174 88
154 176 84
162 183 95
160 178 122
155 174 111
172 193 125
166 187 92
160 178 95
163 183 108
155 176 88
145 165 88
148 169 76
153 172 99
151 170 88
152 173 80
152 172 95
151 170 84
143 164 51
145 167 62
144 164 80
156 176 92
150 172 36
150 171 0
139 160 0
154 175 36
148 169 25
148 171 25
142 163 36
142 163 44
141 162 0
142 162 51
146 167 0
147 169 0
149 169 25
138 160 36
157 179 0
152 174 25
157 179 0
164 186 0
161 183 0
162 183 0
150 172 0
147 169 0
147 168 0
151 173 0
143 165 0
147 170 0
147 168 0
146 168 0
140 161 0
142 163 0
128 148 0
139 161 0
135 156 0
138 158 0
142 163 0
133 154 0
139 159 0
137 157 0
133 154 0
138 157 0
133 154 0
126 147 0
139 159 0
138 158 0
130 150 0
133 153 0
137 157 0
137 156 0
133 154 0
138 159 0
137 156 0
129 149 0
133 153 0
118 137 0
130 149 0
131 151 0
135 155 0
132 151 0
135 153 0
137 158 0
131 151 0
140 160 0
135 154 0
132 153 0
120 139 0
127 146 0
128 148 0
132 152 0
125 146 0
133 152 0
131 151 0
136 157 0
127 148 0
120 139 0
135 156 0
137 156 0
129 150 0
133 153 0
144 165 0
139 161 0
132 151 0
137 157 0
137 157 0
147 166 0
139 160 0
139 159 0
138 159 0
139 159 0
145 167 0
140 160 0
135 155 0
135 155 0
135 156 0
134 155 0
144 164 0
128 149 0
137 157 0
143 163 0
141 162 0
140 160 0
130 151 0
136 155 0
135 155 0
143 164 0
144 166 0
134 153 0
138 160 0
136 157 0
139 159 0
141 163 0
137 158 0
141 163 0
143 164 0
140 160 0
138 159 0
143 163 0
140 162 0
143 164 0
143 162 0
146 168 0
142 162 0
146 167 0
148 168 0
144 164 0
147 167 0
149 170 0
146 166 0
147 168 0
135 157 0
142 164 0
151 172 0
139 160 0
143 165 0
149 170 0
142 163 0
151 172 0
151 172 0
135 156 0
145 166 0
148 169 0
147 168 0
149 169 0
148 169 0
149 169 0
144 165 0
148 169 0
156 179 0
150 173 0
149 168 0
145 166 0
149 171 0
146 165 0
155 177 0
150 172 0
149 170 0
149 172 0
156 177 0
150 170 0
150 171 0
142 163 0
153 175 0
151 171 0
149 170 0
151 172 0
152 174 0
155 175 0
159 181 0
158 180 0
148 170 0
153 173 0
155 177 0
152 173 0
154 176 0
152 173 0
155 177 0
154 174 0
155 174 0
150 171 0
162 183 0
155 177 0
157 178 0
156 177 0
164 186 0
151 171 0
152 174 0
155 175 0
159 180 0
159 181 0
160 181 0
158 179 0
161 183 0
158 179 0
161 182 0
154 177 0
157 177 0
159 181 0
160 182 0
162 181 0
157 178 0
162 183 0
160 181 0
161 183 0
160 181 0
156 179 0
160 182 0
162 184 0
162 184 0
165 187 0
164 185 0
160 182 0
159 181 0
160 181 0
162 182 0
163 184 0
159 181 0
163 184 0
160 181 0
163 184 0
161 181 0
161 184 0
162 184 0
159 180 0
160 182 0
165 185 0
157 178 0
164 186 0
162 183 0
164 187 0
160 181 0
158 178 0
165 186 0
163 186 0
164 186 0
165 188 0
165 186 0
162 184 0
160 182 0
165 187 0
162 183 0
161 183 0
164 185 0
165 187 0
165 186 0
164 186 0
165 188 0
164 184 0
168 190 0
169 191 0
165 185 0
164 185 0
171 192 0
162 182 0
165 188 0
164 187 0
166 188 0
166 188 0
168 190 0
163 185 0
166 187 0
165 186 0
169 190 0
164 184 0
168 191 0
166 188 0
167 188 0
167 189 0
165 186 0
163 183 0
164 186 0
161 181 0
166 187 0
161 181 0
166 187 0
167 188 0
167 188 0
167 188 0
164 185 0
166 188 0
171 193 0
166 188 0
170 191 0
168 190 0
166 188 0
171 192 0
174 198 108
172 194 84
175 198 84
173 196 88
175 198 108
172 195 88
171 194 99
174 197 88
173 195 84
174 196 92
166 190 102
170 193 92
167 189 99
174 197 99
169 192 80
173 196 92
171 195 92
169 193 92
168 191 99
174 197 95
170 193 99
172 195 84
170 192 99
175 198 114
174 197 117
174 197 122
171 193 84
169 192 99
165 188 88
166 189 88
172 194 76
169 192 105
170 193 105
168 191 108
169 192 102
168 191 95
169 192 76
170 194 120
169 190 99
166 189 84
163 186 84
165 188 99
169 193 84
170 193 102
165 189 114
168 192 99
169 192 92
166 189 95
161 184 105
165 189 120
165 188 95
168 191 102
164 187 84
162 186 99
162 184 95
164 187 88
165 188 88
165 188 95
162 184 84
160 182 99
164 187 128
156 179 92
163 186 99
159 182 88
157 179 80
165 188 76
163 185 88
162 184 92
164 185 84
162 185 92
161 184 105
166 187 95
168 189 84
164 185 111
165 187 102
164 185 72
162 183 99
151 174 92
155 176 80
162 183 80
166 189 117
168 189 95
158 179 99
164 185 95
164 186 80
164 186 102
159 179 88
162 183 111
166 187 92
153 173 76
156 177 92
154 175 95
158 178 105
163 183 88
166 186 114
160 180 99
158 179 102
158 179 88
153 174 92
160 180 108
158 179 92
159 179 92
158 178 95
161 181 99
153 173 80
162 183 92
147 168 72
151 171 88
156 176 84
161 181 76
144 164 76
159 179 92
155 176 76
154 175 57
150 171 67
151 171 51
154 175 36
149 170 0
151 171 0
156 177 0
144 166 0
150 173 25
130 151 25
152 173 25
145 167 25
139 161 36
139 160 25
137 158 36
143 164 25
139 159 0
151 172 0
158 180 0
156 177 0
154 177 0
153 175 0
148 169 0
157 179 0
147 169 0
146 167 0
144 166 0
143 164 0
141 163 0
146 166 0
146 167 0
139 161 0
143 165 0
135 156 0
144 164 0
129 150 0
138 159 0
137 157 0
139 161 0
141 162 0
143 164 0
131 152 0
140 162 0
138 160 0
141 161 0
139 160 0
132 152 0
132 151 0
146 166 0
145 166 0
135 156 0
141 163 0
131 152 0
120 141 0
135 156 0
137 157 0
139 159 0
129 150 0
129 150 0
135 155 0
135 156 0
139 160 0
137 158 0
125 146 0
132 151 0
132 152 0
127 148 0
134 153 0
128 148 0
135 156 0
139 159 0
129 149 0
129 149 0
132 151 0
139 159 0
130 149 0
143 162 0
139 159 0
144 165 0
126 146 0
130 151 0
132 152 0
138 158 0
125 145 0
136 157 0
129 151 0
145 167 0
144 164 0
138 159 0
127 146 0
140 161 0
139 160 0
140 161 0
134 154 0
128 148 0
128 149 0
128 149 0
123 143 0
144 165 0
135 156 0
146 165 0
147 168 0
145 167 0
142 164 0
135 156 0
133 154 0
150 170 0
145 165 0
142 164 0
149 169 0
137 156 0
149 169 0
146 167 0
139 159 0
140 161 0
147 168 0
143 164 0
137 158 0
142 163 0
137 158 0
144 165 0
138 158 0
148 170 0
149 171 0
144 165 0
144 165 0
139 158 0
144 164 0
147 168 0
147 168 0
145 166 0
145 165 0
153 175 0
143 163 0
145 166 0
152 173 0
149 170 0
145 165 0
144 164 0
146 168 0
145 166 0
152 173 0
154 177 0
151 173 0
143 165 0
143 163 0
146 168 0
147 167 0
147 169 0
147 168 0
143 164 0
157 178 0
152 172 0
150 170 0
151 172 0
158 181 0
152 171 0
148 168 0
147 168 0
153 175 0
156 177 0
152 174 0
155 177 0
157 178 0
158 181 0
144 164 0
147 168 0
158 180 0
156 178 0
145 166 0
156 179 0
153 173 0
158 179 0
156 177 0
156 177 0
157 179 0
156 177 0
157 178 0
156 179 0
152 175 0
157 179 0
160 180 0
154 175 0
159 178 0
160 181 0
162 184 0
158 180 0
159 181 0
159 180 0
157 178 0
164 185 0
163 185 0
162 183 0
161 183 0
156 177 0
150 171 0
160 181 0
157 179 0
162 182 0
158 178 0
165 186 0
163 184 0
158 178 0
165 188 0
155 177 0
160 181 0
165 188 0
162 184 0
160 183 0
160 181 0
163 184 0
162 183 0
158 180 0
159 180 0
163 184 0
161 182 0
160 181 0
163 185 0
163 184 0
163 185 0
159 179 0
160 181 0
162 184 0
164 186 0
167 188 0
165 186 0
166 188 0
163 184 0
159 181 0
165 186 0
166 187 0
163 184 0
158 178 0
166 188 0
162 184 0
163 183 0
165 186 0
163 184 0
164 187 0
162 182 0
168 190 0
164 186 0
162 182 0
163 185 0
162 184 0
159 180 0
169 192 0
162 184 0
166 188 0
164 185 0
164 186 0
168 189 0
165 187 0
165 189 0
159 181 0
165 188 0
168 189 0
166 186 0
166 187 0
162 184 0
166 188 0
166 186 0
162 185 0
168 189 0
162 183 0
166 187 0
167 188 0
169 190 0
163 186 0
167 188 0
161 183 0
169 191 0
165 187 0
166 185 0
170 191 0
164 186 0
168 189 0
169 190 0
168 191 0
165 187 0
167 189 0
162 183 0
168 191 0
169 191 0
165 186 0
167 188 0
163 185 0
175 197 92
173 196 76
173 196 88
176 200 114
174 196 105
168 191 102
172 196 95
170 194 92
172 195 92
168 192 88
171 194 108
166 188 99
174 197 105
171 193 117
169 192 80
171 194 88
174 198 120
168 192 80
174 197 92
167 190 95
165 188 76
166 189 84
169 192 84
169 193 88
173 195 102
170 193 76
164 187 88
168 191 105
165 188 84
163 186 88
169 192 99
169 192 108
169 192 108
169 192 111
170 193 84
171 194 76
166 189 84
171 194 108
161 184 95
164 186 72
170 193 114
171 195 111
170 193 117
170 193 99
161 184 84
163 186 84
164 186 62
170 193 111
161 184 76
163 186 108
156 178 72
168 191 114
165 188 80
164 187 84
166 188 92
164 187 99
164 186 108
163 184 92
163 186 111
165 187 76
168 190 105
166 187 84
164 185 92
160 182 80
161 183 105
167 189 99
165 187 114
159 181 72
167 189 84
160 182 84
166 188 92
165 187 111
156 177 92
166 188 102
159 181 88
168 191 105
159 181 88
163 184 95
165 187 92
163 185 117
166 187 84
163 185 105
163 185 84
164 185 84
167 188 105
163 184 105
163 185 95
155 178 88
164 184 111
165 186 111
158 179 92
157 178 105
153 174 67
154 175 102
154 175 80
160 180 88
161 182 80
163 184 99
161 181 108
158 178 92
166 187 92
165 185 95
162 183 95
161 181 95
160 180 95
158 178 72
155 173 105
154 174 92
156 178 72
160 180 88
151 172 67
161 181 76
150 170 67
146 166 57
150 171 72
153 174 44
154 176 36
144 165 36
154 175 25
150 171 25
150 171 25
145 165 44
143 165 51
147 167 44
144 165 0
142 163 44
144 165 0
149 170 25
147 169 25
146 168 0
149 171 25
156 178 0
160 181 0
160 182 0
155 177 0
153 175 0
154 175 0
153 175 0
150 173 0
145 166 0
147 169 0
150 172 0
152 174 0
142 163 0
146 167 0
147 168 0
152 173 0
135 155 0
144 166 0
134 154 0
126 148 0
139 160 0
153 173 25
143 164 0
145 165 0
135 155 0
139 159 0
133 153 0
136 157 0
142 164 0
140 161 0
126 147 0
125 145 0
129 150 0
133 154 0
133 154 0
132 151 0
135 156 0
129 149 0
133 154 0
135 156 0
127 147 0
136 156 0
131 152 0
136 157 0
135 155 0
138 159 0
135 155 0
140 160 0
144 164 0
140 161 0
135 155 0
139 159 0
133 153 0
136 157 0
136 156 0
128 148 0
129 149 0
143 163 0
136 157 0
138 158 0
140 160 0
129 149 0
147 169 0
134 153 0
135 156 0
132 154 0
141 162 0
134 156 0
135 156 0
138 157 0
139 160 0
143 163 0
135 155 0
144 166 0
137 158 0
138 158 0
131 152 0
136 157 0
139 159 0
139 159 0
143 164 0
142 162 0
140 159 0
154 176 0
146 167 0
147 168 0
134 154 0
135 155 0
145 166 0
141 161 0
132 152 0
138 158 0
138 159 0
146 166 0
140 161 0
137 157 0
147 168 0
145 166 0
148 170 0
141 160 0
140 161 0
140 160 0
143 164 0
147 167 0
134 157 0
144 164 0
144 166 0
149 171 0
146 166 0
149 171 0
142 163 0
143 163 0
148 168 0
145 166 0
149 170 0
150 170 0
150 172 0
143 163 0
144 165 0
146 167 0
147 169 0
138 158 0
148 168 0
149 171 0
149 171 0
149 170 0
148 169 0
156 179 0
150 170 0
151 172 0
149 169 0
149 170 0
144 166 0
155 177 0
148 169 0
150 170 0
147 168 0
155 176 0
159 180 0
149 170 0
159 180 0
149 170 0
149 171 0
152 171 0
152 172 0
151 170 0
152 172 0
152 172 0
148 170 0
153 173 0
157 179 0
151 173 0
157 178 0
153 174 0
155 175 0
150 171 0
149 170 0
157 179 0
158 178 0
159 179 0
154 175 0
164 187 0
154 175 0
156 177 0
156 177 0
158 181 0
154 175 0
157 179 0
158 179 0
157 177 0
154 176 0
163 183 0
163 187 0
157 178 0
159 181 0
162 185 0
158 181 0
157 179 0
156 179 0
159 181 0
162 183 0
159 179 0
165 186 0
159 180 0
161 182 0
161 184 0
151 171 0
163 184 0
157 177 0
159 181 0
162 184 0
159 180 0
161 183 0
163 184 0
160 181 0
164 185 0
159 181 0
163 185 0
155 176 0
155 177 0
161 183 0
163 185 0
157 178 0
156 178 0
165 187 0
161 182 0
163 185 0
159 179 0
167 189 0
167 189 0
158 179 0
161 183 0
163 185 0
161 182 0
165 187 0
162 183 0
162 184 0
162 184 0
160 181 0
161 183 0
168 190 0
162 184 0
164 185 0
168 190 0
164 186 0
162 184 0
161 182 0
167 189 0
156 178 0
167 189 0
169 191 0
167 189 0
166 190 0
160 181 0
168 189 0
163 185 0
166 188 0
163 185 0
165 185 0
167 189 0
161 181 0
163 184 0
170 193 0
169 190 0
165 186 0
169 190 0
169 191 0
165 187 0
167 188 0
170 193 0
166 188 0
167 189 0
167 189 0
164 187 0
168 188 0
169 192 0
163 183 0
167 189 0
167 189 0
168 190 0
169 190 0
168 189 0
165 187 0
168 188 0
168 189 0
162 184 0
167 190 0
168 190 0
167 190 0
177 200 99
172 195 102
175 198 92
171 194 72
175 198 99
175 198 92
179 202 105
176 198 108
170 192 99
177 200 114
174 197 99
171 194 114
171 194 84
171 194 99
170 192 105
170 194 105
173 195 99
175 198 111
169 192 95
168 191 92
178 200 120
166 189 95
168 192 95
167 190 108
166 189 62
174 197 135
168 191 95
170 193 76
165 187 84
168 191 92
169 192 92
169 192 95
167 191 88
170 194 108
169 191 99
165 188 102
169 192 105
169 192 84
171 195 114
163 187 88
169 192 95
173 195 114
167 190 102
160 182 84
160 182 84
171 194 108
167 190 92
167 191 108
168 192 99
160 183 99
167 190 92
160 183 99
166 189 120
168 190 111
164 187 84
171 193 105
161 184 92
159 181 80
161 183 105
162 184 76
166 189 102
165 187 80
163 185 108
162 185 95
153 175 76
168 191 108
165 187 92
162 184 99
159 180 99
166 188 92
165 186 84
162 184 99
163 185 125
157 179 80
167 188 102
167 189 88
166 188 105
160 181 105
156 178 88
162 184 102
158 179 99
165 186 76
157 180 95
157 178 92
164 185 80
160 182 72
169 189 95
166 187 99
166 187 117
161 182 99
154 175 67
163 184 102
164 185 111
158 179 84
163 184 105
160 180 111
157 176 95
152 173 92
164 185 102
164 184 111
153 173 72
151 172 67
153 174 84
157 177 84
160 181 80
154 173 88
159 180 102
160 181 80
160 180 99
162 182 92
149 170 80
154 174 76
152 173 67
156 177 67
151 171 57
143 163 36
143 164 0
144 165 25
150 171 36
144 165 0
143 165 0
146 167 25
150 172 44
152 173 36
148 170 25
140 161 25
148 169 0
149 170 51
146 168 0
154 176 0
140 162 25
157 180 0
159 180 0
157 177 0
154 175 0
156 178 0
159 182 0
154 176 0
154 176 0
149 170 0
144 166 0
139 160 0
147 169 0
137 158 0
139 161 0
135 156 0
133 155 0
139 160 0
137 158 0
138 158 0
147 169 0
135 156 0
137 158 0
134 154 0
142 162 0
133 154 0
142 163 0
133 153 0
141 162 0
132 154 0
142 161 0
136 157 0
132 152 0
138 158 0
138 158 0
137 158 0
131 151 0
132 152 0
127 146 0
145 166 0
143 163 0
138 158 0
138 157 0
140 161 0
130 150 0
137 158 0
137 159 0
139 158 0
142 163 0
133 153 0
131 152 0
139 160 0
140 160 0
137 158 0
137 157 0
128 147 0
145 166 0
141 161 0
140 161 0
140 161 0
136 157 0
134 155 0
136 156 0
126 146 0
142 163 0
127 148 0
139 160 0
132 153 0
143 162 0
142 163 0
134 155 0
130 150 0
132 153 0
136 157 0
143 164 0
151 172 0
131 154 0
143 166 0
132 152 0
140 160 0
136 155 0
139 159 0
136 157 0
141 162 0
142 162 0
142 164 0
138 159 0
131 152 0
148 168 0
144 163 0
146 167 0
137 159 0
140 159 0
136 158 0
146 168 0
135 155 0
146 167 0
146 167 0
137 157 0
141 162 0
141 162 0
148 169 0
132 153 0
143 163 0
151 171 0
139 161 0
154 175 0
147 167 0
143 164 0
140 162 0
143 164 0
145 165 0
146 167 0
139 158 0
146 167 0
147 168 0
149 170 0
149 170 0
149 170 0
147 169 0
153 175 0
149 170 0
159 180 0
144 165 0
145 166 0
149 172 0
155 176 0
152 173 0
154 175 0
146 167 0
153 175 0
146 167 0
150 171 0
151 171 0
153 175 0
151 172 0
149 171 0
148 168 0
158 179 0
146 167 0
152 173 0
154 177 0
152 173 0
154 174 0
151 171 0
157 178 0
153 173 0
162 183 0
154 175 0
160 181 0
150 172 0
153 173 0
157 178 0
159 180 0
157 179 0
157 179 0
156 178 0
159 180 0
154 175 0
158 181 0
163 183 0
151 173 0
157 178 0
157 179 0
149 170 0
157 179 0
155 176 0
159 181 0
164 186 0
154 176 0
158 180 0
163 186 0
152 174 0
158 178 0
163 185 0
159 180 0
151 174 0
161 183 0
164 187 0
157 177 0
162 185 0
155 177 0
164 185 0
154 176 0
158 181 0
162 183 0
163 185 0
162 183 0
161 181 0
157 179 0
160 182 0
166 188 0
162 184 0
166 187 0
161 181 0
160 182 0
165 187 0
155 177 0
161 182 0
157 179 0
162 183 0
161 183 0
163 186 0
161 182 0
167 188 0
158 179 0
161 182 0
165 185 0
164 186 0
164 188 0
164 184 0
166 188 0
163 185 0
169 189 0
160 182 0
166 188 0
163 185 0
163 184 0
166 187 0
162 183 0
162 184 0
163 185 0
165 186 0
166 188 0
167 188 0
165 185 0
164 184 0
163 186 0
163 186 0
167 188 0
159 179 0
164 186 0
163 185 0
163 186 0
166 188 0
164 186 0
166 188 0
161 182 0
167 187 0
167 190 0
162 183 0
165 186 0
167 189 0
167 189 0
166 188 0
162 185 0
167 190 0
165 188 0
168 188 0
167 189 0
169 191 0
168 191 0
168 188 0
167 188 0
166 188 0
161 183 0
168 189 0
171 194 0
167 188 0
168 191 0
168 190 0
165 186 0
164 185 0
166 188 0
170 193 0
165 186 0
168 191 0
167 187 0
171 191 0
169 191 0
177 200 122
170 193 76
167 191 67
174 196 114
166 190 84
177 200 108
172 195 102
172 195 99
174 197 108
167 190 80
170 193 80
174 197 88
172 194 111
168 190 88
173 196 76
170 194 102
175 198 108
166 190 92
164 187 88
171 195 114
174 196 95
175 198 117
170 192 76
167 190 102
175 197 95
169 192 95
170 193 111
171 194 105
169 193 84
171 194 95
173 195 95
174 196 95
168 191 84
170 193 108
173 197 108
167 191 92
165 188 102
170 193 95
166 189 72
164 186 84
168 191 95
168 191 88
175 198 99
168 190 88
169 191 95
167 190 111
169 193 99
163 186 120
171 194 95
158 180 84
166 188 80
161 184 80
173 195 105
163 185 95
171 193 108
170 192 88
173 195 102
165 188 99
165 187 99
162 184 80
164 186 88
171 193 99
166 189 102
163 186 117
169 191 117
159 182 105
166 189 80
167 189 114
159 181 99
165 187 102
163 185 95
166 189 95
162 184 80
159 181 95
160 181 72
162 183 99
163 185 102
160 182 80
159 181 84
166 188 133
161 184 84
158 180 80
163 185 99
163 185 99
158 180 102
157 178 99
159 181 105
159 180 95
159 180 99
163 183 88
159 180 88
164 185 111
161 182 102
163 184 102
160 180 111
159 179 92
159 179 95
154 174 88
158 179 84
167 187 99
152 172 88
162 182 76
150 170 67
165 185 108
153 173 92
156 177 57
164 184 92
158 177 99
163 183 92
166 185 99
153 173 80
159 180 76
154 175 67
155 176 44
150 171 62
156 177 57
150 172 25
150 172 0
142 163 0
148 170 25
153 173 36
147 169 25
149 171 36
156 178 57
146 169 0
149 172 0
148 169 0
148 172 0
149 170 25
154 177 36
154 175 25
163 185 0
166 187 0
155 177 0
153 175 0
151 173 0
154 175 0
160 183 0
144 166 0
149 172 0
145 167 0
150 170 0
144 165 0
148 169 0
140 162 0
133 155 0
151 172 0
154 176 0
140 161 0
146 167 0
147 168 0
146 168 0
145 167 0
143 164 0
140 160 0
138 159 0
134 155 0
138 158 0
141 161 0
136 157 0
141 162 0
138 159 0
122 142 0
131 152 0
138 159 0
125 146 0
132 153 0
139 159 0
130 150 0
141 162 0
134 155 0
134 156 0
144 166 0
143 165 0
138 159 0
134 154 0
140 160 0
139 160 0
146 168 0
138 158 0
136 156 0
141 162 0
131 151 0
129 150 0
129 150 0
131 152 0
140 160 0
134 155 0
135 156 0
130 150 0
129 150 0
137 157 0
130 151 0
136 157 0
142 163 0
124 145 0
130 151 0
138 159 0
137 158 0
144 165 0
130 151 0
129 149 0
138 158 0
134 155 0
144 164 0
139 160 0
135 156 0
126 147 0
139 160 0
146 168 0
131 151 0
144 165 0
139 159 0
146 166 0
148 170 0
143 164 0
145 166 0
148 170 0
134 155 0
147 169 0
151 172 0
145 166 0
137 159 0
141 162 0
137 159 0
143 164 0
134 154 0
150 171 0
140 163 0
147 168 0
148 171 0
139 160 0
143 164 0
142 164 0
139 161 0
139 160 0
149 171 0
141 161 0
146 168 0
148 170 0
151 172 0
157 179 0
153 175 0
153 174 0
142 164 0
142 163 0
144 163 0
146 168 0
150 170 0
154 177 0
141 163 0
145 167 0
144 165 0
147 168 0
149 171 0
149 170 0
141 163 0
154 174 0
147 169 0
153 176 0
156 178 0
157 179 0
150 172 0
152 172 0
150 171 0
152 174 0
148 170 0
153 175 0
152 173 0
154 175 0
156 178 0
150 170 0
158 181 0
153 174 0
153 174 0
157 178 0
159 181 0
157 178 0
157 178 0
156 179 0
153 176 0
156 177 0
154 175 0
161 183 0
152 174 0
157 178 0
154 176 0
158 180 0
154 176 0
157 177 0
147 167 0
157 178 0
152 173 0
160 181 0
157 179 0
157 178 0
149 170 0
160 181 0
158 179 0
155 174 0
156 177 0
158 180 0
163 183 0
155 176 0
156 178 0
164 186 0
160 182 0
155 177 0
161 183 0
161 183 0
158 178 0
160 180 0
161 182 0
157 178 0
159 181 0
161 181 0
159 181 0
158 181 0
158 179 0
164 186 0
162 183 0
160 183 0
158 180 0
156 178 0
159 181 0
165 188 0
167 189 0
165 188 0
163 183 0
163 185 0
165 189 0
159 179 0
158 180 0
159 181 0
163 184 0
164 187 0
162 184 0
164 185 0
160 181 0
163 185 0
160 184 0
164 185 0
162 183 0
160 181 0
164 187 0
164 185 0
161 182 0
167 189 0
158 179 0
159 181 0
164 186 0
159 179 0
163 184 0
166 189 0
164 186 0
165 187 0
164 186 0
167 189 0
163 184 0
166 188 0
165 188 0
166 188 0
165 186 0
163 183 0
165 186 0
164 187 0
160 182 0
165 187 0
164 187 0
167 189 0
168 189 0
162 184 0
165 186 0
170 192 0
165 187 0
167 190 0
171 193 0
172 193 0
167 188 0
167 188 0
165 185 0
164 187 0
163 185 0
166 188 0
165 187 0
164 187 0
165 187 0
165 186 0
166 188 0
167 189 0
164 186 0
166 189 0
170 191 0
169 191 0
168 191 0
168 190 0
168 190 0
163 184 0
171 193 0
168 191 0
175 198 92
168 191 92
171 194 99
174 197 105
172 195 88
175 198 92
174 197 105
173 195 92
174 196 99
174 196 95
170 192 84
173 196 92
172 195 108
174 197 95
170 192 102
168 191 84
167 190 102
170 194 95
167 190 80
167 190 76
166 189 105
174 197 102
166 189 80
175 198 99
174 197 117
168 191 105
171 194 108
171 195 111
168 191 99
164 187 95
165 188 88
173 196 111
167 190 88
169 191 105
167 190 117
169 192 102
162 185 99
168 191 84
168 191 95
167 190 95
165 188 92
172 194 88
171 193 95
167 190 105
165 188 99
166 189 108
166 188 95
164 186 62
167 189 99
165 187 95
159 181 80
168 190 88
161 183 95
168 190 102
167 189 111
153 175 67
167 191 84
162 184 84
163 185 88
166 188 111
164 187 88
159 181 92
161 183 88
162 183 84
154 176 84
169 191 99
164 185 105
161 183 72
164 185 105
163 185 80
163 184 95
167 188 84
161 184 88
161 184 102
164 186 92
164 184 80
166 188 105
162 183 84
161 182 105
152 173 76
164 187 117
149 170 84
157 178 72
157 177 108
158 179 92
161 183 114
162 183 102
160 181 111
167 188 111
156 178 80
160 182 88
158 179 102
161 181 80
155 176 92
158 179 84
162 183 84
159 180 108
160 180 102
158 179 99
154 174 88
164 185 80
164 184 92
154 174 67
158 178 95
150 171 72
154 174 95
160 178 102
150 171 72
147 167 80
156 176 84
151 171 76
159 178 99
159 181 57
151 171 44
157 177 44
146 168 36
156 177 25
151 172 0
153 175 51
153 173 25
144 165 44
141 163 25
149 172 25
150 171 25
149 171 0
145 168 0
146 167 25
153 174 36
149 172 25
153 176 25
152 174 0
158 182 0
157 178 0
151 172 0
155 177 0
164 187 0
150 173 0
151 174 0
152 174 0
152 175 0
149 172 0
148 170 0
144 166 0
147 169 0
138 158 0
141 162 0
142 164 0
152 173 0
150 173 0
149 169 0
134 154 0
146 167 0
141 162 0
129 149 0
145 164 0
135 156 0
145 165 0
139 160 0
140 162 0
134 155 0
144 164 0
133 155 0
144 165 0
136 157 0
130 151 0
138 159 0
134 155 0
139 160 0
144 165 0
126 147 0
133 153 0
141 162 0
141 162 0
141 161 0
133 154 0
136 156 0
142 163 0
136 157 0
140 162 0
136 156 0
134 154 0
130 150 0
137 159 0
140 160 0
138 160 0
133 154 0
138 159 0
140 161 0
141 162 0
140 161 0
141 161 0
139 160 0
125 146 0
143 164 0
132 153 0
146 166 0
138 158 0
129 150 0
136 157 0
129 150 0
142 163 0
145 166 0
139 160 0
141 162 0
132 154 0
146 168 0
140 162 0
137 158 0
144 165 0
132 153 0
138 159 0
146 168 0
148 169 0
137 158 0
140 160 0
144 164 0
144 165 0
145 165 0
142 163 0
140 161 0
149 171 0
139 160 0
148 168 0
144 166 0
142 164 0
144 163 0
148 170 0
145 168 0
140 163 0
143 165 0
143 165 0
140 163 0
144 165 0
149 170 0
147 168 0
144 166 0
147 167 0
146 167 0
146 166 0
151 173 0
147 168 0
135 155 0
144 165 0
149 172 0
152 173 0
145 166 0
139 160 0
148 171 0
149 170 0
146 168 0
148 169 0
147 169 0
144 166 0
151 172 0
144 165 0
148 169 0
149 170 0
147 165 0
150 172 0
150 171 0
148 168 0
151 173 0
150 173 0
152 173 0
151 172 0
153 175 0
154 175 0
144 165 0
156 178 0
153 174 0
159 178 0
160 181 0
155 175 0
152 173 0
155 175 0
158 180 0
160 182 0
146 169 0
160 182 0
154 176 0
158 179 0
156 178 0
154 175 0
156 178 0
161 181 0
158 179 0
158 181 0
154 174 0
161 182 0
152 173 0
154 176 0
159 180 0
161 183 0
159 181 0
152 174 0
154 177 0
158 178 0
151 171 0
158 181 0
155 178 0
155 175 0
160 181 0
165 187 0
158 179 0
160 182 0
160 182 0
157 178 0
156 176 0
153 174 0
160 181 0
163 184 0
164 185 0
161 181 0
158 179 0
155 176 0
154 175 0
166 186 0
167 188 0
161 182 0
164 186 0
163 184 0
158 180 0
162 182 0
161 183 0
164 186 0
161 183 0
164 184 0
166 187 0
162 183 0
165 188 0
168 191 0
162 184 0
161 182 0
162 183 0
165 187 0
165 188 0
166 189 0
161 183 0
163 185 0
165 185 0
159 180 0
162 183 0
165 187 0
160 182 0
163 185 0
163 183 0
167 189 0
161 184 0
165 186 0
164 185 0
165 185 0
164 185 0
165 187 0
165 187 0
167 189 0
163 185 0
165 188 0
166 188 0
165 187 0
166 186 0
167 189 0
158 178 0
161 183 0
167 189 0
162 183 0
164 186 0
163 184 0
167 189 0
166 187 0
165 188 0
164 185 0
161 182 0
159 180 0
163 185 0
168 189 0
164 188 0
165 185 0
165 188 0
170 192 0
167 191 0
166 188 0
166 188 0
165 187 0
166 190 0
167 189 0
166 189 0
164 186 0
166 189 0
170 191 0
169 190 0
169 190 0
167 189 0
167 188 0
167 188 0
162 184 0
167 189 0
168 190 0
166 189 0
169 191 0
165 188 0
173 196 95
172 195 99
169 192 92
174 197 92
175 198 102
170 193 99
173 195 92
170 192 84
172 195 92
176 199 120
175 198 99
170 193 95
170 192 95
169 192 72
174 197 95
175 197 95
172 195 72
172 195 108
170 193 99
173 195 102
171 194 105
168 192 92
169 192 95
172 194 105
165 189 92
172 195 99
168 190 108
173 195 99
168 190 92
166 189 95
172 196 117
164 185 76
168 191 84
168 191 80
173 195 84
167 191 105
164 187 57
172 194 99
168 190 80
171 195 95
162 185 92
170 192 88
162 184 95
169 193 111
175 198 108
165 188 84
166 190 84
165 188 84
169 191 95
164 187 95
169 191 76
167 189 114
164 187 105
163 185 92
166 188 92
167 190 99
153 175 88
168 190 105
163 185 99
161 182 88
167 189 102
160 182 88
163 186 102
162 183 111
165 187 114
169 191 111
170 192 92
163 185 95
166 187 92
170 192 99
165 187 88
162 185 95
161 183 95
163 184 76
163 184 92
161 183 102
160 181 88
156 178 80
164 184 111
167 188 102
159 180 80
170 192 130
165 187 102
160 181 84
161 183 95
155 177 88
156 177 92
162 184 92
159 180 88
160 181 92
159 179 92
158 179 92
156 177 80
155 175 92
158 179 99
169 189 114
158 179 76
160 180 80
151 171 95
153 174 99
155 176 80
161 181 95
160 180 84
147 168 84
155 175 88
156 177 84
156 176 84
162 183 92
150 170 84
159 180 84
148 169 57
146 167 72
149 170 51
156 177 51
157 178 62
148 168 57
149 170 51
150 171 25
151 173 44
157 177 0
151 173 25
153 175 25
152 174 44
145 167 25
154 176 44
147 168 44
160 181 36
156 178 0
156 177 0
144 165 25
148 169 36
157 180 0
164 187 0
159 181 0
154 176 0
147 169 0
156 178 0
153 174 0
157 179 0
152 174 0
151 172 0
150 171 0
147 169 0
146 169 0
144 165 0
157 178 0
144 166 0
140 161 0
145 165 0
141 163 0
138 159 0
145 166 0
147 169 0
136 158 0
136 156 0
138 160 0
146 167 0
140 161 0
139 161 0
137 158 0
133 154 0
134 154 0
154 174 0
131 151 0
141 162 0
142 162 0
134 155 0
136 156 0
133 154 0
146 166 0
144 165 0
133 154 0
125 145 0
131 151 0
142 164 0
138 159 0
140 161 0
145 165 0
137 156 0
139 161 0
135 156 0
136 156 0
144 166 0
144 165 0
141 163 0
140 161 0
144 164 0
140 161 0
141 163 0
143 164 0
139 160 0
138 159 0
144 165 0
143 163 0
134 155 0
138 159 0
134 156 0
147 167 0
141 161 0
132 152 0
139 160 0
140 161 0
143 164 0
145 165 0
139 160 0
137 158 0
152 171 0
143 163 0
138 161 0
141 161 0
137 159 0
145 167 0
150 171 0
139 160 0
141 162 0
139 160 0
141 162 0
142 164 0
143 164 0
135 156 0
140 160 0
138 159 0
147 167 0
146 167 0
143 163 0
137 159 0
137 159 0
147 169 0
145 166 0
138 159 0
149 171 0
143 163 0
146 168 0
151 173 0
139 158 0
151 172 0
152 172 0
146 168 0
150 171 0
144 165 0
154 174 0
148 170 0
151 173 0
143 166 0
146 166 0
148 170 0
150 173 0
156 178 0
145 167 0
153 173 0
150 171 0
150 171 0
154 174 0
147 169 0
150 171 0
151 172 0
151 172 0
149 171 0
149 172 0
146 167 0
153 174 0
148 171 0
152 173 0
159 180 0
154 175 0
153 175 0
155 177 0
150 170 0
151 172 0
154 174 0
154 177 0
152 173 0
152 174 0
146 166 0
153 174 0
152 174 0
149 171 0
164 185 0
153 175 0
150 170 0
157 179 0
154 176 0
152 173 0
152 173 0
155 177 0
158 181 0
156 177 0
156 178 0
156 178 0
155 175 0
151 172 0
161 182 0
161 184 0
159 181 0
159 181 0
160 182 0
155 176 0
153 174 0
158 180 0
157 178 0
156 176 0
161 182 0
159 180 0
155 178 0
166 187 0
163 184 0
155 177 0
160 182 0
162 184 0
152 174 0
159 180 0
161 182 0
159 181 0
162 184 0
163 185 0
158 179 0
162 185 0
161 184 0
159 181 0
162 185 0
160 181 0
161 184 0
159 180 0
163 186 0
164 186 0
161 183 0
161 183 0
156 178 0
166 188 0
156 176 0
159 179 0
160 181 0
158 179 0
166 186 0
162 182 0
163 184 0
154 175 0
163 186 0
162 184 0
161 183 0
162 184 0
160 181 0
157 179 0
161 183 0
164 186 0
161 184 0
163 186 0
164 187 0
163 186 0
164 185 0
163 185 0
162 183 0
162 183 0
163 185 0
163 185 0
160 181 0
168 189 0
166 189 0
167 190 0
166 186 0
165 188 0
166 189 0
160 183 0
165 187 0
163 185 0
167 189 0
161 183 0
166 187 0
167 189 0
162 186 0
164 187 0
169 190 0
161 182 0
168 189 0
164 185 0
162 184 0
165 188 0
168 191 0
167 190 0
164 185 0
165 187 0
163 185 0
165 187 0
169 191 0
164 185 0
162 183 0
163 186 0
167 190 0
165 188 0
166 188 0
164 185 0
164 184 0
167 188 0
172 195 0
167 190 0
166 186 0
164 185 0
169 191 0
164 187 0
171 192 0
179 201 111
176 198 114
172 195 88
172 195 92
170 194 84
173 196 92
173 196 114
172 195 92
175 197 99
169 192 95
169 192 95
168 191 72
170 194 76
164 188 67
169 193 84
169 191 95
169 192 80
169 192 122
177 200 92
166 189 84
171 194 95
176 198 105
174 197 111
177 201 130
165 187 62
171 194 105
170 194 105
173 196 92
162 184 92
171 195 108
170 192 80
168 191 105
168 190 95
171 194 102
165 188 102
169 192 92
168 191 92
164 187 92
165 187 88
169 192 99
167 190 99
168 192 92
167 189 114
167 189 84
166 189 102
166 189 102
163 185 84
168 190 102
163 186 99
168 191 88
169 191 92
168 190 76
164 187 80
168 191 99
170 192 95
162 185 95
159 181 72
167 187 99
168 190 88
165 187 95
168 191 92
165 187 108
162 184 80
163 186 117
169 190 92
162 183 108
158 180 99
153 175 76
166 187 99
164 186 84
155 176 88
162 184 80
159 181 95
164 185 111
158 180 95
164 186 95
165 188 76
171 191 114
163 184 92
166 187 111
157 178 95
162 183 84
158 179 84
160 182 92
163 183 95
151 172 80
158 179 99
167 188 95
166 186 105
153 174 105
155 175 99
153 175 72
163 184 95
158 178 92
162 182 99
156 176 105
154 175 80
155 175 95
165 186 84
156 177 84
161 182 62
159 180 95
163 183 105
160 180 76
165 186 88
157 177 99
159 179 102
160 180 92
160 180 92
152 173 84
156 178 57
159 179 80
157 178 57
159 181 36
153 173 57
146 168 36
149 170 36
153 175 0
153 175 0
154 176 0
157 179 51
144 167 0
151 173 36
147 169 44
150 173 44
150 172 25
156 178 36
148 169 36
149 170 44
155 178 25
159 182 0
158 179 0
158 180 0
159 182 0
160 183 0
157 179 0
147 170 0
152 175 0
143 165 0
154 175 0
147 169 0
152 173 0
151 173 0
147 169 0
143 165 0
150 171 0
145 167 0
146 168 0
136 157 0
137 158 0
139 160 0
145 166 0
141 163 0
146 168 0
146 167 0
141 162 0
138 159 0
145 167 0
144 164 0
140 160 0
145 165 0
143 165 0
143 164 0
142 163 0
137 159 0
136 156 0
150 170 0
135 154 0
134 154 0
134 155 0
136 157 0
131 151 0
142 164 0
134 155 0
136 156 0
136 156 0
136 157 0
128 148 0
127 147 0
136 157 0
138 158 0
138 158 0
135 156 0
133 154 0
137 158 0
132 152 0
138 159 0
145 166 0
138 160 0
147 168 0
132 153 0
143 165 0
142 162 0
134 154 0
136 157 0
146 168 0
143 165 0
137 158 0
138 158 0
135 155 0
139 161 0
144 165 0
137 158 0
136 157 0
132 153 0
138 160 0
140 162 0
146 168 0
144 165 0
136 157 0
137 159 0
138 160 0
155 176 0
146 168 0
136 158 0
139 160 0
142 163 0
145 167 0
147 167 0
142 164 0
148 170 0
136 157 0
147 169 0
143 165 0
152 174 0
145 167 0
143 165 0
150 171 0
148 171 0
144 166 0
144 165 0
150 170 0
142 163 0
147 168 0
146 168 0
145 166 0
144 165 0
152 174 0
151 173 0
149 171 0
140 163 0
149 169 0
148 171 0
150 172 0
148 168 0
146 169 0
145 165 0
141 162 0
151 174 0
147 169 0
153 175 0
148 170 0
152 175 0
149 171 0
154 173 0
151 173 0
148 168 0
150 173 0
155 177 0
154 175 0
151 173 0
154 175 0
156 178 0
156 177 0
156 177 0
150 171 0
157 178 0
155 178 0
154 175 0
146 168 0
158 179 0
147 169 0
160 182 0
156 178 0
157 180 0
152 173 0
154 177 0
160 181 0
152 173 0
156 176 0
152 173 0
159 180 0
156 177 0
150 171 0
155 176 0
152 173 0
153 175 0
157 180 0
158 180 0
158 179 0
155 177 0
158 179 0
151 174 0
161 181 0
157 179 0
160 184 0
165 187 0
157 178 0
158 180 0
153 175 0
158 179 0
157 178 0
166 187 0
159 182 0
159 180 0
158 181 0
160 182 0
163 186 0
153 176 0
160 182 0
158 181 0
160 181 0
161 183 0
159 182 0
160 181 0
160 182 0
162 184 0
161 183 0
160 181 0
160 182 0
164 187 0
160 181 0
163 185 0
163 183 0
158 180 0
165 187 0
165 187 0
159 181 0
161 182 0
164 185 0
160 182 0
162 184 0
159 179 0
160 182 0
162 184 0
162 183 0
163 185 0
163 184 0
166 189 0
167 189 0
162 184 0
160 182 0
168 191 0
162 185 0
165 184 0
163 184 0
161 183 0
163 185 0
167 188 0
165 186 0
166 188 0
169 192 0
163 184 0
161 181 0
160 183 0
162 182 0
158 180 0
167 189 0
164 186 0
162 184 0
167 189 0
165 185 0
164 186 0
162 185 0
166 189 0
169 190 0
158 180 0
168 191 0
164 187 0
164 187 0
166 187 0
164 186 0
159 180 0
164 185 0
165 188 0
172 194 0
164 185 0
165 186 0
170 192 0
167 190 0
168 190 0
167 187 0
167 189 0
163 184 0
162 183 0
170 193 0
166 188 0
169 191 0
172 194 0
171 193 0
170 192 0
168 189 0
170 191 0
168 190 0
169 191 0
165 186 0
169 191 0
172 194 0
168 190 0
172 193 0
176 199 95
174 197 80
174 197 92
172 194 99
178 200 117
174 197 108
174 197 99
175 197 105
174 197 102
173 196 114
171 194 88
174 197 99
167 189 84
178 201 130
172 194 99
167 190 84
172 195 122
172 196 102
168 191 84
172 194 108
166 188 84
178 200 111
167 189 105
171 195 80
171 194 80
165 187 72
171 193 92
168 190 92
166 189 84
170 193 99
170 193 111
171 193 102
171 194 105
171 194 102
169 191 80
169 192 105
170 192 80
167 189 80
167 190 99
165 187 92
165 188 84
173 195 102
159 181 76
171 194 92
171 193 99
156 179 76
169 192 92
165 189 84
164 187 111
160 182 95
174 196 102
165 188 102
166 189 95
167 190 105
165 187 99
167 189 95
159 181 84
168 190 111
161 184 88
171 193 111
165 187 102
161 183 111
169 190 76
164 186 108
166 188 84
164 185 84
166 188 99
161 182 95
165 188 92
161 182 105
165 186 95
166 188 102
163 185 95
165 186 80
166 188 99
157 178 80
162 184 99
171 193 99
155 176 92
157 178 102
164 186 92
161 183 99
167 188 114
161 182 95
171 191 108
157 178 95
153 173 92
162 183 92
167 188 99
158 178 102
162 182 76
155 176 88
155 177 67
161 182 99
157 177 88
158 178 76
153 173 76
159 179 76
155 176 67
165 187 99
157 177 95
163 184 88
157 178 67
151 172 76
158 178 80
159 179 84
152 171 84
161 182 84
156 176 88
157 176 62
155 175 80
157 178 36
154 175 0
153 174 51
146 166 62
152 174 44
146 167 25
153 175 44
147 168 36
152 174 57
159 180 25
151 172 25
153 175 36
152 174 36
154 177 44
154 175 44
154 176 36
158 179 25
153 174 25
147 169 0
161 184 0
159 182 0
155 177 0
162 184 0
155 179 0
157 178 0
159 180 0
151 173 0
157 179 0
144 163 0
148 169 0
153 174 0
151 173 0
154 175 0
150 172 0
144 168 0
145 166 0
147 169 0
142 162 0
147 168 0
142 164 0
144 164 0
138 160 0
142 163 0
147 167 0
138 160 0
147 168 0
131 152 0
132 153 0
138 158 0
132 154 0
142 163 0
144 165 0
138 157 0
140 160 0
140 161 0
136 157 0
149 170 0
140 160 0
141 161 0
131 152 0
137 158 0
135 157 0
142 163 0
134 155 0
135 156 0
137 158 0
139 160 0
147 168 0
134 155 0
149 171 0
139 160 0
142 163 0
146 166 0
143 164 0
150 171 0
144 165 0
137 158 0
144 166 0
142 162 0
134 156 0
141 162 0
142 164 0
136 158 0
136 156 0
139 159 0
136 157 0
136 157 0
144 163 0
144 165 0
141 163 0
141 161 0
142 163 0
134 156 0
148 170 0
141 162 0
136 157 0
140 162 0
135 156 0
142 164 0
141 162 0
138 159 0
141 162 0
149 171 0
149 171 0
145 167 0
146 167 0
137 159 0
147 169 0
145 166 0
144 166 0
136 158 0
137 158 0
139 160 0
146 168 0
145 166 0
148 170 0
152 175 0
147 169 0
153 174 0
144 164 0
152 173 0
144 164 0
158 181 0
147 169 0
140 162 0
154 176 0
139 159 0
144 165 0
146 168 0
151 171 0
148 167 0
149 170 0
152 172 0
145 165 0
154 176 0
157 179 0
157 179 0
154 176 0
147 168 0
154 176 0
153 175 0
144 164 0
145 165 0
143 164 0
161 182 0
148 171 0
154 175 0
150 170 0
149 171 0
157 177 0
153 174 0
154 175 0
149 170 0
163 185 0
148 169 0
154 176 0
156 179 0
159 181 0
156 178 0
151 174 0
151 173 0
155 175 0
150 171 0
154 176 0
150 172 0
155 177 0
154 177 0
154 174 0
151 170 0
158 179 0
157 178 0
154 176 0
151 172 0
158 179 0
153 174 0
158 180 0
151 172 0
144 165 0
159 181 0
153 174 0
158 180 0
154 175 0
159 181 0
160 182 0
159 182 0
155 175 0
158 180 0
159 181 0
156 178 0
157 179 0
161 183 0
158 180 0
159 179 0
166 189 0
157 178 0
164 186 0
157 179 0
156 176 0
164 186 0
158 179 0
163 185 0
162 183 0
160 182 0
158 180 0
151 172 0
160 182 0
156 177 0
166 188 0
161 184 0
160 181 0
163 183 0
160 183 0
161 182 0
155 178 0
157 179 0
162 184 0
167 189 0
162 183 0
166 187 0
162 183 0
169 191 0
165 188 0
162 184 0
159 181 0
163 185 0
161 183 0
162 183 0
159 180 0
166 188 0
163 185 0
159 180 0
162 184 0
158 180 0
162 183 0
165 187 0
162 184 0
161 183 0
164 184 0
165 187 0
167 190 0
162 184 0
166 188 0
166 188 0
167 188 0
169 191 0
165 187 0
164 187 0
167 190 0
166 187 0
160 184 0
170 191 0
162 183 0
167 189 0
167 190 0
163 185 0
168 190 0
164 186 0
164 188 0
164 187 0
168 190 0
164 186 0
165 186 0
166 188 0
164 185 0
168 190 0
166 188 0
168 190 0
166 188 0
165 186 0
168 190 0
165 186 0
169 191 0
165 187 0
163 187 0
170 192 0
166 188 0
166 188 0
164 185 0
167 189 0
167 190 0
170 192 0
166 188 0
167 188 0
170 193 0
168 190 0
170 193 0
168 189 0
163 185 0
166 188 0
173 196 102
177 199 122
171 194 84
173 195 84
175 197 102
175 198 114
172 194 102
173 196 99
177 200 114
176 199 117
171 194 102
174 197 102
170 193 88
172 195 102
172 195 88
170 194 95
176 199 111
169 192 84
170 193 84
174 196 99
172 195 88
176 198 111
170 192 80
171 193 92
170 193 88
168 192 102
165 188 105
170 192 88
170 193 92
173 196 108
168 192 95
168 191 99
173 196 122
167 190 99
171 194 99
167 190 95
169 191 105
167 191 105
166 189 95
170 192 99
169 192 84
169 191 88
162 184 67
169 192 92
169 191 84
168 191 117
166 188 80
170 192 111
161 183 92
163 184 67
165 187 88
164 186 95
160 182 84
168 190 111
169 190 111
163 186 67
162 184 99
166 187 95
164 187 111
161 185 105
169 192 99
164 186 84
169 192 102
164 186 88
160 182 92
161 183 76
165 187 80
167 189 117
170 191 84
164 186 88
166 187 102
162 183 99
159 180 80
167 187 111
157 178 92
157 179 105
157 179 102
167 188 102
159 180 92
160 180 99
160 182 95
172 193 117
158 179 84
163 184 102
156 178 102
166 187 105
166 187 88
173 192 125
164 186 88
166 186 105
167 188 105
164 185 92
168 188 120
162 182 122
159 180 102
169 189 122
158 179 88
162 183 67
162 183 76
163 183 84
155 175 88
160 181 84
154 174 80
149 170 76
155 176 92
159 179 72
160 180 84
163 183 88
154 174 84
154 176 57
158 178 84
152 173 62
155 177 44
154 175 51
157 178 72
153 174 57
152 174 51
151 173 25
148 170 25
156 177 0
145 167 36
147 169 44
159 181 36
152 174 57
152 173 25
149 171 44
141 163 0
151 173 0
156 178 36
154 176 0
162 184 0
158 181 0
157 179 0
163 185 0
157 178 0
154 177 0
156 179 0
148 171 0
154 176 0
154 177 0
154 178 0
156 177 0
144 165 0
150 173 0
142 164 0
147 169 0
150 171 0
148 170 0
139 162 0
149 171 0
149 169 0
138 160 0
147 168 0
134 153 0
137 157 0
149 170 0
149 169 0
145 166 0
143 165 0
139 160 0
141 163 0
136 156 0
146 166 0
144 165 0
140 161 0
144 165 0
143 164 0
140 161 0
143 164 0
143 165 0
141 162 0
139 159 0
137 159 0
139 160 0
148 169 0
133 154 0
141 162 0
141 162 0
141 163 0
137 158 0
141 162 0
144 165 0
135 156 0
132 152 0
139 160 0
136 158 0
143 164 0
137 158 0
134 154 0
140 163 0
137 160 0
138 159 0
138 160 0
138 159 0
148 170 0
139 160 0
139 158 0
137 159 0
138 160 0
139 160 0
136 158 0
143 164 0
144 166 0
148 168 0
141 161 0
143 165 0
136 158 0
147 167 0
143 165 0
137 156 0
141 161 0
145 168 0
144 166 0
141 161 0
144 166 0
142 164 0
149 170 0
147 168 0
145 166 0
146 168 0
141 162 0
146 168 0
138 159 0
152 173 0
147 167 0
144 164 0
137 158 0
147 169 0
152 174 0
141 162 0
151 173 0
137 159 0
141 162 0
153 174 0
152 175 0
157 178 0
153 175 0
147 167 0
135 157 0
138 160 0
144 165 0
149 171 0
151 172 0
151 171 0
147 169 0
140 160 0
149 168 0
147 169 0
150 171 0
151 173 0
146 168 0
155 176 0
147 168 0
143 164 0
154 176 0
154 176 0
151 173 0
153 175 0
158 180 0
150 173 0
151 172 0
149 171 0
153 175 0
155 178 0
160 182 0
147 168 0
157 178 0
162 184 0
156 179 0
154 176 0
155 178 0
150 172 0
160 182 0
156 178 0
155 177 0
156 178 0
154 177 0
159 181 0
149 170 0
162 182 0
154 175 0
158 179 0
151 173 0
156 177 0
156 178 0
162 186 0
152 175 0
156 179 0
160 181 0
157 179 0
151 174 0
157 178 0
153 176 0
159 180 0
154 175 0
160 184 0
157 178 0
159 181 0
154 176 0
160 180 0
158 179 0
161 183 0
154 176 0
152 174 0
159 179 0
160 182 0
160 182 0
160 182 0
158 179 0
158 179 0
165 187 0
162 183 0
163 184 0
159 181 0
162 183 0
161 184 0
163 183 0
163 186 0
159 181 0
161 183 0
160 183 0
162 184 0
160 181 0
163 185 0
161 185 0
160 182 0
162 185 0
163 184 0
164 187 0
162 185 0
162 186 0
163 185 0
167 190 0
162 184 0
165 188 0
163 183 0
162 183 0
166 187 0
166 188 0
161 183 0
159 184 0
163 186 0
168 190 0
168 189 0
164 187 0
161 182 0
161 182 0
161 183 0
164 186 0
167 188 0
166 188 0
163 184 0
162 184 0
162 185 0
165 188 0
167 189 0
163 186 0
164 185 0
164 186 0
165 186 0
160 181 0
163 184 0
163 185 0
167 189 0
162 184 0
165 186 0
170 191 0
163 186 0
167 188 0
167 189 0
159 180 0
164 186 0
163 184 0
165 186 0
164 185 0
166 188 0
168 190 0
168 192 0
168 190 0
165 186 0
162 184 0
163 185 0
165 188 0
166 187 0
170 191 0
167 190 0
166 189 0
170 192 0
163 186 0
170 192 0
166 188 0
167 191 0
169 191 0
167 190 0
171 193 0
167 189 0
166 188 0
167 190 0
166 188 0
167 190 0
174 197 102
172 194 92
174 197 88
175 197 95
175 197 102
177 200 117
178 201 108
171 194 95
172 195 99
170 192 92
172 196 84
172 195 84
169 192 95
173 196 92
174 197 117
173 195 114
164 186 80
170 193 99
170 192 111
175 197 111
172 194 108
170 193 105
173 197 111
168 193 84
172 194 88
171 194 99
171 194 105
166 189 84
170 193 80
170 193 108
177 199 108
172 195 99
166 189 95
171 193 105
171 194 99
171 195 105
167 191 88
163 187 84
169 192 95
170 192 84
167 190 99
172 196 137
169 191 84
168 191 84
170 191 99
172 194 111
164 186 80
168 191 95
167 189 95
165 188 105
172 194 111
164 186 88
167 189 95
165 187 84
168 190 105
159 181 99
164 186 102
170 192 108
163 185 92
163 184 88
166 188 88
166 188 105
166 189 88
162 185 84
161 183 95
170 193 111
160 182 95
160 182 76
164 184 72
169 191 105
162 183 102
162 182 88
170 191 120
162 183 88
163 183 88
158 178 95
165 187 102
167 188 80
164 185 108
158 179 102
167 188 84
167 188 102
162 183 95
163 185 80
163 185 72
165 186 99
157 178 111
166 187 117
168 189 88
158 179 105
164 184 102
167 188 111
165 186 122
167 188 99
165 186 102
163 184 72
159 179 84
163 184 76
163 184 84
162 183 95
156 177 67
160 181 84
162 182 72
159 179 51
160 179 88
165 186 95
165 185 84
159 179 51
157 178 76
159 180 67
156 177 76
165 186 67
157 179 57
147 169 57
149 171 25
153 174 51
158 180 25
156 178 44
152 175 0
160 181 62
153 174 0
152 175 0
155 177 51
155 176 25
150 172 25
155 177 25
145 167 44
156 178 36
145 167 25
157 180 25
164 187 0
164 187 0
162 184 0
162 185 0
158 180 0
150 172 0
155 177 0
154 176 0
156 179 0
146 168 0
154 177 0
146 168 0
155 176 0
150 171 0
148 168 0
146 168 0
149 171 0
149 170 0
146 168 0
146 169 0
147 168 0
139 160 0
144 164 0
136 156 0
144 165 0
140 161 0
140 162 0
138 158 0
146 166 0
134 155 0
139 160 0
139 161 0
146 167 0
140 162 0
140 162 0
147 169 0
149 171 0
147 168 0
134 153 0
138 159 0
148 169 0
142 163 0
145 167 0
143 163 0
140 161 0
146 169 0
138 160 0
150 172 0
146 167 0
134 155 0
141 163 0
148 169 0
140 162 0
134 155 0
138 160 0
140 162 0
144 164 0
144 165 0
144 165 0
147 168 0
142 164 0
139 160 0
136 157 0
137 158 0
138 158 0
144 165 0
144 167 0
143 164 0
137 157 0
140 161 0
149 169 0
139 160 0
139 160 0
144 166 0
154 175 0
148 168 0
136 156 0
148 168 0
144 165 0
149 169 0
142 165 0
138 159 0
138 160 0
153 175 0
149 170 0
143 163 0
143 165 0
149 170 0
146 167 0
144 167 0
142 164 0
133 155 0
143 165 0
143 164 0
149 171 0
144 165 0
147 169 0
141 163 0
138 160 0
142 163 0
149 172 0
153 176 0
145 166 0
145 168 0
139 161 0
144 166 0
150 171 0
153 176 0
148 168 0
148 170 0
148 170 0
150 171 0
145 167 0
144 166 0
151 173 0
151 173 0
148 170 0
156 178 0
150 171 0
151 172 0
150 173 0
148 170 0
146 168 0
148 170 0
156 178 0
152 173 0
146 168 0
146 166 0
152 174 0
153 174 0
153 175 0
157 178 0
148 170 0
151 173 0
157 180 0
160 183 0
155 178 0
153 176 0
155 178 0
158 179 0
150 172 0
160 182 0
151 172 0
156 176 0
155 177 0
154 176 0
157 179 0
162 183 0
152 173 0
153 174 0
147 170 0
150 172 0
154 176 0
160 181 0
152 173 0
155 178 0
161 183 0
155 176 0
157 179 0
164 185 0
157 180 0
157 179 0
156 179 0
159 180 0
159 180 0
160 182 0
155 178 0
162 185 0
158 180 0
155 176 0
157 180 0
156 178 0
162 183 0
160 181 0
165 186 0
155 177 0
163 184 0
158 178 0
160 180 0
165 187 0
163 186 0
161 184 0
159 181 0
163 185 0
160 182 0
158 180 0
155 177 0
159 179 0
153 174 0
161 184 0
164 186 0
159 181 0
167 188 0
158 180 0
165 187 0
169 191 0
165 187 0
157 179 0
165 187 0
164 186 0
162 183 0
159 181 0
160 181 0
165 186 0
166 188 0
164 186 0
163 185 0
163 184 0
163 184 0
161 183 0
162 183 0
167 187 0
168 189 0
166 187 0
165 187 0
159 181 0
166 188 0
160 182 0
166 187 0
168 190 0
165 187 0
166 188 0
164 185 0
166 188 0
164 185 0
163 185 0
167 189 0
167 189 0
166 188 0
166 187 0
168 190 0
165 186 0
163 185 0
167 189 0
162 184 0
167 189 0
169 190 0
166 189 0
166 188 0
169 190 0
164 186 0
166 188 0
166 188 0
168 189 0
163 184 0
169 191 0
166 187 0
165 186 0
169 192 0
167 189 0
170 191 0
164 186 0
167 188 0
165 186 0
167 190 0
166 187 0
164 186 0
167 188 0
165 186 0
171 193 0
167 190 0
168 191 0
165 187 0
167 189 0
166 188 0
171 192 0
168 191 0
169 192 0
168 192 0
164 187 0
