P3
400 225
255
204 226 255
204 226 255
204 226 255
204 226 255
204 226 255
204 226 255
204 226 255
204 226 255
204 226 255
204 226 255
204 226 255
204 226 255
204 226 255
204 226 255
204 226 255
203 226 255
203 226 255
203 226 255
203 226 255
203 226 255
203 226 255
203 226 255
203 226 255
203 225 255
203 225 255
203 225 255
203 225 255
203 225 255
203 225 255
203 225 255
203 225 255
203 225 255
202 225 255
202 225 255
202 225 255
202 225 255
202 225 255
202 225 255
202 225 255
202 225 255
202 225 255
202 225 255
202 225 255
202 225 255
202 225 255
202 225 255
202 225 255
202 225 255
201 225 255
201 225 255
201 225 255
201 225 255
201 225 255
201 224 255
201 224 255
201 224 255
201 224 255
201 224 255
201 224 255
201 224 255
201 224 255
201 224 255
201 224 255
200 224 255
200 224 255
200 224 255
200 224 255
200 224 255
200 224 255
200 224 255
200 224 255
200 224 255
200 224 255
200 224 255
200 224 255
200 224 255
200 224 255
200 224 255
199 224 255
199 224 255
199 223 255
199 223 255
199 223 255
199 223 255
199 223 255
199 223 255
199 223 255
199 223 255
199 223 255
199 223 255
199 223 255
199 223 255
198 223 255
198 223 255
198 223 255
198 223 255
198 223 255
198 223 255
198 223 255
198 223 255
198 223 255
198 223 255
198 223 255
198 223 255
198 223 255
198 223 255
197 223 255
197 222 255
197 222 255
197 222 255
197 222 255
197 222 255
197 222 255
197 222 255
197 222 255
197 222 255
197 222 255
197 222 255
197 222 255
197 222 255
197 222 255
196 222 255
196 222 255
196 222 255
196 222 255
196 222 255
196 222 255
196 222 255
196 222 255
196 222 255
196 222 255
196 222 255
196 222 255
196 222 255
196 222 255
196 221 255
196 221 255
195 221 255
195 221 255
195 221 255
195 221 255
195 221 255
195 221 255
195 221 255
195 221 255
195 221 255
195 221 255
195 221 255
195 221 255
195 221 255
195 221 255
195 221 255
195 221 255
195 221 255
195 221 255
194 221 255
194 221 255
194 221 255
194 221 255
194 221 255
194 221 255
194 221 255
194 221 255
194 221 255
194 221 255
194 221 255
194 221 255
194 221 255
194 221 255
194 221 255
194 221 255
194 221 255
194 221 255
194 221 255
194 221 255
194 221 255
194 221 255
194 220 255
194 220 255
194 220 255
194 220 255
194 220 255
194 220 255
194 220 255
194 220 255
194 220 255
193 220 255
193 220 255
193 220 255
193 220 255
193 220 255
193 220 255
193 220 255
193 220 255
193 220 255
193 220 255
193 220 255
193 220 255
193 220 255
193 220 255
193 220 255
193 220 255
193 220 255
193 220 255
193 220 255
193 220 255
193 220 255
193 220 255
193 220 255
193 220 255
193 220 255
193 220 255
193 220 255
193 220 255
194 220 255
194 220 255
194 220 255
194 220 255
194 220 255
194 220 255
194 220 255
194 220 255
194 220 255
194 221 255
194 221 255
194 221 255
194 221 255
194 221 255
194 221 255
194 221 255
194 221 255
194 221 255
194 221 255
194 221 255
194 221 255
194 221 255
194 221 255
194 221 255
194 221 255
194 221 255
194 221 255
194 221 255
194 221 255
194 221 255
194 221 255
195 221 255
195 221 255
195 221 255
195 221 255
195 221 255
195 221 255
195 221 255
195 221 255
195 221 255
195 221 255
195 221 255
195 221 255
195 221 255
195 221 255
195 221 255
195 221 255
195 221 255
195 221 255
195 221 255
196 221 255
196 222 255
196 222 255
196 222 255
196 222 255
196 222 255
196 222 255
196 222 255
196 222 255
196 222 255
196 222 255
196 222 255
196 222 255
196 222 255
196 222 255
197 222 255
197 222 255
197 222 255
197 222 255
197 222 255
197 222 255
197 222 255
197 222 255
197 222 255
197 222 255
197 222 255
197 222 255
197 222 255
197 222 255
197 222 255
198 223 255
198 223 255
198 223 255
198 223 255
198 223 255
198 223 255
198 223 255
198 223 255
198 223 255
198 223 255
198 223 255
198 223 255
198 223 255
198 223 255
199 223 255
199 223 255
199 223 255
199 223 255
199 223 255
199 223 255
199 223 255
199 223 255
199 223 255
199 223 255
199 223 255
199 223 255
199 224 255
199 224 255
199 224 255
200 224 255
200 224 255
200 224 255
200 224 255
200 224 255
200 224 255
200 224 255
200 224 255
200 224 255
200 224 255
200 224 255
200 224 255
200 224 255
200 224 255
201 224 255
201 224 255
201 224 255
201 224 255
201 224 255
201 224 255
201 224 255
201 224 255
201 224 255
201 224 255
201 224 255
201 225 255
201 225 255
201 225 255
201 225 255
202 225 255
202 225 255
202 225 255
202 225 255
202 225 255
202 225 255
202 225 255
202 225 255
202 225 255
202 225 255
202 225 255
202 225 255
202 225 255
202 225 255
202 225 255
202 225 255
203 225 255
203 225 255
203 225 255
203 225 255
203 225 255
203 225 255
203 225 255
203 225 255
203 225 255
203 226 255
203 226 255
203 226 255
203 226 255
203 226 255
203 226 255
203 226 255
203 226 255
204 226 255
204 226 255
204 226 255
204 226 255
204 226 255
204 226 255
204 226 255
204 226 255
204 226 255
204 226 255
204 226 255
204 226 255
204 226 255
204 226 255
204 226 255
204 226 255
204 226 255
204 226 255
204 226 255
204 226 255
204 226 255
204 226 255
204 226 255
204 226 255
204 226 255
204 226 255
204 226 255
204 226 255
204 226 255
204 226 255
204 226 255
204 226 255
204 226 255
203 226 255
203 226 255
203 226 255
203 226 255
203 226 255
203 226 255
203 226 255
203 225 255
203 225 255
203 225 255
203 225 255
203 225 255
203 225 255
203 225 255
203 225 255
203 225 255
202 225 255
202 225 255
202 225 255
202 225 255
202 225 255
202 225 255
202 225 255
202 225 255
202 225 255
202 225 255
202 225 255
202 225 255
202 225 255
202 225 255
202 225 255
202 225 255
201 225 255
201 225 255
201 225 255
201 225 255
201 225 255
201 224 255
201 224 255
201 224 255
201 224 255
201 224 255
201 224 255
201 224 255
201 224 255
201 224 255
201 224 255
200 224 255
200 224 255
200 224 255
200 224 255
200 224 255
200 224 255
200 224 255
200 224 255
200 224 255
200 224 255
200 224 255
200 224 255
200 224 255
200 224 255
200 224 255
199 224 255
199 224 255
199 223 255
199 223 255
199 223 255
199 223 255
199 223 255
199 223 255
199 223 255
199 223 255
199 223 255
199 223 255
199 223 255
199 223 255
198 223 255
198 223 255
198 223 255
198 223 255
198 223 255
198 223 255
198 223 255
198 223 255
198 223 255
198 223 255
198 223 255
198 223 255
198 223 255
198 223 255
197 223 255
197 222 255
197 222 255
197 222 255
197 222 255
197 222 255
197 222 255
197 222 255
197 222 255
197 222 255
197 222 255
197 222 255
197 222 255
197 222 255
197 222 255
196 222 255
196 222 255
196 222 255
196 222 255
196 222 255
196 222 255
196 222 255
196 222 255
196 222 255
196 222 255
196 222 255
196 222 255
196 222 255
196 222 255
196 222 255
196 221 255
195 221 255
195 221 255
195 221 255
195 221 255
195 221 255
195 221 255
195 221 255
195 221 255
195 221 255
195 221 255
195 221 255
195 221 255
195 221 255
195 221 255
195 221 255
195 221 255
195 221 255
195 221 255
195 221 255
195 221 255
194 221 255
194 221 255
194 221 255
194 221 255
194 221 255
194 221 255
194 221 255
194 221 255
194 221 255
194 221 255
194 221 255
194 221 255
194 221 255
194 221 255
194 221 255
194 221 255
194 221 255
194 221 255
194 221 255
194 221 255
194 221 255
194 221 255
194 221 255
194 221 255
194 220 255
194 220 255
194 220 255
194 220 255
194 220 255
194 220 255
194 220 255
194 220 255
194 220 255
194 220 255
194 220 255
194 220 255
194 220 255
194 220 255
194 220 255
194 220 255
194 220 255
194 220 255
194 220 255
194 220 255
194 220 255
194 220 255
194 220 255
194 220 255
194 220 255
194 220 255
194 220 255
194 220 255
194 220 255
194 220 255
194 220 255
194 220 255
194 220 255
194 220 255
194 221 255
194 221 255
194 221 255
194 221 255
194 221 255
194 221 255
194 221 255
194 221 255
194 221 255
194 221 255
194 221 255
194 221 255
194 221 255
194 221 255
194 221 255
194 221 255
194 221 255
194 221 255
194 221 255
194 221 255
194 221 255
194 221 255
194 221 255
194 221 255
194 221 255
195 221 255
195 221 255
195 221 255
195 221 255
195 221 255
195 221 255
195 221 255
195 221 255
195 221 255
195 221 255
195 221 255
195 221 255
195 221 255
195 221 255
195 221 255
195 221 255
195 221 255
195 221 255
195 221 255
196 221 255
196 222 255
196 222 255
196 222 255
196 222 255
196 222 255
196 222 255
196 222 255
196 222 255
196 222 255
196 222 255
196 222 255
196 222 255
196 222 255
196 222 255
196 222 255
197 222 255
197 222 255
197 222 255
197 222 255
197 222 255
197 222 255
197 222 255
197 222 255
197 222 255
197 222 255
197 222 255
197 222 255
197 222 255
197 222 255
197 223 255
198 223 255
198 223 255
198 223 255
198 223 255
198 223 255
198 223 255
198 223 255
198 223 255
198 223 255
198 223 255
198 223 255
198 223 255
198 223 255
198 223 255
199 223 255
199 223 255
199 223 255
199 223 255
199 223 255
199 223 255
199 223 255
199 223 255
199 223 255
199 223 255
199 223 255
199 223 255
199 224 255
199 224 255
200 224 255
200 224 255
200 224 255
200 224 255
200 224 255
200 224 255
200 224 255
200 224 255
200 224 255
200 224 255
200 224 255
200 224 255
200 224 255
200 224 255
200 224 255
201 224 255
201 224 255
201 224 255
201 224 255
201 224 255
201 224 255
201 224 255
201 224 255
201 224 255
201 224 255
201 225 255
201 225 255
201 225 255
201 225 255
201 225 255
202 225 255
202 225 255
202 225 255
202 225 255
202 225 255
202 225 255
202 225 255
202 225 255
202 225 255
202 225 255
202 225 255
202 225 255
202 225 255
202 225 255
202 225 255
202 225 255
203 225 255
203 225 255
203 225 255
203 225 255
203 225 255
203 225 255
203 225 255
203 225 255
203 225 255
203 226 255
203 226 255
203 226 255
203 226 255
203 226 255
203 226 255
203 226 255
204 226 255
204 226 255
204 226 255
204 226 255
204 226 255
204 226 255
204 226 255
204 226 255
204 226 255
204 226 255
204 226 255
204 226 255
204 226 255
204 226 255
204 226 255
204 226 255
204 226 255
204 226 255
205 226 255
205 226 255
204 226 255
204 226 255
204 226 255
204 226 255
204 226 255
204 226 255
204 226 255
204 226 255
204 226 255
204 226 255
204 226 255
204 226 255
204 226 255
204 226 255
204 226 255
204 226 255
204 226 255
204 226 255
203 226 255
203 226 255
203 226 255
203 226 255
203 226 255
203 226 255
203 226 255
203 225 255
203 225 255
203 225 255
203 225 255
203 225 255
203 225 255
203 225 255
203 225 255
203 225 255
202 225 255
202 225 255
202 225 255
202 225 255
202 225 255
202 225 255
202 225 255
202 225 255
202 225 255
202 225 255
202 225 255
202 225 255
202 225 255
202 225 255
202 225 255
202 225 255
201 225 255
201 225 255
201 225 255
201 225 255
201 225 255
201 224 255
201 224 255
201 224 255
201 224 255
201 224 255
201 224 255
201 224 255
201 224 255
201 224 255
201 224 255
200 224 255
200 224 255
200 224 255
200 224 255
200 224 255
200 224 255
200 224 255
200 224 255
200 224 255
200 224 255
200 224 255
200 224 255
200 224 255
200 224 255
200 224 255
199 224 255
199 224 255
199 223 255
199 223 255
199 223 255
199 223 255
199 223 255
199 223 255
199 223 255
199 223 255
199 223 255
199 223 255
199 223 255
199 223 255
198 223 255
198 223 255
198 223 255
198 223 255
198 223 255
198 223 255
198 223 255
198 223 255
198 223 255
198 223 255
198 223 255
198 223 255
198 223 255
198 223 255
197 223 255
197 222 255
197 222 255
197 222 255
197 222 255
197 222 255
197 222 255
197 222 255
197 222 255
197 222 255
197 222 255
197 222 255
197 222 255
197 222 255
197 222 255
196 222 255
196 222 255
196 222 255
196 222 255
196 222 255
196 222 255
196 222 255
196 222 255
196 222 255
196 222 255
196 222 255
196 222 255
196 222 255
196 222 255
196 222 255
196 221 255
195 221 255
195 221 255
195 221 255
195 221 255
195 221 255
195 221 255
195 221 255
195 221 255
195 221 255
195 221 255
195 221 255
195 221 255
195 221 255
195 221 255
195 221 255
195 221 255
195 221 255
195 221 255
195 221 255
195 221 255
195 221 255
194 221 255
194 221 255
194 221 255
194 221 255
194 221 255
194 221 255
194 221 255
194 221 255
194 221 255
194 221 255
194 221 255
194 221 255
194 221 255
194 221 255
194 221 255
194 221 255
194 221 255
194 221 255
194 221 255
194 221 255
194 221 255
194 221 255
194 221 255
194 221 255
194 221 255
194 221 255
194 221 255
194 221 255
194 221 255
194 221 255
194 220 255
194 220 255
194 220 255
194 220 255
194 220 255
194 220 255
194 220 255
194 220 255
194 220 255
194 220 255
194 220 255
194 220 255
194 220 255
194 220 255
194 220 255
194 220 255
194 221 255
194 221 255
194 221 255
194 221 255
194 221 255
194 221 255
194 221 255
194 221 255
194 221 255
194 221 255
194 221 255
194 221 255
194 221 255
194 221 255
194 221 255
194 221 255
194 221 255
194 221 255
194 221 255
194 221 255
194 221 255
194 221 255
194 221 255
194 221 255
194 221 255
194 221 255
194 221 255
194 221 255
194 221 255
194 221 255
195 221 255
195 221 255
195 221 255
195 221 255
195 221 255
195 221 255
195 221 255
195 221 255
195 221 255
195 221 255
195 221 255
195 221 255
195 221 255
195 221 255
195 221 255
195 221 255
195 221 255
195 221 255
195 221 255
195 221 255
196 221 255
196 221 255
196 222 255
196 222 255
196 222 255
196 222 255
196 222 255
196 222 255
196 222 255
196 222 255
196 222 255
196 222 255
196 222 255
196 222 255
196 222 255
196 222 255
196 222 255
197 222 255
197 222 255
197 222 255
197 222 255
197 222 255
197 222 255
197 222 255
197 222 255
197 222 255
197 222 255
197 222 255
197 222 255
197 222 255
197 222 255
197 223 255
198 223 255
198 223 255
198 223 255
198 223 255
198 223 255
198 223 255
198 223 255
198 223 255
198 223 255
198 223 255
198 223 255
198 223 255
198 223 255
198 223 255
199 223 255
199 223 255
199 223 255
199 223 255
199 223 255
199 223 255
199 223 255
199 223 255
199 223 255
199 223 255
199 223 255
199 223 255
199 224 255
199 224 255
200 224 255
200 224 255
200 224 255
200 224 255
200 224 255
200 224 255
200 224 255
200 224 255
200 224 255
200 224 255
200 224 255
200 224 255
200 224 255
200 224 255
200 224 255
201 224 255
201 224 255
201 224 255
201 224 255
201 224 255
201 224 255
201 224 255
201 224 255
201 224 255
201 224 255
201 225 255
201 225 255
201 225 255
201 225 255
201 225 255
202 225 255
202 225 255
202 225 255
202 225 255
202 225 255
202 225 255
202 225 255
202 225 255
202 225 255
202 225 255
202 225 255
202 225 255
202 225 255
202 225 255
202 225 255
203 225 255
203 225 255
203 225 255
203 225 255
203 225 255
203 225 255
203 225 255
203 225 255
203 225 255
203 225 255
203 226 255
203 226 255
203 226 255
203 226 255
203 226 255
203 226 255
203 226 255
204 226 255
204 226 255
204 226 255
204 226 255
204 226 255
204 226 255
204 226 255
204 226 255
204 226 255
204 226 255
204 226 255
204 226 255
204 226 255
204 226 255
204 226 255
204 226 255
204 226 255
204 226 255
205 226 255
205 226 255
205 226 255
205 226 255
205 226 255
205 226 255
204 226 255
204 226 255
204 226 255
204 226 255
204 226 255
204 226 255
204 226 255
204 226 255
204 226 255
204 226 255
204 226 255
204 226 255
204 226 255
204 226 255
204 226 255
204 226 255
204 226 255
204 226 255
203 226 255
203 226 255
203 226 255
203 226 255
203 226 255
203 226 255
203 226 255
203 226 255
203 225 255
203 225 255
203 225 255
203 225 255
203 225 255
203 225 255
203 225 255
203 225 255
203 225 255
202 225 255
202 225 255
202 225 255
202 225 255
202 225 255
202 225 255
202 225 255
202 225 255
202 225 255
202 225 255
202 225 255
202 225 255
202 225 255
202 225 255
202 225 255
201 225 255
201 225 255
201 225 255
201 225 255
201 225 255
201 224 255
201 224 255
201 224 255
201 224 255
201 224 255
201 224 255
201 224 255
201 224 255
201 224 255
201 224 255
200 224 255
200 224 255
200 224 255
200 224 255
200 224 255
200 224 255
200 224 255
200 224 255
200 224 255
200 224 255
200 224 255
200 224 255
200 224 255
200 224 255
200 224 255
199 224 255
199 224 255
199 223 255
199 223 255
199 223 255
199 223 255
199 223 255
199 223 255
199 223 255
199 223 255
199 223 255
199 223 255
199 223 255
199 223 255
198 223 255
198 223 255
198 223 255
198 223 255
198 223 255
198 223 255
198 223 255
198 223 255
198 223 255
198 223 255
198 223 255
198 223 255
198 223 255
198 223 255
197 223 255
197 222 255
197 222 255
197 222 255
197 222 255
197 222 255
197 222 255
197 222 255
197 222 255
197 222 255
197 222 255
197 222 255
197 222 255
197 222 255
197 222 255
196 222 255
196 222 255
196 222 255
196 222 255
196 222 255
196 222 255
196 222 255
196 222 255
196 222 255
196 222 255
196 222 255
196 222 255
196 222 255
196 222 255
196 222 255
196 222 255
196 221 255
195 221 255
195 221 255
195 221 255
195 221 255
195 221 255
195 221 255
195 221 255
195 221 255
195 221 255
195 221 255
195 221 255
195 221 255
195 221 255
195 221 255
195 221 255
195 221 255
195 221 255
195 221 255
195 221 255
195 221 255
195 221 255
194 221 255
194 221 255
194 221 255
194 221 255
194 221 255
194 221 255
194 221 255
194 221 255
194 221 255
194 221 255
194 221 255
194 221 255
194 221 255
194 221 255
194 221 255
194 221 255
194 221 255
194 221 255
194 221 255
194 221 255
194 221 255
194 221 255
194 221 255
194 221 255
194 221 255
194 221 255
194 221 255
194 221 255
194 221 255
194 221 255
194 221 255
194 221 255
194 221 255
194 221 255
194 221 255
194 221 255
194 221 255
194 221 255
194 221 255
194 221 255
194 221 255
194 221 255
194 221 255
194 221 255
194 221 255
194 221 255
194 221 255
194 221 255
194 221 255
194 221 255
194 221 255
194 221 255
194 221 255
194 221 255
194 221 255
194 221 255
194 221 255
194 221 255
194 221 255
194 221 255
194 221 255
194 221 255
194 221 255
194 221 255
194 221 255
194 221 255
194 221 255
194 221 255
194 221 255
194 221 255
195 221 255
195 221 255
195 221 255
195 221 255
195 221 255
195 221 255
195 221 255
195 221 255
195 221 255
195 221 255
195 221 255
195 221 255
195 221 255
195 221 255
195 221 255
195 221 255
195 221 255
195 221 255
195 221 255
195 221 255
195 221 255
196 221 255
196 222 255
196 222 255
196 222 255
196 222 255
196 222 255
196 222 255
196 222 255
196 222 255
196 222 255
196 222 255
196 222 255
196 222 255
196 222 255
196 222 255
196 222 255
196 222 255
197 222 255
197 222 255
197 222 255
197 222 255
197 222 255
197 222 255
197 222 255
197 222 255
197 222 255
197 222 255
197 222 255
197 222 255
197 222 255
197 222 255
197 223 255
198 223 255
198 223 255
198 223 255
198 223 255
198 223 255
198 223 255
198 223 255
198 223 255
198 223 255
198 223 255
198 223 255
198 223 255
198 223 255
198 223 255
199 223 255
199 223 255
199 223 255
199 223 255
199 223 255
199 223 255
199 223 255
199 223 255
199 223 255
199 223 255
199 223 255
199 223 255
199 224 255
199 224 255
200 224 255
200 224 255
200 224 255
200 224 255
200 224 255
200 224 255
200 224 255
200 224 255
200 224 255
200 224 255
200 224 255
200 224 255
200 224 255
200 224 255
200 224 255
201 224 255
201 224 255
201 224 255
201 224 255
201 224 255
201 224 255
201 224 255
201 224 255
201 224 255
201 224 255
201 225 255
201 225 255
201 225 255
201 225 255
201 225 255
202 225 255
202 225 255
202 225 255
202 225 255
202 225 255
202 225 255
202 225 255
202 225 255
202 225 255
202 225 255
202 225 255
202 225 255
202 225 255
202 225 255
202 225 255
203 225 255
203 225 255
203 225 255
203 225 255
203 225 255
203 225 255
203 225 255
203 225 255
203 225 255
203 226 255
203 226 255
203 226 255
203 226 255
203 226 255
203 226 255
203 226 255
203 226 255
204 226 255
204 226 255
204 226 255
204 226 255
204 226 255
204 226 255
204 226 255
204 226 255
204 226 255
204 226 255
204 226 255
204 226 255
204 226 255
204 226 255
204 226 255
204 226 255
204 226 255
204 226 255
205 226 255
205 226 255
205 226 255
205 226 255
205 226 255
205 226 255
205 226 255
205 226 255
205 226 255
205 226 255
205 226 255
204 226 255
204 226 255
204 226 255
204 226 255
204 226 255
204 226 255
204 226 255
204 226 255
204 226 255
204 226 255
204 226 255
204 226 255
204 226 255
204 226 255
204 226 255
204 226 255
204 226 255
204 226 255
203 226 255
203 226 255
203 226 255
203 226 255
203 226 255
203 226 255
203 226 255
203 225 255
203 225 255
203 225 255
203 225 255
203 225 255
203 225 255
203 225 255
203 225 255
203 225 255
202 225 255
202 225 255
202 225 255
202 225 255
202 225 255
202 225 255
202 225 255
202 225 255
202 225 255
202 225 255
202 225 255
202 225 255
202 225 255
202 225 255
202 225 255
201 225 255
201 225 255
201 225 255
201 225 255
201 225 255
201 224 255
201 224 255
201 224 255
201 224 255
201 224 255
201 224 255
201 224 255
201 224 255
201 224 255
201 224 255
200 224 255
200 224 255
200 224 255
200 224 255
200 224 255
200 224 255
200 224 255
200 224 255
200 224 255
200 224 255
200 224 255
200 224 255
200 224 255
200 224 255
200 224 255
199 224 255
199 224 255
199 223 255
199 223 255
199 223 255
199 223 255
199 223 255
199 223 255
199 223 255
199 223 255
199 223 255
199 223 255
199 223 255
199 223 255
198 223 255
198 223 255
198 223 255
198 223 255
198 223 255
198 223 255
198 223 255
198 223 255
198 223 255
198 223 255
198 223 255
198 223 255
198 223 255
198 223 255
198 223 255
197 222 255
197 222 255
197 222 255
197 222 255
197 222 255
197 222 255
197 222 255
197 222 255
197 222 255
197 222 255
197 222 255
197 222 255
197 222 255
197 222 255
197 222 255
196 222 255
196 222 255
196 222 255
196 222 255
196 222 255
196 222 255
196 222 255
196 222 255
196 222 255
196 222 255
196 222 255
196 222 255
196 222 255
196 222 255
196 222 255
196 221 255
196 221 255
195 221 255
195 221 255
195 221 255
195 221 255
195 221 255
195 221 255
195 221 255
195 221 255
195 221 255
195 221 255
195 221 255
195 221 255
195 221 255
195 221 255
195 221 255
195 221 255
195 221 255
195 221 255
195 221 255
195 221 255
195 221 255
195 221 255
194 221 255
194 221 255
194 221 255
194 221 255
194 221 255
194 221 255
194 221 255
194 221 255
194 221 255
194 221 255
194 221 255
194 221 255
194 221 255
194 221 255
194 221 255
194 221 255
194 221 255
194 221 255
194 221 255
194 221 255
194 221 255
194 221 255
194 221 255
194 221 255
194 221 255
194 221 255
194 221 255
194 221 255
194 221 255
194 221 255
194 221 255
194 221 255
194 221 255
194 221 255
194 221 255
194 221 255
194 221 255
194 221 255
194 221 255
194 221 255
194 221 255
194 221 255
194 221 255
194 221 255
194 221 255
194 221 255
194 221 255
194 221 255
194 221 255
194 221 255
194 221 255
194 221 255
194 221 255
194 221 255
194 221 255
194 221 255
194 221 255
194 221 255
194 221 255
194 221 255
194 221 255
194 221 255
195 221 255
195 221 255
195 221 255
195 221 255
195 221 255
195 221 255
195 221 255
195 221 255
195 221 255
195 221 255
195 221 255
195 221 255
195 221 255
195 221 255
195 221 255
195 221 255
195 221 255
195 221 255
195 221 255
195 221 255
195 221 255
195 221 255
196 221 255
196 221 255
196 222 255
196 222 255
196 222 255
196 222 255
196 222 255
196 222 255
196 222 255
196 222 255
196 222 255
196 222 255
196 222 255
196 222 255
196 222 255
196 222 255
196 222 255
197 222 255
197 222 255
197 222 255
197 222 255
197 222 255
197 222 255
197 222 255
197 222 255
197 222 255
197 222 255
197 222 255
197 222 255
197 222 255
197 222 255
197 222 255
197 223 255
198 223 255
198 223 255
198 223 255
198 223 255
198 223 255
198 223 255
198 223 255
198 223 255
198 223 255
198 223 255
198 223 255
198 223 255
198 223 255
198 223 255
199 223 255
199 223 255
199 223 255
199 223 255
199 223 255
199 223 255
199 223 255
199 223 255
199 223 255
199 223 255
199 223 255
199 223 255
199 224 255
199 224 255
200 224 255
200 224 255
200 224 255
200 224 255
200 224 255
200 224 255
200 224 255
200 224 255
200 224 255
200 224 255
200 224 255
200 224 255
200 224 255
200 224 255
200 224 255
201 224 255
201 224 255
201 224 255
201 224 255
201 224 255
201 224 255
201 224 255
201 224 255
201 224 255
201 224 255
201 225 255
201 225 255
201 225 255
201 225 255
201 225 255
202 225 255
202 225 255
202 225 255
202 225 255
202 225 255
202 225 255
202 225 255
202 225 255
202 225 255
202 225 255
202 225 255
202 225 255
202 225 255
202 225 255
202 225 255
203 225 255
203 225 255
203 225 255
203 225 255
203 225 255
203 225 255
203 225 255
203 225 255
203 225 255
203 226 255
203 226 255
203 226 255
203 226 255
203 226 255
203 226 255
203 226 255
203 226 255
204 226 255
204 226 255
204 226 255
204 226 255
204 226 255
204 226 255
204 226 255
204 226 255
204 226 255
204 226 255
204 226 255
204 226 255
204 226 255
204 226 255
204 226 255
204 226 255
204 226 255
205 226 255
205 226 255
205 226 255
205 226 255
205 226 255
205 226 255
205 226 255
205 227 255
205 227 255
205 226 255
205 226 255
205 226 255
205 226 255
205 226 255
205 226 255
205 226 255
204 226 255
204 226 255
204 226 255
204 226 255
204 226 255
204 226 255
204 226 255
204 226 255
204 226 255
204 226 255
204 226 255
204 226 255
204 226 255
204 226 255
204 226 255
204 226 255
204 226 255
204 226 255
203 226 255
203 226 255
203 226 255
203 226 255
203 226 255
203 226 255
203 226 255
203 225 255
203 225 255
203 225 255
203 225 255
203 225 255
203 225 255
203 225 255
203 225 255
203 225 255
202 225 255
202 225 255
202 225 255
202 225 255
202 225 255
202 225 255
202 225 255
202 225 255
202 225 255
202 225 255
202 225 255
202 225 255
202 225 255
202 225 255
202 225 255
202 225 255
201 225 255
201 225 255
201 225 255
201 225 255
201 224 255
201 224 255
201 224 255
201 224 255
201 224 255
201 224 255
201 224 255
201 224 255
201 224 255
201 224 255
200 224 255
200 224 255
200 224 255
200 224 255
200 224 255
200 224 255
200 224 255
200 224 255
200 224 255
200 224 255
200 224 255
200 224 255
200 224 255
200 224 255
200 224 255
199 224 255
199 224 255
199 223 255
199 223 255
199 223 255
199 223 255
199 223 255
199 223 255
199 223 255
199 223 255
199 223 255
199 223 255
199 223 255
199 223 255
198 223 255
198 223 255
198 223 255
198 223 255
198 223 255
198 223 255
198 223 255
198 223 255
198 223 255
198 223 255
198 223 255
198 223 255
198 223 255
198 223 255
198 223 255
197 222 255
197 222 255
197 222 255
197 222 255
197 222 255
197 222 255
197 222 255
197 222 255
197 222 255
197 222 255
197 222 255
197 222 255
197 222 255
197 222 255
197 222 255
196 222 255
196 222 255
196 222 255
196 222 255
196 222 255
196 222 255
196 222 255
196 222 255
196 222 255
196 222 255
196 222 255
196 222 255
196 222 255
196 222 255
196 222 255
196 222 255
196 221 255
196 221 255
195 221 255
195 221 255
195 221 255
195 221 255
195 221 255
195 221 255
195 221 255
195 221 255
195 221 255
195 221 255
195 221 255
195 221 255
195 221 255
195 221 255
195 221 255
195 221 255
195 221 255
195 221 255
195 221 255
195 221 255
195 221 255
195 221 255
195 221 255
194 221 255
194 221 255
194 221 255
194 221 255
194 221 255
194 221 255
194 221 255
194 221 255
194 221 255
194 221 255
194 221 255
194 221 255
194 221 255
194 221 255
194 221 255
194 221 255
194 221 255
194 221 255
194 221 255
194 221 255
194 221 255
194 221 255
194 221 255
194 221 255
194 221 255
194 221 255
194 221 255
194 221 255
194 221 255
194 221 255
194 221 255
194 221 255
194 221 255
194 221 255
194 221 255
194 221 255
194 221 255
194 221 255
194 221 255
194 221 255
194 221 255
194 221 255
194 221 255
194 221 255
194 221 255
194 221 255
194 221 255
194 221 255
194 221 255
194 221 255
194 221 255
194 221 255
194 221 255
194 221 255
195 221 255
195 221 255
195 221 255
195 221 255
195 221 255
195 221 255
195 221 255
195 221 255
195 221 255
195 221 255
195 221 255
195 221 255
195 221 255
195 221 255
195 221 255
195 221 255
195 221 255
195 221 255
195 221 255
195 221 255
195 221 255
195 221 255
195 221 255
195 221 255
196 221 255
196 222 255
196 222 255
196 222 255
196 222 255
196 222 255
196 222 255
196 222 255
196 222 255
196 222 255
196 222 255
196 222 255
196 222 255
196 222 255
196 222 255
196 222 255
196 222 255
197 222 255
197 222 255
197 222 255
197 222 255
197 222 255
197 222 255
197 222 255
197 222 255
197 222 255
197 222 255
197 222 255
197 222 255
197 222 255
197 222 255
197 222 255
198 223 255
198 223 255
198 223 255
198 223 255
198 223 255
198 223 255
198 223 255
198 223 255
198 223 255
198 223 255
198 223 255
198 223 255
198 223 255
198 223 255
198 223 255
199 223 255
199 223 255
199 223 255
199 223 255
199 223 255
199 223 255
199 223 255
199 223 255
199 223 255
199 223 255
199 223 255
199 223 255
199 224 255
199 224 255
200 224 255
200 224 255
200 224 255
200 224 255
200 224 255
200 224 255
200 224 255
200 224 255
200 224 255
200 224 255
200 224 255
200 224 255
200 224 255
200 224 255
200 224 255
201 224 255
201 224 255
201 224 255
201 224 255
201 224 255
201 224 255
201 224 255
201 224 255
201 224 255
201 224 255
201 225 255
201 225 255
201 225 255
201 225 255
201 225 255
202 225 255
202 225 255
202 225 255
202 225 255
202 225 255
202 225 255
202 225 255
202 225 255
202 225 255
202 225 255
202 225 255
202 225 255
202 225 255
202 225 255
202 225 255
203 225 255
203 225 255
203 225 255
203 225 255
203 225 255
203 225 255
203 225 255
203 225 255
203 225 255
203 226 255
203 226 255
203 226 255
203 226 255
203 226 255
203 226 255
203 226 255
204 226 255
204 226 255
204 226 255
204 226 255
204 226 255
204 226 255
204 226 255
204 226 255
204 226 255
204 226 255
204 226 255
204 226 255
204 226 255
204 226 255
204 226 255
204 226 255
204 226 255
204 226 255
205 226 255
205 226 255
205 226 255
205 226 255
205 226 255
205 226 255
205 226 255
205 227 255
205 227 255
205 227 255
205 227 255
205 227 255
205 227 255
205 226 255
205 226 255
205 226 255
205 226 255
205 226 255
205 226 255
205 226 255
205 226 255
204 226 255
204 226 255
204 226 255
204 226 255
204 226 255
204 226 255
204 226 255
204 226 255
204 226 255
204 226 255
204 226 255
204 226 255
204 226 255
204 226 255
204 226 255
204 226 255
204 226 255
203 226 255
203 226 255
203 226 255
203 226 255
203 226 255
203 226 255
203 226 255
203 225 255
203 225 255
203 225 255
203 225 255
203 225 255
203 225 255
203 225 255
203 225 255
203 225 255
202 225 255
202 225 255
202 225 255
202 225 255
202 225 255
202 225 255
202 225 255
202 225 255
202 225 255
202 225 255
202 225 255
202 225 255
202 225 255
202 225 255
202 225 255
202 225 255
201 225 255
201 225 255
201 225 255
201 225 255
201 224 255
201 224 255
201 224 255
201 224 255
201 224 255
201 224 255
201 224 255
201 224 255
201 224 255
201 224 255
200 224 255
200 224 255
200 224 255
200 224 255
200 224 255
200 224 255
200 224 255
200 224 255
200 224 255
200 224 255
200 224 255
200 224 255
200 224 255
200 224 255
200 224 255
199 224 255
199 224 255
199 223 255
199 223 255
199 223 255
199 223 255
199 223 255
199 223 255
199 223 255
199 223 255
199 223 255
199 223 255
199 223 255
199 223 255
198 223 255
198 223 255
198 223 255
198 223 255
198 223 255
198 223 255
198 223 255
198 223 255
198 223 255
198 223 255
198 223 255
198 223 255
198 223 255
198 223 255
198 223 255
197 222 255
197 222 255
197 222 255
197 222 255
197 222 255
197 222 255
197 222 255
197 222 255
197 222 255
197 222 255
197 222 255
197 222 255
197 222 255
197 222 255
197 222 255
196 222 255
196 222 255
196 222 255
196 222 255
196 222 255
196 222 255
196 222 255
196 222 255
196 222 255
196 222 255
196 222 255
196 222 255
196 222 255
196 222 255
196 222 255
196 222 255
196 221 255
196 221 255
195 221 255
195 221 255
195 221 255
195 221 255
195 221 255
195 221 255
195 221 255
195 221 255
195 221 255
195 221 255
195 221 255
195 221 255
195 221 255
195 221 255
195 221 255
195 221 255
195 221 255
195 221 255
195 221 255
195 221 255
195 221 255
195 221 255
195 221 255
195 221 255
195 221 255
195 221 255
195 221 255
194 221 255
194 221 255
194 221 255
194 221 255
194 221 255
194 221 255
194 221 255
194 221 255
194 221 255
194 221 255
194 221 255
194 221 255
194 221 255
194 221 255
194 221 255
194 221 255
194 221 255
194 221 255
194 221 255
194 221 255
194 221 255
194 221 255
194 221 255
194 221 255
194 221 255
194 221 255
194 221 255
194 221 255
194 221 255
194 221 255
194 221 255
194 221 255
194 221 255
194 221 255
194 221 255
194 221 255
194 221 255
194 221 255
194 221 255
194 221 255
194 221 255
194 221 255
194 221 255
195 221 255
195 221 255
195 221 255
195 221 255
195 221 255
195 221 255
195 221 255
195 221 255
195 221 255
195 221 255
195 221 255
195 221 255
195 221 255
195 221 255
195 221 255
195 221 255
195 221 255
195 221 255
195 221 255
195 221 255
195 221 255
195 221 255
195 221 255
195 221 255
195 221 255
195 221 255
196 221 255
196 222 255
196 222 255
196 222 255
196 222 255
196 222 255
196 222 255
196 222 255
196 222 255
196 222 255
196 222 255
196 222 255
196 222 255
196 222 255
196 222 255
196 222 255
196 222 255
197 222 255
197 222 255
197 222 255
197 222 255
197 222 255
197 222 255
197 222 255
197 222 255
197 222 255
197 222 255
197 222 255
197 222 255
197 222 255
197 222 255
197 222 255
197 222 255
198 223 255
198 223 255
198 223 255
198 223 255
198 223 255
198 223 255
198 223 255
198 223 255
198 223 255
198 223 255
198 223 255
198 223 255
198 223 255
198 223 255
198 223 255
199 223 255
199 223 255
199 223 255
199 223 255
199 223 255
199 223 255
199 223 255
199 223 255
199 223 255
199 223 255
199 223 255
199 223 255
199 224 255
199 224 255
200 224 255
200 224 255
200 224 255
200 224 255
200 224 255
200 224 255
200 224 255
200 224 255
200 224 255
200 224 255
200 224 255
200 224 255
200 224 255
200 224 255
201 224 255
201 224 255
201 224 255
201 224 255
201 224 255
201 224 255
201 224 255
201 224 255
201 224 255
201 224 255
201 224 255
201 225 255
201 225 255
201 225 255
201 225 255
202 225 255
202 225 255
202 225 255
202 225 255
202 225 255
202 225 255
202 225 255
202 225 255
202 225 255
202 225 255
202 225 255
202 225 255
202 225 255
202 225 255
202 225 255
202 225 255
203 225 255
203 225 255
203 225 255
203 225 255
203 225 255
203 225 255
203 225 255
203 225 255
203 225 255
203 226 255
203 226 255
203 226 255
203 226 255
203 226 255
203 226 255
203 226 255
204 226 255
204 226 255
204 226 255
204 226 255
204 226 255
204 226 255
204 226 255
204 226 255
204 226 255
204 226 255
204 226 255
204 226 255
204 226 255
204 226 255
204 226 255
204 226 255
204 226 255
205 226 255
205 226 255
205 226 255
205 226 255
205 226 255
205 226 255
205 226 255
205 226 255
205 227 255
205 227 255
205 227 255
205 227 255
205 227 255
205 227 255
205 227 255
205 227 255
205 227 255
205 227 255
205 227 255
205 226 255
205 226 255
205 226 255
205 226 255
205 226 255
205 226 255
205 226 255
204 226 255
204 226 255
204 226 255
204 226 255
204 226 255
204 226 255
204 226 255
204 226 255
204 226 255
204 226 255
204 226 255
204 226 255
204 226 255
204 226 255
204 226 255
204 226 255
204 226 255
203 226 255
203 226 255
203 226 255
203 226 255
203 226 255
203 226 255
203 226 255
203 226 255
203 225 255
203 225 255
203 225 255
203 225 255
203 225 255
203 225 255
203 225 255
203 225 255
203 225 255
202 225 255
202 225 255
202 225 255
202 225 255
202 225 255
202 225 255
202 225 255
202 225 255
202 225 255
202 225 255
202 225 255
202 225 255
202 225 255
202 225 255
202 225 255
201 225 255
201 225 255
201 225 255
201 225 255
201 224 255
201 224 255
201 224 255
201 224 255
201 224 255
201 224 255
201 224 255
201 224 255
201 224 255
201 224 255
201 224 255
200 224 255
200 224 255
200 224 255
200 224 255
200 224 255
200 224 255
200 224 255
200 224 255
200 224 255
200 224 255
200 224 255
200 224 255
200 224 255
200 224 255
199 224 255
199 224 255
199 224 255
199 223 255
199 223 255
199 223 255
199 223 255
199 223 255
199 223 255
199 223 255
199 223 255
199 223 255
199 223 255
199 223 255
198 223 255
198 223 255
198 223 255
198 223 255
198 223 255
198 223 255
198 223 255
198 223 255
198 223 255
198 223 255
198 223 255
198 223 255
198 223 255
198 223 255
198 223 255
197 222 255
197 222 255
197 222 255
197 222 255
197 222 255
197 222 255
197 222 255
197 222 255
197 222 255
197 222 255
197 222 255
197 222 255
197 222 255
197 222 255
197 222 255
197 222 255
196 222 255
196 222 255
196 222 255
196 222 255
196 222 255
196 222 255
196 222 255
196 222 255
196 222 255
196 222 255
196 222 255
196 222 255
196 222 255
196 222 255
196 222 255
196 222 255
196 221 255
196 221 255
195 221 255
195 221 255
195 221 255
195 221 255
195 221 255
195 221 255
195 221 255
195 221 255
195 221 255
195 221 255
195 221 255
195 221 255
195 221 255
195 221 255
195 221 255
195 221 255
195 221 255
195 221 255
195 221 255
195 221 255
195 221 255
195 221 255
195 221 255
195 221 255
195 221 255
195 221 255
195 221 255
195 221 255
195 221 255
195 221 255
194 221 255
194 221 255
194 221 255
194 221 255
194 221 255
194 221 255
194 221 255
194 221 255
194 221 255
194 221 255
194 221 255
194 221 255
194 221 255
194 221 255
194 221 255
194 221 255
194 221 255
194 221 255
194 221 255
194 221 255
194 221 255
194 221 255
194 221 255
194 221 255
194 221 255
194 221 255
194 221 255
194 221 255
194 221 255
194 221 255
195 221 255
195 221 255
195 221 255
195 221 255
195 221 255
195 221 255
195 221 255
195 221 255
195 221 255
195 221 255
195 221 255
195 221 255
195 221 255
195 221 255
195 221 255
195 221 255
195 221 255
195 221 255
195 221 255
195 221 255
195 221 255
195 221 255
195 221 255
195 221 255
195 221 255
195 221 255
195 221 255
195 221 255
195 221 255
195 221 255
196 221 255
196 222 255
196 222 255
196 222 255
196 222 255
196 222 255
196 222 255
196 222 255
196 222 255
196 222 255
196 222 255
196 222 255
196 222 255
196 222 255
196 222 255
196 222 255
196 222 255
196 222 255
197 222 255
197 222 255
197 222 255
197 222 255
197 222 255
197 222 255
197 222 255
197 222 255
197 222 255
197 222 255
197 222 255
197 222 255
197 222 255
197 222 255
197 222 255
197 223 255
198 223 255
198 223 255
198 223 255
198 223 255
198 223 255
198 223 255
198 223 255
198 223 255
198 223 255
198 223 255
198 223 255
198 223 255
198 223 255
198 223 255
198 223 255
199 223 255
199 223 255
199 223 255
199 223 255
199 223 255
199 223 255
199 223 255
199 223 255
199 223 255
199 223 255
199 223 255
199 223 255
199 224 255
199 224 255
200 224 255
200 224 255
200 224 255
200 224 255
200 224 255
200 224 255
200 224 255
200 224 255
200 224 255
200 224 255
200 224 255
200 224 255
200 224 255
200 224 255
201 224 255
201 224 255
201 224 255
201 224 255
201 224 255
201 224 255
201 224 255
201 224 255
201 224 255
201 224 255
201 224 255
201 225 255
201 225 255
201 225 255
201 225 255
202 225 255
202 225 255
202 225 255
202 225 255
202 225 255
202 225 255
202 225 255
202 225 255
202 225 255
202 225 255
202 225 255
202 225 255
202 225 255
202 225 255
202 225 255
202 225 255
203 225 255
203 225 255
203 225 255
203 225 255
203 225 255
203 225 255
203 225 255
203 225 255
203 226 255
203 226 255
203 226 255
203 226 255
203 226 255
203 226 255
203 226 255
203 226 255
204 226 255
204 226 255
204 226 255
204 226 255
204 226 255
204 226 255
204 226 255
204 226 255
204 226 255
204 226 255
204 226 255
204 226 255
204 226 255
204 226 255
204 226 255
204 226 255
204 226 255
205 226 255
205 226 255
205 226 255
205 226 255
205 226 255
205 226 255
205 226 255
205 227 255
205 227 255
205 227 255
205 227 255
205 227 255
205 227 255
205 227 255
205 227 255
205 227 255
205 227 255
205 227 255
205 227 255
205 227 255
205 227 255
205 227 255
205 227 255
205 226 255
205 226 255
205 226 255
205 226 255
205 226 255
205 226 255
205 226 255
204 226 255
204 226 255
204 226 255
204 226 255
204 226 255
204 226 255
204 226 255
204 226 255
204 226 255
204 226 255
204 226 255
204 226 255
204 226 255
204 226 255
204 226 255
204 226 255
204 226 255
204 226 255
203 226 255
203 226 255
203 226 255
203 226 255
203 226 255
203 226 255
203 226 255
203 225 255
203 225 255
203 225 255
203 225 255
203 225 255
203 225 255
203 225 255
203 225 255
203 225 255
202 225 255
202 225 255
202 225 255
202 225 255
202 225 255
202 225 255
202 225 255
202 225 255
202 225 255
202 225 255
202 225 255
202 225 255
202 225 255
202 225 255
202 225 255
201 225 255
201 225 255
201 225 255
201 225 255
201 224 255
201 224 255
201 224 255
201 224 255
201 224 255
201 224 255
201 224 255
201 224 255
201 224 255
201 224 255
201 224 255
200 224 255
200 224 255
200 224 255
200 224 255
200 224 255
200 224 255
200 224 255
200 224 255
200 224 255
200 224 255
200 224 255
200 224 255
200 224 255
200 224 255
199 224 255
199 224 255
199 224 255
199 223 255
199 223 255
199 223 255
199 223 255
199 223 255
199 223 255
199 223 255
199 223 255
199 223 255
199 223 255
199 223 255
199 223 255
198 223 255
198 223 255
198 223 255
198 223 255
198 223 255
198 223 255
198 223 255
198 223 255
198 223 255
198 223 255
198 223 255
198 223 255
198 223 255
198 223 255
197 223 255
197 222 255
197 222 255
197 222 255
197 222 255
197 222 255
197 222 255
197 222 255
197 222 255
197 222 255
197 222 255
197 222 255
197 222 255
197 222 255
197 222 255
197 222 255
196 222 255
196 222 255
196 222 255
196 222 255
196 222 255
196 222 255
196 222 255
196 222 255
196 222 255
196 222 255
196 222 255
196 222 255
196 222 255
196 222 255
196 222 255
196 222 255
196 222 255
196 222 255
196 221 255
195 221 255
195 221 255
195 221 255
195 221 255
195 221 255
195 221 255
195 221 255
195 221 255
195 221 255
195 221 255
195 221 255
195 221 255
195 221 255
195 221 255
195 221 255
195 221 255
195 221 255
195 221 255
195 221 255
195 221 255
195 221 255
195 221 255
195 221 255
195 221 255
195 221 255
195 221 255
195 221 255
195 221 255
195 221 255
195 221 255
195 221 255
195 221 255
195 221 255
195 221 255
195 221 255
195 221 255
195 221 255
195 221 255
195 221 255
195 221 255
195 221 255
195 221 255
195 221 255
195 221 255
195 221 255
195 221 255
195 221 255
195 221 255
195 221 255
195 221 255
195 221 255
195 221 255
195 221 255
195 221 255
195 221 255
195 221 255
195 221 255
195 221 255
195 221 255
195 221 255
195 221 255
195 221 255
195 221 255
195 221 255
195 221 255
195 221 255
195 221 255
195 221 255
195 221 255
195 221 255
195 221 255
195 221 255
195 221 255
195 221 255
195 221 255
195 221 255
195 221 255
195 221 255
195 221 255
195 221 255
195 221 255
195 221 255
195 221 255
196 221 255
196 221 255
196 222 255
196 222 255
196 222 255
196 222 255
196 222 255
196 222 255
196 222 255
196 222 255
196 222 255
196 222 255
196 222 255
196 222 255
196 222 255
196 222 255
196 222 255
196 222 255
196 222 255
197 222 255
197 222 255
197 222 255
197 222 255
197 222 255
197 222 255
197 222 255
197 222 255
197 222 255
197 222 255
197 222 255
197 222 255
197 222 255
197 222 255
197 222 255
197 222 255
198 223 255
198 223 255
198 223 255
198 223 255
198 223 255
198 223 255
198 223 255
198 223 255
198 223 255
198 223 255
198 223 255
198 223 255
198 223 255
198 223 255
198 223 255
199 223 255
199 223 255
199 223 255
199 223 255
199 223 255
199 223 255
199 223 255
199 223 255
199 223 255
199 223 255
199 223 255
199 223 255
199 223 255
199 224 255
199 224 255
200 224 255
200 224 255
200 224 255
200 224 255
200 224 255
200 224 255
200 224 255
200 224 255
200 224 255
200 224 255
200 224 255
200 224 255
200 224 255
200 224 255
201 224 255
201 224 255
201 224 255
201 224 255
201 224 255
201 224 255
201 224 255
201 224 255
201 224 255
201 224 255
201 224 255
201 225 255
201 225 255
201 225 255
201 225 255
202 225 255
202 225 255
202 225 255
202 225 255
202 225 255
202 225 255
202 225 255
202 225 255
202 225 255
202 225 255
202 225 255
202 225 255
202 225 255
202 225 255
202 225 255
203 225 255
203 225 255
203 225 255
203 225 255
203 225 255
203 225 255
203 225 255
203 225 255
203 225 255
203 226 255
203 226 255
203 226 255
203 226 255
203 226 255
203 226 255
203 226 255
204 226 255
204 226 255
204 226 255
204 226 255
204 226 255
204 226 255
204 226 255
204 226 255
204 226 255
204 226 255
204 226 255
204 226 255
204 226 255
204 226 255
204 226 255
204 226 255
204 226 255
204 226 255
205 226 255
205 226 255
205 226 255
205 226 255
205 226 255
205 226 255
205 226 255
205 227 255
205 227 255
205 227 255
205 227 255
205 227 255
205 227 255
205 227 255
205 227 255
205 227 255
205 227 255
205 227 255
205 227 255
205 227 255
205 227 255
205 227 255
205 227 255
205 227 255
205 227 255
205 227 255
205 227 255
205 226 255
205 226 255
205 226 255
205 226 255
205 226 255
205 226 255
205 226 255
205 226 255
204 226 255
204 226 255
204 226 255
204 226 255
204 226 255
204 226 255
204 226 255
204 226 255
204 226 255
204 226 255
204 226 255
204 226 255
204 226 255
204 226 255
204 226 255
204 226 255
204 226 255
203 226 255
203 226 255
203 226 255
203 226 255
203 226 255
203 226 255
203 226 255
203 225 255
203 225 255
203 225 255
203 225 255
203 225 255
203 225 255
203 225 255
203 225 255
203 225 255
202 225 255
202 225 255
202 225 255
202 225 255
202 225 255
202 225 255
202 225 255
202 225 255
202 225 255
202 225 255
202 225 255
202 225 255
202 225 255
202 225 255
202 225 255
201 225 255
201 225 255
201 225 255
201 225 255
201 225 255
201 224 255
201 224 255
201 224 255
201 224 255
201 224 255
201 224 255
201 224 255
201 224 255
201 224 255
201 224 255
200 224 255
200 224 255
200 224 255
200 224 255
200 224 255
200 224 255
200 224 255
200 224 255
200 224 255
200 224 255
200 224 255
200 224 255
200 224 255
200 224 255
199 224 255
199 224 255
199 224 255
199 223 255
199 223 255
199 223 255
199 223 255
199 223 255
199 223 255
199 223 255
199 223 255
199 223 255
199 223 255
199 223 255
199 223 255
198 223 255
198 223 255
198 223 255
198 223 255
198 223 255
198 223 255
198 223 255
198 223 255
198 223 255
198 223 255
198 223 255
198 223 255
198 223 255
198 223 255
198 223 255
197 222 255
197 222 255
197 222 255
197 222 255
197 222 255
197 222 255
197 222 255
197 222 255
197 222 255
197 222 255
197 222 255
197 222 255
197 222 255
197 222 255
197 222 255
197 222 255
196 222 255
196 222 255
196 222 255
196 222 255
196 222 255
196 222 255
196 222 255
196 222 255
196 222 255
196 222 255
196 222 255
196 222 255
196 222 255
196 222 255
196 222 255
196 222 255
196 222 255
196 222 255
196 221 255
196 221 255
195 221 255
195 221 255
195 221 255
195 221 255
195 221 255
195 221 255
195 221 255
195 221 255
195 221 255
195 221 255
195 221 255
195 221 255
195 221 255
195 221 255
195 221 255
195 221 255
195 221 255
195 221 255
195 221 255
195 221 255
195 221 255
195 221 255
195 221 255
195 221 255
195 221 255
195 221 255
195 221 255
195 221 255
195 221 255
195 221 255
195 221 255
195 221 255
195 221 255
195 221 255
195 221 255
195 221 255
195 221 255
195 221 255
195 221 255
195 221 255
195 221 255
195 221 255
195 221 255
195 221 255
195 221 255
195 221 255
195 221 255
195 221 255
195 221 255
195 221 255
195 221 255
195 221 255
195 221 255
195 221 255
195 221 255
195 221 255
195 221 255
195 221 255
195 221 255
195 221 255
195 221 255
195 221 255
195 221 255
195 221 255
195 221 255
195 221 255
195 221 255
195 221 255
195 221 255
195 221 255
195 221 255
195 221 255
195 221 255
195 221 255
195 221 255
195 221 255
196 221 255
196 221 255
196 222 255
196 222 255
196 222 255
196 222 255
196 222 255
196 222 255
196 222 255
196 222 255
196 222 255
196 222 255
196 222 255
196 222 255
196 222 255
196 222 255
196 222 255
196 222 255
196 222 255
196 222 255
197 222 255
197 222 255
197 222 255
197 222 255
197 222 255
197 222 255
197 222 255
197 222 255
197 222 255
197 222 255
197 222 255
197 222 255
197 222 255
197 222 255
197 222 255
197 222 255
198 223 255
198 223 255
198 223 255
198 223 255
198 223 255
198 223 255
198 223 255
198 223 255
198 223 255
198 223 255
198 223 255
198 223 255
198 223 255
198 223 255
198 223 255
199 223 255
199 223 255
199 223 255
199 223 255
199 223 255
199 223 255
199 223 255
199 223 255
199 223 255
199 223 255
199 223 255
199 223 255
199 224 255
199 224 255
200 224 255
200 224 255
200 224 255
200 224 255
200 224 255
200 224 255
200 224 255
200 224 255
200 224 255
200 224 255
200 224 255
200 224 255
200 224 255
200 224 255
200 224 255
201 224 255
201 224 255
201 224 255
201 224 255
201 224 255
201 224 255
201 224 255
201 224 255
201 224 255
201 224 255
201 225 255
201 225 255
201 225 255
201 225 255
201 225 255
202 225 255
202 225 255
202 225 255
202 225 255
202 225 255
202 225 255
202 225 255
202 225 255
202 225 255
202 225 255
202 225 255
202 225 255
202 225 255
202 225 255
202 225 255
203 225 255
203 225 255
203 225 255
203 225 255
203 225 255
203 225 255
203 225 255
203 225 255
203 225 255
203 226 255
203 226 255
203 226 255
203 226 255
203 226 255
203 226 255
203 226 255
204 226 255
204 226 255
204 226 255
204 226 255
204 226 255
204 226 255
204 226 255
204 226 255
204 226 255
204 226 255
204 226 255
204 226 255
204 226 255
204 226 255
204 226 255
204 226 255
204 226 255
205 226 255
205 226 255
205 226 255
205 226 255
205 226 255
205 226 255
205 226 255
205 226 255
205 227 255
205 227 255
205 227 255
205 227 255
205 227 255
205 227 255
205 227 255
205 227 255
205 227 255
205 227 255
205 227 255
206 227 255
206 227 255
206 227 255
205 227 255
205 227 255
205 227 255
205 227 255
205 227 255
205 227 255
205 227 255
205 227 255
205 227 255
205 227 255
205 227 255
205 226 255
205 226 255
205 226 255
205 226 255
205 226 255
205 226 255
205 226 255
204 226 255
204 226 255
204 226 255
204 226 255
204 226 255
204 226 255
204 226 255
204 226 255
204 226 255
204 226 255
204 226 255
204 226 255
204 226 255
204 226 255
204 226 255
204 226 255
204 226 255
203 226 255
203 226 255
203 226 255
203 226 255
203 226 255
203 226 255
203 226 255
203 225 255
203 225 255
203 225 255
203 225 255
203 225 255
203 225 255
203 225 255
203 225 255
203 225 255
203 225 255
202 225 255
202 225 255
202 225 255
202 225 255
202 225 255
202 225 255
202 225 255
202 225 255
202 225 255
202 225 255
202 225 255
202 225 255
202 225 255
202 225 255
202 225 255
201 225 255
201 225 255
201 225 255
201 225 255
201 224 255
201 224 255
201 224 255
201 224 255
201 224 255
201 224 255
201 224 255
201 224 255
201 224 255
201 224 255
200 224 255
200 224 255
200 224 255
200 224 255
200 224 255
200 224 255
200 224 255
200 224 255
200 224 255
200 224 255
200 224 255
200 224 255
200 224 255
200 224 255
199 224 255
199 224 255
199 224 255
199 223 255
199 223 255
199 223 255
199 223 255
199 223 255
199 223 255
199 223 255
199 223 255
199 223 255
199 223 255
199 223 255
199 223 255
198 223 255
198 223 255
198 223 255
198 223 255
198 223 255
198 223 255
198 223 255
198 223 255
198 223 255
198 223 255
198 223 255
198 223 255
198 223 255
198 223 255
198 223 255
197 223 255
197 222 255
197 222 255
197 222 255
197 222 255
197 222 255
197 222 255
197 222 255
197 222 255
197 222 255
197 222 255
197 222 255
197 222 255
197 222 255
197 222 255
197 222 255
197 222 255
196 222 255
196 222 255
196 222 255
196 222 255
196 222 255
196 222 255
196 222 255
196 222 255
196 222 255
196 222 255
196 222 255
196 222 255
196 222 255
196 222 255
196 222 255
196 222 255
196 222 255
196 222 255
196 222 255
196 221 255
196 221 255
195 221 255
195 221 255
195 221 255
195 221 255
195 221 255
195 221 255
195 221 255
195 221 255
195 221 255
195 221 255
195 221 255
195 221 255
195 221 255
195 221 255
195 221 255
195 221 255
195 221 255
195 221 255
195 221 255
195 221 255
195 221 255
195 221 255
195 221 255
195 221 255
195 221 255
195 221 255
195 221 255
195 221 255
195 221 255
195 221 255
195 221 255
195 221 255
195 221 255
195 221 255
195 221 255
195 221 255
195 221 255
195 221 255
195 221 255
195 221 255
195 221 255
195 221 255
195 221 255
195 221 255
195 221 255
195 221 255
195 221 255
195 221 255
195 221 255
195 221 255
195 221 255
195 221 255
195 221 255
195 221 255
195 221 255
195 221 255
195 221 255
195 221 255
195 221 255
195 221 255
195 221 255
195 221 255
195 221 255
195 221 255
195 221 255
195 221 255
195 221 255
195 221 255
196 221 255
196 221 255
196 222 255
196 222 255
196 222 255
196 222 255
196 222 255
196 222 255
196 222 255
196 222 255
196 222 255
196 222 255
196 222 255
196 222 255
196 222 255
196 222 255
196 222 255
196 222 255
196 222 255
196 222 255
196 222 255
197 222 255
197 222 255
197 222 255
197 222 255
197 222 255
197 222 255
197 222 255
197 222 255
197 222 255
197 222 255
197 222 255
197 222 255
197 222 255
197 222 255
197 222 255
197 222 255
197 223 255
198 223 255
198 223 255
198 223 255
198 223 255
198 223 255
198 223 255
198 223 255
198 223 255
198 223 255
198 223 255
198 223 255
198 223 255
198 223 255
198 223 255
198 223 255
199 223 255
199 223 255
199 223 255
199 223 255
199 223 255
199 223 255
199 223 255
199 223 255
199 223 255
199 223 255
199 223 255
199 223 255
199 224 255
199 224 255
200 224 255
200 224 255
200 224 255
200 224 255
200 224 255
200 224 255
200 224 255
200 224 255
200 224 255
200 224 255
200 224 255
200 224 255
200 224 255
200 224 255
200 224 255
201 224 255
201 224 255
201 224 255
201 224 255
201 224 255
201 224 255
201 224 255
201 224 255
201 224 255
201 224 255
201 225 255
201 225 255
201 225 255
201 225 255
202 225 255
202 225 255
202 225 255
202 225 255
202 225 255
202 225 255
202 225 255
202 225 255
202 225 255
202 225 255
202 225 255
202 225 255
202 225 255
202 225 255
202 225 255
202 225 255
203 225 255
203 225 255
203 225 255
203 225 255
203 225 255
203 225 255
203 225 255
203 225 255
203 226 255
203 226 255
203 226 255
203 226 255
203 226 255
203 226 255
203 226 255
203 226 255
204 226 255
204 226 255
204 226 255
204 226 255
204 226 255
204 226 255
204 226 255
204 226 255
204 226 255
204 226 255
204 226 255
204 226 255
204 226 255
204 226 255
204 226 255
204 226 255
204 226 255
205 226 255
205 226 255
205 226 255
205 226 255
205 226 255
205 226 255
205 226 255
205 227 255
205 227 255
205 227 255
205 227 255
205 227 255
205 227 255
205 227 255
205 227 255
205 227 255
205 227 255
205 227 255
206 227 255
206 227 255
206 227 255
206 227 255
206 227 255
206 227 255
206 227 255
206 227 255
205 227 255
205 227 255
205 227 255
205 227 255
205 227 255
205 227 255
205 227 255
205 227 255
205 227 255
205 227 255
205 227 255
205 226 255
205 226 255
205 226 255
205 226 255
205 226 255
205 226 255
205 226 255
205 226 255
204 226 255
204 226 255
204 226 255
204 226 255
204 226 255
204 226 255
204 226 255
204 226 255
204 226 255
204 226 255
204 226 255
204 226 255
204 226 255
204 226 255
204 226 255
204 226 255
204 226 255
203 226 255
203 226 255
203 226 255
203 226 255
203 226 255
203 226 255
203 226 255
203 225 255
203 225 255
203 225 255
203 225 255
203 225 255
203 225 255
203 225 255
203 225 255
203 225 255
202 225 255
202 225 255
202 225 255
202 225 255
202 225 255
202 225 255
202 225 255
202 225 255
202 225 255
202 225 255
202 225 255
202 225 255
202 225 255
202 225 255
202 225 255
201 225 255
201 225 255
201 225 255
201 225 255
201 224 255
201 224 255
201 224 255
201 224 255
201 224 255
201 224 255
201 224 255
201 224 255
201 224 255
201 224 255
200 224 255
200 224 255
200 224 255
200 224 255
200 224 255
200 224 255
200 224 255
200 224 255
200 224 255
200 224 255
200 224 255
200 224 255
200 224 255
200 224 255
200 224 255
199 224 255
199 224 255
199 223 255
199 223 255
199 223 255
199 223 255
199 223 255
199 223 255
199 223 255
199 223 255
199 223 255
199 223 255
199 223 255
199 223 255
199 223 255
198 223 255
198 223 255
198 223 255
198 223 255
198 223 255
198 223 255
198 223 255
198 223 255
198 223 255
198 223 255
198 223 255
198 223 255
198 223 255
198 223 255
198 223 255
197 222 255
197 222 255
197 222 255
197 222 255
197 222 255
197 222 255
197 222 255
197 222 255
197 222 255
197 222 255
197 222 255
197 222 255
197 222 255
197 222 255
197 222 255
197 222 255
197 222 255
196 222 255
196 222 255
196 222 255
196 222 255
196 222 255
196 222 255
196 222 255
196 222 255
196 222 255
196 222 255
196 222 255
196 222 255
196 222 255
196 222 255
196 222 255
196 222 255
196 222 255
196 222 255
196 222 255
196 222 255
196 221 255
196 221 255
195 221 255
195 221 255
195 221 255
195 221 255
195 221 255
195 221 255
195 221 255
195 221 255
195 221 255
195 221 255
195 221 255
195 221 255
195 221 255
195 221 255
195 221 255
195 221 255
195 221 255
195 221 255
195 221 255
195 221 255
195 221 255
195 221 255
195 221 255
195 221 255
195 221 255
195 221 255
195 221 255
195 221 255
195 221 255
195 221 255
195 221 255
195 221 255
195 221 255
195 221 255
195 221 255
195 221 255
195 221 255
195 221 255
195 221 255
195 221 255
195 221 255
195 221 255
195 221 255
195 221 255
195 221 255
195 221 255
195 221 255
195 221 255
195 221 255
195 221 255
195 221 255
195 221 255
195 221 255
195 221 255
195 221 255
195 221 255
195 221 255
195 221 255
195 221 255
195 221 255
196 221 255
196 221 255
196 222 255
196 222 255
196 222 255
196 222 255
196 222 255
196 222 255
196 222 255
196 222 255
196 222 255
196 222 255
196 222 255
196 222 255
196 222 255
196 222 255
196 222 255
196 222 255
196 222 255
196 222 255
196 222 255
196 222 255
197 222 255
197 222 255
197 222 255
197 222 255
197 222 255
197 222 255
197 222 255
197 222 255
197 222 255
197 222 255
197 222 255
197 222 255
197 222 255
197 222 255
197 222 255
197 222 255
197 222 255
198 223 255
198 223 255
198 223 255
198 223 255
198 223 255
198 223 255
198 223 255
198 223 255
198 223 255
198 223 255
198 223 255
198 223 255
198 223 255
198 223 255
198 223 255
199 223 255
199 223 255
199 223 255
199 223 255
199 223 255
199 223 255
199 223 255
199 223 255
199 223 255
199 223 255
199 223 255
199 223 255
199 223 255
199 224 255
199 224 255
200 224 255
200 224 255
200 224 255
200 224 255
200 224 255
200 224 255
200 224 255
200 224 255
200 224 255
200 224 255
200 224 255
200 224 255
200 224 255
200 224 255
201 224 255
201 224 255
201 224 255
201 224 255
201 224 255
201 224 255
201 224 255
201 224 255
201 224 255
201 224 255
201 224 255
201 225 255
201 225 255
201 225 255
201 225 255
202 225 255
202 225 255
202 225 255
202 225 255
202 225 255
202 225 255
202 225 255
202 225 255
202 225 255
202 225 255
202 225 255
202 225 255
202 225 255
202 225 255
202 225 255
203 225 255
203 225 255
203 225 255
203 225 255
203 225 255
203 225 255
203 225 255
203 225 255
203 225 255
203 226 255
203 226 255
203 226 255
203 226 255
203 226 255
203 226 255
203 226 255
204 226 255
204 226 255
204 226 255
204 226 255
204 226 255
204 226 255
204 226 255
204 226 255
204 226 255
204 226 255
204 226 255
204 226 255
204 226 255
204 226 255
204 226 255
204 226 255
204 226 255
205 226 255
205 226 255
205 226 255
205 226 255
205 226 255
205 226 255
205 226 255
205 226 255
205 227 255
205 227 255
205 227 255
205 227 255
205 227 255
205 227 255
205 227 255
205 227 255
205 227 255
205 227 255
206 227 255
206 227 255
206 227 255
206 227 255
206 227 255
206 227 255
206 227 255
206 227 255
206 227 255
206 227 255
206 227 255
206 227 255
206 227 255
206 227 255
205 227 255
205 227 255
205 227 255
205 227 255
205 227 255
205 227 255
205 227 255
205 227 255
205 227 255
205 227 255
205 227 255
205 226 255
205 226 255
205 226 255
205 226 255
205 226 255
205 226 255
205 226 255
204 226 255
204 226 255
204 226 255
204 226 255
204 226 255
204 226 255
204 226 255
204 226 255
204 226 255
204 226 255
204 226 255
204 226 255
204 226 255
204 226 255
204 226 255
204 226 255
204 226 255
203 226 255
203 226 255
203 226 255
203 226 255
203 226 255
203 226 255
203 226 255
203 225 255
203 225 255
203 225 255
203 225 255
203 225 255
203 225 255
203 225 255
203 225 255
203 225 255
202 225 255
202 225 255
202 225 255
202 225 255
202 225 255
202 225 255
202 225 255
202 225 255
202 225 255
202 225 255
202 225 255
202 225 255
202 225 255
202 225 255
202 225 255
201 225 255
201 225 255
201 225 255
201 225 255
201 224 255
201 224 255
201 224 255
201 224 255
201 224 255
201 224 255
201 224 255
201 224 255
201 224 255
201 224 255
201 224 255
200 224 255
200 224 255
200 224 255
200 224 255
200 224 255
200 224 255
200 224 255
200 224 255
200 224 255
200 224 255
200 224 255
200 224 255
200 224 255
200 224 255
199 224 255
199 224 255
199 223 255
199 223 255
199 223 255
199 223 255
199 223 255
199 223 255
199 223 255
199 223 255
199 223 255
199 223 255
199 223 255
199 223 255
199 223 255
198 223 255
198 223 255
198 223 255
198 223 255
198 223 255
198 223 255
198 223 255
198 223 255
198 223 255
198 223 255
198 223 255
198 223 255
198 223 255
198 223 255
198 223 255
197 223 255
197 222 255
197 222 255
197 222 255
197 222 255
197 222 255
197 222 255
197 222 255
197 222 255
197 222 255
197 222 255
197 222 255
197 222 255
197 222 255
197 222 255
197 222 255
197 222 255
197 222 255
196 222 255
196 222 255
196 222 255
196 222 255
196 222 255
196 222 255
196 222 255
196 222 255
196 222 255
196 222 255
196 222 255
196 222 255
196 222 255
196 222 255
196 222 255
196 222 255
196 222 255
196 222 255
196 222 255
196 222 255
196 222 255
196 221 255
196 221 255
196 221 255
195 221 255
195 221 255
195 221 255
195 221 255
195 221 255
195 221 255
195 221 255
195 221 255
195 221 255
195 221 255
195 221 255
195 221 255
195 221 255
195 221 255
195 221 255
195 221 255
195 221 255
195 221 255
195 221 255
195 221 255
195 221 255
195 221 255
195 221 255
195 221 255
195 221 255
195 221 255
195 221 255
195 221 255
195 221 255
195 221 255
195 221 255
195 221 255
195 221 255
195 221 255
195 221 255
195 221 255
195 221 255
195 221 255
195 221 255
195 221 255
195 221 255
195 221 255
195 221 255
195 221 255
195 221 255
195 221 255
195 221 255
195 221 255
195 221 255
195 221 255
196 221 255
196 221 255
196 221 255
196 222 255
196 222 255
196 222 255
196 222 255
196 222 255
196 222 255
196 222 255
196 222 255
196 222 255
196 222 255
196 222 255
196 222 255
196 222 255
196 222 255
196 222 255
196 222 255
196 222 255
196 222 255
196 222 255
196 222 255
196 222 255
197 222 255
197 222 255
197 222 255
197 222 255
197 222 255
197 222 255
197 222 255
197 222 255
197 222 255
197 222 255
197 222 255
197 222 255
197 222 255
197 222 255
197 222 255
197 222 255
197 222 255
197 223 255
198 223 255
198 223 255
198 223 255
198 223 255
198 223 255
198 223 255
198 223 255
198 223 255
198 223 255
198 223 255
198 223 255
198 223 255
198 223 255
198 223 255
198 223 255
199 223 255
199 223 255
199 223 255
199 223 255
199 223 255
199 223 255
199 223 255
199 223 255
199 223 255
199 223 255
199 223 255
199 223 255
199 223 255
199 224 255
199 224 255
200 224 255
200 224 255
200 224 255
200 224 255
200 224 255
200 224 255
200 224 255
200 224 255
200 224 255
200 224 255
200 224 255
200 224 255
200 224 255
200 224 255
201 224 255
201 224 255
201 224 255
201 224 255
201 224 255
201 224 255
201 224 255
201 224 255
201 224 255
201 224 255
201 224 255
201 225 255
201 225 255
201 225 255
201 225 255
202 225 255
202 225 255
202 225 255
202 225 255
202 225 255
202 225 255
202 225 255
202 225 255
202 225 255
202 225 255
202 225 255
202 225 255
202 225 255
202 225 255
202 225 255
203 225 255
203 225 255
203 225 255
203 225 255
203 225 255
203 225 255
203 225 255
203 225 255
203 225 255
203 226 255
203 226 255
203 226 255
203 226 255
203 226 255
203 226 255
203 226 255
204 226 255
204 226 255
204 226 255
204 226 255
204 226 255
204 226 255
204 226 255
204 226 255
204 226 255
204 226 255
204 226 255
204 226 255
204 226 255
204 226 255
204 226 255
204 226 255
204 226 255
205 226 255
205 226 255
205 226 255
205 226 255
205 226 255
205 226 255
205 226 255
205 227 255
205 227 255
205 227 255
205 227 255
205 227 255
205 227 255
205 227 255
205 227 255
205 227 255
205 227 255
205 227 255
206 227 255
206 227 255
206 227 255
206 227 255
206 227 255
206 227 255
206 227 255
206 227 255
206 227 255
206 227 255
206 227 255
206 227 255
206 227 255
206 227 255
206 227 255
206 227 255
206 227 255
206 227 255
205 227 255
205 227 255
205 227 255
205 227 255
205 227 255
205 227 255
205 227 255
205 227 255
205 227 255
205 227 255
205 227 255
205 226 255
205 226 255
205 226 255
205 226 255
205 226 255
205 226 255
205 226 255
205 226 255
204 226 255
204 226 255
204 226 255
204 226 255
204 226 255
204 226 255
204 226 255
204 226 255
204 226 255
204 226 255
204 226 255
204 226 255
204 226 255
204 226 255
204 226 255
204 226 255
203 226 255
203 226 255
203 226 255
203 226 255
203 226 255
203 226 255
203 226 255
203 226 255
203 225 255
203 225 255
203 225 255
203 225 255
203 225 255
203 225 255
203 225 255
203 225 255
202 225 255
202 225 255
202 225 255
202 225 255
202 225 255
202 225 255
202 225 255
202 225 255
202 225 255
202 225 255
202 225 255
202 225 255
202 225 255
202 225 255
202 225 255
201 225 255
201 225 255
201 225 255
201 225 255
201 225 255
201 224 255
201 224 255
201 224 255
201 224 255
201 224 255
201 224 255
201 224 255
201 224 255
201 224 255
201 224 255
200 224 255
200 224 255
200 224 255
200 224 255
200 224 255
200 224 255
200 224 255
200 224 255
200 224 255
200 224 255
200 224 255
200 224 255
200 224 255
200 224 255
199 224 255
199 224 255
199 224 255
199 223 255
199 223 255
199 223 255
199 223 255
199 223 255
199 223 255
199 223 255
199 223 255
199 223 255
199 223 255
199 223 255
199 223 255
198 223 255
198 223 255
198 223 255
198 223 255
198 223 255
198 223 255
198 223 255
198 223 255
198 223 255
198 223 255
198 223 255
198 223 255
198 223 255
198 223 255
198 223 255
198 223 255
197 222 255
197 222 255
197 222 255
197 222 255
197 222 255
197 222 255
197 222 255
197 222 255
197 222 255
197 222 255
197 222 255
197 222 255
197 222 255
197 222 255
197 222 255
197 222 255
197 222 255
197 222 255
196 222 255
196 222 255
196 222 255
196 222 255
196 222 255
196 222 255
196 222 255
196 222 255
196 222 255
196 222 255
196 222 255
196 222 255
196 222 255
196 222 255
196 222 255
196 222 255
196 222 255
196 222 255
196 222 255
196 222 255
196 222 255
196 222 255
196 222 255
196 222 255
196 221 255
196 221 255
196 221 255
195 221 255
195 221 255
195 221 255
195 221 255
195 221 255
195 221 255
195 221 255
195 221 255
195 221 255
195 221 255
195 221 255
195 221 255
195 221 255
195 221 255
195 221 255
195 221 255
195 221 255
195 221 255
195 221 255
195 221 255
195 221 255
195 221 255
195 221 255
195 221 255
195 221 255
195 221 255
195 221 255
195 221 255
195 221 255
195 221 255
195 221 255
195 221 255
195 221 255
195 221 255
195 221 255
195 221 255
195 221 255
195 221 255
196 221 255
196 221 255
196 221 255
196 221 255
196 222 255
196 222 255
196 222 255
196 222 255
196 222 255
196 222 255
196 222 255
196 222 255
196 222 255
196 222 255
196 222 255
196 222 255
196 222 255
196 222 255
196 222 255
196 222 255
196 222 255
196 222 255
196 222 255
196 222 255
196 222 255
196 222 255
196 222 255
197 222 255
197 222 255
197 222 255
197 222 255
197 222 255
197 222 255
197 222 255
197 222 255
197 222 255
197 222 255
197 222 255
197 222 255
197 222 255
197 222 255
197 222 255
197 222 255
197 222 255
197 222 255
198 223 255
198 223 255
198 223 255
198 223 255
198 223 255
198 223 255
198 223 255
198 223 255
198 223 255
198 223 255
198 223 255
198 223 255
198 223 255
198 223 255
198 223 255
198 223 255
199 223 255
199 223 255
199 223 255
199 223 255
199 223 255
199 223 255
199 223 255
199 223 255
199 223 255
199 223 255
199 223 255
199 223 255
199 223 255
199 224 255
199 224 255
200 224 255
200 224 255
200 224 255
200 224 255
200 224 255
200 224 255
200 224 255
200 224 255
200 224 255
200 224 255
200 224 255
200 224 255
200 224 255
200 224 255
201 224 255
201 224 255
201 224 255
201 224 255
201 224 255
201 224 255
201 224 255
201 224 255
201 224 255
201 224 255
201 225 255
201 225 255
201 225 255
201 225 255
201 225 255
202 225 255
202 225 255
202 225 255
202 225 255
202 225 255
202 225 255
202 225 255
202 225 255
202 225 255
202 225 255
202 225 255
202 225 255
202 225 255
202 225 255
202 225 255
203 225 255
203 225 255
203 225 255
203 225 255
203 225 255
203 225 255
203 225 255
203 225 255
203 225 255
203 226 255
203 226 255
203 226 255
203 226 255
203 226 255
203 226 255
203 226 255
204 226 255
204 226 255
204 226 255
204 226 255
204 226 255
204 226 255
204 226 255
204 226 255
204 226 255
204 226 255
204 226 255
204 226 255
204 226 255
204 226 255
204 226 255
204 226 255
205 226 255
205 226 255
205 226 255
205 226 255
205 226 255
205 226 255
205 226 255
205 226 255
205 227 255
205 227 255
205 227 255
205 227 255
205 227 255
205 227 255
205 227 255
205 227 255
205 227 255
205 227 255
206 227 255
206 227 255
206 227 255
206 227 255
206 227 255
206 227 255
206 227 255
206 227 255
206 227 255
206 227 255
206 227 255
206 227 255
206 227 255
206 227 255
206 227 255
206 227 255
206 227 255
206 227 255
206 227 255
206 227 255
206 227 255
206 227 255
206 227 255
206 227 255
205 227 255
205 227 255
205 227 255
205 227 255
205 227 255
205 227 255
205 227 255
205 227 255
205 227 255
205 227 255
205 227 255
205 226 255
205 226 255
205 226 255
205 226 255
205 226 255
205 226 255
205 226 255
204 226 255
204 226 255
204 226 255
204 226 255
204 226 255
204 226 255
204 226 255
204 226 255
204 226 255
204 226 255
204 226 255
204 226 255
204 226 255
204 226 255
204 226 255
204 226 255
204 226 255
203 226 255
203 226 255
203 226 255
203 226 255
203 226 255
203 226 255
203 226 255
203 225 255
203 225 255
203 225 255
203 225 255
203 225 255
203 225 255
203 225 255
203 225 255
203 225 255
202 225 255
202 225 255
202 225 255
202 225 255
202 225 255
202 225 255
202 225 255
202 225 255
202 225 255
202 225 255
202 225 255
202 225 255
202 225 255
202 225 255
202 225 255
201 225 255
201 225 255
201 225 255
201 225 255
201 224 255
201 224 255
201 224 255
201 224 255
201 224 255
201 224 255
201 224 255
201 224 255
201 224 255
201 224 255
200 224 255
200 224 255
200 224 255
200 224 255
200 224 255
200 224 255
200 224 255
200 224 255
200 224 255
200 224 255
200 224 255
200 224 255
200 224 255
200 224 255
200 224 255
199 224 255
199 224 255
199 223 255
199 223 255
199 223 255
199 223 255
199 223 255
199 223 255
199 223 255
199 223 255
199 223 255
199 223 255
199 223 255
199 223 255
198 223 255
198 223 255
198 223 255
198 223 255
198 223 255
198 223 255
198 223 255
198 223 255
198 223 255
198 223 255
198 223 255
198 223 255
198 223 255
198 223 255
198 223 255
198 223 255
197 223 255
197 222 255
197 222 255
197 222 255
197 222 255
197 222 255
197 222 255
197 222 255
197 222 255
197 222 255
197 222 255
197 222 255
197 222 255
197 222 255
197 222 255
197 222 255
197 222 255
197 222 255
197 222 255
196 222 255
196 222 255
196 222 255
196 222 255
196 222 255
196 222 255
196 222 255
196 222 255
196 222 255
196 222 255
196 222 255
196 222 255
196 222 255
196 222 255
196 222 255
196 222 255
196 222 255
196 222 255
196 222 255
196 222 255
196 222 255
196 222 255
196 222 255
196 222 255
196 222 255
196 222 255
196 222 255
196 222 255
196 221 255
196 221 255
196 221 255
196 221 255
196 221 255
195 221 255
195 221 255
195 221 255
195 221 255
195 221 255
195 221 255
195 221 255
195 221 255
195 221 255
195 221 255
195 221 255
195 221 255
195 221 255
195 221 255
195 221 255
195 221 255
195 221 255
195 221 255
195 221 255
195 221 255
196 221 255
196 221 255
196 221 255
196 221 255
196 221 255
196 222 255
196 222 255
196 222 255
196 222 255
196 222 255
196 222 255
196 222 255
196 222 255
196 222 255
196 222 255
196 222 255
196 222 255
196 222 255
196 222 255
196 222 255
196 222 255
196 222 255
196 222 255
196 222 255
196 222 255
196 222 255
196 222 255
196 222 255
196 222 255
196 222 255
196 222 255
196 222 255
196 222 255
197 222 255
197 222 255
197 222 255
197 222 255
197 222 255
197 222 255
197 222 255
197 222 255
197 222 255
197 222 255
197 222 255
197 222 255
197 222 255
197 222 255
197 222 255
197 222 255
197 222 255
197 222 255
197 223 255
198 223 255
198 223 255
198 223 255
198 223 255
198 223 255
198 223 255
198 223 255
198 223 255
198 223 255
198 223 255
198 223 255
198 223 255
198 223 255
198 223 255
198 223 255
198 223 255
199 223 255
199 223 255
199 223 255
199 223 255
199 223 255
199 223 255
199 223 255
199 223 255
199 223 255
199 223 255
199 223 255
199 223 255
199 224 255
199 224 255
200 224 255
200 224 255
200 224 255
200 224 255
200 224 255
200 224 255
200 224 255
200 224 255
200 224 255
200 224 255
200 224 255
200 224 255
200 224 255
200 224 255
200 224 255
201 224 255
201 224 255
201 224 255
201 224 255
201 224 255
201 224 255
201 224 255
201 224 255
201 224 255
201 224 255
201 225 255
201 225 255
201 225 255
201 225 255
202 225 255
202 225 255
202 225 255
202 225 255
202 225 255
202 225 255
202 225 255
202 225 255
202 225 255
202 225 255
202 225 255
202 225 255
202 225 255
202 225 255
202 225 255
203 225 255
203 225 255
203 225 255
203 225 255
203 225 255
203 225 255
203 225 255
203 225 255
203 225 255
203 226 255
203 226 255
203 226 255
203 226 255
203 226 255
203 226 255
203 226 255
204 226 255
204 226 255
204 226 255
204 226 255
204 226 255
204 226 255
204 226 255
204 226 255
204 226 255
204 226 255
204 226 255
204 226 255
204 226 255
204 226 255
204 226 255
204 226 255
204 226 255
205 226 255
205 226 255
205 226 255
205 226 255
205 226 255
205 226 255
205 226 255
205 227 255
205 227 255
205 227 255
205 227 255
205 227 255
205 227 255
205 227 255
205 227 255
205 227 255
205 227 255
205 227 255
206 227 255
206 227 255
206 227 255
206 227 255
206 227 255
206 227 255
206 227 255
206 227 255
206 227 255
206 227 255
206 227 255
206 227 255
206 227 255
206 227 255
206 227 255
206 227 255
206 227 255
206 227 255
206 227 255
206 227 255
206 227 255
206 227 255
206 227 255
206 227 255
206 227 255
206 227 255
206 227 255
206 227 255
206 227 255
205 227 255
205 227 255
205 227 255
205 227 255
205 227 255
205 227 255
205 227 255
205 227 255
205 227 255
205 227 255
205 227 255
205 226 255
205 226 255
205 226 255
205 226 255
205 226 255
205 226 255
205 226 255
204 226 255
204 226 255
204 226 255
204 226 255
204 226 255
204 226 255
204 226 255
204 226 255
204 226 255
204 226 255
204 226 255
204 226 255
204 226 255
204 226 255
204 226 255
204 226 255
204 226 255
203 226 255
203 226 255
203 226 255
203 226 255
203 226 255
203 226 255
203 225 255
203 225 255
203 225 255
203 225 255
203 225 255
203 225 255
203 225 255
203 225 255
203 225 255
202 225 255
202 225 255
202 225 255
202 225 255
202 225 255
202 225 255
202 225 255
202 225 255
202 225 255
202 225 255
202 225 255
202 225 255
202 225 255
202 225 255
202 225 255
201 225 255
201 225 255
201 225 255
201 225 255
201 224 255
201 224 255
201 224 255
201 224 255
201 224 255
201 224 255
201 224 255
201 224 255
201 224 255
201 224 255
201 224 255
200 224 255
200 224 255
200 224 255
200 224 255
200 224 255
200 224 255
200 224 255
200 224 255
200 224 255
200 224 255
200 224 255
200 224 255
200 224 255
200 224 255
199 224 255
199 224 255
199 223 255
199 223 255
199 223 255
199 223 255
199 223 255
199 223 255
199 223 255
199 223 255
199 223 255
199 223 255
199 223 255
199 223 255
199 223 255
198 223 255
198 223 255
198 223 255
198 223 255
198 223 255
198 223 255
198 223 255
198 223 255
198 223 255
198 223 255
198 223 255
198 223 255
198 223 255
198 223 255
198 223 255
198 223 255
197 223 255
197 222 255
197 222 255
197 222 255
197 222 255
197 222 255
197 222 255
197 222 255
197 222 255
197 222 255
197 222 255
197 222 255
197 222 255
197 222 255
197 222 255
197 222 255
197 222 255
197 222 255
197 222 255
197 222 255
196 222 255
196 222 255
196 222 255
196 222 255
196 222 255
196 222 255
196 222 255
196 222 255
196 222 255
196 222 255
196 222 255
196 222 255
196 222 255
196 222 255
196 222 255
196 222 255
196 222 255
196 222 255
196 222 255
196 222 255
196 222 255
196 222 255
196 222 255
196 222 255
196 222 255
196 222 255
196 222 255
196 222 255
196 222 255
196 222 255
196 222 255
196 222 255
196 222 255
196 222 255
196 222 255
196 222 255
196 222 255
196 222 255
196 222 255
196 221 255
196 222 255
196 222 255
196 222 255
196 222 255
196 222 255
196 222 255
196 222 255
196 222 255
196 222 255
196 222 255
196 222 255
196 222 255
196 222 255
196 222 255
196 222 255
196 222 255
196 222 255
196 222 255
196 222 255
196 222 255
196 222 255
196 222 255
196 222 255
196 222 255
196 222 255
196 222 255
196 222 255
196 222 255
196 222 255
196 222 255
196 222 255
196 222 255
196 222 255
196 222 255
196 222 255
196 222 255
196 222 255
196 222 255
197 222 255
197 222 255
197 222 255
197 222 255
197 222 255
197 222 255
197 222 255
197 222 255
197 222 255
197 222 255
197 222 255
197 222 255
197 222 255
197 222 255
197 222 255
197 222 255
197 222 255
197 222 255
197 222 255
198 223 255
198 223 255
198 223 255
198 223 255
198 223 255
198 223 255
198 223 255
198 223 255
198 223 255
198 223 255
198 223 255
198 223 255
198 223 255
198 223 255
198 223 255
198 223 255
198 223 255
199 223 255
199 223 255
199 223 255
199 223 255
199 223 255
199 223 255
199 223 255
199 223 255
199 223 255
199 223 255
199 223 255
199 223 255
199 223 255
199 224 255
199 224 255
200 224 255
200 224 255
200 224 255
200 224 255
200 224 255
200 224 255
200 224 255
200 224 255
200 224 255
200 224 255
200 224 255
200 224 255
200 224 255
200 224 255
201 224 255
201 224 255
201 224 255
201 224 255
201 224 255
201 224 255
201 224 255
201 224 255
201 224 255
201 224 255
201 224 255
201 225 255
201 225 255
201 225 255
201 225 255
202 225 255
202 225 255
202 225 255
202 225 255
202 225 255
202 225 255
202 225 255
202 225 255
202 225 255
202 225 255
202 225 255
202 225 255
202 225 255
202 225 255
202 225 255
203 225 255
203 225 255
203 225 255
203 225 255
203 225 255
203 225 255
203 225 255
203 225 255
203 225 255
203 226 255
203 226 255
203 226 255
203 226 255
203 226 255
203 226 255
203 226 255
204 226 255
204 226 255
204 226 255
204 226 255
204 226 255
204 226 255
204 226 255
204 226 255
204 226 255
204 226 255
204 226 255
204 226 255
204 226 255
204 226 255
204 226 255
204 226 255
205 226 255
205 226 255
205 226 255
205 226 255
205 226 255
205 226 255
205 226 255
205 227 255
205 227 255
205 227 255
205 227 255
205 227 255
205 227 255
205 227 255
205 227 255
205 227 255
205 227 255
205 227 255
206 227 255
206 227 255
206 227 255
206 227 255
206 227 255
206 227 255
206 227 255
206 227 255
206 227 255
206 227 255
206 227 255
206 227 255
206 227 255
206 227 255
206 227 255
206 227 255
206 227 255
206 227 255
206 227 255
206 227 255
206 227 255
206 227 255
206 227 255
206 227 255
206 227 255
206 227 255
206 227 255
206 227 255
206 227 255
206 227 255
206 227 255
206 227 255
206 227 255
206 227 255
205 227 255
205 227 255
205 227 255
205 227 255
205 227 255
205 227 255
205 227 255
205 227 255
205 227 255
205 227 255
205 227 255
205 226 255
205 226 255
205 226 255
205 226 255
205 226 255
205 226 255
205 226 255
204 226 255
204 226 255
204 226 255
204 226 255
204 226 255
204 226 255
204 226 255
204 226 255
204 226 255
204 226 255
204 226 255
204 226 255
204 226 255
204 226 255
204 226 255
204 226 255
204 226 255
203 226 255
203 226 255
203 226 255
203 226 255
203 226 255
203 226 255
203 226 255
203 225 255
203 225 255
203 225 255
203 225 255
203 225 255
203 225 255
203 225 255
203 225 255
202 225 255
202 225 255
202 225 255
202 225 255
202 225 255
202 225 255
202 225 255
202 225 255
202 225 255
202 225 255
202 225 255
202 225 255
202 225 255
202 225 255
202 225 255
201 225 255
201 225 255
201 225 255
201 225 255
201 225 255
201 224 255
201 224 255
201 224 255
201 224 255
201 224 255
201 224 255
201 224 255
201 224 255
201 224 255
201 224 255
200 224 255
200 224 255
200 224 255
200 224 255
200 224 255
200 224 255
200 224 255
200 224 255
200 224 255
200 224 255
200 224 255
200 224 255
200 224 255
200 224 255
200 224 255
199 224 255
199 224 255
199 223 255
199 223 255
199 223 255
199 223 255
199 223 255
199 223 255
199 223 255
199 223 255
199 223 255
199 223 255
199 223 255
199 223 255
199 223 255
198 223 255
198 223 255
198 223 255
198 223 255
198 223 255
198 223 255
198 223 255
198 223 255
198 223 255
198 223 255
198 223 255
198 223 255
198 223 255
198 223 255
198 223 255
198 223 255
197 223 255
197 222 255
197 222 255
197 222 255
197 222 255
197 222 255
197 222 255
197 222 255
197 222 255
197 222 255
197 222 255
197 222 255
197 222 255
197 222 255
197 222 255
197 222 255
197 222 255
197 222 255
197 222 255
197 222 255
197 222 255
196 222 255
196 222 255
196 222 255
196 222 255
196 222 255
196 222 255
196 222 255
196 222 255
196 222 255
196 222 255
196 222 255
196 222 255
196 222 255
196 222 255
196 222 255
196 222 255
196 222 255
196 222 255
196 222 255
196 222 255
196 222 255
196 222 255
196 222 255
196 222 255
196 222 255
196 222 255
196 222 255
196 222 255
196 222 255
196 222 255
196 222 255
196 222 255
196 222 255
196 222 255
196 222 255
196 222 255
196 222 255
196 222 255
196 222 255
196 222 255
196 222 255
196 222 255
196 222 255
196 222 255
196 222 255
196 222 255
196 222 255
196 222 255
196 222 255
196 222 255
196 222 255
196 222 255
196 222 255
196 222 255
196 222 255
196 222 255
196 222 255
196 222 255
196 222 255
196 222 255
196 222 255
196 222 255
196 222 255
196 222 255
196 222 255
196 222 255
196 222 255
196 222 255
196 222 255
196 222 255
196 222 255
197 222 255
197 222 255
197 222 255
197 222 255
197 222 255
197 222 255
197 222 255
197 222 255
197 222 255
197 222 255
197 222 255
197 222 255
197 222 255
197 222 255
197 222 255
197 222 255
197 222 255
197 222 255
197 222 255
197 223 255
198 223 255
198 223 255
198 223 255
198 223 255
198 223 255
198 223 255
198 223 255
198 223 255
198 223 255
198 223 255
198 223 255
198 223 255
198 223 255
198 223 255
198 223 255
198 223 255
199 223 255
199 223 255
199 223 255
199 223 255
199 223 255
199 223 255
199 223 255
199 223 255
199 223 255
199 223 255
199 223 255
199 223 255
199 223 255
199 224 255
199 224 255
199 224 255
200 224 255
200 224 255
200 224 255
200 224 255
200 224 255
200 224 255
200 224 255
200 224 255
200 224 255
200 224 255
200 224 255
200 224 255
200 224 255
200 224 255
201 224 255
201 224 255
201 224 255
201 224 255
201 224 255
201 224 255
201 224 255
201 224 255
201 224 255
201 224 255
201 225 255
201 225 255
201 225 255
201 225 255
201 225 255
202 225 255
202 225 255
202 225 255
202 225 255
202 225 255
202 225 255
202 225 255
202 225 255
202 225 255
202 225 255
202 225 255
202 225 255
202 225 255
202 225 255
202 225 255
203 225 255
203 225 255
203 225 255
203 225 255
203 225 255
203 225 255
203 225 255
203 225 255
203 226 255
203 226 255
203 226 255
203 226 255
203 226 255
203 226 255
203 226 255
204 226 255
204 226 255
204 226 255
204 226 255
204 226 255
204 226 255
204 226 255
204 226 255
204 226 255
204 226 255
204 226 255
204 226 255
204 226 255
204 226 255
204 226 255
204 226 255
204 226 255
205 226 255
205 226 255
205 226 255
205 226 255
205 226 255
205 226 255
205 226 255
205 227 255
205 227 255
205 227 255
205 227 255
205 227 255
205 227 255
205 227 255
205 227 255
205 227 255
205 227 255
206 227 255
206 227 255
206 227 255
206 227 255
206 227 255
206 227 255
206 227 255
206 227 255
206 227 255
206 227 255
206 227 255
206 227 255
206 227 255
206 227 255
206 227 255
206 227 255
206 227 255
206 227 255
206 227 255
207 227 255
207 227 255
206 227 255
206 227 255
206 227 255
206 227 255
206 227 255
206 227 255
206 227 255
206 227 255
206 227 255
206 227 255
206 227 255
206 227 255
206 227 255
206 227 255
206 227 255
206 227 255
206 227 255
206 227 255
206 227 255
205 227 255
205 227 255
205 227 255
205 227 255
205 227 255
205 227 255
205 227 255
205 227 255
205 227 255
205 227 255
205 227 255
205 226 255
205 226 255
205 226 255
205 226 255
205 226 255
205 226 255
205 226 255
204 226 255
204 226 255
204 226 255
204 226 255
204 226 255
204 226 255
204 226 255
204 226 255
204 226 255
204 226 255
204 226 255
204 226 255
204 226 255
204 226 255
204 226 255
204 226 255
203 226 255
203 226 255
203 226 255
203 226 255
203 226 255
203 226 255
203 226 255
203 225 255
203 225 255
203 225 255
203 225 255
203 225 255
203 225 255
203 225 255
203 225 255
203 225 255
202 225 255
202 225 255
202 225 255
202 225 255
202 225 255
202 225 255
202 225 255
202 225 255
202 225 255
202 225 255
202 225 255
202 225 255
202 225 255
202 225 255
202 225 255
201 225 255
201 225 255
201 225 255
201 225 255
201 224 255
201 224 255
201 224 255
201 224 255
201 224 255
201 224 255
201 224 255
201 224 255
201 224 255
201 224 255
200 224 255
200 224 255
200 224 255
200 224 255
200 224 255
200 224 255
200 224 255
200 224 255
200 224 255
200 224 255
200 224 255
200 224 255
200 224 255
200 224 255
200 224 255
199 224 255
199 224 255
199 223 255
199 223 255
199 223 255
199 223 255
199 223 255
199 223 255
199 223 255
199 223 255
199 223 255
199 223 255
199 223 255
199 223 255
199 223 255
198 223 255
198 223 255
198 223 255
198 223 255
198 223 255
198 223 255
198 223 255
198 223 255
198 223 255
198 223 255
198 223 255
198 223 255
198 223 255
198 223 255
198 223 255
198 223 255
198 223 255
197 223 255
197 222 255
197 222 255
197 222 255
197 222 255
197 222 255
197 222 255
197 222 255
197 222 255
197 222 255
197 222 255
197 222 255
197 222 255
197 222 255
197 222 255
197 222 255
197 222 255
197 222 255
197 222 255
197 222 255
197 222 255
197 222 255
196 222 255
196 222 255
196 222 255
196 222 255
196 222 255
196 222 255
196 222 255
196 222 255
196 222 255
196 222 255
196 222 255
196 222 255
196 222 255
196 222 255
196 222 255
196 222 255
196 222 255
196 222 255
196 222 255
196 222 255
196 222 255
196 222 255
196 222 255
196 222 255
196 222 255
196 222 255
196 222 255
196 222 255
196 222 255
196 222 255
196 222 255
196 222 255
196 222 255
196 222 255
196 222 255
196 222 255
196 222 255
196 222 255
196 222 255
196 222 255
196 222 255
196 222 255
196 222 255
196 222 255
196 222 255
196 222 255
196 222 255
196 222 255
196 222 255
196 222 255
196 222 255
196 222 255
196 222 255
196 222 255
196 222 255
196 222 255
196 222 255
196 222 255
196 222 255
196 222 255
196 222 255
196 222 255
197 222 255
197 222 255
197 222 255
197 222 255
197 222 255
197 222 255
197 222 255
197 222 255
197 222 255
197 222 255
197 222 255
197 222 255
197 222 255
197 222 255
197 222 255
197 222 255
197 222 255
197 222 255
197 222 255
197 222 255
197 222 255
197 223 255
198 223 255
198 223 255
198 223 255
198 223 255
198 223 255
198 223 255
198 223 255
198 223 255
198 223 255
198 223 255
198 223 255
198 223 255
198 223 255
198 223 255
198 223 255
198 223 255
198 223 255
199 223 255
199 223 255
199 223 255
199 223 255
199 223 255
199 223 255
199 223 255
199 223 255
199 223 255
199 223 255
199 223 255
199 223 255
199 223 255
199 224 255
199 224 255
200 224 255
200 224 255
200 224 255
200 224 255
200 224 255
200 224 255
200 224 255
200 224 255
200 224 255
200 224 255
200 224 255
200 224 255
200 224 255
200 224 255
200 224 255
201 224 255
201 224 255
201 224 255
201 224 255
201 224 255
201 224 255
201 224 255
201 224 255
201 224 255
201 224 255
201 225 255
201 225 255
201 225 255
201 225 255
201 225 255
202 225 255
202 225 255
202 225 255
202 225 255
202 225 255
202 225 255
202 225 255
202 225 255
202 225 255
202 225 255
202 225 255
202 225 255
202 225 255
202 225 255
203 225 255
203 225 255
203 225 255
203 225 255
203 225 255
203 225 255
203 225 255
203 225 255
203 225 255
203 226 255
203 226 255
203 226 255
203 226 255
203 226 255
203 226 255
203 226 255
204 226 255
204 226 255
204 226 255
204 226 255
204 226 255
204 226 255
204 226 255
204 226 255
204 226 255
204 226 255
204 226 255
204 226 255
204 226 255
204 226 255
204 226 255
204 226 255
205 226 255
205 226 255
205 226 255
205 226 255
205 226 255
205 226 255
205 226 255
205 227 255
205 227 255
205 227 255
205 227 255
205 227 255
205 227 255
205 227 255
205 227 255
205 227 255
205 227 255
205 227 255
206 227 255
206 227 255
206 227 255
206 227 255
206 227 255
206 227 255
206 227 255
206 227 255
206 227 255
206 227 255
206 227 255
206 227 255
206 227 255
206 227 255
206 227 255
206 227 255
206 227 255
206 227 255
206 227 255
207 227 255
207 227 255
207 227 255
207 227 255
207 227 255
207 227 255
207 227 255
206 227 255
206 227 255
206 227 255
206 227 255
206 227 255
206 227 255
206 227 255
206 227 255
206 227 255
206 227 255
206 227 255
206 227 255
206 227 255
206 227 255
206 227 255
206 227 255
206 227 255
206 227 255
206 227 255
205 227 255
205 227 255
205 227 255
205 227 255
205 227 255
205 227 255
205 227 255
205 227 255
205 227 255
205 227 255
205 226 255
205 226 255
205 226 255
205 226 255
205 226 255
205 226 255
205 226 255
205 226 255
204 226 255
204 226 255
204 226 255
204 226 255
204 226 255
204 226 255
204 226 255
204 226 255
204 226 255
204 226 255
204 226 255
204 226 255
204 226 255
204 226 255
204 226 255
204 226 255
203 226 255
203 226 255
203 226 255
203 226 255
203 226 255
203 226 255
203 226 255
203 225 255
203 225 255
203 225 255
203 225 255
203 225 255
203 225 255
203 225 255
203 225 255
202 225 255
202 225 255
202 225 255
202 225 255
202 225 255
202 225 255
202 225 255
202 225 255
202 225 255
202 225 255
202 225 255
202 225 255
202 225 255
202 225 255
202 225 255
201 225 255
201 225 255
201 225 255
201 225 255
201 224 255
201 224 255
201 224 255
201 224 255
201 224 255
201 224 255
201 224 255
201 224 255
201 224 255
201 224 255
201 224 255
200 224 255
200 224 255
200 224 255
200 224 255
200 224 255
200 224 255
200 224 255
200 224 255
200 224 255
200 224 255
200 224 255
200 224 255
200 224 255
200 224 255
200 224 255
199 224 255
199 224 255
199 223 255
199 223 255
199 223 255
199 223 255
199 223 255
199 223 255
199 223 255
199 223 255
199 223 255
199 223 255
199 223 255
199 223 255
199 223 255
198 223 255
198 223 255
198 223 255
198 223 255
198 223 255
198 223 255
198 223 255
198 223 255
198 223 255
198 223 255
198 223 255
198 223 255
198 223 255
198 223 255
198 223 255
198 223 255
198 223 255
197 223 255
197 222 255
197 222 255
197 222 255
197 222 255
197 222 255
197 222 255
197 222 255
197 222 255
197 222 255
197 222 255
197 222 255
197 222 255
197 222 255
197 222 255
197 222 255
197 222 255
197 222 255
197 222 255
197 222 255
197 222 255
197 222 255
197 222 255
197 222 255
196 222 255
196 222 255
196 222 255
196 222 255
196 222 255
196 222 255
196 222 255
196 222 255
196 222 255
196 222 255
196 222 255
196 222 255
196 222 255
196 222 255
196 222 255
196 222 255
196 222 255
196 222 255
196 222 255
196 222 255
196 222 255
196 222 255
196 222 255
196 222 255
196 222 255
196 222 255
196 222 255
196 222 255
196 222 255
196 222 255
196 222 255
196 222 255
196 222 255
196 222 255
196 222 255
196 222 255
196 222 255
196 222 255
196 222 255
196 222 255
196 222 255
196 222 255
196 222 255
196 222 255
196 222 255
196 222 255
196 222 255
196 222 255
196 222 255
196 222 255
196 222 255
196 222 255
197 222 255
197 222 255
197 222 255
197 222 255
197 222 255
197 222 255
197 222 255
197 222 255
197 222 255
197 222 255
197 222 255
197 222 255
197 222 255
197 222 255
197 222 255
197 222 255
197 222 255
197 222 255
197 222 255
197 222 255
197 222 255
197 222 255
197 222 255
197 223 255
198 223 255
198 223 255
198 223 255
198 223 255
198 223 255
198 223 255
198 223 255
198 223 255
198 223 255
198 223 255
198 223 255
198 223 255
198 223 255
198 223 255
198 223 255
198 223 255
198 223 255
199 223 255
199 223 255
199 223 255
199 223 255
199 223 255
199 223 255
199 223 255
199 223 255
199 223 255
199 223 255
199 223 255
199 223 255
199 223 255
199 224 255
199 224 255
199 224 255
200 224 255
200 224 255
200 224 255
200 224 255
200 224 255
200 224 255
200 224 255
200 224 255
200 224 255
200 224 255
200 224 255
200 224 255
200 224 255
200 224 255
201 224 255
201 224 255
201 224 255
201 224 255
201 224 255
201 224 255
201 224 255
201 224 255
201 224 255
201 224 255
201 224 255
201 225 255
201 225 255
201 225 255
201 225 255
202 225 255
202 225 255
202 225 255
202 225 255
202 225 255
202 225 255
202 225 255
202 225 255
202 225 255
202 225 255
202 225 255
202 225 255
202 225 255
202 225 255
202 225 255
203 225 255
203 225 255
203 225 255
203 225 255
203 225 255
203 225 255
203 225 255
203 225 255
203 226 255
203 226 255
203 226 255
203 226 255
203 226 255
203 226 255
203 226 255
204 226 255
204 226 255
204 226 255
204 226 255
204 226 255
204 226 255
204 226 255
204 226 255
204 226 255
204 226 255
204 226 255
204 226 255
204 226 255
204 226 255
204 226 255
204 226 255
204 226 255
205 226 255
205 226 255
205 226 255
205 226 255
205 226 255
205 226 255
205 226 255
205 227 255
205 227 255
205 227 255
205 227 255
205 227 255
205 227 255
205 227 255
205 227 255
205 227 255
205 227 255
206 227 255
206 227 255
206 227 255
206 227 255
206 227 255
206 227 255
206 227 255
206 227 255
206 227 255
206 227 255
206 227 255
206 227 255
206 227 255
206 227 255
206 227 255
206 227 255
206 227 255
206 227 255
206 227 255
207 227 255
207 227 255
207 227 255
207 227 255
207 227 255
207 228 255
207 228 255
207 227 255
207 227 255
207 227 255
207 227 255
207 227 255
206 227 255
206 227 255
206 227 255
206 227 255
206 227 255
206 227 255
206 227 255
206 227 255
206 227 255
206 227 255
206 227 255
206 227 255
206 227 255
206 227 255
206 227 255
206 227 255
206 227 255
206 227 255
206 227 255
205 227 255
205 227 255
205 227 255
205 227 255
205 227 255
205 227 255
205 227 255
205 227 255
205 227 255
205 227 255
205 227 255
205 226 255
205 226 255
205 226 255
205 226 255
205 226 255
205 226 255
205 226 255
204 226 255
204 226 255
204 226 255
204 226 255
204 226 255
204 226 255
204 226 255
204 226 255
204 226 255
204 226 255
204 226 255
204 226 255
204 226 255
204 226 255
204 226 255
204 226 255
203 226 255
203 226 255
203 226 255
203 226 255
203 226 255
203 226 255
203 226 255
203 225 255
203 225 255
203 225 255
203 225 255
203 225 255
203 225 255
203 225 255
203 225 255
203 225 255
202 225 255
202 225 255
202 225 255
202 225 255
202 225 255
202 225 255
202 225 255
202 225 255
202 225 255
202 225 255
202 225 255
202 225 255
202 225 255
202 225 255
201 225 255
201 225 255
201 225 255
201 225 255
201 225 255
201 224 255
201 224 255
201 224 255
201 224 255
201 224 255
201 224 255
201 224 255
201 224 255
201 224 255
201 224 255
200 224 255
200 224 255
200 224 255
200 224 255
200 224 255
200 224 255
200 224 255
200 224 255
200 224 255
200 224 255
200 224 255
200 224 255
200 224 255
200 224 255
200 224 255
199 224 255
199 224 255
199 223 255
199 223 255
199 223 255
199 223 255
199 223 255
199 223 255
199 223 255
199 223 255
199 223 255
199 223 255
199 223 255
199 223 255
199 223 255
199 223 255
198 223 255
198 223 255
198 223 255
198 223 255
198 223 255
198 223 255
198 223 255
198 223 255
198 223 255
198 223 255
198 223 255
198 223 255
198 223 255
198 223 255
198 223 255
198 223 255
198 223 255
198 223 255
197 222 255
197 222 255
197 222 255
197 222 255
197 222 255
197 222 255
197 222 255
197 222 255
197 222 255
197 222 255
197 222 255
197 222 255
197 222 255
197 222 255
197 222 255
197 222 255
197 222 255
197 222 255
197 222 255
197 222 255
197 222 255
197 222 255
197 222 255
197 222 255
197 222 255
197 222 255
196 222 255
196 222 255
196 222 255
196 222 255
196 222 255
196 222 255
196 222 255
196 222 255
196 222 255
196 222 255
196 222 255
196 222 255
196 222 255
196 222 255
196 222 255
196 222 255
196 222 255
196 222 255
196 222 255
196 222 255
196 222 255
196 222 255
196 222 255
196 222 255
196 222 255
196 222 255
196 222 255
196 222 255
196 222 255
196 222 255
196 222 255
196 222 255
196 222 255
196 222 255
196 222 255
196 222 255
196 222 255
196 222 255
196 222 255
197 222 255
197 222 255
197 222 255
197 222 255
197 222 255
197 222 255
197 222 255
197 222 255
197 222 255
197 222 255
197 222 255
197 222 255
197 222 255
197 222 255
197 222 255
197 222 255
197 222 255
197 222 255
197 222 255
197 222 255
197 222 255
197 222 255
197 222 255
197 222 255
197 222 255
197 222 255
197 222 255
197 223 255
198 223 255
198 223 255
198 223 255
198 223 255
198 223 255
198 223 255
198 223 255
198 223 255
198 223 255
198 223 255
198 223 255
198 223 255
198 223 255
198 223 255
198 223 255
198 223 255
198 223 255
198 223 255
199 223 255
199 223 255
199 223 255
199 223 255
199 223 255
199 223 255
199 223 255
199 223 255
199 223 255
199 223 255
199 223 255
199 223 255
199 223 255
199 224 255
199 224 255
200 224 255
200 224 255
200 224 255
200 224 255
200 224 255
200 224 255
200 224 255
200 224 255
200 224 255
200 224 255
200 224 255
200 224 255
200 224 255
200 224 255
200 224 255
201 224 255
201 224 255
201 224 255
201 224 255
201 224 255
201 224 255
201 224 255
201 224 255
201 224 255
201 224 255
201 225 255
201 225 255
201 225 255
201 225 255
201 225 255
202 225 255
202 225 255
202 225 255
202 225 255
202 225 255
202 225 255
202 225 255
202 225 255
202 225 255
202 225 255
202 225 255
202 225 255
202 225 255
202 225 255
202 225 255
203 225 255
203 225 255
203 225 255
203 225 255
203 225 255
203 225 255
203 225 255
203 225 255
203 226 255
203 226 255
203 226 255
203 226 255
203 226 255
203 226 255
203 226 255
204 226 255
204 226 255
204 226 255
204 226 255
204 226 255
204 226 255
204 226 255
204 226 255
204 226 255
204 226 255
204 226 255
204 226 255
204 226 255
204 226 255
204 226 255
204 226 255
205 226 255
205 226 255
205 226 255
205 226 255
205 226 255
205 226 255
205 226 255
205 227 255
205 227 255
205 227 255
205 227 255
205 227 255
205 227 255
205 227 255
205 227 255
205 227 255
205 227 255
205 227 255
206 227 255
206 227 255
206 227 255
206 227 255
206 227 255
206 227 255
206 227 255
206 227 255
206 227 255
206 227 255
206 227 255
206 227 255
206 227 255
206 227 255
206 227 255
206 227 255
206 227 255
206 227 255
206 227 255
207 227 255
207 227 255
207 227 255
207 227 255
207 227 255
207 228 255
207 228 255
207 228 255
207 228 255
207 228 255
207 228 255
207 228 255
207 227 255
207 227 255
207 227 255
207 227 255
207 227 255
206 227 255
206 227 255
206 227 255
206 227 255
206 227 255
206 227 255
206 227 255
206 227 255
206 227 255
206 227 255
206 227 255
206 227 255
206 227 255
206 227 255
206 227 255
206 227 255
206 227 255
206 227 255
206 227 255
205 227 255
205 227 255
205 227 255
205 227 255
205 227 255
205 227 255
205 227 255
205 227 255
205 227 255
205 227 255
205 226 255
205 226 255
205 226 255
205 226 255
205 226 255
205 226 255
205 226 255
204 226 255
204 226 255
204 226 255
204 226 255
204 226 255
204 226 255
204 226 255
204 226 255
204 226 255
204 226 255
204 226 255
204 226 255
204 226 255
204 226 255
204 226 255
204 226 255
204 226 255
203 226 255
203 226 255
203 226 255
203 226 255
203 226 255
203 226 255
203 226 255
203 225 255
203 225 255
203 225 255
203 225 255
203 225 255
203 225 255
203 225 255
203 225 255
202 225 255
202 225 255
202 225 255
202 225 255
202 225 255
202 225 255
202 225 255
202 225 255
202 225 255
202 225 255
202 225 255
202 225 255
202 225 255
202 225 255
202 225 255
201 225 255
201 225 255
201 225 255
201 225 255
201 224 255
201 224 255
201 224 255
201 224 255
201 224 255
201 224 255
201 224 255
201 224 255
201 224 255
201 224 255
200 224 255
200 224 255
200 224 255
200 224 255
200 224 255
200 224 255
200 224 255
200 224 255
200 224 255
200 224 255
200 224 255
200 224 255
200 224 255
200 224 255
200 224 255
200 224 255
199 224 255
199 224 255
199 223 255
199 223 255
199 223 255
199 223 255
199 223 255
199 223 255
199 223 255
199 223 255
199 223 255
199 223 255
199 223 255
199 223 255
199 223 255
198 223 255
198 223 255
198 223 255
198 223 255
198 223 255
198 223 255
198 223 255
198 223 255
198 223 255
198 223 255
198 223 255
198 223 255
198 223 255
198 223 255
198 223 255
198 223 255
198 223 255
198 223 255
198 223 255
197 223 255
197 222 255
197 222 255
197 222 255
197 222 255
197 222 255
197 222 255
197 222 255
197 222 255
197 222 255
197 222 255
197 222 255
197 222 255
197 222 255
197 222 255
197 222 255
197 222 255
197 222 255
197 222 255
197 222 255
197 222 255
197 222 255
197 222 255
197 222 255
197 222 255
197 222 255
197 222 255
197 222 255
197 222 255
197 222 255
197 222 255
197 222 255
196 222 255
196 222 255
196 222 255
196 222 255
196 222 255
196 222 255
196 222 255
196 222 255
196 222 255
196 222 255
196 222 255
196 222 255
196 222 255
196 222 255
196 222 255
196 222 255
196 222 255
196 222 255
196 222 255
196 222 255
196 222 255
196 222 255
197 222 255
197 222 255
197 222 255
197 222 255
197 222 255
197 222 255
197 222 255
197 222 255
197 222 255
197 222 255
197 222 255
197 222 255
197 222 255
197 222 255
197 222 255
197 222 255
197 222 255
197 222 255
197 222 255
197 222 255
197 222 255
197 222 255
197 222 255
197 222 255
197 222 255
197 222 255
197 222 255
197 222 255
197 222 255
197 222 255
197 222 255
197 223 255
198 223 255
198 223 255
198 223 255
198 223 255
198 223 255
198 223 255
198 223 255
198 223 255
198 223 255
198 223 255
198 223 255
198 223 255
198 223 255
198 223 255
198 223 255
198 223 255
198 223 255
198 223 255
198 223 255
199 223 255
199 223 255
199 223 255
199 223 255
199 223 255
199 223 255
199 223 255
199 223 255
199 223 255
199 223 255
199 223 255
199 223 255
199 223 255
199 224 255
199 224 255
199 224 255
200 224 255
200 224 255
200 224 255
200 224 255
200 224 255
200 224 255
200 224 255
200 224 255
200 224 255
200 224 255
200 224 255
200 224 255
200 224 255
200 224 255
201 224 255
201 224 255
201 224 255
201 224 255
201 224 255
201 224 255
201 224 255
201 224 255
201 224 255
201 224 255
201 224 255
201 225 255
201 225 255
201 225 255
201 225 255
202 225 255
202 225 255
202 225 255
202 225 255
202 225 255
202 225 255
202 225 255
202 225 255
202 225 255
202 225 255
202 225 255
202 225 255
202 225 255
202 225 255
202 225 255
203 225 255
203 225 255
203 225 255
203 225 255
203 225 255
203 225 255
203 225 255
203 225 255
203 225 255
203 226 255
203 226 255
203 226 255
203 226 255
203 226 255
203 226 255
203 226 255
204 226 255
204 226 255
204 226 255
204 226 255
204 226 255
204 226 255
204 226 255
204 226 255
204 226 255
204 226 255
204 226 255
204 226 255
204 226 255
204 226 255
204 226 255
204 226 255
205 226 255
205 226 255
205 226 255
205 226 255
205 226 255
205 226 255
205 227 255
205 227 255
205 227 255
205 227 255
205 227 255
205 227 255
205 227 255
205 227 255
205 227 255
205 227 255
205 227 255
206 227 255
206 227 255
206 227 255
206 227 255
206 227 255
206 227 255
206 227 255
206 227 255
206 227 255
206 227 255
206 227 255
206 227 255
206 227 255
206 227 255
206 227 255
206 227 255
206 227 255
206 227 255
206 227 255
207 227 255
207 227 255
207 227 255
207 227 255
207 227 255
207 228 255
207 228 255
207 228 255
207 228 255
207 228 255
207 228 255
207 228 255
207 228 255
207 228 255
207 228 255
207 228 255
207 228 255
207 228 255
207 227 255
207 227 255
207 227 255
207 227 255
207 227 255
206 227 255
206 227 255
206 227 255
206 227 255
206 227 255
206 227 255
206 227 255
206 227 255
206 227 255
206 227 255
206 227 255
206 227 255
206 227 255
206 227 255
206 227 255
206 227 255
206 227 255
206 227 255
206 227 255
205 227 255
205 227 255
205 227 255
205 227 255
205 227 255
205 227 255
205 227 255
205 227 255
205 227 255
205 227 255
205 226 255
205 226 255
205 226 255
205 226 255
205 226 255
205 226 255
205 226 255
204 226 255
204 226 255
204 226 255
204 226 255
204 226 255
204 226 255
204 226 255
204 226 255
204 226 255
204 226 255
204 226 255
204 226 255
204 226 255
204 226 255
204 226 255
204 226 255
203 226 255
203 226 255
203 226 255
203 226 255
203 226 255
203 226 255
203 226 255
203 225 255
203 225 255
203 225 255
203 225 255
203 225 255
203 225 255
203 225 255
203 225 255
202 225 255
202 225 255
202 225 255
202 225 255
202 225 255
202 225 255
202 225 255
202 225 255
202 225 255
202 225 255
202 225 255
202 225 255
202 225 255
202 225 255
202 225 255
201 225 255
201 225 255
201 225 255
201 225 255
201 225 255
201 224 255
201 224 255
201 224 255
201 224 255
201 224 255
201 224 255
201 224 255
201 224 255
201 224 255
201 224 255
200 224 255
200 224 255
200 224 255
200 224 255
200 224 255
200 224 255
200 224 255
200 224 255
200 224 255
200 224 255
200 224 255
200 224 255
200 224 255
200 224 255
200 224 255
199 224 255
199 224 255
199 224 255
199 223 255
199 223 255
199 223 255
199 223 255
199 223 255
199 223 255
199 223 255
199 223 255
199 223 255
199 223 255
199 223 255
199 223 255
199 223 255
198 223 255
198 223 255
198 223 255
198 223 255
198 223 255
198 223 255
198 223 255
198 223 255
198 223 255
198 223 255
198 223 255
198 223 255
198 223 255
198 223 255
198 223 255
198 223 255
198 223 255
198 223 255
198 223 255
198 223 255
197 222 255
197 222 255
197 222 255
197 222 255
197 222 255
197 222 255
197 222 255
197 222 255
197 222 255
197 222 255
197 222 255
197 222 255
197 222 255
197 222 255
197 222 255
197 222 255
197 222 255
197 222 255
197 222 255
197 222 255
197 222 255
197 222 255
197 222 255
197 222 255
197 222 255
197 222 255
197 222 255
197 222 255
197 222 255
197 222 255
197 222 255
197 222 255
197 222 255
197 222 255
197 222 255
197 222 255
197 222 255
197 222 255
197 222 255
197 222 255
197 222 255
197 222 255
197 222 255
197 222 255
197 222 255
197 222 255
197 222 255
197 222 255
197 222 255
197 222 255
197 222 255
197 222 255
197 222 255
197 222 255
197 222 255
197 222 255
197 222 255
197 222 255
197 222 255
197 222 255
197 222 255
197 222 255
197 222 255
197 222 255
197 222 255
197 222 255
197 222 255
197 222 255
197 222 255
197 222 255
197 222 255
197 222 255
197 222 255
197 222 255
197 222 255
197 222 255
197 222 255
197 223 255
198 223 255
198 223 255
198 223 255
198 223 255
198 223 255
198 223 255
198 223 255
198 223 255
198 223 255
198 223 255
198 223 255
198 223 255
198 223 255
198 223 255
198 223 255
198 223 255
198 223 255
198 223 255
198 223 255
198 223 255
199 223 255
199 223 255
199 223 255
199 223 255
199 223 255
199 223 255
199 223 255
199 223 255
199 223 255
199 223 255
199 223 255
199 223 255
199 223 255
199 223 255
199 224 255
199 224 255
200 224 255
200 224 255
200 224 255
200 224 255
200 224 255
200 224 255
200 224 255
200 224 255
200 224 255
200 224 255
200 224 255
200 224 255
200 224 255
200 224 255
200 224 255
201 224 255
201 224 255
201 224 255
201 224 255
201 224 255
201 224 255
201 224 255
201 224 255
201 224 255
201 224 255
201 225 255
201 225 255
201 225 255
201 225 255
201 225 255
202 225 255
202 225 255
202 225 255
202 225 255
202 225 255
202 225 255
202 225 255
202 225 255
202 225 255
202 225 255
202 225 255
202 225 255
202 225 255
202 225 255
203 225 255
203 225 255
203 225 255
203 225 255
203 225 255
203 225 255
203 225 255
203 225 255
203 225 255
203 226 255
203 226 255
203 226 255
203 226 255
203 226 255
203 226 255
203 226 255
204 226 255
204 226 255
204 226 255
204 226 255
204 226 255
204 226 255
204 226 255
204 226 255
204 226 255
204 226 255
204 226 255
204 226 255
204 226 255
204 226 255
204 226 255
204 226 255
205 226 255
205 226 255
205 226 255
205 226 255
205 226 255
205 226 255
205 226 255
205 227 255
205 227 255
205 227 255
205 227 255
205 227 255
205 227 255
205 227 255
205 227 255
205 227 255
205 227 255
206 227 255
206 227 255
206 227 255
206 227 255
206 227 255
206 227 255
206 227 255
206 227 255
206 227 255
206 227 255
206 227 255
206 227 255
206 227 255
206 227 255
206 227 255
206 227 255
206 227 255
206 227 255
206 227 255
207 227 255
207 227 255
207 227 255
207 227 255
207 227 255
207 228 255
207 228 255
207 228 255
207 228 255
207 228 255
207 228 255
207 228 255
207 228 255
207 228 255
207 228 255
207 228 255
207 228 255
207 228 255
207 228 255
207 228 255
207 228 255
207 228 255
207 228 255
207 228 255
207 227 255
207 227 255
207 227 255
207 227 255
207 227 255
206 227 255
206 227 255
206 227 255
206 227 255
206 227 255
206 227 255
206 227 255
206 227 255
206 227 255
206 227 255
206 227 255
206 227 255
206 227 255
206 227 255
206 227 255
206 227 255
206 227 255
206 227 255
205 227 255
205 227 255
205 227 255
205 227 255
205 227 255
205 227 255
205 227 255
205 227 255
205 227 255
205 227 255
205 227 255
205 226 255
205 226 255
205 226 255
205 226 255
205 226 255
205 226 255
204 226 255
204 226 255
204 226 255
204 226 255
204 226 255
204 226 255
204 226 255
204 226 255
204 226 255
204 226 255
204 226 255
204 226 255
204 226 255
204 226 255
204 226 255
204 226 255
204 226 255
203 226 255
203 226 255
203 226 255
203 226 255
203 226 255
203 226 255
203 226 255
203 225 255
203 225 255
203 225 255
203 225 255
203 225 255
203 225 255
203 225 255
203 225 255
202 225 255
202 225 255
202 225 255
202 225 255
202 225 255
202 225 255
202 225 255
202 225 255
202 225 255
202 225 255
202 225 255
202 225 255
202 225 255
202 225 255
202 225 255
201 225 255
201 225 255
201 225 255
201 225 255
201 224 255
201 224 255
201 224 255
201 224 255
201 224 255
201 224 255
201 224 255
201 224 255
201 224 255
201 224 255
201 224 255
200 224 255
200 224 255
200 224 255
200 224 255
200 224 255
200 224 255
200 224 255
200 224 255
200 224 255
200 224 255
200 224 255
200 224 255
200 224 255
200 224 255
200 224 255
199 224 255
199 224 255
199 223 255
199 223 255
199 223 255
199 223 255
199 223 255
199 223 255
199 223 255
199 223 255
199 223 255
199 223 255
199 223 255
199 223 255
199 223 255
199 223 255
199 223 255
198 223 255
198 223 255
198 223 255
198 223 255
198 223 255
198 223 255
198 223 255
198 223 255
198 223 255
198 223 255
198 223 255
198 223 255
198 223 255
198 223 255
198 223 255
198 223 255
198 223 255
198 223 255
198 223 255
198 223 255
197 223 255
197 222 255
197 222 255
197 222 255
197 222 255
197 222 255
197 222 255
197 222 255
197 222 255
197 222 255
197 222 255
197 222 255
197 222 255
197 222 255
197 222 255
197 222 255
197 222 255
197 222 255
197 222 255
197 222 255
197 222 255
197 222 255
197 222 255
197 222 255
197 222 255
197 222 255
197 222 255
197 222 255
197 222 255
197 222 255
197 222 255
197 222 255
197 222 255
197 222 255
197 222 255
197 222 255
197 222 255
197 222 255
197 222 255
197 222 255
197 222 255
197 222 255
197 222 255
197 222 255
197 222 255
197 222 255
197 222 255
197 222 255
197 222 255
197 222 255
197 222 255
197 222 255
197 222 255
197 222 255
197 222 255
197 222 255
197 222 255
197 222 255
197 222 255
197 222 255
197 222 255
197 222 255
197 222 255
197 222 255
197 222 255
197 222 255
197 222 255
197 222 255
197 222 255
197 223 255
198 223 255
198 223 255
198 223 255
198 223 255
198 223 255
198 223 255
198 223 255
198 223 255
198 223 255
198 223 255
198 223 255
198 223 255
198 223 255
198 223 255
198 223 255
198 223 255
198 223 255
198 223 255
198 223 255
198 223 255
199 223 255
199 223 255
199 223 255
199 223 255
199 223 255
199 223 255
199 223 255
199 223 255
199 223 255
199 223 255
199 223 255
199 223 255
199 223 255
199 223 255
199 223 255
199 224 255
199 224 255
200 224 255
200 224 255
200 224 255
200 224 255
200 224 255
200 224 255
200 224 255
200 224 255
200 224 255
200 224 255
200 224 255
200 224 255
200 224 255
200 224 255
200 224 255
201 224 255
201 224 255
201 224 255
201 224 255
201 224 255
201 224 255
201 224 255
201 224 255
201 224 255
201 224 255
201 224 255
201 225 255
201 225 255
201 225 255
201 225 255
202 225 255
202 225 255
202 225 255
202 225 255
202 225 255
202 225 255
202 225 255
202 225 255
202 225 255
202 225 255
202 225 255
202 225 255
202 225 255
202 225 255
202 225 255
203 225 255
203 225 255
203 225 255
203 225 255
203 225 255
203 225 255
203 225 255
203 225 255
203 226 255
203 226 255
203 226 255
203 226 255
203 226 255
203 226 255
203 226 255
204 226 255
204 226 255
204 226 255
204 226 255
204 226 255
204 226 255
204 226 255
204 226 255
204 226 255
204 226 255
204 226 255
204 226 255
204 226 255
204 226 255
204 226 255
204 226 255
204 226 255
205 226 255
205 226 255
205 226 255
205 226 255
205 226 255
205 226 255
205 227 255
205 227 255
205 227 255
205 227 255
205 227 255
205 227 255
205 227 255
205 227 255
205 227 255
205 227 255
205 227 255
206 227 255
206 227 255
206 227 255
206 227 255
206 227 255
206 227 255
206 227 255
206 227 255
206 227 255
206 227 255
206 227 255
206 227 255
206 227 255
206 227 255
206 227 255
206 227 255
206 227 255
206 227 255
207 227 255
207 227 255
207 227 255
207 227 255
207 227 255
207 228 255
207 228 255
207 228 255
207 228 255
207 228 255
207 228 255
207 228 255
207 228 255
207 228 255
207 228 255
207 228 255
207 228 255
207 228 255
207 228 255
207 228 255
207 228 255
207 228 255
207 228 255
207 228 255
207 228 255
207 228 255
207 228 255
207 228 255
207 228 255
207 228 255
207 227 255
207 227 255
207 227 255
207 227 255
207 227 255
206 227 255
206 227 255
206 227 255
206 227 255
206 227 255
206 227 255
206 227 255
206 227 255
206 227 255
206 227 255
206 227 255
206 227 255
206 227 255
206 227 255
206 227 255
206 227 255
206 227 255
206 227 255
205 227 255
205 227 255
205 227 255
205 227 255
205 227 255
205 227 255
205 227 255
205 227 255
205 227 255
205 227 255
205 226 255
205 226 255
205 226 255
205 226 255
205 226 255
205 226 255
205 226 255
204 226 255
204 226 255
204 226 255
204 226 255
204 226 255
204 226 255
204 226 255
204 226 255
204 226 255
204 226 255
204 226 255
204 226 255
204 226 255
204 226 255
204 226 255
204 226 255
203 226 255
203 226 255
203 226 255
203 226 255
203 226 255
203 226 255
203 226 255
203 225 255
203 225 255
203 225 255
203 225 255
203 225 255
203 225 255
203 225 255
203 225 255
203 225 255
202 225 255
202 225 255
202 225 255
202 225 255
202 225 255
202 225 255
202 225 255
202 225 255
202 225 255
202 225 255
202 225 255
202 225 255
202 225 255
202 225 255
201 225 255
201 225 255
201 225 255
201 225 255
201 225 255
201 224 255
201 224 255
201 224 255
201 224 255
201 224 255
201 224 255
201 224 255
201 224 255
201 224 255
201 224 255
200 224 255
200 224 255
200 224 255
200 224 255
200 224 255
200 224 255
200 224 255
200 224 255
200 224 255
200 224 255
200 224 255
200 224 255
200 224 255
200 224 255
200 224 255
200 224 255
199 224 255
199 224 255
199 223 255
199 223 255
199 223 255
199 223 255
199 223 255
199 223 255
199 223 255
199 223 255
199 223 255
199 223 255
199 223 255
199 223 255
199 223 255
199 223 255
199 223 255
198 223 255
198 223 255
198 223 255
198 223 255
198 223 255
198 223 255
198 223 255
198 223 255
198 223 255
198 223 255
198 223 255
198 223 255
198 223 255
198 223 255
198 223 255
198 223 255
198 223 255
198 223 255
198 223 255
198 223 255
198 223 255
198 223 255
197 223 255
197 222 255
197 222 255
197 222 255
197 222 255
197 222 255
197 222 255
197 222 255
197 222 255
197 222 255
197 222 255
197 222 255
197 222 255
197 222 255
197 222 255
197 222 255
197 222 255
197 222 255
197 222 255
197 222 255
197 222 255
197 222 255
197 222 255
197 222 255
197 222 255
197 222 255
197 222 255
197 222 255
197 222 255
197 222 255
197 222 255
197 222 255
197 222 255
197 222 255
197 222 255
197 222 255
197 222 255
197 222 255
197 222 255
197 222 255
197 222 255
197 222 255
197 222 255
197 222 255
197 222 255
197 222 255
197 222 255
197 222 255
197 222 255
197 222 255
197 222 255
197 222 255
197 222 255
197 222 255
197 222 255
197 222 255
197 222 255
197 222 255
197 222 255
197 223 255
198 223 255
198 223 255
198 223 255
198 223 255
198 223 255
198 223 255
198 223 255
198 223 255
198 223 255
198 223 255
198 223 255
198 223 255
198 223 255
198 223 255
198 223 255
198 223 255
198 223 255
198 223 255
198 223 255
198 223 255
198 223 255
198 223 255
199 223 255
199 223 255
199 223 255
199 223 255
199 223 255
199 223 255
199 223 255
199 223 255
199 223 255
199 223 255
199 223 255
199 223 255
199 223 255
199 223 255
199 223 255
199 224 255
199 224 255
200 224 255
200 224 255
200 224 255
200 224 255
200 224 255
200 224 255
200 224 255
200 224 255
200 224 255
200 224 255
200 224 255
200 224 255
200 224 255
200 224 255
200 224 255
200 224 255
201 224 255
201 224 255
201 224 255
201 224 255
201 224 255
201 224 255
201 224 255
201 224 255
201 224 255
201 224 255
201 225 255
201 225 255
201 225 255
201 225 255
201 225 255
202 225 255
202 225 255
202 225 255
202 225 255
202 225 255
202 225 255
202 225 255
202 225 255
202 225 255
202 225 255
202 225 255
202 225 255
202 225 255
202 225 255
202 225 255
203 225 255
203 225 255
203 225 255
203 225 255
203 225 255
203 225 255
203 225 255
203 225 255
203 226 255
203 226 255
203 226 255
203 226 255
203 226 255
203 226 255
203 226 255
204 226 255
204 226 255
204 226 255
204 226 255
204 226 255
204 226 255
204 226 255
204 226 255
204 226 255
204 226 255
204 226 255
204 226 255
204 226 255
204 226 255
204 226 255
204 226 255
205 226 255
205 226 255
205 226 255
205 226 255
205 226 255
205 226 255
205 226 255
205 227 255
205 227 255
205 227 255
205 227 255
205 227 255
205 227 255
205 227 255
205 227 255
205 227 255
205 227 255
206 227 255
206 227 255
206 227 255
206 227 255
206 227 255
206 227 255
206 227 255
206 227 255
206 227 255
206 227 255
206 227 255
206 227 255
206 227 255
206 227 255
206 227 255
206 227 255
206 227 255
206 227 255
207 227 255
207 227 255
207 227 255
207 227 255
207 227 255
207 228 255
207 228 255
207 228 255
207 228 255
207 228 255
207 228 255
207 228 255
207 228 255
207 228 255
207 228 255
207 228 255
207 228 255
207 228 255
207 228 255
208 228 255
207 228 255
207 228 255
207 228 255
207 228 255
207 228 255
207 228 255
207 228 255
207 228 255
207 228 255
207 228 255
207 228 255
207 228 255
207 228 255
207 228 255
207 228 255
207 228 255
207 227 255
207 227 255
207 227 255
207 227 255
206 227 255
206 227 255
206 227 255
206 227 255
206 227 255
206 227 255
206 227 255
206 227 255
206 227 255
206 227 255
206 227 255
206 227 255
206 227 255
206 227 255
206 227 255
206 227 255
206 227 255
206 227 255
206 227 255
205 227 255
205 227 255
205 227 255
205 227 255
205 227 255
205 227 255
205 227 255
205 227 255
205 227 255
205 227 255
205 226 255
205 226 255
205 226 255
205 226 255
205 226 255
205 226 255
205 226 255
204 226 255
204 226 255
204 226 255
204 226 255
204 226 255
204 226 255
204 226 255
204 226 255
204 226 255
204 226 255
204 226 255
204 226 255
204 226 255
204 226 255
204 226 255
204 226 255
203 226 255
203 226 255
203 226 255
203 226 255
203 226 255
203 226 255
203 226 255
203 225 255
203 225 255
203 225 255
203 225 255
203 225 255
203 225 255
203 225 255
203 225 255
202 225 255
202 225 255
202 225 255
202 225 255
202 225 255
202 225 255
202 225 255
202 225 255
202 225 255
202 225 255
202 225 255
202 225 255
202 225 255
202 225 255
202 225 255
201 225 255
201 225 255
201 225 255
201 225 255
201 224 255
201 224 255
201 224 255
201 224 255
201 224 255
201 224 255
201 224 255
201 224 255
201 224 255
201 224 255
201 224 255
200 224 255
200 224 255
200 224 255
200 224 255
200 224 255
200 224 255
200 224 255
200 224 255
200 224 255
200 224 255
200 224 255
200 224 255
200 224 255
200 224 255
200 224 255
199 224 255
199 224 255
199 224 255
199 223 255
199 223 255
199 223 255
199 223 255
199 223 255
199 223 255
199 223 255
199 223 255
199 223 255
199 223 255
199 223 255
199 223 255
199 223 255
199 223 255
199 223 255
198 223 255
198 223 255
198 223 255
198 223 255
198 223 255
198 223 255
198 223 255
198 223 255
198 223 255
198 223 255
198 223 255
198 223 255
198 223 255
198 223 255
198 223 255
198 223 255
198 223 255
198 223 255
198 223 255
198 223 255
198 223 255
198 223 255
198 223 255
198 223 255
197 223 255
197 223 255
197 222 255
197 222 255
197 222 255
197 222 255
197 222 255
197 222 255
197 222 255
197 222 255
197 222 255
197 222 255
197 222 255
197 222 255
197 222 255
197 222 255
197 222 255
197 222 255
197 222 255
197 222 255
197 222 255
197 222 255
197 222 255
197 222 255
197 222 255
197 222 255
197 222 255
197 222 255
197 222 255
197 222 255
197 222 255
197 222 255
197 222 255
197 222 255
197 222 255
197 222 255
197 222 255
197 222 255
197 222 255
197 222 255
197 222 255
197 222 255
197 222 255
197 222 255
197 222 255
197 222 255
197 222 255
197 222 255
197 223 255
197 223 255
198 223 255
198 223 255
198 223 255
198 223 255
198 223 255
198 223 255
198 223 255
198 223 255
198 223 255
198 223 255
198 223 255
198 223 255
198 223 255
198 223 255
198 223 255
198 223 255
198 223 255
198 223 255
198 223 255
198 223 255
198 223 255
198 223 255
198 223 255
198 223 255
199 223 255
199 223 255
199 223 255
199 223 255
199 223 255
199 223 255
199 223 255
199 223 255
199 223 255
199 223 255
199 223 255
199 223 255
199 223 255
199 223 255
199 223 255
199 224 255
199 224 255
200 224 255
200 224 255
200 224 255
200 224 255
200 224 255
200 224 255
200 224 255
200 224 255
200 224 255
200 224 255
200 224 255
200 224 255
200 224 255
200 224 255
200 224 255
200 224 255
201 224 255
201 224 255
201 224 255
201 224 255
201 224 255
201 224 255
201 224 255
201 224 255
201 224 255
201 224 255
201 224 255
201 225 255
201 225 255
201 225 255
201 225 255
202 225 255
202 225 255
202 225 255
202 225 255
202 225 255
202 225 255
202 225 255
202 225 255
202 225 255
202 225 255
202 225 255
202 225 255
202 225 255
202 225 255
202 225 255
203 225 255
203 225 255
203 225 255
203 225 255
203 225 255
203 225 255
203 225 255
203 225 255
203 226 255
203 226 255
203 226 255
203 226 255
203 226 255
203 226 255
203 226 255
204 226 255
204 226 255
204 226 255
204 226 255
204 226 255
204 226 255
204 226 255
204 226 255
204 226 255
204 226 255
204 226 255
204 226 255
204 226 255
204 226 255
204 226 255
204 226 255
205 226 255
205 226 255
205 226 255
205 226 255
205 226 255
205 226 255
205 226 255
205 227 255
205 227 255
205 227 255
205 227 255
205 227 255
205 227 255
205 227 255
205 227 255
205 227 255
205 227 255
206 227 255
206 227 255
206 227 255
206 227 255
206 227 255
206 227 255
206 227 255
206 227 255
206 227 255
206 227 255
206 227 255
206 227 255
206 227 255
206 227 255
206 227 255
206 227 255
206 227 255
206 227 255
207 227 255
207 227 255
207 227 255
207 227 255
207 227 255
207 228 255
207 228 255
207 228 255
207 228 255
207 228 255
207 228 255
207 228 255
207 228 255
207 228 255
207 228 255
207 228 255
207 228 255
207 228 255
207 228 255
207 228 255
207 228 255
208 228 255
208 228 255
208 228 255
208 228 255
208 228 255
207 228 255
207 228 255
207 228 255
207 228 255
207 228 255
207 228 255
207 228 255
207 228 255
207 228 255
207 228 255
207 228 255
207 228 255
207 228 255
207 228 255
207 228 255
207 227 255
207 227 255
207 227 255
207 227 255
207 227 255
206 227 255
206 227 255
206 227 255
206 227 255
206 227 255
206 227 255
206 227 255
206 227 255
206 227 255
206 227 255
206 227 255
206 227 255
206 227 255
206 227 255
206 227 255
206 227 255
206 227 255
206 227 255
206 227 255
205 227 255
205 227 255
205 227 255
205 227 255
205 227 255
205 227 255
205 227 255
205 227 255
205 227 255
205 227 255
205 226 255
205 226 255
205 226 255
205 226 255
205 226 255
205 226 255
204 226 255
204 226 255
204 226 255
204 226 255
204 226 255
204 226 255
204 226 255
204 226 255
204 226 255
204 226 255
204 226 255
204 226 255
204 226 255
204 226 255
204 226 255
204 226 255
203 226 255
203 226 255
203 226 255
203 226 255
203 226 255
203 226 255
203 226 255
203 225 255
203 225 255
203 225 255
203 225 255
203 225 255
203 225 255
203 225 255
203 225 255
203 225 255
202 225 255
202 225 255
202 225 255
202 225 255
202 225 255
202 225 255
202 225 255
202 225 255
202 225 255
202 225 255
202 225 255
202 225 255
202 225 255
202 225 255
201 225 255
201 225 255
201 225 255
201 225 255
201 225 255
201 224 255
201 224 255
201 224 255
201 224 255
201 224 255
201 224 255
201 224 255
201 224 255
201 224 255
201 224 255
201 224 255
200 224 255
200 224 255
200 224 255
200 224 255
200 224 255
200 224 255
200 224 255
200 224 255
200 224 255
200 224 255
200 224 255
200 224 255
200 224 255
200 224 255
200 224 255
199 224 255
199 224 255
199 224 255
199 223 255
199 223 255
199 223 255
199 223 255
199 223 255
199 223 255
199 223 255
199 223 255
199 223 255
199 223 255
199 223 255
199 223 255
199 223 255
199 223 255
199 223 255
199 223 255
198 223 255
198 223 255
198 223 255
198 223 255
198 223 255
198 223 255
198 223 255
198 223 255
198 223 255
198 223 255
198 223 255
198 223 255
198 223 255
198 223 255
198 223 255
198 223 255
198 223 255
198 223 255
198 223 255
198 223 255
198 223 255
198 223 255
198 223 255
198 223 255
198 223 255
198 223 255
198 223 255
198 223 255
197 223 255
197 222 255
197 222 255
197 222 255
197 222 255
197 222 255
197 222 255
197 222 255
197 222 255
197 222 255
197 222 255
197 222 255
197 222 255
197 222 255
197 222 255
197 222 255
197 222 255
197 222 255
197 222 255
197 222 255
197 222 255
197 222 255
197 222 255
197 222 255
197 222 255
197 222 255
197 222 255
197 222 255
197 222 255
197 222 255
197 222 255
197 222 255
197 222 255
197 223 255
198 223 255
198 223 255
198 223 255
198 223 255
198 223 255
198 223 255
198 223 255
198 223 255
198 223 255
198 223 255
198 223 255
198 223 255
198 223 255
198 223 255
198 223 255
198 223 255
198 223 255
198 223 255
198 223 255
198 223 255
198 223 255
198 223 255
198 223 255
198 223 255
198 223 255
198 223 255
198 223 255
198 223 255
199 223 255
199 223 255
199 223 255
199 223 255
199 223 255
199 223 255
199 223 255
199 223 255
199 223 255
199 223 255
199 223 255
199 223 255
199 223 255
199 223 255
199 223 255
199 223 255
199 224 255
199 224 255
199 224 255
200 224 255
200 224 255
200 224 255
200 224 255
200 224 255
200 224 255
200 224 255
200 224 255
200 224 255
200 224 255
200 224 255
200 224 255
200 224 255
200 224 255
200 224 255
200 224 255
201 224 255
201 224 255
201 224 255
201 224 255
201 224 255
201 224 255
201 224 255
201 224 255
201 224 255
201 224 255
201 225 255
201 225 255
201 225 255
201 225 255
201 225 255
202 225 255
202 225 255
202 225 255
202 225 255
202 225 255
202 225 255
202 225 255
202 225 255
202 225 255
202 225 255
202 225 255
202 225 255
202 225 255
202 225 255
203 225 255
203 225 255
203 225 255
203 225 255
203 225 255
203 225 255
203 225 255
203 225 255
203 225 255
203 226 255
203 226 255
203 226 255
203 226 255
203 226 255
203 226 255
203 226 255
204 226 255
204 226 255
204 226 255
204 226 255
204 226 255
204 226 255
204 226 255
204 226 255
204 226 255
204 226 255
204 226 255
204 226 255
204 226 255
204 226 255
204 226 255
204 226 255
205 226 255
205 226 255
205 226 255
205 226 255
205 226 255
205 226 255
205 227 255
205 227 255
205 227 255
205 227 255
205 227 255
205 227 255
205 227 255
205 227 255
205 227 255
205 227 255
205 227 255
206 227 255
206 227 255
206 227 255
206 227 255
206 227 255
206 227 255
206 227 255
206 227 255
206 227 255
206 227 255
206 227 255
206 227 255
206 227 255
206 227 255
206 227 255
206 227 255
206 227 255
206 227 255
207 227 255
207 227 255
207 227 255
207 227 255
207 227 255
207 228 255
207 228 255
207 228 255
207 228 255
207 228 255
207 228 255
207 228 255
207 228 255
207 228 255
207 228 255
207 228 255
207 228 255
207 228 255
207 228 255
207 228 255
208 228 255
208 228 255
208 228 255
208 228 255
208 228 255
208 228 255
208 228 255
208 228 255
208 228 255
208 228 255
208 228 255
207 228 255
207 228 255
207 228 255
207 228 255
207 228 255
207 228 255
207 228 255
207 228 255
207 228 255
207 228 255
207 228 255
207 228 255
207 228 255
207 228 255
207 228 255
207 228 255
207 227 255
207 227 255
207 227 255
207 227 255
206 227 255
206 227 255
206 227 255
206 227 255
206 227 255
206 227 255
206 227 255
206 227 255
206 227 255
206 227 255
206 227 255
206 227 255
206 227 255
206 227 255
206 227 255
206 227 255
206 227 255
206 227 255
205 227 255
205 227 255
205 227 255
205 227 255
205 227 255
205 227 255
205 227 255
205 227 255
205 227 255
205 227 255
205 227 255
205 226 255
205 226 255
205 226 255
205 226 255
205 226 255
205 226 255
204 226 255
204 226 255
204 226 255
204 226 255
204 226 255
204 226 255
204 226 255
204 226 255
204 226 255
204 226 255
204 226 255
204 226 255
204 226 255
204 226 255
204 226 255
204 226 255
203 226 255
203 226 255
203 226 255
203 226 255
203 226 255
203 226 255
203 226 255
203 225 255
203 225 255
203 225 255
203 225 255
203 225 255
203 225 255
203 225 255
203 225 255
202 225 255
202 225 255
202 225 255
202 225 255
202 225 255
202 225 255
202 225 255
202 225 255
202 225 255
202 225 255
202 225 255
202 225 255
202 225 255
202 225 255
202 225 255
201 225 255
201 225 255
201 225 255
201 225 255
201 225 255
201 224 255
201 224 255
201 224 255
201 224 255
201 224 255
201 224 255
201 224 255
201 224 255
201 224 255
201 224 255
200 224 255
200 224 255
200 224 255
200 224 255
200 224 255
200 224 255
200 224 255
200 224 255
200 224 255
200 224 255
200 224 255
200 224 255
200 224 255
200 224 255
200 224 255
200 224 255
200 224 255
199 224 255
199 224 255
199 223 255
199 223 255
199 223 255
199 223 255
199 223 255
199 223 255
199 223 255
199 223 255
199 223 255
199 223 255
199 223 255
199 223 255
199 223 255
199 223 255
199 223 255
199 223 255
199 223 255
198 223 255
198 223 255
198 223 255
198 223 255
198 223 255
198 223 255
198 223 255
198 223 255
198 223 255
198 223 255
198 223 255
198 223 255
198 223 255
198 223 255
198 223 255
198 223 255
198 223 255
198 223 255
198 223 255
198 223 255
198 223 255
198 223 255
198 223 255
198 223 255
198 223 255
198 223 255
198 223 255
198 223 255
198 223 255
198 223 255
198 223 255
198 223 255
198 223 255
198 223 255
198 223 255
198 223 255
198 223 255
197 223 255
198 223 255
197 223 255
197 223 255
197 223 255
198 223 255
197 223 255
198 223 255
198 223 255
198 223 255
198 223 255
198 223 255
198 223 255
198 223 255
198 223 255
198 223 255
198 223 255
198 223 255
198 223 255
198 223 255
198 223 255
198 223 255
198 223 255
198 223 255
198 223 255
198 223 255
198 223 255
198 223 255
198 223 255
198 223 255
198 223 255
198 223 255
198 223 255
198 223 255
198 223 255
198 223 255
198 223 255
198 223 255
198 223 255
198 223 255
198 223 255
198 223 255
198 223 255
198 223 255
198 223 255
199 223 255
199 223 255
199 223 255
199 223 255
199 223 255
199 223 255
199 223 255
199 223 255
199 223 255
199 223 255
199 223 255
199 223 255
199 223 255
199 223 255
199 223 255
199 223 255
199 223 255
199 224 255
199 224 255
199 224 255
200 224 255
200 224 255
200 224 255
200 224 255
200 224 255
200 224 255
200 224 255
200 224 255
200 224 255
200 224 255
200 224 255
200 224 255
200 224 255
200 224 255
200 224 255
200 224 255
201 224 255
201 224 255
201 224 255
201 224 255
201 224 255
201 224 255
201 224 255
201 224 255
201 224 255
201 224 255
201 225 255
201 225 255
201 225 255
201 225 255
201 225 255
202 225 255
202 225 255
202 225 255
202 225 255
202 225 255
202 225 255
202 225 255
202 225 255
202 225 255
202 225 255
202 225 255
202 225 255
202 225 255
202 225 255
202 225 255
203 225 255
203 225 255
203 225 255
203 225 255
203 225 255
203 225 255
203 225 255
203 225 255
203 226 255
203 226 255
203 226 255
203 226 255
203 226 255
203 226 255
203 226 255
204 226 255
204 226 255
204 226 255
204 226 255
204 226 255
204 226 255
204 226 255
204 226 255
204 226 255
204 226 255
204 226 255
204 226 255
204 226 255
204 226 255
204 226 255
204 226 255
205 226 255
205 226 255
205 226 255
205 226 255
205 226 255
205 226 255
205 226 255
205 227 255
205 227 255
205 227 255
205 227 255
205 227 255
205 227 255
205 227 255
205 227 255
205 227 255
205 227 255
206 227 255
206 227 255
206 227 255
206 227 255
206 227 255
206 227 255
206 227 255
206 227 255
206 227 255
206 227 255
206 227 255
206 227 255
206 227 255
206 227 255
206 227 255
206 227 255
206 227 255
206 227 255
207 227 255
207 227 255
207 227 255
207 227 255
207 227 255
207 228 255
207 228 255
207 228 255
207 228 255
207 228 255
207 228 255
207 228 255
207 228 255
207 228 255
207 228 255
207 228 255
207 228 255
207 228 255
207 228 255
207 228 255
208 228 255
208 228 255
208 228 255
208 228 255
208 228 255
208 228 255
208 228 255
208 228 255
208 228 255
208 228 255
208 228 255
208 228 255
208 228 255
208 228 255
208 228 255
208 228 255
208 228 255
207 228 255
207 228 255
207 228 255
207 228 255
207 228 255
207 228 255
207 228 255
207 228 255
207 228 255
207 228 255
207 228 255
207 228 255
207 228 255
207 228 255
207 228 255
207 227 255
207 227 255
207 227 255
207 227 255
207 227 255
206 227 255
206 227 255
206 227 255
206 227 255
206 227 255
206 227 255
206 227 255
206 227 255
206 227 255
206 227 255
206 227 255
206 227 255
206 227 255
206 227 255
206 227 255
206 227 255
206 227 255
206 227 255
205 227 255
205 227 255
205 227 255
205 227 255
205 227 255
205 227 255
205 227 255
205 227 255
205 227 255
205 227 255
205 226 255
205 226 255
205 226 255
205 226 255
205 226 255
205 226 255
205 226 255
204 226 255
204 226 255
204 226 255
204 226 255
204 226 255
204 226 255
204 226 255
204 226 255
204 226 255
204 226 255
204 226 255
204 226 255
204 226 255
204 226 255
204 226 255
204 226 255
203 226 255
203 226 255
203 226 255
203 226 255
203 226 255
203 226 255
203 226 255
203 225 255
203 225 255
203 225 255
203 225 255
203 225 255
203 225 255
203 225 255
203 225 255
202 225 255
202 225 255
202 225 255
202 225 255
202 225 255
202 225 255
202 225 255
202 225 255
202 225 255
202 225 255
202 225 255
202 225 255
202 225 255
202 225 255
202 225 255
201 225 255
201 225 255
201 225 255
201 225 255
201 224 255
201 224 255
201 224 255
201 224 255
201 224 255
201 224 255
201 224 255
201 224 255
201 224 255
201 224 255
201 224 255
200 224 255
200 224 255
200 224 255
200 224 255
200 224 255
200 224 255
200 224 255
200 224 255
200 224 255
200 224 255
200 224 255
200 224 255
200 224 255
200 224 255
200 224 255
200 224 255
200 224 255
199 224 255
199 224 255
199 224 255
199 223 255
199 223 255
199 223 255
199 223 255
199 223 255
199 223 255
199 223 255
199 223 255
199 223 255
199 223 255
199 223 255
199 223 255
199 223 255
199 223 255
199 223 255
199 223 255
199 223 255
198 223 255
198 223 255
198 223 255
198 223 255
198 223 255
198 223 255
198 223 255
198 223 255
198 223 255
198 223 255
198 223 255
198 223 255
198 223 255
198 223 255
198 223 255
198 223 255
198 223 255
198 223 255
198 223 255
198 223 255
198 223 255
198 223 255
198 223 255
198 223 255
198 223 255
198 223 255
198 223 255
198 223 255
198 223 255
198 223 255
198 223 255
198 223 255
198 223 255
198 223 255
198 223 255
198 223 255
198 223 255
198 223 255
198 223 255
198 223 255
198 223 255
198 223 255
198 223 255
198 223 255
198 223 255
198 223 255
198 223 255
198 223 255
198 223 255
198 223 255
198 223 255
198 223 255
198 223 255
198 223 255
198 223 255
198 223 255
198 223 255
198 223 255
198 223 255
198 223 255
198 223 255
198 223 255
198 223 255
198 223 255
198 223 255
198 223 255
198 223 255
198 223 255
198 223 255
198 223 255
198 223 255
198 223 255
198 223 255
198 223 255
199 223 255
199 223 255
199 223 255
199 223 255
199 223 255
199 223 255
199 223 255
199 223 255
199 223 255
199 223 255
199 223 255
199 223 255
199 223 255
199 223 255
199 223 255
199 223 255
199 223 255
199 224 255
199 224 255
199 224 255
200 224 255
200 224 255
200 224 255
200 224 255
200 224 255
200 224 255
200 224 255
200 224 255
200 224 255
200 224 255
200 224 255
200 224 255
200 224 255
200 224 255
200 224 255
200 224 255
200 224 255
201 224 255
201 224 255
201 224 255
201 224 255
201 224 255
201 224 255
201 224 255
201 224 255
201 224 255
201 224 255
201 224 255
201 225 255
201 225 255
201 225 255
201 225 255
202 225 255
202 225 255
202 225 255
202 225 255
202 225 255
202 225 255
202 225 255
202 225 255
202 225 255
202 225 255
202 225 255
202 225 255
202 225 255
202 225 255
202 225 255
203 225 255
203 225 255
203 225 255
203 225 255
203 225 255
203 225 255
203 225 255
203 225 255
203 225 255
203 226 255
203 226 255
203 226 255
203 226 255
203 226 255
203 226 255
203 226 255
204 226 255
204 226 255
204 226 255
204 226 255
204 226 255
204 226 255
204 226 255
204 226 255
204 226 255
204 226 255
204 226 255
204 226 255
204 226 255
204 226 255
204 226 255
205 226 255
205 226 255
205 226 255
205 226 255
205 226 255
205 226 255
205 226 255
205 227 255
205 227 255
205 227 255
205 227 255
205 227 255
205 227 255
205 227 255
205 227 255
205 227 255
205 227 255
206 227 255
206 227 255
206 227 255
206 227 255
206 227 255
206 227 255
206 227 255
206 227 255
206 227 255
206 227 255
206 227 255
206 227 255
206 227 255
206 227 255
206 227 255
206 227 255
206 227 255
206 227 255
207 227 255
207 227 255
207 227 255
207 227 255
207 228 255
207 228 255
207 228 255
207 228 255
207 228 255
207 228 255
207 228 255
207 228 255
207 228 255
207 228 255
207 228 255
207 228 255
207 228 255
207 228 255
207 228 255
207 228 255
208 228 255
208 228 255
208 228 255
208 228 255
208 228 255
208 228 255
208 228 255
208 228 255
208 228 255
208 228 255
208 228 255
208 228 255
208 228 255
208 228 255
208 228 255
208 228 255
208 228 255
208 228 255
208 228 255
208 228 255
208 228 255
208 228 255
208 228 255
207 228 255
207 228 255
207 228 255
207 228 255
207 228 255
207 228 255
207 228 255
207 228 255
207 228 255
207 228 255
207 228 255
207 228 255
207 228 255
207 228 255
207 228 255
207 227 255
207 227 255
207 227 255
207 227 255
207 227 255
206 227 255
206 227 255
206 227 255
206 227 255
206 227 255
206 227 255
206 227 255
206 227 255
206 227 255
206 227 255
206 227 255
206 227 255
206 227 255
206 227 255
206 227 255
206 227 255
206 227 255
206 227 255
205 227 255
205 227 255
205 227 255
205 227 255
205 227 255
205 227 255
205 227 255
205 227 255
205 227 255
205 227 255
205 226 255
205 226 255
205 226 255
205 226 255
205 226 255
205 226 255
205 226 255
204 226 255
204 226 255
204 226 255
204 226 255
204 226 255
204 226 255
204 226 255
204 226 255
204 226 255
204 226 255
204 226 255
204 226 255
204 226 255
204 226 255
204 226 255
204 226 255
203 226 255
203 226 255
203 226 255
203 226 255
203 226 255
203 226 255
203 225 255
203 225 255
203 225 255
203 225 255
203 225 255
203 225 255
203 225 255
203 225 255
202 225 255
202 225 255
202 225 255
202 225 255
202 225 255
202 225 255
202 225 255
202 225 255
202 225 255
202 225 255
202 225 255
202 225 255
202 225 255
202 225 255
202 225 255
201 225 255
201 225 255
201 225 255
201 225 255
201 225 255
201 224 255
201 224 255
201 224 255
201 224 255
201 224 255
201 224 255
201 224 255
201 224 255
201 224 255
201 224 255
201 224 255
200 224 255
200 224 255
200 224 255
200 224 255
200 224 255
200 224 255
200 224 255
200 224 255
200 224 255
200 224 255
200 224 255
200 224 255
200 224 255
200 224 255
200 224 255
200 224 255
200 224 255
199 224 255
199 224 255
199 224 255
199 223 255
199 223 255
199 223 255
199 223 255
199 223 255
199 223 255
199 223 255
199 223 255
199 223 255
199 223 255
199 223 255
199 223 255
199 223 255
199 223 255
199 223 255
199 223 255
199 223 255
199 223 255
199 223 255
198 223 255
198 223 255
198 223 255
198 223 255
198 223 255
198 223 255
198 223 255
198 223 255
198 223 255
198 223 255
198 223 255
198 223 255
198 223 255
198 223 255
198 223 255
198 223 255
198 223 255
198 223 255
198 223 255
198 223 255
198 223 255
198 223 255
198 223 255
198 223 255
198 223 255
198 223 255
198 223 255
198 223 255
198 223 255
198 223 255
198 223 255
198 223 255
198 223 255
198 223 255
198 223 255
198 223 255
198 223 255
198 223 255
198 223 255
198 223 255
198 223 255
198 223 255
198 223 255
198 223 255
198 223 255
198 223 255
198 223 255
198 223 255
198 223 255
198 223 255
198 223 255
198 223 255
198 223 255
198 223 255
198 223 255
198 223 255
198 223 255
198 223 255
198 223 255
198 223 255
198 223 255
198 223 255
198 223 255
198 223 255
198 223 255
199 223 255
199 223 255
199 223 255
199 223 255
199 223 255
199 223 255
199 223 255
199 223 255
199 223 255
199 223 255
199 223 255
199 223 255
199 223 255
199 223 255
199 223 255
199 223 255
199 223 255
199 223 255
199 224 255
199 224 255
199 224 255
200 224 255
200 224 255
200 224 255
200 224 255
200 224 255
200 224 255
200 224 255
200 224 255
200 224 255
200 224 255
200 224 255
200 224 255
200 224 255
200 224 255
200 224 255
200 224 255
200 224 255
201 224 255
201 224 255
201 224 255
201 224 255
201 224 255
201 224 255
201 224 255
201 224 255
201 224 255
201 224 255
201 224 255
201 225 255
201 225 255
201 225 255
201 225 255
202 225 255
202 225 255
202 225 255
202 225 255
202 225 255
202 225 255
202 225 255
202 225 255
202 225 255
202 225 255
202 225 255
202 225 255
202 225 255
202 225 255
202 225 255
203 225 255
203 225 255
203 225 255
203 225 255
203 225 255
203 225 255
203 225 255
203 225 255
203 225 255
203 226 255
203 226 255
203 226 255
203 226 255
203 226 255
203 226 255
203 226 255
204 226 255
204 226 255
204 226 255
204 226 255
204 226 255
204 226 255
204 226 255
204 226 255
204 226 255
204 226 255
204 226 255
204 226 255
204 226 255
204 226 255
204 226 255
204 226 255
205 226 255
205 226 255
205 226 255
205 226 255
205 226 255
205 226 255
205 227 255
205 227 255
205 227 255
205 227 255
205 227 255
205 227 255
205 227 255
205 227 255
205 227 255
205 227 255
206 227 255
206 227 255
206 227 255
206 227 255
206 227 255
206 227 255
206 227 255
206 227 255
206 227 255
206 227 255
206 227 255
206 227 255
206 227 255
206 227 255
206 227 255
206 227 255
206 227 255
206 227 255
207 227 255
207 227 255
207 227 255
207 227 255
207 227 255
207 228 255
207 228 255
207 228 255
207 228 255
207 228 255
207 228 255
207 228 255
207 228 255
207 228 255
207 228 255
207 228 255
207 228 255
207 228 255
207 228 255
207 228 255
208 228 255
208 228 255
208 228 255
208 228 255
208 228 255
208 228 255
208 228 255
208 228 255
208 228 255
208 228 255
208 228 255
208 228 255
208 228 255
208 228 255
208 228 255
208 228 255
208 228 255
208 228 255
208 228 255
208 228 255
208 228 255
208 228 255
208 228 255
208 228 255
208 228 255
208 228 255
208 228 255
208 228 255
208 228 255
207 228 255
207 228 255
207 228 255
207 228 255
207 228 255
207 228 255
207 228 255
207 228 255
207 228 255
207 228 255
207 228 255
207 228 255
207 228 255
207 228 255
207 228 255
207 227 255
207 227 255
207 227 255
207 227 255
207 227 255
206 227 255
206 227 255
206 227 255
206 227 255
206 227 255
206 227 255
206 227 255
206 227 255
206 227 255
206 227 255
206 227 255
206 227 255
206 227 255
206 227 255
206 227 255
206 227 255
206 227 255
205 227 255
205 227 255
205 227 255
205 227 255
205 227 255
205 227 255
205 227 255
205 227 255
205 227 255
205 227 255
205 227 255
205 226 255
205 226 255
205 226 255
205 226 255
205 226 255
205 226 255
204 226 255
204 226 255
204 226 255
204 226 255
204 226 255
204 226 255
204 226 255
204 226 255
204 226 255
204 226 255
204 226 255
204 226 255
204 226 255
204 226 255
204 226 255
204 226 255
203 226 255
203 226 255
203 226 255
203 226 255
203 226 255
203 226 255
203 226 255
203 225 255
203 225 255
203 225 255
203 225 255
203 225 255
203 225 255
203 225 255
203 225 255
202 225 255
202 225 255
202 225 255
202 225 255
202 225 255
202 225 255
202 225 255
202 225 255
202 225 255
202 225 255
202 225 255
202 225 255
202 225 255
202 225 255
202 225 255
201 225 255
201 225 255
201 225 255
201 225 255
201 225 255
201 224 255
201 224 255
201 224 255
201 224 255
201 224 255
201 224 255
201 224 255
201 224 255
201 224 255
201 224 255
201 224 255
200 224 255
200 224 255
200 224 255
200 224 255
200 224 255
200 224 255
200 224 255
200 224 255
200 224 255
200 224 255
200 224 255
200 224 255
200 224 255
200 224 255
200 224 255
200 224 255
200 224 255
200 224 255
199 224 255
199 224 255
199 224 255
199 223 255
199 223 255
199 223 255
199 223 255
199 223 255
199 223 255
199 223 255
199 223 255
199 223 255
199 223 255
199 223 255
199 223 255
199 223 255
199 223 255
199 223 255
199 223 255
199 223 255
199 223 255
199 223 255
199 223 255
199 223 255
198 223 255
198 223 255
198 223 255
198 223 255
198 223 255
198 223 255
198 223 255
198 223 255
198 223 255
198 223 255
198 223 255
198 223 255
198 223 255
198 223 255
198 223 255
198 223 255
198 223 255
198 223 255
198 223 255
198 223 255
198 223 255
198 223 255
198 223 255
198 223 255
198 223 255
198 223 255
198 223 255
198 223 255
198 223 255
198 223 255
198 223 255
198 223 255
198 223 255
198 223 255
198 223 255
198 223 255
198 223 255
198 223 255
198 223 255
198 223 255
198 223 255
198 223 255
198 223 255
198 223 255
198 223 255
198 223 255
198 223 255
198 223 255
198 223 255
198 223 255
198 223 255
198 223 255
198 223 255
199 223 255
199 223 255
199 223 255
199 223 255
199 223 255
199 223 255
199 223 255
199 223 255
199 223 255
199 223 255
199 223 255
199 223 255
199 223 255
199 223 255
199 223 255
199 223 255
199 223 255
199 223 255
199 223 255
199 223 255
199 224 255
199 224 255
199 224 255
200 224 255
200 224 255
200 224 255
200 224 255
200 224 255
200 224 255
200 224 255
200 224 255
200 224 255
200 224 255
200 224 255
200 224 255
200 224 255
200 224 255
200 224 255
200 224 255
200 224 255
200 224 255
201 224 255
201 224 255
201 224 255
201 224 255
201 224 255
201 224 255
201 224 255
201 224 255
201 224 255
201 224 255
201 224 255
201 225 255
201 225 255
201 225 255
201 225 255
201 225 255
202 225 255
202 225 255
202 225 255
202 225 255
202 225 255
202 225 255
202 225 255
202 225 255
202 225 255
202 225 255
202 225 255
202 225 255
202 225 255
202 225 255
202 225 255
203 225 255
203 225 255
203 225 255
203 225 255
203 225 255
203 225 255
203 225 255
203 225 255
203 226 255
203 226 255
203 226 255
203 226 255
203 226 255
203 226 255
203 226 255
204 226 255
204 226 255
204 226 255
204 226 255
204 226 255
204 226 255
204 226 255
204 226 255
204 226 255
204 226 255
204 226 255
204 226 255
204 226 255
204 226 255
204 226 255
204 226 255
205 226 255
205 226 255
205 226 255
205 226 255
205 226 255
205 226 255
205 227 255
205 227 255
205 227 255
205 227 255
205 227 255
205 227 255
205 227 255
205 227 255
205 227 255
205 227 255
206 227 255
206 227 255
206 227 255
206 227 255
206 227 255
206 227 255
206 227 255
206 227 255
206 227 255
206 227 255
206 227 255
206 227 255
206 227 255
206 227 255
206 227 255
206 227 255
206 227 255
206 227 255
207 227 255
207 227 255
207 227 255
207 227 255
207 227 255
207 228 255
207 228 255
207 228 255
207 228 255
207 228 255
207 228 255
207 228 255
207 228 255
207 228 255
207 228 255
207 228 255
207 228 255
207 228 255
207 228 255
207 228 255
208 228 255
208 228 255
208 228 255
208 228 255
208 228 255
208 228 255
208 228 255
208 228 255
208 228 255
208 228 255
208 228 255
208 228 255
208 228 255
208 228 255
208 228 255
208 228 255
208 228 255
208 228 255
208 228 255
208 228 255
208 228 255
208 228 255
208 228 255
208 228 255
208 228 255
208 228 255
208 228 255
208 228 255
208 228 255
208 228 255
208 228 255
208 228 255
208 228 255
208 228 255
208 228 255
207 228 255
207 228 255
207 228 255
207 228 255
207 228 255
207 228 255
207 228 255
207 228 255
207 228 255
207 228 255
207 228 255
207 228 255
207 228 255
207 228 255
207 228 255
207 227 255
207 227 255
207 227 255
207 227 255
207 227 255
206 227 255
206 227 255
206 227 255
206 227 255
206 227 255
206 227 255
206 227 255
206 227 255
206 227 255
206 227 255
206 227 255
206 227 255
206 227 255
206 227 255
206 227 255
206 227 255
206 227 255
205 227 255
205 227 255
205 227 255
205 227 255
205 227 255
205 227 255
205 227 255
205 227 255
205 227 255
205 227 255
205 226 255
205 226 255
205 226 255
205 226 255
205 226 255
205 226 255
205 226 255
204 226 255
204 226 255
204 226 255
204 226 255
204 226 255
204 226 255
204 226 255
204 226 255
204 226 255
204 226 255
204 226 255
204 226 255
204 226 255
204 226 255
204 226 255
204 226 255
203 226 255
203 226 255
203 226 255
203 226 255
203 226 255
203 226 255
203 225 255
203 225 255
203 225 255
203 225 255
203 225 255
203 225 255
203 225 255
203 225 255
203 225 255
202 225 255
202 225 255
202 225 255
202 225 255
202 225 255
202 225 255
202 225 255
202 225 255
202 225 255
202 225 255
202 225 255
202 225 255
202 225 255
202 225 255
202 225 255
201 225 255
201 225 255
201 225 255
201 225 255
201 225 255
201 224 255
201 224 255
201 224 255
201 224 255
201 224 255
201 224 255
201 224 255
201 224 255
201 224 255
201 224 255
201 224 255
200 224 255
200 224 255
200 224 255
200 224 255
200 224 255
200 224 255
200 224 255
200 224 255
200 224 255
200 224 255
200 224 255
200 224 255
200 224 255
200 224 255
200 224 255
200 224 255
200 224 255
200 224 255
199 224 255
199 224 255
199 224 255
199 224 255
199 223 255
199 223 255
199 223 255
199 223 255
199 223 255
199 223 255
199 223 255
199 223 255
199 223 255
199 223 255
199 223 255
199 223 255
199 223 255
199 223 255
199 223 255
199 223 255
199 223 255
199 223 255
199 223 255
199 223 255
199 223 255
199 223 255
199 223 255
198 223 255
198 223 255
198 223 255
198 223 255
198 223 255
198 223 255
198 223 255
198 223 255
198 223 255
198 223 255
198 223 255
198 223 255
198 223 255
198 223 255
198 223 255
198 223 255
198 223 255
198 223 255
198 223 255
198 223 255
198 223 255
198 223 255
198 223 255
198 223 255
198 223 255
198 223 255
198 223 255
198 223 255
198 223 255
198 223 255
198 223 255
198 223 255
198 223 255
198 223 255
198 223 255
198 223 255
198 223 255
198 223 255
198 223 255
198 223 255
199 223 255
199 223 255
199 223 255
199 223 255
199 223 255
199 223 255
199 223 255
199 223 255
199 223 255
199 223 255
199 223 255
199 223 255
199 223 255
199 223 255
199 223 255
199 223 255
199 223 255
199 223 255
199 223 255
199 223 255
199 223 255
199 223 255
199 223 255
199 224 255
199 224 255
199 224 255
199 224 255
200 224 255
200 224 255
200 224 255
200 224 255
200 224 255
200 224 255
200 224 255
200 224 255
200 224 255
200 224 255
200 224 255
200 224 255
200 224 255
200 224 255
200 224 255
200 224 255
200 224 255
200 224 255
201 224 255
201 224 255
201 224 255
201 224 255
201 224 255
201 224 255
201 224 255
201 224 255
201 224 255
201 224 255
201 224 255
201 225 255
201 225 255
201 225 255
201 225 255
201 225 255
202 225 255
202 225 255
202 225 255
202 225 255
202 225 255
202 225 255
202 225 255
202 225 255
202 225 255
202 225 255
202 225 255
202 225 255
202 225 255
202 225 255
202 225 255
203 225 255
203 225 255
203 225 255
203 225 255
203 225 255
203 225 255
203 225 255
203 225 255
203 225 255
203 226 255
203 226 255
203 226 255
203 226 255
203 226 255
203 226 255
204 226 255
204 226 255
204 226 255
204 226 255
204 226 255
204 226 255
204 226 255
204 226 255
204 226 255
204 226 255
204 226 255
204 226 255
204 226 255
204 226 255
204 226 255
204 226 255
205 226 255
205 226 255
205 226 255
205 226 255
205 226 255
205 226 255
205 226 255
205 227 255
205 227 255
205 227 255
205 227 255
205 227 255
205 227 255
205 227 255
205 227 255
205 227 255
205 227 255
206 227 255
206 227 255
206 227 255
206 227 255
206 227 255
206 227 255
206 227 255
206 227 255
206 227 255
206 227 255
206 227 255
206 227 255
206 227 255
206 227 255
206 227 255
206 227 255
206 227 255
207 227 255
207 227 255
207 227 255
207 227 255
207 227 255
207 228 255
207 228 255
207 228 255
207 228 255
207 228 255
207 228 255
207 228 255
207 228 255
207 228 255
207 228 255
207 228 255
207 228 255
207 228 255
207 228 255
207 228 255
208 228 255
208 228 255
208 228 255
208 228 255
208 228 255
208 228 255
208 228 255
208 228 255
208 228 255
208 228 255
208 228 255
208 228 255
208 228 255
208 228 255
208 228 255
208 228 255
208 228 255
208 228 255
208 228 255
209 228 255
208 228 255
208 228 255
208 228 255
208 228 255
208 228 255
208 228 255
208 228 255
208 228 255
208 228 255
208 228 255
208 228 255
208 228 255
208 228 255
208 228 255
208 228 255
208 228 255
208 228 255
208 228 255
208 228 255
208 228 255
208 228 255
207 228 255
207 228 255
207 228 255
207 228 255
207 228 255
207 228 255
207 228 255
207 228 255
207 228 255
207 228 255
207 228 255
207 228 255
207 228 255
207 228 255
207 228 255
207 227 255
207 227 255
207 227 255
207 227 255
207 227 255
206 227 255
206 227 255
206 227 255
206 227 255
206 227 255
206 227 255
206 227 255
206 227 255
206 227 255
206 227 255
206 227 255
206 227 255
206 227 255
206 227 255
206 227 255
206 227 255
206 227 255
205 227 255
205 227 255
205 227 255
205 227 255
205 227 255
205 227 255
205 227 255
205 227 255
205 227 255
205 227 255
205 226 255
205 226 255
205 226 255
205 226 255
205 226 255
205 226 255
205 226 255
204 226 255
204 226 255
204 226 255
204 226 255
204 226 255
204 226 255
204 226 255
204 226 255
204 226 255
204 226 255
204 226 255
204 226 255
204 226 255
204 226 255
204 226 255
203 226 255
203 226 255
203 226 255
203 226 255
203 226 255
203 226 255
203 226 255
203 225 255
203 225 255
203 225 255
203 225 255
203 225 255
203 225 255
203 225 255
203 225 255
203 225 255
202 225 255
202 225 255
202 225 255
202 225 255
202 225 255
202 225 255
202 225 255
202 225 255
202 225 255
202 225 255
202 225 255
202 225 255
202 225 255
202 225 255
202 225 255
201 225 255
201 225 255
201 225 255
201 225 255
201 225 255
201 224 255
201 224 255
201 224 255
201 224 255
201 224 255
201 224 255
201 224 255
201 224 255
201 224 255
201 224 255
201 224 255
201 224 255
200 224 255
200 224 255
200 224 255
200 224 255
200 224 255
200 224 255
200 224 255
200 224 255
200 224 255
200 224 255
200 224 255
200 224 255
200 224 255
200 224 255
200 224 255
200 224 255
200 224 255
200 224 255
199 224 255
199 224 255
199 224 255
199 224 255
199 223 255
199 223 255
199 223 255
199 223 255
199 223 255
199 223 255
199 223 255
199 223 255
199 223 255
199 223 255
199 223 255
199 223 255
199 223 255
199 223 255
199 223 255
199 223 255
199 223 255
199 223 255
199 223 255
199 223 255
199 223 255
199 223 255
199 223 255
199 223 255
199 223 255
199 223 255
199 223 255
199 223 255
199 223 255
199 223 255
198 223 255
198 223 255
198 223 255
198 223 255
198 223 255
198 223 255
198 223 255
198 223 255
198 223 255
198 223 255
198 223 255
198 223 255
198 223 255
198 223 255
198 223 255
198 223 255
198 223 255
198 223 255
199 223 255
199 223 255
199 223 255
199 223 255
199 223 255
199 223 255
199 223 255
199 223 255
199 223 255
199 223 255
199 223 255
199 223 255
199 223 255
199 223 255
199 223 255
199 223 255
199 223 255
199 223 255
199 223 255
199 223 255
199 223 255
199 223 255
199 223 255
199 223 255
199 223 255
199 223 255
199 223 255
199 223 255
199 223 255
199 223 255
199 224 255
199 224 255
199 224 255
199 224 255
200 224 255
200 224 255
200 224 255
200 224 255
200 224 255
200 224 255
200 224 255
200 224 255
200 224 255
200 224 255
200 224 255
200 224 255
200 224 255
200 224 255
200 224 255
200 224 255
200 224 255
200 224 255
201 224 255
201 224 255
201 224 255
201 224 255
201 224 255
201 224 255
201 224 255
201 224 255
201 224 255
201 224 255
201 224 255
201 224 255
201 225 255
201 225 255
201 225 255
201 225 255
201 225 255
202 225 255
202 225 255
202 225 255
202 225 255
202 225 255
202 225 255
202 225 255
202 225 255
202 225 255
202 225 255
202 225 255
202 225 255
202 225 255
202 225 255
202 225 255
203 225 255
203 225 255
203 225 255
203 225 255
203 225 255
203 225 255
203 225 255
203 225 255
203 225 255
203 226 255
203 226 255
203 226 255
203 226 255
203 226 255
203 226 255
204 226 255
204 226 255
204 226 255
204 226 255
204 226 255
204 226 255
204 226 255
204 226 255
204 226 255
204 226 255
204 226 255
204 226 255
204 226 255
204 226 255
204 226 255
204 226 255
205 226 255
205 226 255
205 226 255
205 226 255
205 226 255
205 226 255
205 226 255
205 227 255
205 227 255
205 227 255
205 227 255
205 227 255
205 227 255
205 227 255
205 227 255
205 227 255
205 227 255
206 227 255
206 227 255
206 227 255
206 227 255
206 227 255
206 227 255
206 227 255
206 227 255
206 227 255
206 227 255
206 227 255
206 227 255
206 227 255
206 227 255
206 227 255
206 227 255
206 227 255
206 227 255
207 227 255
207 227 255
207 227 255
207 227 255
207 228 255
207 228 255
207 228 255
207 228 255
207 228 255
207 228 255
207 228 255
207 228 255
207 228 255
207 228 255
207 228 255
207 228 255
207 228 255
207 228 255
207 228 255
208 228 255
208 228 255
208 228 255
208 228 255
208 228 255
208 228 255
208 228 255
208 228 255
208 228 255
208 228 255
208 228 255
208 228 255
208 228 255
208 228 255
208 228 255
208 228 255
208 228 255
208 228 255
208 228 255
208 228 255
208 228 255
209 228 255
209 229 255
209 229 255
209 229 255
209 228 255
208 228 255
208 228 255
208 228 255
208 228 255
208 228 255
208 228 255
208 228 255
208 228 255
208 228 255
208 228 255
208 228 255
208 228 255
208 228 255
208 228 255
208 228 255
208 228 255
208 228 255
208 228 255
208 228 255
208 228 255
208 228 255
207 228 255
207 228 255
207 228 255
207 228 255
207 228 255
207 228 255
207 228 255
207 228 255
207 228 255
207 228 255
207 228 255
207 228 255
207 228 255
207 228 255
207 228 255
207 227 255
207 227 255
207 227 255
207 227 255
206 227 255
206 227 255
206 227 255
206 227 255
206 227 255
206 227 255
206 227 255
206 227 255
206 227 255
206 227 255
206 227 255
206 227 255
206 227 255
206 227 255
206 227 255
206 227 255
206 227 255
206 227 255
205 227 255
205 227 255
205 227 255
205 227 255
205 227 255
205 227 255
205 227 255
205 227 255
205 227 255
205 227 255
205 226 255
205 226 255
205 226 255
205 226 255
205 226 255
205 226 255
205 226 255
204 226 255
204 226 255
204 226 255
204 226 255
204 226 255
204 226 255
204 226 255
204 226 255
204 226 255
204 226 255
204 226 255
204 226 255
204 226 255
204 226 255
204 226 255
203 226 255
203 226 255
203 226 255
203 226 255
203 226 255
203 226 255
203 226 255
203 225 255
203 225 255
203 225 255
203 225 255
203 225 255
203 225 255
203 225 255
203 225 255
203 225 255
202 225 255
202 225 255
202 225 255
202 225 255
202 225 255
202 225 255
202 225 255
202 225 255
202 225 255
202 225 255
202 225 255
202 225 255
202 225 255
202 225 255
202 225 255
201 225 255
201 225 255
201 225 255
201 225 255
201 225 255
201 224 255
201 224 255
201 224 255
201 224 255
201 224 255
201 224 255
201 224 255
201 224 255
201 224 255
201 224 255
201 224 255
201 224 255
200 224 255
200 224 255
200 224 255
200 224 255
200 224 255
200 224 255
200 224 255
200 224 255
200 224 255
200 224 255
200 224 255
200 224 255
200 224 255
200 224 255
200 224 255
200 224 255
200 224 255
200 224 255
200 224 255
200 224 255
199 224 255
199 224 255
199 224 255
199 224 255
199 223 255
199 223 255
199 223 255
199 223 255
199 223 255
199 223 255
199 223 255
199 223 255
199 223 255
199 223 255
199 223 255
199 223 255
199 223 255
199 223 255
199 223 255
199 223 255
199 223 255
199 223 255
199 223 255
199 223 255
199 223 255
199 223 255
199 223 255
199 223 255
199 223 255
199 223 255
199 223 255
199 223 255
199 223 255
199 223 255
199 223 255
199 223 255
199 223 255
199 223 255
199 223 255
199 223 255
199 223 255
199 223 255
199 223 255
199 223 255
199 223 255
199 223 255
199 223 255
199 223 255
199 223 255
199 223 255
199 223 255
199 223 255
199 223 255
199 223 255
199 223 255
199 223 255
199 223 255
199 223 255
199 223 255
199 223 255
199 223 255
199 223 255
199 223 255
199 223 255
199 223 255
199 223 255
199 223 255
199 223 255
199 223 255
199 223 255
199 223 255
199 223 255
199 224 255
199 224 255
199 224 255
199 224 255
200 224 255
200 224 255
200 224 255
200 224 255
200 224 255
200 224 255
200 224 255
200 224 255
200 224 255
200 224 255
200 224 255
200 224 255
200 224 255
200 224 255
200 224 255
200 224 255
200 224 255
200 224 255
200 224 255
200 224 255
201 224 255
201 224 255
201 224 255
201 224 255
201 224 255
201 224 255
201 224 255
201 224 255
201 224 255
201 224 255
201 224 255
201 224 255
201 225 255
201 225 255
201 225 255
201 225 255
201 225 255
202 225 255
202 225 255
202 225 255
202 225 255
202 225 255
202 225 255
202 225 255
202 225 255
202 225 255
202 225 255
202 225 255
202 225 255
202 225 255
202 225 255
202 225 255
203 225 255
203 225 255
203 225 255
203 225 255
203 225 255
203 225 255
203 225 255
203 225 255
203 225 255
203 226 255
203 226 255
203 226 255
203 226 255
203 226 255
203 226 255
203 226 255
204 226 255
204 226 255
204 226 255
204 226 255
204 226 255
204 226 255
204 226 255
204 226 255
204 226 255
204 226 255
204 226 255
204 226 255
204 226 255
204 226 255
204 226 255
204 226 255
205 226 255
205 226 255
205 226 255
205 226 255
205 226 255
205 226 255
205 227 255
205 227 255
205 227 255
205 227 255
205 227 255
205 227 255
205 227 255
205 227 255
205 227 255
205 227 255
206 227 255
206 227 255
206 227 255
206 227 255
206 227 255
206 227 255
206 227 255
206 227 255
206 227 255
206 227 255
206 227 255
206 227 255
206 227 255
206 227 255
206 227 255
206 227 255
206 227 255
206 227 255
207 227 255
207 227 255
207 227 255
207 227 255
207 228 255
207 228 255
207 228 255
207 228 255
207 228 255
207 228 255
207 228 255
207 228 255
207 228 255
207 228 255
207 228 255
207 228 255
207 228 255
207 228 255
207 228 255
208 228 255
208 228 255
208 228 255
208 228 255
208 228 255
208 228 255
208 228 255
208 228 255
208 228 255
208 228 255
208 228 255
208 228 255
208 228 255
208 228 255
208 228 255
208 228 255
208 228 255
208 228 255
208 228 255
208 228 255
208 228 255
209 228 255
209 229 255
209 229 255
209 229 255
209 229 255
209 229 255
209 229 255
209 229 255
209 229 255
209 229 255
209 228 255
208 228 255
208 228 255
208 228 255
208 228 255
208 228 255
208 228 255
208 228 255
208 228 255
208 228 255
208 228 255
208 228 255
208 228 255
208 228 255
208 228 255
208 228 255
208 228 255
208 228 255
208 228 255
208 228 255
208 228 255
208 228 255
207 228 255
207 228 255
207 228 255
207 228 255
207 228 255
207 228 255
207 228 255
207 228 255
207 228 255
207 228 255
207 228 255
207 228 255
207 228 255
207 228 255
207 228 255
207 227 255
207 227 255
207 227 255
207 227 255
206 227 255
206 227 255
206 227 255
206 227 255
206 227 255
206 227 255
206 227 255
206 227 255
206 227 255
206 227 255
206 227 255
206 227 255
206 227 255
206 227 255
206 227 255
206 227 255
206 227 255
206 227 255
205 227 255
205 227 255
205 227 255
205 227 255
205 227 255
205 227 255
205 227 255
205 227 255
205 227 255
205 227 255
205 226 255
205 226 255
205 226 255
205 226 255
205 226 255
205 226 255
204 226 255
204 226 255
204 226 255
204 226 255
204 226 255
204 226 255
204 226 255
204 226 255
204 226 255
204 226 255
204 226 255
204 226 255
204 226 255
204 226 255
204 226 255
204 226 255
203 226 255
203 226 255
203 226 255
203 226 255
203 226 255
203 226 255
203 226 255
203 225 255
203 225 255
203 225 255
203 225 255
203 225 255
203 225 255
203 225 255
203 225 255
202 225 255
202 225 255
202 225 255
202 225 255
202 225 255
202 225 255
202 225 255
202 225 255
202 225 255
202 225 255
202 225 255
202 225 255
202 225 255
202 225 255
202 225 255
202 225 255
201 225 255
201 225 255
201 225 255
201 225 255
201 225 255
201 224 255
201 224 255
201 224 255
201 224 255
201 224 255
201 224 255
201 224 255
201 224 255
201 224 255
201 224 255
201 224 255
201 224 255
200 224 255
200 224 255
200 224 255
200 224 255
200 224 255
200 224 255
200 224 255
200 224 255
200 224 255
200 224 255
200 224 255
200 224 255
200 224 255
200 224 255
200 224 255
200 224 255
200 224 255
200 224 255
200 224 255
200 224 255
200 224 255
200 224 255
199 224 255
199 224 255
199 224 255
199 224 255
199 223 255
199 223 255
199 223 255
199 223 255
199 223 255
199 223 255
199 223 255
199 223 255
199 223 255
199 223 255
199 223 255
199 223 255
199 223 255
199 223 255
199 223 255
199 223 255
199 223 255
199 223 255
199 223 255
199 223 255
199 223 255
199 223 255
199 223 255
199 223 255
199 223 255
199 223 255
199 223 255
199 223 255
199 223 255
199 223 255
199 223 255
199 223 255
199 223 255
199 223 255
199 223 255
199 223 255
199 223 255
199 223 255
199 223 255
199 223 255
199 223 255
199 223 255
199 223 255
199 223 255
199 223 255
199 223 255
199 223 255
199 223 255
199 223 255
199 223 255
199 223 255
199 223 255
199 223 255
199 223 255
199 223 255
199 223 255
199 223 255
199 224 255
199 224 255
199 224 255
199 224 255
199 224 255
200 224 255
200 224 255
200 224 255
200 224 255
200 224 255
200 224 255
200 224 255
200 224 255
200 224 255
200 224 255
200 224 255
200 224 255
200 224 255
200 224 255
200 224 255
200 224 255
200 224 255
200 224 255
200 224 255
200 224 255
200 224 255
201 224 255
201 224 255
201 224 255
201 224 255
201 224 255
201 224 255
201 224 255
201 224 255
201 224 255
201 224 255
201 224 255
201 224 255
201 224 255
201 225 255
201 225 255
201 225 255
201 225 255
201 225 255
202 225 255
202 225 255
202 225 255
202 225 255
202 225 255
202 225 255
202 225 255
202 225 255
202 225 255
202 225 255
202 225 255
202 225 255
202 225 255
202 225 255
202 225 255
203 225 255
203 225 255
203 225 255
203 225 255
203 225 255
203 225 255
203 225 255
203 225 255
203 225 255
203 226 255
203 226 255
203 226 255
203 226 255
203 226 255
203 226 255
203 226 255
204 226 255
204 226 255
204 226 255
204 226 255
204 226 255
204 226 255
204 226 255
204 226 255
204 226 255
204 226 255
204 226 255
204 226 255
204 226 255
204 226 255
204 226 255
204 226 255
205 226 255
205 226 255
205 226 255
205 226 255
205 226 255
205 226 255
205 227 255
205 227 255
205 227 255
205 227 255
205 227 255
205 227 255
205 227 255
205 227 255
205 227 255
205 227 255
206 227 255
206 227 255
206 227 255
206 227 255
206 227 255
206 227 255
206 227 255
206 227 255
206 227 255
206 227 255
206 227 255
206 227 255
206 227 255
206 227 255
206 227 255
206 227 255
206 227 255
206 227 255
207 227 255
207 227 255
207 227 255
207 227 255
207 228 255
207 228 255
207 228 255
207 228 255
207 228 255
207 228 255
207 228 255
207 228 255
207 228 255
207 228 255
207 228 255
207 228 255
207 228 255
207 228 255
207 228 255
208 228 255
208 228 255
208 228 255
208 228 255
208 228 255
208 228 255
208 228 255
208 228 255
208 228 255
208 228 255
208 228 255
208 228 255
208 228 255
208 228 255
208 228 255
208 228 255
208 228 255
208 228 255
208 228 255
208 228 255
209 228 255
209 228 255
209 229 255
209 229 255
209 229 255
209 229 255
209 229 255
209 229 255
209 229 255
209 229 255
209 229 255
209 229 255
209 229 255
209 229 255
209 229 255
209 229 255
209 229 255
209 228 255
209 228 255
208 228 255
208 228 255
208 228 255
208 228 255
208 228 255
208 228 255
208 228 255
208 228 255
208 228 255
208 228 255
208 228 255
208 228 255
208 228 255
208 228 255
208 228 255
208 228 255
208 228 255
208 228 255
208 228 255
208 228 255
208 228 255
207 228 255
207 228 255
207 228 255
207 228 255
207 228 255
207 228 255
207 228 255
207 228 255
207 228 255
207 228 255
207 228 255
207 228 255
207 228 255
207 228 255
207 227 255
207 227 255
207 227 255
207 227 255
206 227 255
206 227 255
206 227 255
206 227 255
206 227 255
206 227 255
206 227 255
206 227 255
206 227 255
206 227 255
206 227 255
206 227 255
206 227 255
206 227 255
206 227 255
206 227 255
206 227 255
206 227 255
205 227 255
205 227 255
205 227 255
205 227 255
205 227 255
205 227 255
205 227 255
205 227 255
205 227 255
205 227 255
205 226 255
205 226 255
205 226 255
205 226 255
205 226 255
205 226 255
204 226 255
204 226 255
204 226 255
204 226 255
204 226 255
204 226 255
204 226 255
204 226 255
204 226 255
204 226 255
204 226 255
204 226 255
204 226 255
204 226 255
204 226 255
204 226 255
203 226 255
203 226 255
203 226 255
203 226 255
203 226 255
203 226 255
203 226 255
203 225 255
203 225 255
203 225 255
203 225 255
203 225 255
203 225 255
203 225 255
203 225 255
203 225 255
202 225 255
202 225 255
202 225 255
202 225 255
202 225 255
202 225 255
202 225 255
202 225 255
202 225 255
202 225 255
202 225 255
202 225 255
202 225 255
202 225 255
202 225 255
202 225 255
201 225 255
201 225 255
201 225 255
201 225 255
201 224 255
201 224 255
201 224 255
201 224 255
201 224 255
201 224 255
201 224 255
201 224 255
201 224 255
201 224 255
201 224 255
201 224 255
201 224 255
200 224 255
200 224 255
200 224 255
200 224 255
200 224 255
200 224 255
200 224 255
200 224 255
200 224 255
200 224 255
200 224 255
200 224 255
200 224 255
200 224 255
200 224 255
200 224 255
200 224 255
200 224 255
200 224 255
200 224 255
200 224 255
200 224 255
200 224 255
199 224 255
199 224 255
199 224 255
199 224 255
199 224 255
199 224 255
199 223 255
199 223 255
199 223 255
199 223 255
199 223 255
199 223 255
199 223 255
199 223 255
199 223 255
199 223 255
199 223 255
199 223 255
199 223 255
199 223 255
199 223 255
199 223 255
199 223 255
199 223 255
199 223 255
199 223 255
199 223 255
199 223 255
199 223 255
199 223 255
199 223 255
199 223 255
199 223 255
199 223 255
199 223 255
199 223 255
199 223 255
199 223 255
199 223 255
199 223 255
199 223 255
199 223 255
199 223 255
199 223 255
199 223 255
199 223 255
199 223 255
199 223 255
199 223 255
199 223 255
199 224 255
199 224 255
199 224 255
199 224 255
199 224 255
200 224 255
200 224 255
200 224 255
200 224 255
200 224 255
200 224 255
200 224 255
200 224 255
200 224 255
200 224 255
200 224 255
200 224 255
200 224 255
200 224 255
200 224 255
200 224 255
200 224 255
200 224 255
200 224 255
200 224 255
200 224 255
200 224 255
200 224 255
200 224 255
201 224 255
201 224 255
201 224 255
201 224 255
201 224 255
201 224 255
201 224 255
201 224 255
201 224 255
201 224 255
201 224 255
201 224 255
201 225 255
201 225 255
201 225 255
201 225 255
201 225 255
201 225 255
202 225 255
202 225 255
202 225 255
202 225 255
202 225 255
202 225 255
202 225 255
202 225 255
202 225 255
202 225 255
202 225 255
202 225 255
202 225 255
202 225 255
202 225 255
202 225 255
203 225 255
203 225 255
203 225 255
203 225 255
203 225 255
203 225 255
203 225 255
203 225 255
203 226 255
203 226 255
203 226 255
203 226 255
203 226 255
203 226 255
203 226 255
204 226 255
204 226 255
204 226 255
204 226 255
204 226 255
204 226 255
204 226 255
204 226 255
204 226 255
204 226 255
204 226 255
204 226 255
204 226 255
204 226 255
204 226 255
204 226 255
205 226 255
205 226 255
205 226 255
205 226 255
205 226 255
205 226 255
205 227 255
205 227 255
205 227 255
205 227 255
205 227 255
205 227 255
205 227 255
205 227 255
205 227 255
205 227 255
206 227 255
206 227 255
206 227 255
206 227 255
206 227 255
206 227 255
206 227 255
206 227 255
206 227 255
206 227 255
206 227 255
206 227 255
206 227 255
206 227 255
206 227 255
206 227 255
206 227 255
206 227 255
207 227 255
207 227 255
207 227 255
207 227 255
207 228 255
207 228 255
207 228 255
207 228 255
207 228 255
207 228 255
207 228 255
207 228 255
207 228 255
207 228 255
207 228 255
207 228 255
207 228 255
207 228 255
208 228 255
208 228 255
208 228 255
208 228 255
208 228 255
208 228 255
208 228 255
208 228 255
208 228 255
208 228 255
208 228 255
208 228 255
208 228 255
208 228 255
208 228 255
208 228 255
208 228 255
208 228 255
208 228 255
208 228 255
208 228 255
209 228 255
209 228 255
209 229 255
209 229 255
209 229 255
209 229 255
209 229 255
209 229 255
209 229 255
209 229 255
209 229 255
209 229 255
209 229 255
209 229 255
209 229 255
209 229 255
209 229 255
209 229 255
209 229 255
209 229 255
209 229 255
209 229 255
209 229 255
209 229 255
209 228 255
208 228 255
208 228 255
208 228 255
208 228 255
208 228 255
208 228 255
208 228 255
208 228 255
208 228 255
208 228 255
208 228 255
208 228 255
208 228 255
208 228 255
208 228 255
208 228 255
208 228 255
208 228 255
208 228 255
208 228 255
208 228 255
207 228 255
207 228 255
207 228 255
207 228 255
207 228 255
207 228 255
207 228 255
207 228 255
207 228 255
207 228 255
207 228 255
207 228 255
207 228 255
207 228 255
207 227 255
207 227 255
207 227 255
207 227 255
206 227 255
206 227 255
206 227 255
206 227 255
206 227 255
206 227 255
206 227 255
206 227 255
206 227 255
206 227 255
206 227 255
206 227 255
206 227 255
206 227 255
206 227 255
206 227 255
206 227 255
206 227 255
205 227 255
205 227 255
205 227 255
205 227 255
205 227 255
205 227 255
205 227 255
205 227 255
205 227 255
205 226 255
205 226 255
205 226 255
205 226 255
205 226 255
205 226 255
205 226 255
204 226 255
204 226 255
204 226 255
204 226 255
204 226 255
204 226 255
204 226 255
204 226 255
204 226 255
204 226 255
204 226 255
204 226 255
204 226 255
204 226 255
204 226 255
204 226 255
203 226 255
203 226 255
203 226 255
203 226 255
203 226 255
203 226 255
203 226 255
203 225 255
203 225 255
203 225 255
203 225 255
203 225 255
203 225 255
203 225 255
203 225 255
202 225 255
202 225 255
202 225 255
202 225 255
202 225 255
202 225 255
202 225 255
202 225 255
202 225 255
202 225 255
202 225 255
202 225 255
202 225 255
202 225 255
202 225 255
202 225 255
202 225 255
201 225 255
201 225 255
201 225 255
201 225 255
201 225 255
201 224 255
201 224 255
201 224 255
201 224 255
201 224 255
201 224 255
201 224 255
201 224 255
201 224 255
201 224 255
201 224 255
201 224 255
201 224 255
200 224 255
200 224 255
200 224 255
200 224 255
200 224 255
200 224 255
200 224 255
200 224 255
200 224 255
200 224 255
200 224 255
200 224 255
200 224 255
200 224 255
200 224 255
200 224 255
200 224 255
200 224 255
200 224 255
200 224 255
200 224 255
200 224 255
200 224 255
200 224 255
200 224 255
200 224 255
199 224 255
199 224 255
199 224 255
199 224 255
199 224 255
199 224 255
199 224 255
199 224 255
199 223 255
199 223 255
199 223 255
199 223 255
199 223 255
199 223 255
199 223 255
199 223 255
199 223 255
199 223 255
199 223 255
199 223 255
199 223 255
199 223 255
199 223 255
199 223 255
199 223 255
199 223 255
199 223 255
199 223 255
199 223 255
199 223 255
199 223 255
199 223 255
199 223 255
199 223 255
199 224 255
199 224 255
199 224 255
199 224 255
199 224 255
199 224 255
199 224 255
200 224 255
200 224 255
200 224 255
200 224 255
200 224 255
200 224 255
200 224 255
200 224 255
200 224 255
200 224 255
200 224 255
200 224 255
200 224 255
200 224 255
200 224 255
200 224 255
200 224 255
200 224 255
200 224 255
200 224 255
200 224 255
200 224 255
200 224 255
200 224 255
200 224 255
200 224 255
200 224 255
201 224 255
201 224 255
201 224 255
201 224 255
201 224 255
201 224 255
201 224 255
201 224 255
201 224 255
201 224 255
201 224 255
201 224 255
201 224 255
201 225 255
201 225 255
201 225 255
201 225 255
201 225 255
202 225 255
202 225 255
202 225 255
202 225 255
202 225 255
202 225 255
202 225 255
202 225 255
202 225 255
202 225 255
202 225 255
202 225 255
202 225 255
202 225 255
202 225 255
202 225 255
203 225 255
203 225 255
203 225 255
203 225 255
203 225 255
203 225 255
203 225 255
203 225 255
203 225 255
203 226 255
203 226 255
203 226 255
203 226 255
203 226 255
203 226 255
203 226 255
204 226 255
204 226 255
204 226 255
204 226 255
204 226 255
204 226 255
204 226 255
204 226 255
204 226 255
204 226 255
204 226 255
204 226 255
204 226 255
204 226 255
204 226 255
204 226 255
205 226 255
205 226 255
205 226 255
205 226 255
205 226 255
205 226 255
205 227 255
205 227 255
205 227 255
205 227 255
205 227 255
205 227 255
205 227 255
205 227 255
205 227 255
205 227 255
206 227 255
206 227 255
206 227 255
206 227 255
206 227 255
206 227 255
206 227 255
206 227 255
206 227 255
206 227 255
206 227 255
206 227 255
206 227 255
206 227 255
206 227 255
206 227 255
206 227 255
207 227 255
207 227 255
207 227 255
207 227 255
207 227 255
207 228 255
207 228 255
207 228 255
207 228 255
207 228 255
207 228 255
207 228 255
207 228 255
207 228 255
207 228 255
207 228 255
207 228 255
207 228 255
207 228 255
208 228 255
208 228 255
208 228 255
208 228 255
208 228 255
208 228 255
208 228 255
208 228 255
208 228 255
208 228 255
208 228 255
208 228 255
208 228 255
208 228 255
208 228 255
208 228 255
208 228 255
208 228 255
208 228 255
208 228 255
208 228 255
209 228 255
209 228 255
209 229 255
209 229 255
209 229 255
209 229 255
209 229 255
209 229 255
209 229 255
209 229 255
209 229 255
209 229 255
209 229 255
209 229 255
209 229 255
209 229 255
209 229 255
209 229 255
209 229 255
209 229 255
209 229 255
209 229 255
209 229 255
209 229 255
209 229 255
209 229 255
209 229 255
209 229 255
209 229 255
209 229 255
209 228 255
209 228 255
208 228 255
208 228 255
208 228 255
208 228 255
208 228 255
208 228 255
208 228 255
208 228 255
208 228 255
208 228 255
208 228 255
208 228 255
208 228 255
208 228 255
208 228 255
208 228 255
208 228 255
208 228 255
208 228 255
208 228 255
207 228 255
207 228 255
207 228 255
207 228 255
207 228 255
207 228 255
207 228 255
207 228 255
207 228 255
207 228 255
207 228 255
207 228 255
207 228 255
207 228 255
207 227 255
207 227 255
207 227 255
207 227 255
207 227 255
206 227 255
206 227 255
206 227 255
206 227 255
206 227 255
206 227 255
206 227 255
206 227 255
206 227 255
206 227 255
206 227 255
206 227 255
206 227 255
206 227 255
206 227 255
206 227 255
206 227 255
205 227 255
205 227 255
205 227 255
205 227 255
205 227 255
205 227 255
205 227 255
205 227 255
205 227 255
205 226 255
205 226 255
205 226 255
205 226 255
205 226 255
205 226 255
205 226 255
204 226 255
204 226 255
204 226 255
204 226 255
204 226 255
204 226 255
204 226 255
204 226 255
204 226 255
204 226 255
204 226 255
204 226 255
204 226 255
204 226 255
204 226 255
204 226 255
203 226 255
203 226 255
203 226 255
203 226 255
203 226 255
203 226 255
203 226 255
203 225 255
203 225 255
203 225 255
203 225 255
203 225 255
203 225 255
203 225 255
203 225 255
202 225 255
202 225 255
202 225 255
202 225 255
202 225 255
202 225 255
202 225 255
202 225 255
202 225 255
202 225 255
202 225 255
202 225 255
202 225 255
202 225 255
202 225 255
202 225 255
202 225 255
201 225 255
201 225 255
201 225 255
201 225 255
201 225 255
201 225 255
201 224 255
201 224 255
201 224 255
201 224 255
201 224 255
201 224 255
201 224 255
201 224 255
201 224 255
201 224 255
201 224 255
201 224 255
201 224 255
200 224 255
200 224 255
200 224 255
200 224 255
200 224 255
200 224 255
200 224 255
200 224 255
200 224 255
200 224 255
200 224 255
200 224 255
200 224 255
200 224 255
200 224 255
200 224 255
200 224 255
200 224 255
200 224 255
200 224 255
200 224 255
200 224 255
200 224 255
200 224 255
200 224 255
200 224 255
200 224 255
200 224 255
200 224 255
200 224 255
200 224 255
200 224 255
200 224 255
200 224 255
199 224 255
199 224 255
199 224 255
199 224 255
199 224 255
199 224 255
199 224 255
199 224 255
199 224 255
199 224 255
199 224 255
199 224 255
199 224 255
199 224 255
199 224 255
199 224 255
199 224 255
200 224 255
200 224 255
200 224 255
200 224 255
200 224 255
200 224 255
200 224 255
200 224 255
200 224 255
200 224 255
200 224 255
200 224 255
200 224 255
200 224 255
200 224 255
200 224 255
200 224 255
200 224 255
200 224 255
200 224 255
200 224 255
200 224 255
200 224 255
200 224 255
200 224 255
200 224 255
200 224 255
200 224 255
200 224 255
200 224 255
200 224 255
200 224 255
200 224 255
200 224 255
200 224 255
201 224 255
201 224 255
201 224 255
201 224 255
201 224 255
201 224 255
201 224 255
201 224 255
201 224 255
201 224 255
201 224 255
201 224 255
201 224 255
201 225 255
201 225 255
201 225 255
201 225 255
201 225 255
201 225 255
202 225 255
202 225 255
202 225 255
202 225 255
202 225 255
202 225 255
202 225 255
202 225 255
202 225 255
202 225 255
202 225 255
202 225 255
202 225 255
202 225 255
202 225 255
202 225 255
203 225 255
203 225 255
203 225 255
203 225 255
203 225 255
203 225 255
203 225 255
203 225 255
203 225 255
203 226 255
203 226 255
203 226 255
203 226 255
203 226 255
203 226 255
203 226 255
204 226 255
204 226 255
204 226 255
204 226 255
204 226 255
204 226 255
204 226 255
204 226 255
204 226 255
204 226 255
204 226 255
204 226 255
204 226 255
204 226 255
204 226 255
204 226 255
205 226 255
205 226 255
205 226 255
205 226 255
205 226 255
205 226 255
205 227 255
205 227 255
205 227 255
205 227 255
205 227 255
205 227 255
205 227 255
205 227 255
205 227 255
205 227 255
206 227 255
206 227 255
206 227 255
206 227 255
206 227 255
206 227 255
206 227 255
206 227 255
206 227 255
206 227 255
206 227 255
206 227 255
206 227 255
206 227 255
206 227 255
206 227 255
206 227 255
207 227 255
207 227 255
207 227 255
207 227 255
207 227 255
207 228 255
207 228 255
207 228 255
207 228 255
207 228 255
207 228 255
207 228 255
207 228 255
207 228 255
207 228 255
207 228 255
207 228 255
207 228 255
207 228 255
208 228 255
208 228 255
208 228 255
208 228 255
208 228 255
208 228 255
208 228 255
208 228 255
208 228 255
208 228 255
208 228 255
208 228 255
208 228 255
208 228 255
208 228 255
208 228 255
208 228 255
208 228 255
208 228 255
208 228 255
208 228 255
209 228 255
209 229 255
209 229 255
209 229 255
209 229 255
209 229 255
209 229 255
209 229 255
209 229 255
209 229 255
209 229 255
209 229 255
209 229 255
209 229 255
209 229 255
209 229 255
209 229 255
209 229 255
209 229 255
209 229 255
209 229 255
209 229 255
209 229 255
209 229 255
209 229 255
209 229 255
209 229 255
209 229 255
209 229 255
209 229 255
209 229 255
209 229 255
209 229 255
209 229 255
209 229 255
209 229 255
209 228 255
209 228 255
208 228 255
208 228 255
208 228 255
208 228 255
208 228 255
208 228 255
208 228 255
208 228 255
208 228 255
208 228 255
208 228 255
208 228 255
208 228 255
208 228 255
208 228 255
208 228 255
208 228 255
208 228 255
208 228 255
208 228 255
207 228 255
207 228 255
207 228 255
207 228 255
207 228 255
207 228 255
207 228 255
207 228 255
207 228 255
207 228 255
207 228 255
207 228 255
207 228 255
207 228 255
207 227 255
207 227 255
207 227 255
207 227 255
206 227 255
206 227 255
206 227 255
206 227 255
206 227 255
206 227 255
206 227 255
206 227 255
206 227 255
206 227 255
206 227 255
206 227 255
206 227 255
206 227 255
206 227 255
206 227 255
206 227 255
206 227 255
205 227 255
205 227 255
205 227 255
205 227 255
205 227 255
205 227 255
205 227 255
205 227 255
205 227 255
205 227 255
205 226 255
205 226 255
205 226 255
205 226 255
205 226 255
205 226 255
204 226 255
204 226 255
204 226 255
204 226 255
204 226 255
204 226 255
204 226 255
204 226 255
204 226 255
204 226 255
204 226 255
204 226 255
204 226 255
204 226 255
204 226 255
204 226 255
203 226 255
203 226 255
203 226 255
203 226 255
203 226 255
203 226 255
203 226 255
203 225 255
203 225 255
203 225 255
203 225 255
203 225 255
203 225 255
203 225 255
203 225 255
203 225 255
202 225 255
202 225 255
202 225 255
202 225 255
202 225 255
202 225 255
202 225 255
202 225 255
202 225 255
202 225 255
202 225 255
202 225 255
202 225 255
202 225 255
202 225 255
202 225 255
202 225 255
201 225 255
201 225 255
201 225 255
201 225 255
201 225 255
201 225 255
201 224 255
201 224 255
201 224 255
201 224 255
201 224 255
201 224 255
201 224 255
201 224 255
201 224 255
201 224 255
201 224 255
201 224 255
201 224 255
201 224 255
200 224 255
200 224 255
200 224 255
200 224 255
200 224 255
200 224 255
200 224 255
200 224 255
200 224 255
200 224 255
200 224 255
200 224 255
200 224 255
200 224 255
200 224 255
200 224 255
200 224 255
200 224 255
200 224 255
200 224 255
200 224 255
200 224 255
200 224 255
200 224 255
200 224 255
200 224 255
200 224 255
200 224 255
200 224 255
200 224 255
200 224 255
200 224 255
200 224 255
200 224 255
200 224 255
200 224 255
200 224 255
200 224 255
200 224 255
200 224 255
200 224 255
200 224 255
200 224 255
200 224 255
200 224 255
200 224 255
200 224 255
200 224 255
200 224 255
200 224 255
200 224 255
200 224 255
200 224 255
200 224 255
200 224 255
200 224 255
200 224 255
200 224 255
200 224 255
200 224 255
200 224 255
200 224 255
200 224 255
200 224 255
200 224 255
200 224 255
200 224 255
200 224 255
200 224 255
200 224 255
200 224 255
200 224 255
200 224 255
200 224 255
200 224 255
200 224 255
201 224 255
201 224 255
201 224 255
201 224 255
201 224 255
201 224 255
201 224 255
201 224 255
201 224 255
201 224 255
201 224 255
201 224 255
201 224 255
201 224 255
201 224 255
201 225 255
201 225 255
201 225 255
201 225 255
201 225 255
202 225 255
202 225 255
202 225 255
202 225 255
202 225 255
202 225 255
202 225 255
202 225 255
202 225 255
202 225 255
202 225 255
202 225 255
202 225 255
202 225 255
202 225 255
202 225 255
202 225 255
203 225 255
203 225 255
203 225 255
203 225 255
203 225 255
203 225 255
203 225 255
203 225 255
203 225 255
203 226 255
203 226 255
203 226 255
203 226 255
203 226 255
203 226 255
203 226 255
204 226 255
204 226 255
204 226 255
204 226 255
204 226 255
204 226 255
204 226 255
204 226 255
204 226 255
204 226 255
204 226 255
204 226 255
204 226 255
204 226 255
204 226 255
204 226 255
205 226 255
205 226 255
205 226 255
205 226 255
205 226 255
205 226 255
205 227 255
205 227 255
205 227 255
205 227 255
205 227 255
205 227 255
205 227 255
205 227 255
205 227 255
205 227 255
206 227 255
206 227 255
206 227 255
206 227 255
206 227 255
206 227 255
206 227 255
206 227 255
206 227 255
206 227 255
206 227 255
206 227 255
206 227 255
206 227 255
206 227 255
206 227 255
206 227 255
207 227 255
207 227 255
207 227 255
207 227 255
207 227 255
207 228 255
207 228 255
207 228 255
207 228 255
207 228 255
207 228 255
207 228 255
207 228 255
207 228 255
207 228 255
207 228 255
207 228 255
207 228 255
207 228 255
208 228 255
208 228 255
208 228 255
208 228 255
208 228 255
208 228 255
208 228 255
208 228 255
208 228 255
208 228 255
208 228 255
208 228 255
208 228 255
208 228 255
208 228 255
208 228 255
208 228 255
208 228 255
208 228 255
208 228 255
209 228 255
209 228 255
209 229 255
209 229 255
209 229 255
209 229 255
209 229 255
209 229 255
209 229 255
209 229 255
209 229 255
209 229 255
209 229 255
209 229 255
209 229 255
209 229 255
209 229 255
209 229 255
209 229 255
209 229 255
209 229 255
210 229 255
209 229 255
209 229 255
209 229 255
209 229 255
209 229 255
209 229 255
209 229 255
209 229 255
209 229 255
209 229 255
209 229 255
209 229 255
209 229 255
209 229 255
209 229 255
209 229 255
209 229 255
209 229 255
209 229 255
209 229 255
209 229 255
209 228 255
209 228 255
208 228 255
208 228 255
208 228 255
208 228 255
208 228 255
208 228 255
208 228 255
208 228 255
208 228 255
208 228 255
208 228 255
208 228 255
208 228 255
208 228 255
208 228 255
208 228 255
208 228 255
208 228 255
208 228 255
208 228 255
207 228 255
207 228 255
207 228 255
207 228 255
207 228 255
207 228 255
207 228 255
207 228 255
207 228 255
207 228 255
207 228 255
207 228 255
207 228 255
207 228 255
207 227 255
207 227 255
207 227 255
207 227 255
207 227 255
206 227 255
206 227 255
206 227 255
206 227 255
206 227 255
206 227 255
206 227 255
206 227 255
206 227 255
206 227 255
206 227 255
206 227 255
206 227 255
206 227 255
206 227 255
206 227 255
206 227 255
205 227 255
205 227 255
205 227 255
205 227 255
205 227 255
205 227 255
205 227 255
205 227 255
205 227 255
205 226 255
205 226 255
205 226 255
205 226 255
205 226 255
205 226 255
205 226 255
204 226 255
204 226 255
204 226 255
204 226 255
204 226 255
204 226 255
204 226 255
204 226 255
204 226 255
204 226 255
204 226 255
204 226 255
204 226 255
204 226 255
204 226 255
204 226 255
203 226 255
203 226 255
203 226 255
203 226 255
203 226 255
203 226 255
203 226 255
203 225 255
203 225 255
203 225 255
203 225 255
203 225 255
203 225 255
203 225 255
203 225 255
203 225 255
202 225 255
202 225 255
202 225 255
202 225 255
202 225 255
202 225 255
202 225 255
202 225 255
202 225 255
202 225 255
202 225 255
202 225 255
202 225 255
202 225 255
202 225 255
202 225 255
202 225 255
202 225 255
201 225 255
201 225 255
201 225 255
201 225 255
201 225 255
201 224 255
201 224 255
201 224 255
201 224 255
201 224 255
201 224 255
201 224 255
201 224 255
201 224 255
201 224 255
201 224 255
201 224 255
201 224 255
201 224 255
201 224 255
201 224 255
201 224 255
200 224 255
200 224 255
200 224 255
200 224 255
200 224 255
200 224 255
200 224 255
200 224 255
200 224 255
200 224 255
200 224 255
200 224 255
200 224 255
200 224 255
200 224 255
200 224 255
200 224 255
200 224 255
200 224 255
200 224 255
200 224 255
200 224 255
200 224 255
200 224 255
200 224 255
200 224 255
200 224 255
200 224 255
200 224 255
200 224 255
200 224 255
200 224 255
200 224 255
200 224 255
200 224 255
200 224 255
200 224 255
200 224 255
200 224 255
200 224 255
200 224 255
200 224 255
200 224 255
200 224 255
200 224 255
200 224 255
200 224 255
200 224 255
200 224 255
200 224 255
200 224 255
200 224 255
200 224 255
200 224 255
200 224 255
200 224 255
200 224 255
200 224 255
200 224 255
200 224 255
200 224 255
200 224 255
200 224 255
200 224 255
200 224 255
201 224 255
201 224 255
201 224 255
201 224 255
201 224 255
201 224 255
201 224 255
201 224 255
201 224 255
201 224 255
201 224 255
201 224 255
201 224 255
201 224 255
201 224 255
201 224 255
201 225 255
201 225 255
201 225 255
201 225 255
201 225 255
201 225 255
202 225 255
202 225 255
202 225 255
202 225 255
202 225 255
202 225 255
202 225 255
202 225 255
202 225 255
202 225 255
202 225 255
202 225 255
202 225 255
202 225 255
202 225 255
202 225 255
202 225 255
203 225 255
203 225 255
203 225 255
203 225 255
203 225 255
203 225 255
203 225 255
203 225 255
203 225 255
203 226 255
203 226 255
203 226 255
203 226 255
203 226 255
203 226 255
203 226 255
204 226 255
204 226 255
204 226 255
204 226 255
204 226 255
204 226 255
204 226 255
204 226 255
204 226 255
204 226 255
204 226 255
204 226 255
204 226 255
204 226 255
204 226 255
204 226 255
205 226 255
205 226 255
205 226 255
205 226 255
205 226 255
205 226 255
205 226 255
205 227 255
205 227 255
205 227 255
205 227 255
205 227 255
205 227 255
205 227 255
205 227 255
205 227 255
206 227 255
206 227 255
206 227 255
206 227 255
206 227 255
206 227 255
206 227 255
206 227 255
206 227 255
206 227 255
206 227 255
206 227 255
206 227 255
206 227 255
206 227 255
206 227 255
206 227 255
207 227 255
207 227 255
207 227 255
207 227 255
207 227 255
207 228 255
207 228 255
207 228 255
207 228 255
207 228 255
207 228 255
207 228 255
207 228 255
207 228 255
207 228 255
207 228 255
207 228 255
207 228 255
207 228 255
208 228 255
208 228 255
208 228 255
208 228 255
208 228 255
208 228 255
208 228 255
208 228 255
208 228 255
208 228 255
208 228 255
208 228 255
208 228 255
208 228 255
208 228 255
208 228 255
208 228 255
208 228 255
208 228 255
208 228 255
209 228 255
209 228 255
209 229 255
209 229 255
209 229 255
209 229 255
209 229 255
209 229 255
209 229 255
209 229 255
209 229 255
209 229 255
209 229 255
209 229 255
209 229 255
209 229 255
209 229 255
209 229 255
209 229 255
209 229 255
209 229 255
209 229 255
209 229 255
210 229 255
210 229 255
210 229 255
210 229 255
210 229 255
210 229 255
209 229 255
209 229 255
209 229 255
209 229 255
209 229 255
209 229 255
209 229 255
209 229 255
209 229 255
209 229 255
209 229 255
209 229 255
209 229 255
209 229 255
209 229 255
209 229 255
209 229 255
209 229 255
209 229 255
209 229 255
209 229 255
209 228 255
208 228 255
208 228 255
208 228 255
208 228 255
208 228 255
208 228 255
208 228 255
208 228 255
208 228 255
208 228 255
208 228 255
208 228 255
208 228 255
208 228 255
208 228 255
208 228 255
208 228 255
208 228 255
208 228 255
208 228 255
207 228 255
207 228 255
207 228 255
207 228 255
207 228 255
207 228 255
207 228 255
207 228 255
207 228 255
207 228 255
207 228 255
207 228 255
207 228 255
207 228 255
207 228 255
207 227 255
207 227 255
207 227 255
207 227 255
206 227 255
206 227 255
206 227 255
206 227 255
206 227 255
206 227 255
206 227 255
206 227 255
206 227 255
206 227 255
206 227 255
206 227 255
206 227 255
206 227 255
206 227 255
206 227 255
206 227 255
205 227 255
205 227 255
205 227 255
205 227 255
205 227 255
205 227 255
205 227 255
205 227 255
205 227 255
205 227 255
205 226 255
205 226 255
205 226 255
205 226 255
205 226 255
205 226 255
204 226 255
204 226 255
204 226 255
204 226 255
204 226 255
204 226 255
204 226 255
204 226 255
204 226 255
204 226 255
204 226 255
204 226 255
204 226 255
204 226 255
204 226 255
204 226 255
203 226 255
203 226 255
203 226 255
203 226 255
203 226 255
203 226 255
203 226 255
203 225 255
203 225 255
203 225 255
203 225 255
203 225 255
203 225 255
203 225 255
203 225 255
203 225 255
203 225 255
202 225 255
202 225 255
202 225 255
202 225 255
202 225 255
202 225 255
202 225 255
202 225 255
202 225 255
202 225 255
202 225 255
202 225 255
202 225 255
202 225 255
202 225 255
202 225 255
202 225 255
202 225 255
201 225 255
201 225 255
201 225 255
201 225 255
201 225 255
201 224 255
201 224 255
201 224 255
201 224 255
201 224 255
201 224 255
201 224 255
201 224 255
201 224 255
201 224 255
201 224 255
201 224 255
201 224 255
201 224 255
201 224 255
201 224 255
201 224 255
201 224 255
201 224 255
200 224 255
200 224 255
200 224 255
200 224 255
200 224 255
200 224 255
200 224 255
200 224 255
200 224 255
200 224 255
200 224 255
200 224 255
200 224 255
200 224 255
200 224 255
200 224 255
200 224 255
200 224 255
200 224 255
200 224 255
200 224 255
200 224 255
200 224 255
200 224 255
200 224 255
200 224 255
200 224 255
200 224 255
200 224 255
200 224 255
200 224 255
200 224 255
200 224 255
200 224 255
200 224 255
200 224 255
200 224 255
200 224 255
200 224 255
200 224 255
200 224 255
200 224 255
200 224 255
200 224 255
200 224 255
200 224 255
200 224 255
200 224 255
200 224 255
200 224 255
200 224 255
200 224 255
201 224 255
201 224 255
201 224 255
201 224 255
201 224 255
201 224 255
201 224 255
201 224 255
201 224 255
201 224 255
201 224 255
201 224 255
201 224 255
201 224 255
201 224 255
201 224 255
201 224 255
201 224 255
201 224 255
201 225 255
201 225 255
201 225 255
201 225 255
201 225 255
202 225 255
202 225 255
202 225 255
202 225 255
202 225 255
202 225 255
202 225 255
202 225 255
202 225 255
202 225 255
202 225 255
202 225 255
202 225 255
202 225 255
202 225 255
202 225 255
202 225 255
202 225 255
203 225 255
203 225 255
203 225 255
203 225 255
203 225 255
203 225 255
203 225 255
203 225 255
203 225 255
203 225 255
203 226 255
203 226 255
203 226 255
203 226 255
203 226 255
203 226 255
203 226 255
204 226 255
204 226 255
204 226 255
204 226 255
204 226 255
204 226 255
204 226 255
204 226 255
204 226 255
204 226 255
204 226 255
204 226 255
204 226 255
204 226 255
204 226 255
204 226 255
205 226 255
205 226 255
205 226 255
205 226 255
205 226 255
205 226 255
205 227 255
205 227 255
205 227 255
205 227 255
205 227 255
205 227 255
205 227 255
205 227 255
205 227 255
205 227 255
206 227 255
206 227 255
206 227 255
206 227 255
206 227 255
206 227 255
206 227 255
206 227 255
206 227 255
206 227 255
206 227 255
206 227 255
206 227 255
206 227 255
206 227 255
206 227 255
206 227 255
207 227 255
207 227 255
207 227 255
207 227 255
207 227 255
207 228 255
207 228 255
207 228 255
207 228 255
207 228 255
207 228 255
207 228 255
207 228 255
207 228 255
207 228 255
207 228 255
207 228 255
207 228 255
208 228 255
208 228 255
208 228 255
208 228 255
208 228 255
208 228 255
208 228 255
208 228 255
208 228 255
208 228 255
208 228 255
208 228 255
208 228 255
208 228 255
208 228 255
208 228 255
208 228 255
208 228 255
208 228 255
208 228 255
208 228 255
209 228 255
209 229 255
209 229 255
209 229 255
209 229 255
209 229 255
209 229 255
209 229 255
209 229 255
209 229 255
209 229 255
209 229 255
209 229 255
209 229 255
209 229 255
209 229 255
209 229 255
209 229 255
209 229 255
209 229 255
209 229 255
209 229 255
210 229 255
210 229 255
210 229 255
210 229 255
210 229 255
210 229 255
210 229 255
210 229 255
210 229 255
210 229 255
210 229 255
210 229 255
210 229 255
209 229 255
209 229 255
209 229 255
209 229 255
209 229 255
209 229 255
209 229 255
209 229 255
209 229 255
209 229 255
209 229 255
209 229 255
209 229 255
209 229 255
209 229 255
209 229 255
209 229 255
209 229 255
209 229 255
209 229 255
209 229 255
209 228 255
209 228 255
208 228 255
208 228 255
208 228 255
208 228 255
208 228 255
208 228 255
208 228 255
208 228 255
208 228 255
208 228 255
208 228 255
208 228 255
208 228 255
208 228 255
208 228 255
208 228 255
208 228 255
208 228 255
208 228 255
208 228 255
207 228 255
207 228 255
207 228 255
207 228 255
207 228 255
207 228 255
207 228 255
207 228 255
207 228 255
207 228 255
207 228 255
207 228 255
207 228 255
207 228 255
207 227 255
207 227 255
207 227 255
207 227 255
206 227 255
206 227 255
206 227 255
206 227 255
206 227 255
206 227 255
206 227 255
206 227 255
206 227 255
206 227 255
206 227 255
206 227 255
206 227 255
206 227 255
206 227 255
206 227 255
206 227 255
205 227 255
205 227 255
205 227 255
205 227 255
205 227 255
205 227 255
205 227 255
205 227 255
205 227 255
205 226 255
205 226 255
205 226 255
205 226 255
205 226 255
205 226 255
205 226 255
204 226 255
204 226 255
204 226 255
204 226 255
204 226 255
204 226 255
204 226 255
204 226 255
204 226 255
204 226 255
204 226 255
204 226 255
204 226 255
204 226 255
204 226 255
204 226 255
203 226 255
203 226 255
203 226 255
203 226 255
203 226 255
203 226 255
203 226 255
203 225 255
203 225 255
203 225 255
203 225 255
203 225 255
203 225 255
203 225 255
203 225 255
203 225 255
203 225 255
202 225 255
202 225 255
202 225 255
202 225 255
202 225 255
202 225 255
202 225 255
202 225 255
202 225 255
202 225 255
202 225 255
202 225 255
202 225 255
202 225 255
202 225 255
202 225 255
202 225 255
202 225 255
202 225 255
201 225 255
201 225 255
201 225 255
201 225 255
201 225 255
201 225 255
201 225 255
201 224 255
201 224 255
201 224 255
201 224 255
201 224 255
201 224 255
201 224 255
201 224 255
201 224 255
201 224 255
201 224 255
201 224 255
201 224 255
201 224 255
201 224 255
201 224 255
201 224 255
201 224 255
201 224 255
201 224 255
201 224 255
200 224 255
200 224 255
200 224 255
200 224 255
200 224 255
200 224 255
200 224 255
200 224 255
200 224 255
200 224 255
200 224 255
200 224 255
200 224 255
200 224 255
200 224 255
200 224 255
200 224 255
200 224 255
200 224 255
200 224 255
200 224 255
200 224 255
200 224 255
200 224 255
200 224 255
200 224 255
200 224 255
200 224 255
200 224 255
200 224 255
200 224 255
200 224 255
200 224 255
200 224 255
200 224 255
200 224 255
200 224 255
201 224 255
201 224 255
201 224 255
201 224 255
201 224 255
201 224 255
201 224 255
201 224 255
201 224 255
201 224 255
201 224 255
201 224 255
201 224 255
201 224 255
201 224 255
201 224 255
201 224 255
201 224 255
201 224 255
201 224 255
201 225 255
201 225 255
201 225 255
201 225 255
201 225 255
201 225 255
201 225 255
202 225 255
202 225 255
202 225 255
202 225 255
202 225 255
202 225 255
202 225 255
202 225 255
202 225 255
202 225 255
202 225 255
202 225 255
202 225 255
202 225 255
202 225 255
202 225 255
202 225 255
202 225 255
202 225 255
203 225 255
203 225 255
203 225 255
203 225 255
203 225 255
203 225 255
203 225 255
203 225 255
203 225 255
203 226 255
203 226 255
203 226 255
203 226 255
203 226 255
203 226 255
203 226 255
203 226 255
204 226 255
204 226 255
204 226 255
204 226 255
204 226 255
204 226 255
204 226 255
204 226 255
204 226 255
204 226 255
204 226 255
204 226 255
204 226 255
204 226 255
204 226 255
204 226 255
205 226 255
205 226 255
205 226 255
205 226 255
205 226 255
205 226 255
205 227 255
205 227 255
205 227 255
205 227 255
205 227 255
205 227 255
205 227 255
205 227 255
205 227 255
205 227 255
206 227 255
206 227 255
206 227 255
206 227 255
206 227 255
206 227 255
206 227 255
206 227 255
206 227 255
206 227 255
206 227 255
206 227 255
206 227 255
206 227 255
206 227 255
206 227 255
206 227 255
207 227 255
207 227 255
207 227 255
207 227 255
207 228 255
207 228 255
207 228 255
207 228 255
207 228 255
207 228 255
207 228 255
207 228 255
207 228 255
207 228 255
207 228 255
207 228 255
207 228 255
207 228 255
208 228 255
208 228 255
208 228 255
208 228 255
208 228 255
208 228 255
208 228 255
208 228 255
208 228 255
208 228 255
208 228 255
208 228 255
208 228 255
208 228 255
208 228 255
208 228 255
208 228 255
208 228 255
208 228 255
208 228 255
209 228 255
209 228 255
209 229 255
209 229 255
209 229 255
209 229 255
209 229 255
209 229 255
209 229 255
209 229 255
209 229 255
209 229 255
209 229 255
209 229 255
209 229 255
209 229 255
209 229 255
209 229 255
209 229 255
209 229 255
209 229 255
209 229 255
210 229 255
210 229 255
210 229 255
210 229 255
210 229 255
210 229 255
210 229 255
210 229 255
210 229 255
210 229 255
210 229 255
210 229 255
210 229 255
210 229 255
210 229 255
210 229 255
210 229 255
210 229 255
210 229 255
210 229 255
210 229 255
209 229 255
209 229 255
209 229 255
209 229 255
209 229 255
209 229 255
209 229 255
209 229 255
209 229 255
209 229 255
209 229 255
209 229 255
209 229 255
209 229 255
209 229 255
209 229 255
209 229 255
209 229 255
209 229 255
209 229 255
209 229 255
209 228 255
208 228 255
208 228 255
208 228 255
208 228 255
208 228 255
208 228 255
208 228 255
208 228 255
208 228 255
208 228 255
208 228 255
208 228 255
208 228 255
208 228 255
208 228 255
208 228 255
208 228 255
208 228 255
208 228 255
208 228 255
207 228 255
207 228 255
207 228 255
207 228 255
207 228 255
207 228 255
207 228 255
207 228 255
207 228 255
207 228 255
207 228 255
207 228 255
207 228 255
207 228 255
207 227 255
207 227 255
207 227 255
207 227 255
206 227 255
206 227 255
206 227 255
206 227 255
206 227 255
206 227 255
206 227 255
206 227 255
206 227 255
206 227 255
206 227 255
206 227 255
206 227 255
206 227 255
206 227 255
206 227 255
206 227 255
205 227 255
205 227 255
205 227 255
205 227 255
205 227 255
205 227 255
205 227 255
205 227 255
205 227 255
205 227 255
205 226 255
205 226 255
205 226 255
205 226 255
205 226 255
205 226 255
204 226 255
204 226 255
204 226 255
204 226 255
204 226 255
204 226 255
204 226 255
204 226 255
204 226 255
204 226 255
204 226 255
204 226 255
204 226 255
204 226 255
204 226 255
204 226 255
204 226 255
203 226 255
203 226 255
203 226 255
203 226 255
203 226 255
203 226 255
203 226 255
203 225 255
203 225 255
203 225 255
203 225 255
203 225 255
203 225 255
203 225 255
203 225 255
203 225 255
203 225 255
202 225 255
202 225 255
202 225 255
202 225 255
202 225 255
202 225 255
202 225 255
202 225 255
202 225 255
202 225 255
202 225 255
202 225 255
202 225 255
202 225 255
202 225 255
202 225 255
202 225 255
202 225 255
202 225 255
202 225 255
201 225 255
201 225 255
201 225 255
201 225 255
201 225 255
201 225 255
201 225 255
201 224 255
201 224 255
201 224 255
201 224 255
201 224 255
201 224 255
201 224 255
201 224 255
201 224 255
201 224 255
201 224 255
201 224 255
201 224 255
201 224 255
201 224 255
201 224 255
201 224 255
201 224 255
201 224 255
201 224 255
201 224 255
201 224 255
201 224 255
201 224 255
201 224 255
201 224 255
201 224 255
201 224 255
201 224 255
201 224 255
201 224 255
201 224 255
201 224 255
201 224 255
201 224 255
201 224 255
201 224 255
201 224 255
201 224 255
201 224 255
201 224 255
201 224 255
201 224 255
201 224 255
201 224 255
201 224 255
201 224 255
201 224 255
201 224 255
201 224 255
201 224 255
201 224 255
201 224 255
201 224 255
201 224 255
201 224 255
201 224 255
201 224 255
201 224 255
201 224 255
201 224 255
201 224 255
201 224 255
201 224 255
201 224 255
201 224 255
201 224 255
201 224 255
201 224 255
201 225 255
201 225 255
201 225 255
201 225 255
201 225 255
201 225 255
202 225 255
202 225 255
202 225 255
202 225 255
202 225 255
202 225 255
202 225 255
202 225 255
202 225 255
202 225 255
202 225 255
202 225 255
202 225 255
202 225 255
202 225 255
202 225 255
202 225 255
202 225 255
202 225 255
202 225 255
203 225 255
203 225 255
203 225 255
203 225 255
203 225 255
203 225 255
203 225 255
203 225 255
203 225 255
203 225 255
203 226 255
203 226 255
203 226 255
203 226 255
203 226 255
203 226 255
203 226 255
204 226 255
204 226 255
204 226 255
204 226 255
204 226 255
204 226 255
204 226 255
204 226 255
204 226 255
204 226 255
204 226 255
204 226 255
204 226 255
204 226 255
204 226 255
204 226 255
204 226 255
205 226 255
205 226 255
205 226 255
205 226 255
205 226 255
205 226 255
205 227 255
205 227 255
205 227 255
205 227 255
205 227 255
205 227 255
205 227 255
205 227 255
205 227 255
205 227 255
206 227 255
206 227 255
206 227 255
206 227 255
206 227 255
206 227 255
206 227 255
206 227 255
206 227 255
206 227 255
206 227 255
206 227 255
206 227 255
206 227 255
206 227 255
206 227 255
206 227 255
207 227 255
207 227 255
207 227 255
207 227 255
207 228 255
207 228 255
207 228 255
207 228 255
207 228 255
207 228 255
207 228 255
207 228 255
207 228 255
207 228 255
207 228 255
207 228 255
207 228 255
207 228 255
208 228 255
208 228 255
208 228 255
208 228 255
208 228 255
208 228 255
208 228 255
208 228 255
208 228 255
208 228 255
208 228 255
208 228 255
208 228 255
208 228 255
208 228 255
208 228 255
208 228 255
208 228 255
208 228 255
208 228 255
209 228 255
209 229 255
209 229 255
209 229 255
209 229 255
209 229 255
209 229 255
209 229 255
209 229 255
209 229 255
209 229 255
209 229 255
209 229 255
209 229 255
209 229 255
209 229 255
209 229 255
209 229 255
209 229 255
209 229 255
209 229 255
209 229 255
210 229 255
210 229 255
210 229 255
210 229 255
210 229 255
210 229 255
210 229 255
210 229 255
210 229 255
210 229 255
210 229 255
210 229 255
210 229 255
210 229 255
210 229 255
210 229 255
210 229 255
210 229 255
210 229 255
210 229 255
210 229 255
210 229 255
210 229 255
210 229 255
210 229 255
210 229 255
210 229 255
210 229 255
209 229 255
209 229 255
209 229 255
209 229 255
209 229 255
209 229 255
209 229 255
209 229 255
209 229 255
209 229 255
209 229 255
209 229 255
209 229 255
209 229 255
209 229 255
209 229 255
209 229 255
209 229 255
209 229 255
209 229 255
209 228 255
209 228 255
208 228 255
208 228 255
208 228 255
208 228 255
208 228 255
208 228 255
208 228 255
208 228 255
208 228 255
208 228 255
208 228 255
208 228 255
208 228 255
208 228 255
208 228 255
208 228 255
208 228 255
208 228 255
208 228 255
207 228 255
207 228 255
207 228 255
207 228 255
207 228 255
207 228 255
207 228 255
207 228 255
207 228 255
207 228 255
207 228 255
207 228 255
207 228 255
207 228 255
207 227 255
207 227 255
207 227 255
207 227 255
206 227 255
206 227 255
206 227 255
206 227 255
206 227 255
206 227 255
206 227 255
206 227 255
206 227 255
206 227 255
206 227 255
206 227 255
206 227 255
206 227 255
206 227 255
206 227 255
206 227 255
205 227 255
205 227 255
205 227 255
205 227 255
205 227 255
205 227 255
205 227 255
205 227 255
205 227 255
205 227 255
205 226 255
205 226 255
205 226 255
205 226 255
205 226 255
205 226 255
205 226 255
204 226 255
204 226 255
204 226 255
204 226 255
204 226 255
204 226 255
204 226 255
204 226 255
204 226 255
204 226 255
204 226 255
204 226 255
204 226 255
204 226 255
204 226 255
204 226 255
203 226 255
203 226 255
203 226 255
203 226 255
203 226 255
203 226 255
203 226 255
203 225 255
203 225 255
203 225 255
203 225 255
203 225 255
203 225 255
203 225 255
203 225 255
203 225 255
203 225 255
202 225 255
202 225 255
202 225 255
202 225 255
202 225 255
202 225 255
202 225 255
202 225 255
202 225 255
202 225 255
202 225 255
202 225 255
202 225 255
202 225 255
202 225 255
202 225 255
202 225 255
202 225 255
202 225 255
202 225 255
202 225 255
202 225 255
201 225 255
201 225 255
201 225 255
201 225 255
201 225 255
201 225 255
201 225 255
201 225 255
201 224 255
201 224 255
201 224 255
201 224 255
201 224 255
201 224 255
201 224 255
201 224 255
201 224 255
201 224 255
201 224 255
201 224 255
201 224 255
201 224 255
201 224 255
201 224 255
201 224 255
201 224 255
201 224 255
201 224 255
201 224 255
201 224 255
201 224 255
201 224 255
201 224 255
201 224 255
201 224 255
201 224 255
201 224 255
201 224 255
201 224 255
201 224 255
201 224 255
201 224 255
201 224 255
201 224 255
201 224 255
201 224 255
201 224 255
201 224 255
201 224 255
201 224 255
201 224 255
201 224 255
201 224 255
201 224 255
201 224 255
201 224 255
201 224 255
201 224 255
201 224 255
201 224 255
201 224 255
201 224 255
201 224 255
201 224 255
201 224 255
201 225 255
201 225 255
201 225 255
201 225 255
201 225 255
201 225 255
201 225 255
202 225 255
202 225 255
202 225 255
202 225 255
202 225 255
202 225 255
202 225 255
202 225 255
202 225 255
202 225 255
202 225 255
202 225 255
202 225 255
202 225 255
202 225 255
202 225 255
202 225 255
202 225 255
202 225 255
202 225 255
202 225 255
203 225 255
203 225 255
203 225 255
203 225 255
203 225 255
203 225 255
203 225 255
203 225 255
203 225 255
203 225 255
203 225 255
203 226 255
203 226 255
203 226 255
203 226 255
203 226 255
203 226 255
203 226 255
204 226 255
204 226 255
204 226 255
204 226 255
204 226 255
204 226 255
204 226 255
204 226 255
204 226 255
204 226 255
204 226 255
204 226 255
204 226 255
204 226 255
204 226 255
204 226 255
205 226 255
205 226 255
205 226 255
205 226 255
205 226 255
205 226 255
205 226 255
205 227 255
205 227 255
205 227 255
205 227 255
205 227 255
205 227 255
205 227 255
205 227 255
205 227 255
205 227 255
206 227 255
206 227 255
206 227 255
206 227 255
206 227 255
206 227 255
206 227 255
206 227 255
206 227 255
206 227 255
206 227 255
206 227 255
206 227 255
206 227 255
206 227 255
206 227 255
206 227 255
207 227 255
207 227 255
207 227 255
207 227 255
207 228 255
207 228 255
207 228 255
207 228 255
207 228 255
207 228 255
207 228 255
207 228 255
207 228 255
207 228 255
207 228 255
207 228 255
207 228 255
207 228 255
208 228 255
208 228 255
208 228 255
208 228 255
208 228 255
208 228 255
208 228 255
208 228 255
208 228 255
208 228 255
208 228 255
208 228 255
208 228 255
208 228 255
208 228 255
208 228 255
208 228 255
208 228 255
208 228 255
208 228 255
209 228 255
209 229 255
209 229 255
209 229 255
209 229 255
209 229 255
209 229 255
209 229 255
209 229 255
209 229 255
209 229 255
209 229 255
209 229 255
209 229 255
209 229 255
209 229 255
209 229 255
209 229 255
209 229 255
209 229 255
209 229 255
210 229 255
210 229 255
210 229 255
210 229 255
210 229 255
210 229 255
210 229 255
210 229 255
210 229 255
210 229 255
210 229 255
210 229 255
210 229 255
210 229 255
210 229 255
210 229 255
210 229 255
210 229 255
210 229 255
210 229 255
210 229 255
210 229 255
210 229 255
210 229 255
210 229 255
210 229 255
210 229 255
210 229 255
210 229 255
210 229 255
210 229 255
210 229 255
210 229 255
210 229 255
210 229 255
209 229 255
209 229 255
209 229 255
209 229 255
209 229 255
209 229 255
209 229 255
209 229 255
209 229 255
209 229 255
209 229 255
209 229 255
209 229 255
209 229 255
209 229 255
209 229 255
209 229 255
209 229 255
209 229 255
209 229 255
209 228 255
209 228 255
208 228 255
208 228 255
208 228 255
208 228 255
208 228 255
208 228 255
208 228 255
208 228 255
208 228 255
208 228 255
208 228 255
208 228 255
208 228 255
208 228 255
208 228 255
208 228 255
208 228 255
208 228 255
208 228 255
208 228 255
207 228 255
207 228 255
207 228 255
207 228 255
207 228 255
207 228 255
207 228 255
207 228 255
207 228 255
207 228 255
207 228 255
207 228 255
207 228 255
207 227 255
207 227 255
207 227 255
207 227 255
207 227 255
206 227 255
206 227 255
206 227 255
206 227 255
206 227 255
206 227 255
206 227 255
206 227 255
206 227 255
206 227 255
206 227 255
206 227 255
206 227 255
206 227 255
206 227 255
206 227 255
206 227 255
205 227 255
205 227 255
205 227 255
205 227 255
205 227 255
205 227 255
205 227 255
205 227 255
205 227 255
205 226 255
205 226 255
205 226 255
205 226 255
205 226 255
205 226 255
205 226 255
204 226 255
204 226 255
204 226 255
204 226 255
204 226 255
204 226 255
204 226 255
204 226 255
204 226 255
204 226 255
204 226 255
204 226 255
204 226 255
204 226 255
204 226 255
204 226 255
204 226 255
203 226 255
203 226 255
203 226 255
203 226 255
203 226 255
203 226 255
203 226 255
203 225 255
203 225 255
203 225 255
203 225 255
203 225 255
203 225 255
203 225 255
203 225 255
203 225 255
203 225 255
203 225 255
202 225 255
202 225 255
202 225 255
202 225 255
202 225 255
202 225 255
202 225 255
202 225 255
202 225 255
202 225 255
202 225 255
202 225 255
202 225 255
202 225 255
202 225 255
202 225 255
202 225 255
202 225 255
202 225 255
202 225 255
202 225 255
202 225 255
201 225 255
201 225 255
201 225 255
201 225 255
201 225 255
201 225 255
201 225 255
201 225 255
201 225 255
201 225 255
201 225 255
201 224 255
201 224 255
201 224 255
201 224 255
201 224 255
201 224 255
201 224 255
201 224 255
201 224 255
201 224 255
201 224 255
201 224 255
201 224 255
201 224 255
201 224 255
201 224 255
201 224 255
201 224 255
201 224 255
201 224 255
201 224 255
201 224 255
201 224 255
201 224 255
201 224 255
201 224 255
201 224 255
201 224 255
201 224 255
201 224 255
201 224 255
201 224 255
201 224 255
201 224 255
201 224 255
201 224 255
201 224 255
201 224 255
201 224 255
201 224 255
201 224 255
201 225 255
201 225 255
201 225 255
201 225 255
201 225 255
201 225 255
201 225 255
201 225 255
201 225 255
202 225 255
202 225 255
202 225 255
202 225 255
202 225 255
202 225 255
202 225 255
202 225 255
202 225 255
202 225 255
202 225 255
202 225 255
202 225 255
202 225 255
202 225 255
202 225 255
202 225 255
202 225 255
202 225 255
202 225 255
202 225 255
202 225 255
202 225 255
203 225 255
203 225 255
203 225 255
203 225 255
203 225 255
203 225 255
203 225 255
203 225 255
203 225 255
203 225 255
203 226 255
203 226 255
203 226 255
203 226 255
203 226 255
203 226 255
203 226 255
203 226 255
204 226 255
204 226 255
204 226 255
204 226 255
204 226 255
204 226 255
204 226 255
204 226 255
204 226 255
204 226 255
204 226 255
204 226 255
204 226 255
204 226 255
204 226 255
204 226 255
204 226 255
205 226 255
205 226 255
205 226 255
205 226 255
205 226 255
205 226 255
205 227 255
205 227 255
205 227 255
205 227 255
205 227 255
205 227 255
205 227 255
205 227 255
205 227 255
205 227 255
206 227 255
206 227 255
206 227 255
206 227 255
206 227 255
206 227 255
206 227 255
206 227 255
206 227 255
206 227 255
206 227 255
206 227 255
206 227 255
206 227 255
206 227 255
206 227 255
206 227 255
207 227 255
207 227 255
207 227 255
207 227 255
207 227 255
207 228 255
207 228 255
207 228 255
207 228 255
207 228 255
207 228 255
207 228 255
207 228 255
207 228 255
207 228 255
207 228 255
207 228 255
207 228 255
207 228 255
208 228 255
208 228 255
208 228 255
208 228 255
208 228 255
208 228 255
208 228 255
208 228 255
208 228 255
208 228 255
208 228 255
208 228 255
208 228 255
208 228 255
208 228 255
208 228 255
208 228 255
208 228 255
208 228 255
209 228 255
209 229 255
209 229 255
209 229 255
209 229 255
209 229 255
209 229 255
209 229 255
209 229 255
209 229 255
209 229 255
209 229 255
209 229 255
209 229 255
209 229 255
209 229 255
209 229 255
209 229 255
209 229 255
209 229 255
209 229 255
209 229 255
210 229 255
210 229 255
210 229 255
210 229 255
210 229 255
210 229 255
210 229 255
210 229 255
210 229 255
210 229 255
210 229 255
210 229 255
210 229 255
210 229 255
210 229 255
210 229 255
210 229 255
210 229 255
210 229 255
210 230 255
210 229 255
210 229 255
210 229 255
210 229 255
210 229 255
210 229 255
210 229 255
210 229 255
210 229 255
210 229 255
210 229 255
210 229 255
210 229 255
210 229 255
210 229 255
210 229 255
210 229 255
210 229 255
210 229 255
210 229 255
210 229 255
210 229 255
209 229 255
209 229 255
209 229 255
209 229 255
209 229 255
209 229 255
209 229 255
209 229 255
209 229 255
209 229 255
209 229 255
209 229 255
209 229 255
209 229 255
209 229 255
209 229 255
209 229 255
209 229 255
209 229 255
209 229 255
209 228 255
208 228 255
208 228 255
208 228 255
208 228 255
208 228 255
208 228 255
208 228 255
208 228 255
208 228 255
208 228 255
208 228 255
208 228 255
208 228 255
208 228 255
208 228 255
208 228 255
208 228 255
208 228 255
208 228 255
208 228 255
207 228 255
207 228 255
207 228 255
207 228 255
207 228 255
207 228 255
207 228 255
207 228 255
207 228 255
207 228 255
207 228 255
207 228 255
207 228 255
207 227 255
207 227 255
207 227 255
207 227 255
207 227 255
206 227 255
206 227 255
206 227 255
206 227 255
206 227 255
206 227 255
206 227 255
206 227 255
206 227 255
206 227 255
206 227 255
206 227 255
206 227 255
206 227 255
206 227 255
206 227 255
206 227 255
205 227 255
205 227 255
205 227 255
205 227 255
205 227 255
205 227 255
205 227 255
205 227 255
205 227 255
205 227 255
205 226 255
205 226 255
205 226 255
205 226 255
205 226 255
205 226 255
204 226 255
204 226 255
204 226 255
204 226 255
204 226 255
204 226 255
204 226 255
204 226 255
204 226 255
204 226 255
204 226 255
204 226 255
204 226 255
204 226 255
204 226 255
204 226 255
204 226 255
203 226 255
203 226 255
203 226 255
203 226 255
203 226 255
203 226 255
203 226 255
203 226 255
203 225 255
203 225 255
203 225 255
203 225 255
203 225 255
203 225 255
203 225 255
203 225 255
203 225 255
203 225 255
203 225 255
202 225 255
202 225 255
202 225 255
202 225 255
202 225 255
202 225 255
202 225 255
202 225 255
202 225 255
202 225 255
202 225 255
202 225 255
202 225 255
202 225 255
202 225 255
202 225 255
202 225 255
202 225 255
202 225 255
202 225 255
202 225 255
202 225 255
202 225 255
202 225 255
202 225 255
202 225 255
202 225 255
201 225 255
201 225 255
201 225 255
201 225 255
201 225 255
201 225 255
201 225 255
201 225 255
201 225 255
201 225 255
201 225 255
201 225 255
201 225 255
201 225 255
201 225 255
201 225 255
201 225 255
201 224 255
201 224 255
201 224 255
201 224 255
201 224 255
201 225 255
201 224 255
201 224 255
201 224 255
201 225 255
201 224 255
201 225 255
201 225 255
201 225 255
201 225 255
201 225 255
201 225 255
201 225 255
201 225 255
201 225 255
201 225 255
201 225 255
201 225 255
201 225 255
201 225 255
201 225 255
201 225 255
201 225 255
202 225 255
202 225 255
202 225 255
202 225 255
202 225 255
202 225 255
202 225 255
202 225 255
202 225 255
202 225 255
202 225 255
202 225 255
202 225 255
202 225 255
202 225 255
202 225 255
202 225 255
202 225 255
202 225 255
202 225 255
202 225 255
202 225 255
202 225 255
202 225 255
202 225 255
202 225 255
203 225 255
203 225 255
203 225 255
203 225 255
203 225 255
203 225 255
203 225 255
203 225 255
203 225 255
203 225 255
203 225 255
203 226 255
203 226 255
203 226 255
203 226 255
203 226 255
203 226 255
203 226 255
203 226 255
204 226 255
204 226 255
204 226 255
204 226 255
204 226 255
204 226 255
204 226 255
204 226 255
204 226 255
204 226 255
204 226 255
204 226 255
204 226 255
204 226 255
204 226 255
204 226 255
204 226 255
205 226 255
205 226 255
205 226 255
205 226 255
205 226 255
205 226 255
205 226 255
205 227 255
205 227 255
205 227 255
205 227 255
205 227 255
205 227 255
205 227 255
205 227 255
205 227 255
206 227 255
206 227 255
206 227 255
206 227 255
206 227 255
206 227 255
206 227 255
206 227 255
206 227 255
206 227 255
206 227 255
206 227 255
206 227 255
206 227 255
206 227 255
206 227 255
206 227 255
207 227 255
207 227 255
207 227 255
207 227 255
207 228 255
207 228 255
207 228 255
207 228 255
207 228 255
207 228 255
207 228 255
207 228 255
207 228 255
207 228 255
207 228 255
207 228 255
207 228 255
207 228 255
208 228 255
208 228 255
208 228 255
208 228 255
208 228 255
208 228 255
208 228 255
208 228 255
208 228 255
208 228 255
208 228 255
208 228 255
208 228 255
208 228 255
208 228 255
208 228 255
208 228 255
208 228 255
208 228 255
209 228 255
209 228 255
209 229 255
209 229 255
209 229 255
209 229 255
209 229 255
209 229 255
209 229 255
209 229 255
209 229 255
209 229 255
209 229 255
209 229 255
209 229 255
209 229 255
209 229 255
209 229 255
209 229 255
209 229 255
209 229 255
209 229 255
210 229 255
210 229 255
210 229 255
210 229 255
210 229 255
210 229 255
210 229 255
210 229 255
210 229 255
210 229 255
210 229 255
210 229 255
210 229 255
210 229 255
210 229 255
210 229 255
210 229 255
210 229 255
210 229 255
210 229 255
210 229 255
210 229 255
210 230 255
211 230 255
211 230 255
211 230 255
210 230 255
210 230 255
210 229 255
210 229 255
210 229 255
210 229 255
210 229 255
210 229 255
210 229 255
210 229 255
210 229 255
210 229 255
210 229 255
210 229 255
210 229 255
210 229 255
210 229 255
210 229 255
210 229 255
210 229 255
210 229 255
210 229 255
210 229 255
210 229 255
209 229 255
209 229 255
209 229 255
209 229 255
209 229 255
209 229 255
209 229 255
209 229 255
209 229 255
209 229 255
209 229 255
209 229 255
209 229 255
209 229 255
209 229 255
209 229 255
209 229 255
209 229 255
209 229 255
209 228 255
209 228 255
208 228 255
208 228 255
208 228 255
208 228 255
208 228 255
208 228 255
208 228 255
208 228 255
208 228 255
208 228 255
208 228 255
208 228 255
208 228 255
208 228 255
208 228 255
208 228 255
208 228 255
208 228 255
208 228 255
208 228 255
207 228 255
207 228 255
207 228 255
207 228 255
207 228 255
207 228 255
207 228 255
207 228 255
207 228 255
207 228 255
207 228 255
207 228 255
207 228 255
207 227 255
207 227 255
207 227 255
207 227 255
206 227 255
206 227 255
206 227 255
206 227 255
206 227 255
206 227 255
206 227 255
206 227 255
206 227 255
206 227 255
206 227 255
206 227 255
206 227 255
206 227 255
206 227 255
206 227 255
206 227 255
205 227 255
205 227 255
205 227 255
205 227 255
205 227 255
205 227 255
205 227 255
205 227 255
205 227 255
205 227 255
205 226 255
205 226 255
205 226 255
205 226 255
205 226 255
205 226 255
205 226 255
204 226 255
204 226 255
204 226 255
204 226 255
204 226 255
204 226 255
204 226 255
204 226 255
204 226 255
204 226 255
204 226 255
204 226 255
204 226 255
204 226 255
204 226 255
204 226 255
204 226 255
203 226 255
203 226 255
203 226 255
203 226 255
203 226 255
203 226 255
203 226 255
203 226 255
203 225 255
203 225 255
203 225 255
203 225 255
203 225 255
203 225 255
203 225 255
203 225 255
203 225 255
203 225 255
203 225 255
203 225 255
202 225 255
202 225 255
202 225 255
202 225 255
202 225 255
202 225 255
202 225 255
202 225 255
202 225 255
202 225 255
202 225 255
202 225 255
202 225 255
202 225 255
202 225 255
202 225 255
202 225 255
202 225 255
202 225 255
202 225 255
202 225 255
202 225 255
202 225 255
202 225 255
202 225 255
202 225 255
202 225 255
202 225 255
202 225 255
202 225 255
202 225 255
201 225 255
201 225 255
201 225 255
201 225 255
201 225 255
201 225 255
201 225 255
201 225 255
201 225 255
201 225 255
201 225 255
201 225 255
201 225 255
201 225 255
201 225 255
201 225 255
201 225 255
201 225 255
201 225 255
201 225 255
201 225 255
201 225 255
201 225 255
201 225 255
201 225 255
201 225 255
201 225 255
202 225 255
202 225 255
202 225 255
202 225 255
202 225 255
202 225 255
202 225 255
202 225 255
202 225 255
202 225 255
202 225 255
202 225 255
202 225 255
202 225 255
202 225 255
202 225 255
202 225 255
202 225 255
202 225 255
202 225 255
202 225 255
202 225 255
202 225 255
202 225 255
202 225 255
202 225 255
202 225 255
202 225 255
202 225 255
202 225 255
202 225 255
203 225 255
203 225 255
203 225 255
203 225 255
203 225 255
203 225 255
203 225 255
203 225 255
203 225 255
203 225 255
203 226 255
203 226 255
203 226 255
203 226 255
203 226 255
203 226 255
203 226 255
203 226 255
203 226 255
204 226 255
204 226 255
204 226 255
204 226 255
204 226 255
204 226 255
204 226 255
204 226 255
204 226 255
204 226 255
204 226 255
204 226 255
204 226 255
204 226 255
204 226 255
204 226 255
204 226 255
205 226 255
205 226 255
205 226 255
205 226 255
205 226 255
205 226 255
205 226 255
205 227 255
205 227 255
205 227 255
205 227 255
205 227 255
205 227 255
205 227 255
205 227 255
205 227 255
205 227 255
206 227 255
206 227 255
206 227 255
206 227 255
206 227 255
206 227 255
206 227 255
206 227 255
206 227 255
206 227 255
206 227 255
206 227 255
206 227 255
206 227 255
206 227 255
206 227 255
206 227 255
207 227 255
207 227 255
207 227 255
207 227 255
207 228 255
207 228 255
207 228 255
207 228 255
207 228 255
207 228 255
207 228 255
207 228 255
207 228 255
207 228 255
207 228 255
207 228 255
207 228 255
207 228 255
208 228 255
208 228 255
208 228 255
208 228 255
208 228 255
208 228 255
208 228 255
208 228 255
208 228 255
208 228 255
208 228 255
208 228 255
208 228 255
208 228 255
208 228 255
208 228 255
208 228 255
208 228 255
208 228 255
209 228 255
209 228 255
209 229 255
209 229 255
209 229 255
209 229 255
209 229 255
209 229 255
209 229 255
209 229 255
209 229 255
209 229 255
209 229 255
209 229 255
209 229 255
209 229 255
209 229 255
209 229 255
209 229 255
209 229 255
209 229 255
210 229 255
210 229 255
210 229 255
210 229 255
210 229 255
210 229 255
210 229 255
210 229 255
210 229 255
210 229 255
210 229 255
210 229 255
210 229 255
210 229 255
210 229 255
210 229 255
210 229 255
210 229 255
210 229 255
210 229 255
210 229 255
210 229 255
210 230 255
210 230 255
210 230 255
211 230 255
211 230 255
211 230 255
211 230 255
211 230 255
211 230 255
211 230 255
211 230 255
210 230 255
210 230 255
210 230 255
210 229 255
210 229 255
210 229 255
210 229 255
210 229 255
210 229 255
210 229 255
210 229 255
210 229 255
210 229 255
210 229 255
210 229 255
210 229 255
210 229 255
210 229 255
210 229 255
210 229 255
210 229 255
210 229 255
210 229 255
210 229 255
209 229 255
209 229 255
209 229 255
209 229 255
209 229 255
209 229 255
209 229 255
209 229 255
209 229 255
209 229 255
209 229 255
209 229 255
209 229 255
209 229 255
209 229 255
209 229 255
209 229 255
209 229 255
209 229 255
209 229 255
209 228 255
208 228 255
208 228 255
208 228 255
208 228 255
208 228 255
208 228 255
208 228 255
208 228 255
208 228 255
208 228 255
208 228 255
208 228 255
208 228 255
208 228 255
208 228 255
208 228 255
208 228 255
208 228 255
208 228 255
208 228 255
207 228 255
207 228 255
207 228 255
207 228 255
207 228 255
207 228 255
207 228 255
207 228 255
207 228 255
207 228 255
207 228 255
207 228 255
207 228 255
207 227 255
207 227 255
207 227 255
207 227 255
206 227 255
206 227 255
206 227 255
206 227 255
206 227 255
206 227 255
206 227 255
206 227 255
206 227 255
206 227 255
206 227 255
206 227 255
206 227 255
206 227 255
206 227 255
206 227 255
206 227 255
205 227 255
205 227 255
205 227 255
205 227 255
205 227 255
205 227 255
205 227 255
205 227 255
205 227 255
205 227 255
205 227 255
205 226 255
205 226 255
205 226 255
205 226 255
205 226 255
205 226 255
205 226 255
204 226 255
204 226 255
204 226 255
204 226 255
204 226 255
204 226 255
204 226 255
204 226 255
204 226 255
204 226 255
204 226 255
204 226 255
204 226 255
204 226 255
204 226 255
204 226 255
204 226 255
203 226 255
203 226 255
203 226 255
203 226 255
203 226 255
203 226 255
203 226 255
203 226 255
203 226 255
203 225 255
203 225 255
203 225 255
203 225 255
203 225 255
203 225 255
203 225 255
203 225 255
203 225 255
203 225 255
203 225 255
203 225 255
202 225 255
202 225 255
202 225 255
202 225 255
202 225 255
202 225 255
202 225 255
202 225 255
202 225 255
202 225 255
202 225 255
202 225 255
202 225 255
202 225 255
202 225 255
202 225 255
202 225 255
202 225 255
202 225 255
202 225 255
202 225 255
202 225 255
202 225 255
202 225 255
202 225 255
202 225 255
202 225 255
202 225 255
202 225 255
202 225 255
202 225 255
202 225 255
202 225 255
202 225 255
202 225 255
202 225 255
202 225 255
202 225 255
202 225 255
202 225 255
202 225 255
202 225 255
202 225 255
202 225 255
202 225 255
202 225 255
202 225 255
202 225 255
202 225 255
202 225 255
202 225 255
202 225 255
202 225 255
202 225 255
202 225 255
202 225 255
202 225 255
202 225 255
202 225 255
202 225 255
202 225 255
202 225 255
202 225 255
202 225 255
202 225 255
202 225 255
202 225 255
202 225 255
202 225 255
202 225 255
202 225 255
202 225 255
202 225 255
202 225 255
202 225 255
202 225 255
202 225 255
202 225 255
203 225 255
203 225 255
203 225 255
203 225 255
203 225 255
203 225 255
203 225 255
203 225 255
203 225 255
203 225 255
203 225 255
203 225 255
203 226 255
203 226 255
203 226 255
203 226 255
203 226 255
203 226 255
203 226 255
203 226 255
203 226 255
204 226 255
204 226 255
204 226 255
204 226 255
204 226 255
204 226 255
204 226 255
204 226 255
204 226 255
204 226 255
204 226 255
204 226 255
204 226 255
204 226 255
204 226 255
204 226 255
204 226 255
205 226 255
205 226 255
205 226 255
205 226 255
205 226 255
205 226 255
205 226 255
205 226 255
205 227 255
205 227 255
205 227 255
205 227 255
205 227 255
205 227 255
205 227 255
205 227 255
205 227 255
206 227 255
206 227 255
206 227 255
206 227 255
206 227 255
206 227 255
206 227 255
206 227 255
206 227 255
206 227 255
206 227 255
206 227 255
206 227 255
206 227 255
206 227 255
206 227 255
206 227 255
206 227 255
207 227 255
207 227 255
207 227 255
207 227 255
207 228 255
207 228 255
207 228 255
207 228 255
207 228 255
207 228 255
207 228 255
207 228 255
207 228 255
207 228 255
207 228 255
207 228 255
207 228 255
208 228 255
208 228 255
208 228 255
208 228 255
208 228 255
208 228 255
208 228 255
208 228 255
208 228 255
208 228 255
208 228 255
208 228 255
208 228 255
208 228 255
208 228 255
208 228 255
208 228 255
208 228 255
208 228 255
208 228 255
209 228 255
209 229 255
209 229 255
209 229 255
209 229 255
209 229 255
209 229 255
209 229 255
209 229 255
209 229 255
209 229 255
209 229 255
209 229 255
209 229 255
209 229 255
209 229 255
209 229 255
209 229 255
209 229 255
209 229 255
209 229 255
210 229 255
210 229 255
210 229 255
210 229 255
210 229 255
210 229 255
210 229 255
210 229 255
210 229 255
210 229 255
210 229 255
210 229 255
210 229 255
210 229 255
210 229 255
210 229 255
210 229 255
210 229 255
210 229 255
210 229 255
210 229 255
210 230 255
210 230 255
210 230 255
211 230 255
211 230 255
211 230 255
211 230 255
211 230 255
211 230 255
211 230 255
211 230 255
211 230 255
211 230 255
211 230 255
211 230 255
211 230 255
211 230 255
211 230 255
211 230 255
210 230 255
210 230 255
210 230 255
210 229 255
210 229 255
210 229 255
210 229 255
210 229 255
210 229 255
210 229 255
210 229 255
210 229 255
210 229 255
210 229 255
210 229 255
210 229 255
210 229 255
210 229 255
210 229 255
210 229 255
210 229 255
210 229 255
210 229 255
210 229 255
209 229 255
209 229 255
209 229 255
209 229 255
209 229 255
209 229 255
209 229 255
209 229 255
208 228 255
208 228 255
208 228 255
207 228 255
206 227 255
208 228 255
206 227 255
207 228 255
207 228 255
207 227 255
206 227 255
207 228 255
207 228 255
207 228 255
207 228 255
208 228 255
208 228 255
208 228 255
208 228 255
208 228 255
208 228 255
208 228 255
208 228 255
208 228 255
208 228 255
208 228 255
208 228 255
208 228 255
208 228 255
208 228 255
208 228 255
208 228 255
207 228 255
207 228 255
207 228 255
207 228 255
207 228 255
207 228 255
207 228 255
207 228 255
207 228 255
207 228 255
207 228 255
207 228 255
207 228 255
207 228 255
207 227 255
207 227 255
207 227 255
207 227 255
206 227 255
206 227 255
206 227 255
206 227 255
206 227 255
206 227 255
206 227 255
206 227 255
206 227 255
206 227 255
206 227 255
206 227 255
206 227 255
206 227 255
206 227 255
206 227 255
206 227 255
205 227 255
205 227 255
205 227 255
205 227 255
205 227 255
205 227 255
205 227 255
205 227 255
205 227 255
205 227 255
205 226 255
205 226 255
205 226 255
205 226 255
205 226 255
205 226 255
205 226 255
204 226 255
204 226 255
204 226 255
204 226 255
204 226 255
204 226 255
204 226 255
204 226 255
204 226 255
204 226 255
204 226 255
204 226 255
204 226 255
204 226 255
204 226 255
204 226 255
204 226 255
204 226 255
204 226 255
203 226 255
203 226 255
203 226 255
203 226 255
203 226 255
203 226 255
203 226 255
203 226 255
203 226 255
203 225 255
203 225 255
203 225 255
203 225 255
203 225 255
203 225 255
203 225 255
203 225 255
203 225 255
203 225 255
203 225 255
203 225 255
202 225 255
202 225 255
202 225 255
202 225 255
202 225 255
202 225 255
202 225 255
202 225 255
202 225 255
202 225 255
202 225 255
202 225 255
202 225 255
202 225 255
202 225 255
202 225 255
202 225 255
202 225 255
202 225 255
202 225 255
202 225 255
202 225 255
202 225 255
202 225 255
202 225 255
202 225 255
202 225 255
202 225 255
202 225 255
202 225 255
202 225 255
202 225 255
202 225 255
202 225 255
202 225 255
202 225 255
202 225 255
202 225 255
202 225 255
202 225 255
202 225 255
202 225 255
202 225 255
202 225 255
202 225 255
202 225 255
202 225 255
202 225 255
202 225 255
202 225 255
202 225 255
202 225 255
202 225 255
202 225 255
202 225 255
202 225 255
202 225 255
202 225 255
202 225 255
202 225 255
202 225 255
202 225 255
202 225 255
202 225 255
202 225 255
202 225 255
202 225 255
203 225 255
203 225 255
203 225 255
203 225 255
203 225 255
203 225 255
203 225 255
203 225 255
203 225 255
203 225 255
203 225 255
203 225 255
203 225 255
203 225 255
203 226 255
203 226 255
203 226 255
203 226 255
203 226 255
203 226 255
203 226 255
203 226 255
204 226 255
204 226 255
204 226 255
204 226 255
204 226 255
204 226 255
204 226 255
204 226 255
204 226 255
204 226 255
204 226 255
204 226 255
204 226 255
204 226 255
204 226 255
204 226 255
204 226 255
204 226 255
204 226 255
205 226 255
205 226 255
205 226 255
205 226 255
205 226 255
205 226 255
205 226 255
205 227 255
205 227 255
205 227 255
205 227 255
205 227 255
205 227 255
205 227 255
205 227 255
205 227 255
205 227 255
206 227 255
206 227 255
206 227 255
206 227 255
206 227 255
206 227 255
206 227 255
206 227 255
206 227 255
206 227 255
206 227 255
206 227 255
206 227 255
206 227 255
206 227 255
206 227 255
206 227 255
207 227 255
207 227 255
207 227 255
207 227 255
207 228 255
207 228 255
207 228 255
207 228 255
207 228 255
207 228 255
207 228 255
207 228 255
207 228 255
207 228 255
207 228 255
207 228 255
207 228 255
207 228 255
208 228 255
208 228 255
208 228 255
208 228 255
208 228 255
208 228 255
208 228 255
208 228 255
208 228 255
208 228 255
208 228 255
208 228 255
207 227 253
204 222 246
195 210 228
198 213 233
198 211 223
191 201 212
189 201 211
201 216 231
184 191 193
187 198 207
185 193 193
184 189 189
182 192 201
183 190 193
186 198 207
196 209 224
189 198 203
183 192 199
195 206 214
196 211 229
199 213 230
199 215 236
205 222 244
209 229 255
209 229 255
209 229 255
209 229 255
209 229 255
210 229 255
210 229 255
210 229 255
210 229 255
210 229 255
210 229 255
210 229 255
210 229 255
210 229 255
210 229 255
210 229 255
210 229 255
210 229 255
210 229 255
210 229 255
210 229 255
210 229 255
210 229 255
210 229 255
210 229 255
210 229 255
210 230 255
210 230 255
210 230 255
211 230 255
211 230 255
211 230 255
211 230 255
211 230 255
211 230 255
211 230 255
211 230 255
211 230 255
211 230 255
211 230 255
211 230 255
211 230 255
211 230 255
211 230 255
211 230 255
211 230 255
211 230 255
211 230 255
211 230 255
211 230 255
211 230 255
211 230 255
211 230 255
210 230 255
210 230 255
210 230 255
210 229 255
210 229 255
210 229 255
210 229 255
210 229 255
210 229 255
210 229 255
210 229 255
210 229 255
210 229 255
210 229 255
210 229 255
210 229 255
209 229 255
209 229 255
208 228 255
207 228 255
206 227 255
206 227 255
205 227 255
205 226 255
204 226 255
203 225 255
202 225 255
202 225 255
201 225 255
201 224 255
201 224 255
200 224 255
200 224 255
200 224 255
200 224 255
200 224 255
200 224 255
199 223 255
199 223 255
199 223 255
199 223 255
199 223 255
199 224 255
200 224 255
200 224 255
200 224 255
201 224 255
201 225 255
202 225 255
202 225 255
204 226 255
204 226 255
205 227 255
206 227 255
206 227 255
207 228 255
208 228 255
208 228 255
208 228 255
208 228 255
208 228 255
208 228 255
208 228 255
208 228 255
207 228 255
207 228 255
207 228 255
207 228 255
207 228 255
207 228 255
207 228 255
207 228 255
207 228 255
207 228 255
207 228 255
207 228 255
207 228 255
207 228 255
207 227 255
207 227 255
207 227 255
207 227 255
206 227 255
206 227 255
206 227 255
206 227 255
206 227 255
206 227 255
206 227 255
206 227 255
206 227 255
206 227 255
206 227 255
206 227 255
206 227 255
206 227 255
206 227 255
206 227 255
205 227 255
205 227 255
205 227 255
205 227 255
205 227 255
205 227 255
205 227 255
205 227 255
205 227 255
205 227 255
205 227 255
205 226 255
205 226 255
205 226 255
205 226 255
205 226 255
205 226 255
205 226 255
204 226 255
204 226 255
204 226 255
204 226 255
204 226 255
204 226 255
204 226 255
204 226 255
204 226 255
204 226 255
204 226 255
204 226 255
204 226 255
204 226 255
204 226 255
204 226 255
204 226 255
204 226 255
204 226 255
203 226 255
203 226 255
203 226 255
203 226 255
203 226 255
203 226 255
203 226 255
203 226 255
203 226 255
203 226 255
203 225 255
203 225 255
203 225 255
203 225 255
203 225 255
203 225 255
203 225 255
203 225 255
203 225 255
203 225 255
203 225 255
203 225 255
203 225 255
203 225 255
203 225 255
202 225 255
202 225 255
202 225 255
202 225 255
202 225 255
202 225 255
202 225 255
202 225 255
202 225 255
202 225 255
202 225 255
202 225 255
202 225 255
202 225 255
202 225 255
202 225 255
202 225 255
202 225 255
202 225 255
202 225 255
202 225 255
202 225 255
202 225 255
202 225 255
202 225 255
202 225 255
202 225 255
202 225 255
202 225 255
202 225 255
202 225 255
202 225 255
202 225 255
202 225 255
202 225 255
202 225 255
202 225 255
202 225 255
202 225 255
202 225 255
202 225 255
202 225 255
202 225 255
202 225 255
202 225 255
202 225 255
202 225 255
202 225 255
202 225 255
202 225 255
202 225 255
202 225 255
203 225 255
203 225 255
203 225 255
203 225 255
203 225 255
203 225 255
203 225 255
203 225 255
203 225 255
203 225 255
203 225 255
203 225 255
203 225 255
203 225 255
203 225 255
203 225 255
203 226 255
203 226 255
203 226 255
203 226 255
203 226 255
203 226 255
203 226 255
203 226 255
203 226 255
204 226 255
204 226 255
204 226 255
204 226 255
204 226 255
204 226 255
204 226 255
204 226 255
204 226 255
204 226 255
204 226 255
204 226 255
204 226 255
204 226 255
204 226 255
204 226 255
204 226 255
204 226 255
204 226 255
205 226 255
205 226 255
205 226 255
205 226 255
205 226 255
205 226 255
205 226 255
205 227 255
205 227 255
205 227 255
205 227 255
205 227 255
205 227 255
205 227 255
205 227 255
205 227 255
205 227 255
206 227 255
206 227 255
206 227 255
206 227 255
206 227 255
206 227 255
206 227 255
206 227 255
206 227 255
206 227 255
206 227 255
206 227 255
206 227 255
206 227 255
206 227 255
206 227 255
206 227 255
207 227 255
207 227 255
207 227 255
207 227 255
207 227 255
207 228 255
207 228 255
207 228 255
207 228 255
207 228 255
207 228 255
207 228 255
207 228 255
207 228 255
207 228 255
207 228 255
207 228 255
207 228 255
208 228 255
208 228 255
208 228 255
208 228 255
208 228 255
208 228 255
208 228 255
204 223 247
199 215 233
190 201 216
194 208 222
189 198 205
178 180 165
173 172 154
166 159 129
167 162 127
146 138 93
160 152 97
149 137 82
142 126 75
156 144 89
144 134 86
148 137 84
160 147 91
155 142 86
143 129 79
152 141 86
148 133 79
152 141 88
159 151 96
158 143 86
153 140 85
152 141 85
160 149 94
153 142 89
160 152 95
153 143 89
156 142 87
150 139 85
158 148 91
162 156 127
164 156 122
169 165 143
171 169 153
166 165 154
180 184 183
199 213 229
201 215 228
207 226 251
210 229 255
210 229 255
210 229 255
210 229 255
210 229 255
210 229 255
210 229 255
210 229 255
210 229 255
210 229 255
210 229 255
210 229 255
210 230 255
210 230 255
210 230 255
211 230 255
211 230 255
211 230 255
211 230 255
211 230 255
211 230 255
211 230 255
211 230 255
211 230 255
211 230 255
211 230 255
211 230 255
211 230 255
211 230 255
211 230 255
211 230 255
211 230 255
211 230 255
211 230 255
211 230 255
211 230 255
211 230 255
211 230 255
211 230 255
211 230 255
211 230 255
211 230 255
211 230 255
211 230 255
211 230 255
211 230 255
211 230 255
210 230 255
210 230 255
210 230 255
210 229 255
210 229 255
210 229 255
209 229 255
209 229 255
208 228 255
207 227 255
205 227 255
204 226 255
203 226 255
203 225 255
202 225 255
201 224 255
201 224 255
200 224 255
200 224 255
199 224 255
199 223 255
199 223 255
198 223 255
198 223 255
197 222 255
197 222 255
197 222 255
197 222 255
196 222 255
196 222 255
196 222 255
196 222 255
196 222 255
196 222 255
196 221 255
195 221 255
195 221 255
195 221 255
195 221 255
195 221 255
195 221 255
196 222 255
196 222 255
196 222 255
196 222 255
196 222 255
196 222 255
197 222 255
197 222 255
198 223 255
198 223 255
199 223 255
200 224 255
202 225 255
203 225 255
204 226 255
206 227 255
207 227 255
208 228 255
208 228 255
208 228 255
208 228 255
208 228 255
207 228 255
207 228 255
207 228 255
207 228 255
207 228 255
207 228 255
207 228 255
207 228 255
207 228 255
207 228 255
207 228 255
207 228 255
207 228 255
207 228 255
207 227 255
207 227 255
207 227 255
207 227 255
206 227 255
206 227 255
206 227 255
206 227 255
206 227 255
206 227 255
206 227 255
206 227 255
206 227 255
206 227 255
206 227 255
206 227 255
206 227 255
206 227 255
206 227 255
206 227 255
206 227 255
205 227 255
205 227 255
205 227 255
205 227 255
205 227 255
205 227 255
205 227 255
205 227 255
205 227 255
205 227 255
205 227 255
205 226 255
205 226 255
205 226 255
205 226 255
205 226 255
205 226 255
205 226 255
204 226 255
204 226 255
204 226 255
204 226 255
204 226 255
204 226 255
204 226 255
204 226 255
204 226 255
204 226 255
204 226 255
204 226 255
204 226 255
204 226 255
204 226 255
204 226 255
204 226 255
204 226 255
204 226 255
204 226 255
203 226 255
203 226 255
203 226 255
203 226 255
203 226 255
203 226 255
203 226 255
203 226 255
203 226 255
203 226 255
203 225 255
203 225 255
203 225 255
203 225 255
203 225 255
203 225 255
203 225 255
203 225 255
203 225 255
203 225 255
203 225 255
203 225 255
203 225 255
203 225 255
203 225 255
203 225 255
203 225 255
203 225 255
203 225 255
203 225 255
202 225 255
202 225 255
202 225 255
202 225 255
202 225 255
202 225 255
202 225 255
202 225 255
202 225 255
202 225 255
202 225 255
202 225 255
202 225 255
202 225 255
202 225 255
202 225 255
202 225 255
202 225 255
202 225 255
202 225 255
202 225 255
202 225 255
202 225 255
202 225 255
202 225 255
202 225 255
202 225 255
202 225 255
202 225 255
202 225 255
202 225 255
202 225 255
203 225 255
203 225 255
203 225 255
203 225 255
203 225 255
203 225 255
203 225 255
203 225 255
203 225 255
203 225 255
203 225 255
203 225 255
203 225 255
203 225 255
203 225 255
203 225 255
203 225 255
203 225 255
203 225 255
203 226 255
203 226 255
203 226 255
203 226 255
203 226 255
203 226 255
203 226 255
203 226 255
203 226 255
203 226 255
203 226 255
204 226 255
204 226 255
204 226 255
204 226 255
204 226 255
204 226 255
204 226 255
204 226 255
204 226 255
204 226 255
204 226 255
204 226 255
204 226 255
204 226 255
204 226 255
204 226 255
204 226 255
204 226 255
204 226 255
204 226 255
205 226 255
205 226 255
205 226 255
205 226 255
205 226 255
205 226 255
205 226 255
205 227 255
205 227 255
205 227 255
205 227 255
205 227 255
205 227 255
205 227 255
205 227 255
205 227 255
205 227 255
206 227 255
206 227 255
206 227 255
206 227 255
206 227 255
206 227 255
206 227 255
206 227 255
206 227 255
206 227 255
206 227 255
206 227 255
206 227 255
206 227 255
206 227 255
206 227 255
206 227 255
206 227 255
207 227 255
207 227 255
207 227 255
207 227 255
207 228 255
207 228 255
207 228 255
207 228 255
207 228 255
207 228 255
207 228 255
207 228 255
207 228 255
207 228 255
207 228 255
207 228 255
207 228 255
207 228 255
208 228 255
208 228 255
208 228 255
208 228 255
204 224 250
192 204 215
179 185 186
177 183 182
169 169 151
158 148 100
153 143 91
154 141 84
152 139 85
149 137 87
158 149 94
155 143 85
158 149 93
150 137 85
153 142 89
156 145 90
155 148 97
153 144 92
163 154 98
159 152 98
154 139 82
157 143 84
142 126 74
158 146 91
152 139 85
151 140 87
154 146 94
158 145 86
163 156 99
153 143 91
157 144 86
155 147 91
147 136 84
146 134 82
155 146 92
154 145 92
150 136 82
156 142 84
151 137 79
152 139 84
157 145 89
150 136 78
156 144 88
154 145 90
151 137 77
158 141 82
150 137 84
148 135 86
156 147 104
159 156 128
175 173 151
186 192 191
196 208 225
206 222 244
210 229 255
210 229 255
210 230 255
210 230 255
210 230 255
211 230 255
211 230 255
211 230 255
211 230 255
211 230 255
211 230 255
211 230 255
211 230 255
211 230 255
211 230 255
211 230 255
211 230 255
211 230 255
211 230 255
211 230 255
211 230 255
211 230 255
211 230 255
211 230 255
211 230 255
211 230 255
211 230 255
211 230 255
211 230 255
211 230 255
211 230 255
211 230 255
211 230 255
211 230 255
211 230 255
211 230 255
211 230 255
211 230 255
211 230 255
211 230 255
211 230 255
211 230 255
210 229 255
209 229 255
208 228 255
206 227 255
205 226 255
204 226 255
203 225 255
202 225 255
202 225 255
201 224 255
200 224 255
200 224 255
199 223 255
199 223 255
198 223 255
198 223 255
198 223 255
197 222 255
197 222 255
196 222 255
196 222 255
196 222 255
195 221 255
195 221 255
195 221 255
195 221 255
194 221 255
194 221 255
194 221 255
194 220 255
194 220 255
193 220 255
193 220 255
193 220 255
193 220 255
193 220 255
193 220 255
193 220 255
193 220 255
193 220 255
193 220 255
193 220 255
193 220 255
193 220 255
193 220 255
193 220 255
193 220 255
193 220 255
193 220 255
194 221 255
194 221 255
195 221 255
195 221 255
195 221 255
196 222 255
197 222 255
198 223 255
199 223 255
201 224 255
203 226 255
205 227 255
206 227 255
208 228 255
208 228 255
208 228 255
208 228 255
207 228 255
207 228 255
207 228 255
207 228 255
207 228 255
207 228 255
207 228 255
207 228 255
207 228 255
207 228 255
207 228 255
207 228 255
207 228 255
207 227 255
207 227 255
207 227 255
207 227 255
206 227 255
206 227 255
206 227 255
206 227 255
206 227 255
206 227 255
206 227 255
206 227 255
206 227 255
206 227 255
206 227 255
206 227 255
206 227 255
206 227 255
206 227 255
206 227 255
206 227 255
206 227 255
205 227 255
205 227 255
205 227 255
205 227 255
205 227 255
205 227 255
205 227 255
205 227 255
205 227 255
205 227 255
205 227 255
205 226 255
205 226 255
205 226 255
205 226 255
205 226 255
205 226 255
205 226 255
204 226 255
204 226 255
204 226 255
204 226 255
204 226 255
204 226 255
204 226 255
204 226 255
204 226 255
204 226 255
204 226 255
204 226 255
204 226 255
204 226 255
204 226 255
204 226 255
204 226 255
204 226 255
204 226 255
204 226 255
204 226 255
203 226 255
203 226 255
203 226 255
203 226 255
203 226 255
203 226 255
203 226 255
203 226 255
203 226 255
203 226 255
203 226 255
203 226 255
203 225 255
203 225 255
203 225 255
203 225 255
203 225 255
203 225 255
203 225 255
203 225 255
203 225 255
203 225 255
203 225 255
203 225 255
203 225 255
203 225 255
203 225 255
203 225 255
203 225 255
203 225 255
203 225 255
203 225 255
203 225 255
203 225 255
203 225 255
203 225 255
203 225 255
203 225 255
203 225 255
203 225 255
203 225 255
203 225 255
203 225 255
203 225 255
203 225 255
203 225 255
203 225 255
203 225 255
203 225 255
203 225 255
203 225 255
203 225 255
203 225 255
203 225 255
203 225 255
203 225 255
203 225 255
203 225 255
203 225 255
203 225 255
203 225 255
203 225 255
203 225 255
203 225 255
203 225 255
203 225 255
203 225 255
203 225 255
203 225 255
203 225 255
203 226 255
203 226 255
203 226 255
203 226 255
203 226 255
203 226 255
203 226 255
203 226 255
203 226 255
203 226 255
203 226 255
203 226 255
204 226 255
204 226 255
204 226 255
204 226 255
204 226 255
204 226 255
204 226 255
204 226 255
204 226 255
204 226 255
204 226 255
204 226 255
204 226 255
204 226 255
204 226 255
204 226 255
204 226 255
204 226 255
204 226 255
204 226 255
204 226 255
205 226 255
205 226 255
205 226 255
205 226 255
205 226 255
205 226 255
205 226 255
205 227 255
205 227 255
205 227 255
205 227 255
205 227 255
205 227 255
205 227 255
205 227 255
205 227 255
205 227 255
205 227 255
206 227 255
206 227 255
206 227 255
206 227 255
206 227 255
206 227 255
206 227 255
206 227 255
206 227 255
206 227 255
206 227 255
206 227 255
206 227 255
206 227 255
206 227 255
206 227 255
206 227 255
206 227 255
207 227 255
207 227 255
207 227 255
207 228 255
207 228 255
207 228 255
207 228 255
207 228 255
207 228 255
207 228 255
207 228 255
207 228 255
207 228 255
207 228 255
207 228 255
207 228 255
207 228 255
208 228 255
208 228 255
208 228 255
205 224 249
195 211 229
184 195 204
160 159 141
153 143 104
161 152 96
145 137 86
147 136 86
152 138 82
157 146 90
149 137 86
154 146 93
155 143 88
157 149 95
154 144 90
164 159 104
154 146 94
160 150 94
163 153 96
157 150 96
154 141 84
160 151 96
155 143 86
157 146 91
154 143 89
156 145 90
157 149 95
154 146 95
153 142 87
152 138 84
155 142 85
161 153 97
149 136 84
154 145 92
160 149 94
157 147 92
147 136 84
153 145 92
164 154 97
154 141 87
163 150 91
157 148 93
150 140 88
149 136 83
152 143 90
159 149 95
152 139 85
157 146 92
154 141 87
158 142 84
160 149 93
153 140 83
156 143 88
165 155 97
152 140 87
150 139 86
151 136 81
154 141 86
145 131 74
158 150 103
175 174 162
185 192 191
199 212 224
205 221 243
211 230 255
211 230 255
211 230 255
211 230 255
211 230 255
211 230 255
211 230 255
211 230 255
211 230 255
211 230 255
211 230 255
211 230 255
211 230 255
211 230 255
211 230 255
211 230 255
211 230 255
211 230 255
211 230 255
211 230 255
211 230 255
211 230 255
211 230 255
211 230 255
211 230 255
211 230 255
211 230 255
211 230 255
211 230 255
211 230 255
211 230 255
211 230 255
211 230 255
210 229 255
209 229 255
207 228 255
206 227 255
205 226 255
204 226 255
203 225 255
202 225 255
201 225 255
201 224 255
200 224 255
200 224 255
199 223 255
199 223 255
198 223 255
198 223 255
197 222 255
197 222 255
196 222 255
196 222 255
196 222 255
195 221 255
195 221 255
195 221 255
194 221 255
194 221 255
194 221 255
193 220 255
193 220 255
193 220 255
193 220 255
192 220 255
192 220 255
192 220 255
192 220 255
192 219 255
191 219 255
191 219 255
191 219 255
191 219 255
191 219 255
191 219 255
191 219 255
191 219 255
190 219 255
190 219 255
190 219 255
190 219 255
190 219 255
191 219 255
191 219 255
191 219 255
191 219 255
191 219 255
191 219 255
192 219 255
192 220 255
192 220 255
193 220 255
193 220 255
193 220 255
194 221 255
194 221 255
196 222 255
197 222 255
198 223 255
199 224 255
201 224 255
204 226 255
206 227 255
207 227 255
208 228 255
208 228 255
207 228 255
207 228 255
207 228 255
207 228 255
207 228 255
207 228 255
207 228 255
207 228 255
207 228 255
207 228 255
207 228 255
207 228 255
207 228 255
207 228 255
207 227 255
207 227 255
207 227 255
207 227 255
206 227 255
206 227 255
206 227 255
206 227 255
206 227 255
206 227 255
206 227 255
206 227 255
206 227 255
206 227 255
206 227 255
206 227 255
206 227 255
206 227 255
206 227 255
206 227 255
206 227 255
206 227 255
205 227 255
205 227 255
205 227 255
205 227 255
205 227 255
205 227 255
205 227 255
205 227 255
205 227 255
205 227 255
205 227 255
205 226 255
205 226 255
205 226 255
205 226 255
205 226 255
205 226 255
205 226 255
205 226 255
204 226 255
204 226 255
204 226 255
204 226 255
204 226 255
204 226 255
204 226 255
204 226 255
204 226 255
204 226 255
204 226 255
204 226 255
204 226 255
204 226 255
204 226 255
204 226 255
204 226 255
204 226 255
204 226 255
204 226 255
204 226 255
204 226 255
203 226 255
203 226 255
203 226 255
203 226 255
203 226 255
203 226 255
203 226 255
203 226 255
203 226 255
203 226 255
203 226 255
203 226 255
203 226 255
203 226 255
203 226 255
203 225 255
203 225 255
203 225 255
203 225 255
203 225 255
203 225 255
203 225 255
203 225 255
203 225 255
203 225 255
203 225 255
203 225 255
203 225 255
203 225 255
203 225 255
203 225 255
203 225 255
203 225 255
203 225 255
203 225 255
203 225 255
203 225 255
203 225 255
203 225 255
203 225 255
203 225 255
203 225 255
203 225 255
203 225 255
203 225 255
203 225 255
203 225 255
203 225 255
203 225 255
203 225 255
203 225 255
203 225 255
203 225 255
203 225 255
203 225 255
203 226 255
203 226 255
203 226 255
203 226 255
203 226 255
203 226 255
203 226 255
203 226 255
203 226 255
203 226 255
203 226 255
203 226 255
203 226 255
203 226 255
203 226 255
204 226 255
204 226 255
204 226 255
204 226 255
204 226 255
204 226 255
204 226 255
204 226 255
204 226 255
204 226 255
204 226 255
204 226 255
204 226 255
204 226 255
204 226 255
204 226 255
204 226 255
204 226 255
204 226 255
204 226 255
204 226 255
204 226 255
205 226 255
205 226 255
205 226 255
205 226 255
205 226 255
205 226 255
205 226 255
205 226 255
205 227 255
205 227 255
205 227 255
205 227 255
205 227 255
205 227 255
205 227 255
205 227 255
205 227 255
205 227 255
205 227 255
206 227 255
206 227 255
206 227 255
206 227 255
206 227 255
206 227 255
206 227 255
206 227 255
206 227 255
206 227 255
206 227 255
206 227 255
206 227 255
206 227 255
206 227 255
206 227 255
206 227 255
206 227 255
207 227 255
207 227 255
207 227 255
207 227 255
207 228 255
207 228 255
207 228 255
207 228 255
207 228 255
207 228 255
207 228 255
207 228 255
207 228 255
207 228 255
207 228 255
207 228 255
207 228 255
208 228 255
208 228 255
208 228 255
197 213 230
187 198 207
174 177 173
166 159 116
153 142 88
160 150 92
154 142 86
147 136 83
160 153 98
154 142 86
152 144 92
157 146 90
156 144 89
154 146 92
145 134 81
153 140 86
155 145 91
150 139 88
151 139 87
151 142 92
155 146 91
158 148 93
164 153 96
152 143 91
159 149 95
159 151 96
156 149 96
158 150 96
163 156 98
147 136 85
154 143 86
158 149 95
158 144 87
152 141 88
156 147 95
159 146 92
148 137 85
167 160 103
151 140 88
153 143 92
155 145 91
161 150 94
162 151 93
159 149 95
159 152 98
152 141 88
160 150 95
160 149 91
153 141 88
158 147 91
159 150 95
151 140 87
150 140 89
161 154 99
157 147 93
156 146 91
163 151 94
163 154 98
150 138 85
156 146 92
156 147 92
163 153 96
159 146 90
149 134 77
158 145 88
155 143 85
162 148 86
154 140 81
150 138 106
181 185 174
201 213 222
204 220 241
211 230 255
211 230 255
211 230 255
211 230 255
211 230 255
211 230 255
211 230 255
211 230 255
211 230 255
211 230 255
211 230 255
211 230 255
211 230 255
211 230 255
212 230 255
212 230 255
212 230 255
212 230 255
211 230 255
211 230 255
211 230 255
211 230 255
211 230 255
211 230 255
211 230 255
210 229 255
209 229 255
207 228 255
206 227 255
205 226 255
204 226 255
203 225 255
202 225 255
202 225 255
201 224 255
200 224 255
200 224 255
199 223 255
199 223 255
198 223 255
198 223 255
197 222 255
197 222 255
196 222 255
196 222 255
196 221 255
195 221 255
195 221 255
195 221 255
194 221 255
194 221 255
193 220 255
193 220 255
193 220 255
193 220 255
192 220 255
192 220 255
192 219 255
192 219 255
191 219 255
191 219 255
191 219 255
191 219 255
190 219 255
190 219 255
190 219 255
190 218 255
190 218 255
190 218 255
189 218 255
189 218 255
189 218 255
189 218 255
189 218 255
189 218 255
189 218 255
189 218 255
189 218 255
189 218 255
189 218 255
189 218 255
189 218 255
189 218 255
189 218 255
189 218 255
189 218 255
190 218 255
190 218 255
190 218 255
190 219 255
191 219 255
191 219 255
191 219 255
192 220 255
193 220 255
194 221 255
195 221 255
195 221 255
197 222 255
198 223 255
201 225 255
204 226 255
206 227 255
207 228 255
208 228 255
208 228 255
207 228 255
207 228 255
207 228 255
207 228 255
207 228 255
207 228 255
207 228 255
207 228 255
207 228 255
207 228 255
207 228 255
207 228 255
207 228 255
207 228 255
207 227 255
207 227 255
207 227 255
207 227 255
206 227 255
206 227 255
206 227 255
206 227 255
206 227 255
206 227 255
206 227 255
206 227 255
206 227 255
206 227 255
206 227 255
206 227 255
206 227 255
206 227 255
206 227 255
206 227 255
206 227 255
206 227 255
205 227 255
205 227 255
205 227 255
205 227 255
205 227 255
205 227 255
205 227 255
205 227 255
205 227 255
205 227 255
205 227 255
205 226 255
205 226 255
205 226 255
205 226 255
205 226 255
205 226 255
205 226 255
205 226 255
205 226 255
204 226 255
204 226 255
204 226 255
204 226 255
204 226 255
204 226 255
204 226 255
204 226 255
204 226 255
204 226 255
204 226 255
204 226 255
204 226 255
204 226 255
204 226 255
204 226 255
204 226 255
204 226 255
204 226 255
204 226 255
204 226 255
204 226 255
204 226 255
204 226 255
204 226 255
203 226 255
203 226 255
203 226 255
203 226 255
203 226 255
203 226 255
203 226 255
203 226 255
203 226 255
203 226 255
203 226 255
203 226 255
203 226 255
203 226 255
203 226 255
203 226 255
203 226 255
203 226 255
203 226 255
203 226 255
203 226 255
203 226 255
203 226 255
203 226 255
203 226 255
203 226 255
203 226 255
203 226 255
203 226 255
203 226 255
203 226 255
203 226 255
203 226 255
203 226 255
203 226 255
203 226 255
203 226 255
203 226 255
203 226 255
203 226 255
203 226 255
203 226 255
203 226 255
203 226 255
203 226 255
203 226 255
203 226 255
203 226 255
203 226 255
203 226 255
203 226 255
203 226 255
203 226 255
203 226 255
204 226 255
204 226 255
204 226 255
204 226 255
204 226 255
204 226 255
204 226 255
204 226 255
204 226 255
204 226 255
204 226 255
204 226 255
204 226 255
204 226 255
204 226 255
204 226 255
204 226 255
204 226 255
204 226 255
204 226 255
204 226 255
204 226 255
204 226 255
204 226 255
204 226 255
204 226 255
205 226 255
205 226 255
205 226 255
205 226 255
205 226 255
205 226 255
205 226 255
205 226 255
205 227 255
205 227 255
205 227 255
205 227 255
205 227 255
205 227 255
205 227 255
205 227 255
205 227 255
205 227 255
205 227 255
206 227 255
206 227 255
206 227 255
206 227 255
206 227 255
206 227 255
206 227 255
206 227 255
206 227 255
206 227 255
206 227 255
206 227 255
206 227 255
206 227 255
206 227 255
206 227 255
206 227 255
206 227 255
207 227 255
207 227 255
207 227 255
207 227 255
207 228 255
207 228 255
207 228 255
207 228 255
207 228 255
207 228 255
207 228 255
207 228 255
207 228 255
207 228 255
207 228 255
207 228 255
207 228 255
207 228 255
208 228 255
208 228 255
206 225 249
182 190 197
181 188 191
166 161 130
145 136 86
149 136 81
146 133 81
159 149 94
151 139 87
152 144 90
159 150 95
150 138 84
160 152 96
160 153 99
161 155 100
153 143 90
162 154 99
163 157 101
154 149 97
160 153 99
155 145 91
149 139 89
157 149 96
157 150 96
158 152 100
159 150 94
157 149 95
160 152 96
161 154 99
157 143 87
166 158 101
156 148 93
157 149 96
164 159 104
161 155 101
160 151 95
159 150 93
149 141 90
163 155 100
160 153 99
151 141 88
160 153 98
165 157 100
160 152 99
158 148 95
164 154 96
164 154 98
159 148 91
160 148 92
154 144 88
160 148 91
154 138 83
157 147 88
155 146 94
150 141 88
161 147 86
159 150 92
152 143 90
158 147 89
145 135 84
161 152 95
158 146 90
160 148 89
159 150 96
156 144 88
154 142 88
155 144 88
157 145 88
157 146 87
162 150 90
148 139 88
149 137 82
159 150 94
152 140 87
149 134 78
155 141 79
157 147 111
174 176 164
190 200 211
206 223 248
211 230 255
211 230 255
211 230 255
211 230 255
211 230 255
211 230 255
212 230 255
212 230 255
212 230 255
212 230 255
212 230 255
212 230 255
212 230 255
212 230 255
212 230 255
212 230 255
212 230 255
211 230 255
210 229 255
209 228 255
207 227 255
206 227 255
205 226 255
204 226 255
203 225 255
202 225 255
202 225 255
201 224 255
200 224 255
200 224 255
199 223 255
199 223 255
198 223 255
198 223 255
197 222 255
197 222 255
196 222 255
196 222 255
196 221 255
195 221 255
195 221 255
194 221 255
194 221 255
194 221 255
193 220 255
193 220 255
193 220 255
192 220 255
192 220 255
192 220 255
191 219 255
191 219 255
191 219 255
191 219 255
190 219 255
190 219 255
190 218 255
190 218 255
189 218 255
189 218 255
189 218 255
189 218 255
189 218 255
188 218 255
188 218 255
188 218 255
188 218 255
188 217 255
188 217 255
188 217 255
188 217 255
187 217 255
187 217 255
187 217 255
187 217 255
187 217 255
187 217 255
187 217 255
187 217 255
187 217 255
187 217 255
187 217 255
188 217 255
188 217 255
188 218 255
188 218 255
188 218 255
189 218 255
189 218 255
189 218 255
190 219 255
191 219 255
191 219 255
191 219 255
192 220 255
193 220 255
194 221 255
195 221 255
197 222 255
199 223 255
201 224 255
205 227 255
207 228 255
208 228 255
208 228 255
208 228 255
207 228 255
207 228 255
207 228 255
207 228 255
207 228 255
207 228 255
207 228 255
207 228 255
207 228 255
207 228 255
207 228 255
207 228 255
207 228 255
207 228 255
207 227 255
207 227 255
207 227 255
207 227 255
206 227 255
206 227 255
206 227 255
206 227 255
206 227 255
206 227 255
206 227 255
206 227 255
206 227 255
206 227 255
206 227 255
206 227 255
206 227 255
206 227 255
206 227 255
206 227 255
206 227 255
206 227 255
205 227 255
205 227 255
205 227 255
205 227 255
205 227 255
205 227 255
205 227 255
205 227 255
205 227 255
205 227 255
205 227 255
205 227 255
205 226 255
205 226 255
205 226 255
205 226 255
205 226 255
205 226 255
205 226 255
205 226 255
204 226 255
204 226 255
204 226 255
204 226 255
204 226 255
204 226 255
204 226 255
204 226 255
204 226 255
204 226 255
204 226 255
204 226 255
204 226 255
204 226 255
204 226 255
204 226 255
204 226 255
204 226 255
204 226 255
204 226 255
204 226 255
204 226 255
204 226 255
204 226 255
204 226 255
204 226 255
204 226 255
204 226 255
204 226 255
204 226 255
204 226 255
203 226 255
203 226 255
203 226 255
203 226 255
203 226 255
203 226 255
203 226 255
203 226 255
203 226 255
203 226 255
203 226 255
203 226 255
203 226 255
203 226 255
203 226 255
203 226 255
203 226 255
203 226 255
203 226 255
203 226 255
203 226 255
203 226 255
203 226 255
203 226 255
203 226 255
203 226 255
203 226 255
203 226 255
203 226 255
203 226 255
203 226 255
203 226 255
203 226 255
203 226 255
203 226 255
204 226 255
204 226 255
204 226 255
204 226 255
204 226 255
204 226 255
204 226 255
204 226 255
204 226 255
204 226 255
204 226 255
204 226 255
204 226 255
204 226 255
204 226 255
204 226 255
204 226 255
204 226 255
204 226 255
204 226 255
204 226 255
204 226 255
204 226 255
204 226 255
204 226 255
204 226 255
204 226 255
204 226 255
204 226 255
204 226 255
205 226 255
205 226 255
205 226 255
205 226 255
205 226 255
205 226 255
205 226 255
205 226 255
205 227 255
205 227 255
205 227 255
205 227 255
205 227 255
205 227 255
205 227 255
205 227 255
205 227 255
205 227 255
205 227 255
205 227 255
206 227 255
206 227 255
206 227 255
206 227 255
206 227 255
206 227 255
206 227 255
206 227 255
206 227 255
206 227 255
206 227 255
206 227 255
206 227 255
206 227 255
206 227 255
206 227 255
206 227 255
206 227 255
207 227 255
207 227 255
207 227 255
207 227 255
207 228 255
207 228 255
207 228 255
207 228 255
207 228 255
207 228 255
207 228 255
207 228 255
207 228 255
207 228 255
207 228 255
207 228 255
207 228 255
207 228 255
208 228 255
208 228 255
208 228 255
195 209 225
184 192 196
165 163 146
151 139 85
145 133 82
158 149 95
155 144 91
150 142 90
155 144 90
156 149 97
154 147 94
155 146 93
156 148 94
156 150 96
159 149 94
153 144 90
160 152 96
159 150 95
164 157 101
157 148 92
156 149 95
157 147 92
155 146 93
162 154 97
163 157 101
157 147 92
156 147 92
157 151 97
155 148 94
159 152 98
157 146 91
159 149 95
155 145 93
158 148 91
161 151 94
159 150 95
145 137 86
157 148 93
161 153 99
157 149 94
157 150 96
162 156 100
160 150 94
158 150 96
157 149 96
159 147 89
155 145 91
159 150 94
158 149 94
162 150 91
155 146 92
162 155 98
161 152 97
155 145 90
162 153 96
153 141 86
154 144 89
157 145 89
159 150 93
154 144 90
163 153 96
152 142 90
156 149 94
152 141 89
164 156 97
149 137 83
160 146 89
160 146 89
156 147 89
159 145 86
158 146 86
149 139 87
150 140 87
160 149 90
148 136 81
156 141 82
155 142 86
154 142 86
152 143 89
152 140 81
157 149 90
158 147 89
144 132 73
172 171 148
182 185 176
204 218 235
212 230 255
212 230 255
212 230 255
212 230 255
212 230 255
212 230 255
212 230 255
212 230 255
212 230 255
212 230 255
212 230 255
211 230 255
210 229 255
209 228 255
206 227 255
206 227 255
205 226 255
204 226 255
203 225 255
202 225 255
202 225 255
201 224 255
200 224 255
200 224 255
199 224 255
199 223 255
198 223 255
198 223 255
197 222 255
197 222 255
197 222 255
196 222 255
196 222 255
195 221 255
195 221 255
195 221 255
194 221 255
194 221 255
193 220 255
193 220 255
193 220 255
192 220 255
192 220 255
192 220 255
191 219 255
191 219 255
191 219 255
191 219 255
190 219 255
190 219 255
190 218 255
189 218 255
189 218 255
189 218 255
189 218 255
189 218 255
188 218 255
188 218 255
188 217 255
188 217 255
187 217 255
187 217 255
187 217 255
187 217 255
187 217 255
187 217 255
187 217 255
186 217 255
186 217 255
186 217 255
186 217 255
186 216 255
186 217 255
186 216 255
186 216 255
186 216 255
186 216 255
186 216 255
186 216 255
186 217 255
186 217 255
186 217 255
187 217 255
187 217 255
187 217 255
187 217 255
187 217 255
188 217 255
188 218 255
188 218 255
189 218 255
189 218 255
190 219 255
191 219 255
191 219 255
192 220 255
194 221 255
195 221 255
196 222 255
198 223 255
201 225 255
205 227 255
207 228 255
208 228 255
208 228 255
208 228 255
208 228 255
207 228 255
207 228 255
207 228 255
207 228 255
207 228 255
207 228 255
207 228 255
207 228 255
207 228 255
207 228 255
207 228 255
207 228 255
207 228 255
207 228 255
207 227 255
207 227 255
207 227 255
207 227 255
206 227 255
206 227 255
206 227 255
206 227 255
206 227 255
206 227 255
206 227 255
206 227 255
206 227 255
206 227 255
206 227 255
206 227 255
206 227 255
206 227 255
206 227 255
206 227 255
206 227 255
206 227 255
206 227 255
205 227 255
205 227 255
205 227 255
205 227 255
205 227 255
205 227 255
205 227 255
205 227 255
205 227 255
205 227 255
205 227 255
205 227 255
205 226 255
205 226 255
205 226 255
205 226 255
205 226 255
205 226 255
205 226 255
205 226 255
205 226 255
204 226 255
204 226 255
204 226 255
204 226 255
204 226 255
204 226 255
204 226 255
204 226 255
204 226 255
204 226 255
204 226 255
204 226 255
204 226 255
204 226 255
204 226 255
204 226 255
204 226 255
204 226 255
204 226 255
204 226 255
204 226 255
204 226 255
204 226 255
204 226 255
204 226 255
204 226 255
204 226 255
204 226 255
204 226 255
204 226 255
204 226 255
204 226 255
204 226 255
204 226 255
204 226 255
204 226 255
204 226 255
204 226 255
204 226 255
204 226 255
204 226 255
204 226 255
204 226 255
204 226 255
204 226 255
204 226 255
204 226 255
204 226 255
204 226 255
204 226 255
204 226 255
204 226 255
204 226 255
204 226 255
204 226 255
204 226 255
204 226 255
204 226 255
204 226 255
204 226 255
204 226 255
204 226 255
204 226 255
204 226 255
204 226 255
204 226 255
204 226 255
204 226 255
204 226 255
204 226 255
204 226 255
204 226 255
204 226 255
204 226 255
204 226 255
204 226 255
204 226 255
204 226 255
204 226 255
204 226 255
204 226 255
204 226 255
204 226 255
204 226 255
205 226 255
205 226 255
205 226 255
205 226 255
205 226 255
205 226 255
205 226 255
205 226 255
205 226 255
205 227 255
205 227 255
205 227 255
205 227 255
205 227 255
205 227 255
205 227 255
205 227 255
205 227 255
205 227 255
205 227 255
205 227 255
206 227 255
206 227 255
206 227 255
206 227 255
206 227 255
206 227 255
206 227 255
206 227 255
206 227 255
206 227 255
206 227 255
206 227 255
206 227 255
206 227 255
206 227 255
206 227 255
206 227 255
206 227 255
206 227 255
207 227 255
207 227 255
207 227 255
207 227 255
207 228 255
207 228 255
207 228 255
207 228 255
207 228 255
207 228 255
207 228 255
207 228 255
207 228 255
207 228 255
207 228 255
207 228 255
207 228 255
207 228 255
208 228 255
208 228 255
208 228 255
208 228 255
197 214 236
186 195 192
159 153 122
160 152 97
152 141 87
157 148 94
154 146 93
154 144 91
159 150 95
145 134 83
153 146 94
152 143 92
155 145 92
159 150 96
158 151 98
159 147 90
155 147 94
163 157 103
157 146 91
155 148 95
162 155 100
164 157 101
161 153 96
156 147 93
155 146 92
159 147 92
158 149 94
155 147 95
162 155 100
163 158 103
162 153 98
164 157 102
156 148 94
153 146 94
160 154 99
162 156 101
147 135 86
164 159 104
160 155 101
155 147 95
162 158 104
156 148 95
162 155 99
163 155 99
157 148 94
163 154 96
161 150 91
161 153 97
158 150 91
161 155 99
160 152 94
164 156 98
163 155 100
160 152 97
158 151 98
159 150 96
158 149 94
160 151 95
159 147 91
156 149 94
161 152 98
153 144 91
155 148 94
154 140 83
156 145 91
157 148 92
152 138 84
166 158 101
157 146 90
151 142 86
158 146 90
160 149 87
156 146 92
161 150 91
158 147 91
157 145 87
153 142 84
158 147 90
158 145 89
153 142 87
158 150 95
163 152 95
151 138 84
150 137 85
159 145 81
151 139 85
144 129 75
147 135 79
148 136 81
152 140 102
184 192 191
203 216 232
212 230 255
212 230 255
212 230 255
212 230 255
212 230 255
212 230 255
211 230 255
209 229 255
207 228 255
206 227 255
205 227 255
204 226 255
203 226 255
203 225 255
202 225 255
201 225 255
201 224 255
200 224 255
200 224 255
199 223 255
199 223 255
198 223 255
198 223 255
197 222 255
197 222 255
196 222 255
196 222 255
196 222 255
195 221 255
195 221 255
195 221 255
194 221 255
194 221 255
193 220 255
193 220 255
193 220 255
192 220 255
192 220 255
192 219 255
191 219 255
191 219 255
191 219 255
190 219 255
190 219 255
190 219 255
190 218 255
189 218 255
189 218 255
189 218 255
189 218 255
188 218 255
188 218 255
188 217 255
188 217 255
187 217 255
187 217 255
187 217 255
187 217 255
187 217 255
186 217 255
186 217 255
186 216 255
186 216 255
186 216 255
186 216 255
185 216 255
185 216 255
185 216 255
185 216 255
185 216 255
185 216 255
185 216 255
185 216 255
185 216 255
185 216 255
185 216 255
185 216 255
185 216 255
185 216 255
185 216 255
185 216 255
185 216 255
186 216 255
186 216 255
186 216 255
186 217 255
186 217 255
187 217 255
187 217 255
188 217 255
188 218 255
189 218 255
189 218 255
190 219 255
191 219 255
192 219 255
193 220 255
194 221 255
196 221 255
198 223 255
200 224 255
205 226 255
207 228 255
208 228 255
208 228 255
208 228 255
208 228 255
208 228 255
207 228 255
207 228 255
207 228 255
207 228 255
207 228 255
207 228 255
207 228 255
207 228 255
207 228 255
207 228 255
207 228 255
207 228 255
207 228 255
207 227 255
207 227 255
207 227 255
207 227 255
207 227 255
206 227 255
206 227 255
206 227 255
206 227 255
206 227 255
206 227 255
206 227 255
206 227 255
206 227 255
206 227 255
206 227 255
206 227 255
206 227 255
206 227 255
206 227 255
206 227 255
206 227 255
206 227 255
206 227 255
206 227 255
205 227 255
205 227 255
205 227 255
205 227 255
205 227 255
205 227 255
205 227 255
205 227 255
205 227 255
205 227 255
205 227 255
205 227 255
205 226 255
205 226 255
205 226 255
205 226 255
205 226 255
205 226 255
205 226 255
205 226 255
205 226 255
205 226 255
204 226 255
204 226 255
204 226 255
204 226 255
204 226 255
204 226 255
204 226 255
204 226 255
204 226 255
204 226 255
204 226 255
204 226 255
204 226 255
204 226 255
204 226 255
204 226 255
204 226 255
204 226 255
204 226 255
204 226 255
204 226 255
204 226 255
204 226 255
204 226 255
204 226 255
204 226 255
204 226 255
204 226 255
204 226 255
204 226 255
204 226 255
204 226 255
204 226 255
204 226 255
204 226 255
204 226 255
204 226 255
204 226 255
204 226 255
204 226 255
204 226 255
204 226 255
204 226 255
204 226 255
204 226 255
204 226 255
204 226 255
204 226 255
204 226 255
204 226 255
204 226 255
204 226 255
204 226 255
204 226 255
204 226 255
204 226 255
204 226 255
204 226 255
204 226 255
204 226 255
204 226 255
204 226 255
204 226 255
204 226 255
204 226 255
204 226 255
204 226 255
204 226 255
204 226 255
204 226 255
204 226 255
204 226 255
205 226 255
205 226 255
205 226 255
205 226 255
205 226 255
205 226 255
205 226 255
205 226 255
205 226 255
205 226 255
205 227 255
205 227 255
205 227 255
205 227 255
205 227 255
205 227 255
205 227 255
205 227 255
205 227 255
205 227 255
205 227 255
205 227 255
205 227 255
206 227 255
206 227 255
206 227 255
206 227 255
206 227 255
206 227 255
206 227 255
206 227 255
206 227 255
206 227 255
206 227 255
206 227 255
206 227 255
206 227 255
206 227 255
206 227 255
206 227 255
206 227 255
206 227 255
207 227 255
207 227 255
207 227 255
207 227 255
207 228 255
207 228 255
207 228 255
207 228 255
207 228 255
207 228 255
207 228 255
207 228 255
207 228 255
207 228 255
207 228 255
207 228 255
207 228 255
207 228 255
208 228 255
208 228 255
208 228 255
208 228 255
208 228 255
204 222 246
178 184 177
159 150 115
153 140 86
151 137 85
155 144 90
152 142 89
154 147 95
159 149 93
155 148 95
158 150 97
153 144 91
148 140 87
160 152 98
149 141 90
155 148 96
155 146 92
157 149 96
151 144 93
164 159 105
162 154 98
155 147 94
154 147 96
165 160 103
161 158 106
162 157 103
161 153 99
162 153 98
161 151 96
163 153 97
156 148 94
161 153 98
168 161 103
159 152 99
163 157 103
159 153 100
158 151 98
160 154 99
156 145 88
160 150 94
160 153 100
152 141 89
162 157 102
163 154 96
154 145 91
158 150 97
160 151 95
152 146 95
155 145 89
160 150 95
156 146 91
159 149 94
161 155 100
160 151 96
161 155 101
159 149 93
153 146 94
166 160 104
167 156 96
156 146 91
165 156 98
158 147 90
160 151 96
155 146 91
151 141 87
170 166 108
163 156 100
154 146 89
164 153 93
159 150 93
159 149 93
158 148 93
158 149 92
162 149 89
152 143 88
155 144 90
156 147 92
157 147 89
154 144 89
149 139 86
157 145 85
161 153 96
152 142 89
168 158 98
152 140 82
152 141 84
158 148 89
157 146 86
167 157 98
151 137 83
147 132 78
153 139 81
158 149 92
149 135 80
150 140 84
156 145 100
182 190 193
202 214 227
212 230 255
210 229 255
208 228 255
207 227 255
205 227 255
205 226 255
204 226 255
203 226 255
203 225 255
202 225 255
201 225 255
201 224 255
200 224 255
200 224 255
199 223 255
199 223 255
198 223 255
198 223 255
197 222 255
197 222 255
197 222 255
196 222 255
196 222 255
195 221 255
195 221 255
195 221 255
194 221 255
194 221 255
193 220 255
193 220 255
193 220 255
192 220 255
192 220 255
192 219 255
191 219 255
191 219 255
191 219 255
191 219 255
190 219 255
190 219 255
190 218 255
189 218 255
189 218 255
189 218 255
189 218 255
188 218 255
188 218 255
188 217 255
188 217 255
187 217 255
187 217 255
187 217 255
187 217 255
186 217 255
186 217 255
186 216 255
186 216 255
186 216 255
185 216 255
185 216 255
185 216 255
185 216 255
185 216 255
185 216 255
185 216 255
184 216 255
184 216 255
184 216 255
184 216 255
184 215 255
184 215 255
184 215 255
184 215 255
184 215 255
184 215 255
184 215 255
184 215 255
184 216 255
184 216 255
184 216 255
184 216 255
185 216 255
185 216 255
185 216 255
185 216 255
186 216 255
186 216 255
186 217 255
187 217 255
187 217 255
188 217 255
188 218 255
189 218 255
190 218 255
191 219 255
192 219 255
193 220 255
194 221 255
196 222 255
199 223 255
202 225 255
206 227 255
208 228 255
208 228 255
208 228 255
208 228 255
208 228 255
208 228 255
208 228 255
207 228 255
207 228 255
207 228 255
207 228 255
207 228 255
207 228 255
207 228 255
207 228 255
207 228 255
207 228 255
207 228 255
207 228 255
207 228 255
207 228 255
207 227 255
207 227 255
207 227 255
207 227 255
207 227 255
206 227 255
206 227 255
206 227 255
206 227 255
206 227 255
206 227 255
206 227 255
206 227 255
206 227 255
206 227 255
206 227 255
206 227 255
206 227 255
206 227 255
206 227 255
206 227 255
206 227 255
206 227 255
206 227 255
205 227 255
205 227 255
205 227 255
205 227 255
205 227 255
205 227 255
205 227 255
205 227 255
205 227 255
205 227 255
205 227 255
205 227 255
205 227 255
205 227 255
205 226 255
205 226 255
205 226 255
205 226 255
205 226 255
205 226 255
205 226 255
205 226 255
205 226 255
205 226 255
205 226 255
205 226 255
204 226 255
204 226 255
204 226 255
204 226 255
204 226 255
204 226 255
204 226 255
204 226 255
204 226 255
204 226 255
204 226 255
204 226 255
204 226 255
204 226 255
204 226 255
204 226 255
204 226 255
204 226 255
204 226 255
204 226 255
204 226 255
204 226 255
204 226 255
204 226 255
204 226 255
204 226 255
204 226 255
204 226 255
204 226 255
204 226 255
204 226 255
204 226 255
204 226 255
204 226 255
204 226 255
204 226 255
204 226 255
204 226 255
204 226 255
204 226 255
204 226 255
204 226 255
204 226 255
204 226 255
204 226 255
204 226 255
204 226 255
204 226 255
204 226 255
204 226 255
204 226 255
204 226 255
204 226 255
204 226 255
204 226 255
204 226 255
205 226 255
205 226 255
205 226 255
205 226 255
205 226 255
205 226 255
205 226 255
205 226 255
205 226 255
205 226 255
205 226 255
205 227 255
205 227 255
205 227 255
205 227 255
205 227 255
205 227 255
205 227 255
205 227 255
205 227 255
205 227 255
205 227 255
205 227 255
205 227 255
205 227 255
205 227 255
206 227 255
206 227 255
206 227 255
206 227 255
206 227 255
206 227 255
206 227 255
206 227 255
206 227 255
206 227 255
206 227 255
206 227 255
206 227 255
206 227 255
206 227 255
206 227 255
206 227 255
206 227 255
206 227 255
207 227 255
207 227 255
207 227 255
207 227 255
207 227 255
207 228 255
207 228 255
207 228 255
207 228 255
207 228 255
207 228 255
207 228 255
207 228 255
207 228 255
207 228 255
207 228 255
207 228 255
207 228 255
207 228 255
208 228 255
208 228 255
208 228 255
208 228 255
208 228 255
208 228 255
206 225 251
187 198 208
157 152 129
161 153 98
154 147 94
149 139 88
162 152 94
159 149 91
149 140 89
148 138 86
158 144 86
148 144 97
156 144 88
154 146 93
149 142 92
161 153 98
160 151 96
157 148 92
155 147 95
160 154 99
164 158 104
157 150 98
152 143 89
153 148 96
149 141 90
159 152 100
158 153 99
165 157 101
165 159 103
154 146 95
157 151 98
163 157 103
152 143 90
159 153 98
158 151 96
160 153 96
168 163 107
159 153 99
165 158 101
161 155 100
159 149 94
162 156 100
160 154 99
165 157 101
162 155 99
163 157 102
157 149 94
166 159 102
158 151 99
160 154 99
156 147 93
166 157 99
162 157 102
162 157 101
160 150 94
166 158 101
157 148 95
167 160 103
159 151 96
154 146 93
165 156 96
158 151 95
163 153 97
171 164 107
160 153 99
161 152 94
163 152 94
166 158 100
152 140 85
164 154 96
163 153 91
164 155 97
166 158 102
161 152 95
159 150 94
154 143 88
170 160 100
161 153 96
164 154 96
157 147 92
163 153 93
166 157 99
160 153 96
165 156 99
158 146 84
156 144 86
159 147 90
155 147 93
166 156 99
164 154 94
156 142 83
158 146 85
159 148 90
150 137 82
149 139 83
159 148 88
155 142 85
142 127 72
159 149 89
146 132 76
150 136 82
176 175 155
206 227 255
205 227 255
205 226 255
204 226 255
203 226 255
203 225 255
202 225 255
201 225 255
201 224 255
200 224 255
200 224 255
199 223 255
199 223 255
198 223 255
198 223 255
198 223 255
197 222 255
197 222 255
196 222 255
196 222 255
196 221 255
195 221 255
195 221 255
194 221 255
194 221 255
194 220 255
193 220 255
193 220 255
193 220 255
192 220 255
192 220 255
192 219 255
191 219 255
191 219 255
191 219 255
190 219 255
190 219 255
190 218 255
190 218 255
189 218 255
189 218 255
189 218 255
188 218 255
188 218 255
188 217 255
188 217 255
187 217 255
187 217 255
187 217 255
187 217 255
186 217 255
186 217 255
186 216 255
186 216 255
185 216 255
185 216 255
185 216 255
185 216 255
185 216 255
185 216 255
184 216 255
184 216 255
184 216 255
184 215 255
184 215 255
184 215 255
184 215 255
184 215 255
183 215 255
183 215 255
183 215 255
183 215 255
183 215 255
183 215 255
183 215 255
183 215 255
183 215 255
183 215 255
183 215 255
183 215 255
184 215 255
184 215 255
184 215 255
184 215 255
184 216 255
184 216 255
185 216 255
185 216 255
185 216 255
186 216 255
186 217 255
187 217 255
188 217 255
188 218 255
189 218 255
190 218 255
191 219 255
192 220 255
193 220 255
195 221 255
197 222 255
200 224 255
204 226 255
207 228 255
208 228 255
208 228 255
208 228 255
208 228 255
208 228 255
208 228 255
208 228 255
208 228 255
207 228 255
207 228 255
207 228 255
207 228 255
207 228 255
207 228 255
207 228 255
207 228 255
207 228 255
207 228 255
207 228 255
207 228 255
207 228 255
207 228 255
207 227 255
207 227 255
207 227 255
207 227 255
207 227 255
206 227 255
206 227 255
206 227 255
206 227 255
206 227 255
206 227 255
206 227 255
206 227 255
206 227 255
206 227 255
206 227 255
206 227 255
206 227 255
206 227 255
206 227 255
206 227 255
206 227 255
206 227 255
206 227 255
206 227 255
206 227 255
205 227 255
205 227 255
205 227 255
205 227 255
205 227 255
205 227 255
205 227 255
205 227 255
205 227 255
205 227 255
205 227 255
205 227 255
205 227 255
205 227 255
205 227 255
205 226 255
205 226 255
205 226 255
205 226 255
205 226 255
205 226 255
205 226 255
205 226 255
205 226 255
205 226 255
205 226 255
205 226 255
205 226 255
205 226 255
205 226 255
205 226 255
204 226 255
204 226 255
204 226 255
204 226 255
204 226 255
204 226 255
204 226 255
204 226 255
204 226 255
204 226 255
204 226 255
204 226 255
204 226 255
204 226 255
204 226 255
204 226 255
204 226 255
204 226 255
204 226 255
204 226 255
204 226 255
204 226 255
204 226 255
204 226 255
204 226 255
204 226 255
204 226 255
204 226 255
204 226 255
204 226 255
204 226 255
204 226 255
204 226 255
204 226 255
205 226 255
205 226 255
205 226 255
205 226 255
205 226 255
205 226 255
205 226 255
205 226 255
205 226 255
205 226 255
205 226 255
205 226 255
205 226 255
205 226 255
205 226 255
205 226 255
205 227 255
205 227 255
205 227 255
205 227 255
205 227 255
205 227 255
205 227 255
205 227 255
205 227 255
205 227 255
205 227 255
205 227 255
205 227 255
205 227 255
205 227 255
206 227 255
206 227 255
206 227 255
206 227 255
206 227 255
206 227 255
206 227 255
206 227 255
206 227 255
206 227 255
206 227 255
206 227 255
206 227 255
206 227 255
206 227 255
206 227 255
206 227 255
206 227 255
206 227 255
206 227 255
206 227 255
207 227 255
207 227 255
207 227 255
207 227 255
207 228 255
207 228 255
207 228 255
207 228 255
207 228 255
207 228 255
207 228 255
207 228 255
207 228 255
207 228 255
207 228 255
207 228 255
207 228 255
207 228 255
207 228 255
208 228 255
208 228 255
208 228 255
208 228 255
208 228 255
208 228 255
208 228 255
208 228 255
200 216 235
174 176 168
152 139 87
163 152 95
146 133 81
151 142 90
162 152 95
157 149 96
156 145 92
154 147 95
158 152 99
156 146 93
154 145 93
164 156 100
161 154 98
152 146 96
151 144 92
164 155 98
162 156 101
155 145 89
154 146 94
157 146 88
157 151 97
161 155 100
165 159 102
156 148 97
158 148 93
159 151 98
168 162 104
163 157 100
157 148 94
164 157 101
161 154 99
162 154 99
165 158 103
161 156 102
159 151 96
164 157 100
158 149 95
165 159 104
158 152 99
163 158 103
161 154 100
165 158 101
159 151 98
162 153 96
165 159 103
159 151 97
160 151 95
158 151 98
164 156 101
160 152 98
165 155 97
162 152 96
167 158 100
162 154 99
155 148 96
163 156 100
161 153 99
161 151 95
164 155 99
158 150 95
169 160 101
166 160 104
163 155 100
158 151 96
162 158 101
158 148 95
152 144 88
161 148 90
155 147 93
165 158 102
164 155 96
155 144 90
161 154 98
166 156 95
160 152 96
152 142 87
160 150 93
160 152 95
157 148 93
155 146 91
161 153 90
154 143 87
163 153 97
159 147 90
157 148 91
151 141 85
159 148 89
158 147 90
160 150 94
161 148 89
163 152 95
159 151 93
154 142 88
152 140 81
156 146 89
157 144 87
153 139 81
154 144 84
161 151 92
155 141 80
149 134 75
144 132 77
205 226 255
204 226 255
203 226 255
203 225 255
202 225 255
202 225 255
201 224 255
201 224 255
200 224 255
200 224 255
199 223 255
199 223 255
198 223 255
198 223 255
197 222 255
197 222 255
197 222 255
196 222 255
196 222 255
195 221 255
195 221 255
195 221 255
194 221 255
194 221 255
194 220 255
193 220 255
193 220 255
193 220 255
192 220 255
192 220 255
192 219 255
191 219 255
191 219 255
191 219 255
190 219 255
190 219 255
190 218 255
189 218 255
189 218 255
189 218 255
189 218 255
188 218 255
188 218 255
188 217 255
188 217 255
187 217 255
187 217 255
187 217 255
187 217 255
186 217 255
186 217 255
186 216 255
186 216 255
185 216 255
185 216 255
185 216 255
185 216 255
185 216 255
184 216 255
184 216 255
184 215 255
184 215 255
184 215 255
184 215 255
183 215 255
183 215 255
183 215 255
183 215 255
183 215 255
183 215 255
183 215 255
183 215 255
183 215 255
183 215 255
182 215 255
182 215 255
183 215 255
182 215 255
183 215 255
183 215 255
183 215 255
183 215 255
183 215 255
183 215 255
183 215 255
183 215 255
184 215 255
184 215 255
184 216 255
185 216 255
185 216 255
185 216 255
186 216 255
186 217 255
187 217 255
187 217 255
188 218 255
189 218 255
190 218 255
191 219 255
193 220 255
194 221 255
196 222 255
198 223 255
202 225 255
206 227 255
208 228 255
208 228 255
208 228 255
208 228 255
208 228 255
208 228 255
208 228 255
208 228 255
208 228 255
208 228 255
207 228 255
207 228 255
207 228 255
207 228 255
207 228 255
207 228 255
207 228 255
207 228 255
207 228 255
207 228 255
207 228 255
207 228 255
207 228 255
207 228 255
207 228 255
207 227 255
207 227 255
207 227 255
207 227 255
206 227 255
206 227 255
206 227 255
206 227 255
206 227 255
206 227 255
206 227 255
206 227 255
206 227 255
206 227 255
206 227 255
206 227 255
206 227 255
206 227 255
206 227 255
206 227 255
206 227 255
206 227 255
206 227 255
206 227 255
206 227 255
206 227 255
206 227 255
205 227 255
205 227 255
205 227 255
205 227 255
205 227 255
205 227 255
205 227 255
205 227 255
205 227 255
205 227 255
205 227 255
205 227 255
205 227 255
205 227 255
205 227 255
205 227 255
205 227 255
205 227 255
205 226 255
205 226 255
205 226 255
205 226 255
205 226 255
205 226 255
205 226 255
205 226 255
205 226 255
205 226 255
205 226 255
205 226 255
205 226 255
205 226 255
205 226 255
205 226 255
205 226 255
205 226 255
205 226 255
205 226 255
205 226 255
205 226 255
205 226 255
205 226 255
205 226 255
205 226 255
205 226 255
205 226 255
205 226 255
205 226 255
205 226 255
205 226 255
205 226 255
205 226 255
205 226 255
205 226 255
205 226 255
205 226 255
205 226 255
205 226 255
205 226 255
205 226 255
205 226 255
205 226 255
205 226 255
205 226 255
205 226 255
205 227 255
205 227 255
205 227 255
205 227 255
205 227 255
205 227 255
205 227 255
205 227 255
205 227 255
205 227 255
205 227 255
205 227 255
205 227 255
205 227 255
205 227 255
205 227 255
205 227 255
205 227 255
205 227 255
206 227 255
206 227 255
206 227 255
206 227 255
206 227 255
206 227 255
206 227 255
206 227 255
206 227 255
206 227 255
206 227 255
206 227 255
206 227 255
206 227 255
206 227 255
206 227 255
206 227 255
206 227 255
206 227 255
206 227 255
206 227 255
206 227 255
207 227 255
207 227 255
207 227 255
207 227 255
207 227 255
207 227 255
207 228 255
207 228 255
207 228 255
207 228 255
207 228 255
207 228 255
207 228 255
207 228 255
207 228 255
207 228 255
207 228 255
207 228 255
207 228 255
207 228 255
208 228 255
208 228 255
208 228 255
208 228 255
208 228 255
208 228 255
208 228 255
208 228 255
208 228 255
207 226 253
186 198 210
167 166 141
152 138 83
156 147 92
155 143 89
164 157 101
153 145 92
166 160 104
160 152 96
154 147 95
152 141 86
162 157 102
156 148 95
158 151 97
153 144 92
159 148 90
157 148 95
163 155 99
164 161 107
163 156 101
161 156 101
162 157 103
159 151 97
158 148 92
159 153 99
155 150 97
159 153 99
160 152 94
160 155 101
159 152 97
158 152 98
158 148 94
154 146 94
163 154 98
159 153 99
158 150 95
164 157 102
163 156 100
166 159 102
161 154 99
158 150 96
159 152 96
169 164 108
159 151 96
161 155 100
162 156 102
168 160 103
158 150 94
161 154 101
167 159 100
165 156 100
166 160 104
160 151 96
162 154 98
161 156 103
160 154 99
162 156 101
160 154 99
166 158 101
168 158 99
164 156 100
161 153 98
166 158 101
154 147 93
161 158 104
169 161 103
161 153 98
169 161 104
160 153 99
168 161 103
159 150 94
163 158 102
159 151 96
164 155 90
158 146 89
162 154 94
149 140 88
163 157 101
161 153 94
148 135 82
155 147 92
162 152 95
157 148 89
166 158 97
166 157 99
158 146 89
154 142 88
165 157 100
168 159 98
150 138 87
166 154 91
164 153 88
160 147 88
159 149 89
161 152 92
159 148 89
154 140 83
154 137 78
155 142 86
152 138 81
140 124 71
157 146 85
160 145 86
161 147 86
156 146 88
162 152 88
203 226 255
203 225 255
202 225 255
202 225 255
201 225 255
201 224 255
200 224 255
200 224 255
199 224 255
199 223 255
198 223 255
198 223 255
198 223 255
197 222 255
197 222 255
197 222 255
196 222 255
196 222 255
195 221 255
195 221 255
195 221 255
194 221 255
194 221 255
194 220 255
193 220 255
193 220 255
193 220 255
192 220 255
192 220 255
192 219 255
191 219 255
191 219 255
191 219 255
190 219 255
190 219 255
190 218 255
190 218 255
189 218 255
189 218 255
189 218 255
188 218 255
188 218 255
188 217 255
188 217 255
187 217 255
187 217 255
187 217 255
187 217 255
186 217 255
186 217 255
186 216 255
186 216 255
185 216 255
185 216 255
185 216 255
185 216 255
185 216 255
184 216 255
184 216 255
184 215 255
184 215 255
184 215 255
183 215 255
183 215 255
183 215 255
183 215 255
183 215 255
183 215 255
183 215 255
182 215 255
182 215 255
182 215 255
182 215 255
182 214 255
182 214 255
182 214 255
182 214 255
182 214 255
182 214 255
182 214 255
182 214 255
182 214 255
182 214 255
182 215 255
182 215 255
182 215 255
183 215 255
183 215 255
183 215 255
183 215 255
184 215 255
184 215 255
184 216 255
185 216 255
185 216 255
186 216 255
186 217 255
187 217 255
188 217 255
189 218 255
189 218 255
191 219 255
192 220 255
193 220 255
196 221 255
198 223 255
202 225 255
205 227 255
208 228 255
208 228 255
208 228 255
208 228 255
208 228 255
208 228 255
208 228 255
208 228 255
208 228 255
208 228 255
208 228 255
208 228 255
208 228 255
207 228 255
207 228 255
207 228 255
207 228 255
207 228 255
207 228 255
207 228 255
207 228 255
207 228 255
207 228 255
207 228 255
207 228 255
207 228 255
207 228 255
207 227 255
207 227 255
207 227 255
207 227 255
207 227 255
207 227 255
206 227 255
206 227 255
206 227 255
206 227 255
206 227 255
206 227 255
206 227 255
206 227 255
206 227 255
206 227 255
206 227 255
206 227 255
206 227 255
206 227 255
206 227 255
206 227 255
206 227 255
206 227 255
206 227 255
206 227 255
206 227 255
206 227 255
206 227 255
206 227 255
205 227 255
205 227 255
205 227 255
205 227 255
205 227 255
205 227 255
205 227 255
205 227 255
205 227 255
205 227 255
205 227 255
205 227 255
205 227 255
205 227 255
205 227 255
205 227 255
205 227 255
205 227 255
205 227 255
205 227 255
205 227 255
205 227 255
205 227 255
205 227 255
205 226 255
205 226 255
205 226 255
205 226 255
205 226 255
205 226 255
205 226 255
205 226 255
205 226 255
205 226 255
205 226 255
205 226 255
205 226 255
205 226 255
205 226 255
205 226 255
205 226 255
205 226 255
205 226 255
205 226 255
205 226 255
205 227 255
205 227 255
205 227 255
205 227 255
205 227 255
205 227 255
205 227 255
205 227 255
205 227 255
205 227 255
205 227 255
205 227 255
205 227 255
205 227 255
205 227 255
205 227 255
205 227 255
205 227 255
205 227 255
205 227 255
205 227 255
205 227 255
205 227 255
205 227 255
205 227 255
206 227 255
206 227 255
206 227 255
206 227 255
206 227 255
206 227 255
206 227 255
206 227 255
206 227 255
206 227 255
206 227 255
206 227 255
206 227 255
206 227 255
206 227 255
206 227 255
206 227 255
206 227 255
206 227 255
206 227 255
206 227 255
206 227 255
206 227 255
206 227 255
207 227 255
207 227 255
207 227 255
207 227 255
207 227 255
207 227 255
207 228 255
207 228 255
207 228 255
207 228 255
207 228 255
207 228 255
207 228 255
207 228 255
207 228 255
207 228 255
207 228 255
207 228 255
207 228 255
207 228 255
208 228 255
208 228 255
208 228 255
208 228 255
208 228 255
208 228 255
208 228 255
208 228 255
208 228 255
208 228 255
208 228 255
208 228 255
208 228 255
182 192 201
158 151 117
153 141 87
159 149 93
154 144 91
153 144 92
154 147 95
154 144 92
155 143 88
151 142 91
160 153 99
148 138 86
161 157 103
161 155 102
156 151 99
164 159 103
153 145 92
152 140 86
156 150 96
160 155 101
157 152 100
161 155 100
158 150 98
162 154 97
162 158 104
156 148 93
166 160 103
157 154 102
148 137 85
155 148 96
152 141 88
166 159 101
165 161 105
161 153 98
156 147 93
159 150 98
160 154 100
166 158 101
167 162 106
155 148 93
160 152 98
161 155 101
160 151 98
168 161 104
167 161 104
159 151 96
159 147 90
168 163 106
166 160 104
157 146 92
164 157 101
163 158 101
161 155 100
167 161 105
163 157 101
167 160 104
168 161 103
161 154 99
160 155 101
158 153 99
168 157 99
168 162 105
162 158 105
166 162 106
160 153 99
158 151 95
161 153 99
159 150 90
157 146 91
163 154 97
157 147 93
157 149 89
167 160 103
162 153 94
167 158 98
158 147 89
168 160 102
168 161 105
165 157 99
158 149 95
161 150 92
162 154 96
164 157 102
166 159 100
165 154 94
165 153 93
168 159 98
162 151 93
159 148 92
171 161 99
161 154 96
167 159 100
161 149 89
156 148 89
169 157 96
155 143 88
158 149 93
161 152 93
154 143 86
162 150 93
154 144 88
160 148 88
160 150 92
156 144 87
149 136 81
157 143 84
162 150 92
165 155 93
203 225 255
202 225 255
202 225 255
201 225 255
201 224 255
200 224 255
200 224 255
199 224 255
199 223 255
198 223 255
198 223 255
198 223 255
197 222 255
197 222 255
197 222 255
196 222 255
196 222 255
195 221 255
195 221 255
195 221 255
194 221 255
194 221 255
194 221 255
193 220 255
193 220 255
193 220 255
192 220 255
192 220 255
192 219 255
191 219 255
191 219 255
191 219 255
191 219 255
190 219 255
190 219 255
190 218 255
189 218 255
189 218 255
189 218 255
189 218 255
188 218 255
188 218 255
188 217 255
187 217 255
187 217 255
187 217 255
187 217 255
186 217 255
186 217 255
186 216 255
186 216 255
185 216 255
185 216 255
185 216 255
185 216 255
185 216 255
184 216 255
184 216 255
184 215 255
184 215 255
184 215 255
183 215 255
183 215 255
183 215 255
183 215 255
183 215 255
183 215 255
182 215 255
182 215 255
182 215 255
182 214 255
182 214 255
182 214 255
182 214 255
182 214 255
182 214 255
182 214 255
182 214 255
181 214 255
181 214 255
181 214 255
182 214 255
182 214 255
182 214 255
182 214 255
182 214 255
182 214 255
182 214 255
182 215 255
182 215 255
183 215 255
183 215 255
183 215 255
183 215 255
184 215 255
184 216 255
185 216 255
185 216 255
186 216 255
187 217 255
187 217 255
188 218 255
189 218 255
190 219 255
192 219 255
193 220 255
195 221 255
197 222 255
201 225 255
206 227 255
208 228 255
208 228 255
208 228 255
208 228 255
208 228 255
208 228 255
208 228 255
208 228 255
208 228 255
208 228 255
208 228 255
208 228 255
208 228 255
208 228 255
208 228 255
207 228 255
207 228 255
207 228 255
207 228 255
207 228 255
207 228 255
207 228 255
207 228 255
207 228 255
207 228 255
207 228 255
207 228 255
207 228 255
207 228 255
207 228 255
207 228 255
207 227 255
207 227 255
207 227 255
207 227 255
207 227 255
206 227 255
206 227 255
206 227 255
206 227 255
206 227 255
206 227 255
206 227 255
206 227 255
206 227 255
206 227 255
206 227 255
206 227 255
206 227 255
206 227 255
206 227 255
206 227 255
206 227 255
206 227 255
206 227 255
206 227 255
206 227 255
206 227 255
206 227 255
206 227 255
206 227 255
206 227 255
206 227 255
206 227 255
205 227 255
205 227 255
205 227 255
205 227 255
205 227 255
205 227 255
205 227 255
205 227 255
205 227 255
205 227 255
205 227 255
205 227 255
205 227 255
205 227 255
205 227 255
205 227 255
205 227 255
205 227 255
205 227 255
205 227 255
205 227 255
205 227 255
205 227 255
205 227 255
199 221 252
201 223 253
203 225 254
201 223 253
203 225 254
205 227 255
205 227 255
205 227 255
205 227 255
205 227 255
205 227 255
205 227 255
205 227 255
205 227 255
205 227 255
205 227 255
205 227 255
205 227 255
205 227 255
205 227 255
205 227 255
205 227 255
205 227 255
205 227 255
205 227 255
205 227 255
205 227 255
205 227 255
205 227 255
206 227 255
206 227 255
206 227 255
206 227 255
206 227 255
206 227 255
206 227 255
206 227 255
206 227 255
206 227 255
206 227 255
206 227 255
206 227 255
206 227 255
206 227 255
206 227 255
206 227 255
206 227 255
206 227 255
206 227 255
206 227 255
206 227 255
206 227 255
206 227 255
206 227 255
206 227 255
206 227 255
207 227 255
207 227 255
207 227 255
207 227 255
207 227 255
207 228 255
207 228 255
207 228 255
207 228 255
207 228 255
207 228 255
207 228 255
207 228 255
207 228 255
207 228 255
207 228 255
207 228 255
207 228 255
207 228 255
207 228 255
207 228 255
208 228 255
208 228 255
208 228 255
208 228 255
208 228 255
208 228 255
208 228 255
208 228 255
208 228 255
208 228 255
208 228 255
208 228 255
208 228 255
208 228 255
202 219 241
176 177 166
154 144 102
150 138 86
153 142 89
154 145 92
155 144 89
149 138 85
152 143 90
151 141 89
151 143 93
154 146 94
161 156 102
157 151 99
159 153 100
158 153 101
163 158 103
157 149 95
159 154 100
159 151 96
160 153 98
152 144 92
161 155 102
159 152 98
166 161 105
157 151 98
161 157 104
157 151 98
165 158 101
164 158 101
163 158 103
164 155 99
168 163 106
153 146 93
166 157 101
159 153 99
161 153 97
161 157 104
158 151 98
166 157 100
161 157 103
162 158 104
165 159 104
162 153 98
167 161 104
165 155 96
165 158 103
163 156 100
166 159 102
163 158 103
164 156 101
167 161 105
163 154 97
156 146 92
165 159 102
172 165 107
169 162 103
167 160 102
154 145 91
155 145 89
166 156 98
163 157 102
163 156 100
159 148 92
167 160 104
169 160 103
167 160 102
162 154 99
160 154 99
167 158 100
162 151 95
161 155 98
162 151 95
164 153 97
171 164 105
161 152 94
165 155 98
164 155 96
157 149 96
164 157 98
160 154 100
159 149 92
162 154 99
158 147 91
166 155 96
165 158 100
164 156 97
162 151 90
163 154 97
160 152 97
162 155 98
163 155 99
155 143 86
155 142 83
159 149 93
161 150 90
156 149 91
164 155 97
160 148 93
154 143 86
168 158 99
159 149 92
165 154 94
162 149 88
158 147 89
164 154 95
159 147 87
156 144 85
164 153 92
158 147 89
164 153 94
202 225 255
202 225 255
201 224 255
201 224 255
200 224 255
200 224 255
199 223 255
199 223 255
199 223 255
198 223 255
198 223 255
197 222 255
197 222 255
197 222 255
196 222 255
196 222 255
196 221 255
195 221 255
195 221 255
195 221 255
194 221 255
194 221 255
194 220 255
193 220 255
193 220 255
193 220 255
192 220 255
192 220 255
192 219 255
191 219 255
191 219 255
191 219 255
190 219 255
190 219 255
190 219 255
190 218 255
189 218 255
189 218 255
189 218 255
189 218 255
188 218 255
188 218 255
188 217 255
187 217 255
187 217 255
187 217 255
187 217 255
186 217 255
186 217 255
186 216 255
186 216 255
185 216 255
185 216 255
185 216 255
185 216 255
185 216 255
184 216 255
184 216 255
184 215 255
184 215 255
184 215 255
183 215 255
183 215 255
183 215 255
183 215 255
183 215 255
182 215 255
182 215 255
182 215 255
182 214 255
182 214 255
182 214 255
182 214 255
182 214 255
181 214 255
181 214 255
181 214 255
181 214 255
181 214 255
181 214 255
181 214 255
181 214 255
181 214 255
181 214 255
181 214 255
181 214 255
181 214 255
181 214 255
182 214 255
182 214 255
182 214 255
182 215 255
182 215 255
183 215 255
183 215 255
183 215 255
184 215 255
184 216 255
185 216 255
185 216 255
186 216 255
186 217 255
187 217 255
188 218 255
189 218 255
190 219 255
191 219 255
193 220 255
195 221 255
197 222 255
200 224 255
205 227 255
208 228 255
208 228 255
208 228 255
208 228 255
208 228 255
208 228 255
208 228 255
208 228 255
208 228 255
208 228 255
208 228 255
208 228 255
208 228 255
208 228 255
208 228 255
208 228 255
208 228 255
208 228 255
207 228 255
207 228 255
207 228 255
207 228 255
207 228 255
207 228 255
207 228 255
207 228 255
207 228 255
207 228 255
207 228 255
207 228 255
207 228 255
207 228 255
207 228 255
207 228 255
207 227 255
207 227 255
207 227 255
207 227 255
207 227 255
207 227 255
206 227 255
206 227 255
206 227 255
206 227 255
206 227 255
206 227 255
206 227 255
206 227 255
206 227 255
206 227 255
206 227 255
206 227 255
206 227 255
206 227 255
206 227 255
206 227 255
206 227 255
206 227 255
206 227 255
206 227 255
206 227 255
206 227 255
206 227 255
206 227 255
206 227 255
206 227 255
206 227 255
206 227 255
206 227 255
206 227 255
206 227 255
206 227 255
206 227 255
206 227 255
205 227 255
205 227 255
205 227 255
205 227 255
186 208 242
171 193 231
157 180 224
127 152 207
96 125 189
91 121 186
78 111 186
61 98 175
62 99 177
62 99 181
61 98 175
62 99 179
68 103 179
96 125 189
92 121 189
103 131 193
130 155 207
146 170 217
171 193 231
186 207 241
205 227 255
205 227 255
205 227 255
205 227 255
205 227 255
206 227 255
206 227 255
206 227 255
206 227 255
206 227 255
206 227 255
206 227 255
206 227 255
206 227 255
206 227 255
206 227 255
206 227 255
206 227 255
206 227 255
206 227 255
206 227 255
206 227 255
206 227 255
206 227 255
206 227 255
206 227 255
206 227 255
206 227 255
206 227 255
206 227 255
206 227 255
206 227 255
206 227 255
206 227 255
206 227 255
206 227 255
206 227 255
206 227 255
207 227 255
207 227 255
207 227 255
207 227 255
207 227 255
207 227 255
207 228 255
207 228 255
207 228 255
207 228 255
207 228 255
207 228 255
207 228 255
207 228 255
207 228 255
207 228 255
207 228 255
207 228 255
207 228 255
207 228 255
207 228 255
207 228 255
208 228 255
208 228 255
208 228 255
208 228 255
208 228 255
208 228 255
208 228 255
208 228 255
208 228 255
208 228 255
208 228 255
208 228 255
208 228 255
208 228 255
208 228 255
208 228 255
208 228 255
203 221 246
184 192 203
163 155 117
160 150 93
158 147 92
154 144 88
156 142 85
154 144 91
157 147 92
157 147 93
153 146 94
159 155 103
156 148 95
161 153 99
155 144 91
162 154 99
167 161 106
156 151 98
160 153 100
158 152 99
163 156 101
161 155 100
159 153 100
163 157 101
160 153 97
158 149 95
162 156 100
164 156 101
163 156 101
162 153 98
157 152 99
161 154 99
160 153 98
167 162 106
164 159 105
164 158 103
165 160 105
166 163 107
159 152 100
162 153 97
166 161 105
160 153 99
166 161 106
166 162 107
164 158 103
161 153 98
161 155 100
156 151 99
162 153 96
162 155 100
169 162 104
161 154 99
166 160 103
166 159 103
159 150 96
155 145 90
165 158 103
160 147 88
168 162 106
168 163 106
162 156 101
167 158 100
165 157 100
168 160 101
163 155 98
166 158 101
161 152 96
168 161 103
168 160 103
164 160 104
166 156 98
157 148 91
167 160 103
162 156 100
162 155 98
167 160 100
164 159 99
168 159 101
164 154 96
166 159 102
162 156 98
162 156 96
164 155 98
164 158 102
160 148 88
161 153 95
165 156 98
166 156 96
166 155 94
162 156 102
164 153 92
164 155 94
160 150 93
164 156 99
161 151 88
158 148 90
152 141 83
157 147 91
163 155 97
158 149 91
167 157 95
162 151 91
155 146 88
164 156 96
162 152 91
165 154 90
163 154 93
162 151 91
159 145 85
167 155 95
158 148 91
156 146 91
162 147 86
202 225 255
201 224 255
201 224 255
200 224 255
200 224 255
199 224 255
199 223 255
199 223 255
198 223 255
198 223 255
198 223 255
197 222 255
197 222 255
196 222 255
196 222 255
196 222 255
195 221 255
195 221 255
195 221 255
194 221 255
194 221 255
194 221 255
194 220 255
193 220 255
193 220 255
193 220 255
192 220 255
192 220 255
192 219 255
191 219 255
191 219 255
191 219 255
190 219 255
190 219 255
190 219 255
190 218 255
189 218 255
189 218 255
189 218 255
189 218 255
188 218 255
188 218 255
188 217 255
187 217 255
187 217 255
187 217 255
187 217 255
186 217 255
186 217 255
186 216 255
186 216 255
185 216 255
185 216 255
185 216 255
185 216 255
185 216 255
184 216 255
184 216 255
184 215 255
184 215 255
184 215 255
183 215 255
183 215 255
183 215 255
183 215 255
183 215 255
182 215 255
182 215 255
182 214 255
182 214 255
182 214 255
182 214 255
182 214 255
181 214 255
181 214 255
181 214 255
181 214 255
181 214 255
181 214 255
181 214 255
181 214 255
181 214 255
181 214 255
181 214 255
181 214 255
181 214 255
181 214 255
181 214 255
181 214 255
181 214 255
181 214 255
181 214 255
182 214 255
182 214 255
182 215 255
182 215 255
183 215 255
183 215 255
183 215 255
184 215 255
184 216 255
185 216 255
186 216 255
186 217 255
187 217 255
188 217 255
189 218 255
190 219 255
192 219 255
193 220 255
195 221 255
197 222 255
202 225 255
207 227 255
209 228 255
208 228 255
208 228 255
208 228 255
208 228 255
208 228 255
208 228 255
208 228 255
208 228 255
208 228 255
208 228 255
208 228 255
208 228 255
208 228 255
208 228 255
208 228 255
208 228 255
208 228 255
208 228 255
208 228 255
208 228 255
207 228 255
207 228 255
207 228 255
207 228 255
207 228 255
207 228 255
207 228 255
207 228 255
207 228 255
207 228 255
207 228 255
207 228 255
207 228 255
207 228 255
207 228 255
207 228 255
207 228 255
207 227 255
207 227 255
207 227 255
207 227 255
207 227 255
207 227 255
207 227 255
206 227 255
206 227 255
206 227 255
206 227 255
206 227 255
206 227 255
206 227 255
206 227 255
206 227 255
206 227 255
206 227 255
206 227 255
206 227 255
206 227 255
206 227 255
206 227 255
206 227 255
206 227 255
206 227 255
206 227 255
206 227 255
206 227 255
206 227 255
206 227 255
206 227 255
206 227 255
206 227 255
190 212 245
147 170 218
92 122 189
67 103 179
61 98 173
62 99 173
62 98 175
63 100 177
63 99 175
62 99 177
62 99 177
63 100 177
62 99 175
63 100 179
62 99 177
62 99 175
61 98 169
62 99 179
63 100 177
62 98 169
62 99 177
62 99 179
62 99 177
61 98 169
68 103 177
133 158 211
178 200 236
184 206 241
206 227 255
206 227 255
206 227 255
206 227 255
206 227 255
206 227 255
206 227 255
206 227 255
206 227 255
206 227 255
206 227 255
206 227 255
206 227 255
206 227 255
206 227 255
206 227 255
206 227 255
206 227 255
206 227 255
206 227 255
206 227 255
206 227 255
206 227 255
206 227 255
206 227 255
206 227 255
206 227 255
206 227 255
207 227 255
207 227 255
207 227 255
207 227 255
207 227 255
207 228 255
207 227 255
207 228 255
207 228 255
207 228 255
207 228 255
207 228 255
207 228 255
207 228 255
207 228 255
207 228 255
207 228 255
207 228 255
207 228 255
207 228 255
207 228 255
207 228 255
207 228 255
208 228 255
208 228 255
208 228 255
208 228 255
208 228 255
208 228 255
208 228 255
208 228 255
208 228 255
208 228 255
208 228 255
208 228 255
208 228 255
208 228 255
208 228 255
208 228 255
208 228 255
208 228 255
208 228 255
208 228 255
208 227 253
190 200 207
160 149 103
156 148 95
145 134 82
159 151 95
155 145 90
153 144 91
157 147 93
154 146 93
158 150 95
157 147 91
158 148 92
157 150 96
157 150 96
165 159 104
156 147 93
161 152 95
166 157 100
156 150 99
165 161 106
161 156 102
155 147 94
161 157 104
161 153 99
158 152 98
156 151 99
163 158 104
155 148 97
164 159 103
163 156 100
166 161 105
158 149 95
163 156 101
161 155 101
171 167 110
169 165 109
160 156 103
164 160 106
161 155 101
161 152 97
166 159 103
160 151 96
166 163 107
162 154 99
166 160 102
161 154 98
161 151 94
165 160 106
169 160 103
165 158 101
161 155 98
168 161 104
159 154 100
164 157 102
164 157 102
165 159 105
170 162 102
165 160 104
164 158 102
168 161 104
165 158 101
160 151 97
170 161 101
167 159 101
162 153 96
165 158 100
164 159 101
166 158 100
159 150 93
165 160 104
162 156 96
166 158 99
166 156 98
159 152 97
159 149 94
169 160 101
162 155 95
168 158 101
156 150 97
162 154 96
159 150 92
164 153 96
162 156 100
157 145 89
168 161 103
170 163 102
161 155 98
162 154 96
167 158 95
159 149 93
163 154 93
159 150 93
161 151 95
163 152 94
161 152 94
163 154 96
163 151 91
164 154 95
155 147 90
163 152 95
163 155 99
157 146 85
164 156 99
160 148 85
158 145 82
160 150 93
156 145 88
152 141 83
164 156 101
153 143 86
160 150 89
158 146 85
158 146 83
154 141 86
201 224 255
201 224 255
200 224 255
200 224 255
200 224 255
199 223 255
199 223 255
198 223 255
198 223 255
198 223 255
197 222 255
197 222 255
197 222 255
196 222 255
196 222 255
196 222 255
195 221 255
195 221 255
195 221 255
194 221 255
194 221 255
194 221 255
193 220 255
193 220 255
193 220 255
193 220 255
192 220 255
192 220 255
192 219 255
191 219 255
191 219 255
191 219 255
191 219 255
190 219 255
190 219 255
190 218 255
189 218 255
189 218 255
189 218 255
189 218 255
188 218 255
188 218 255
188 217 255
188 217 255
187 217 255
187 217 255
187 217 255
187 217 255
186 217 255
186 217 255
186 216 255
186 216 255
185 216 255
185 216 255
185 216 255
185 216 255
184 216 255
184 216 255
184 215 255
184 215 255
184 215 255
183 215 255
183 215 255
183 215 255
183 215 255
183 215 255
182 215 255
182 215 255
182 214 255
182 214 255
182 214 255
182 214 255
182 214 255
181 214 255
181 214 255
181 214 255
181 214 255
181 214 255
181 214 255
181 214 255
181 214 255
181 214 255
181 214 255
181 214 255
181 214 255
181 214 255
181 214 255
181 214 255
181 214 255
181 214 255
181 214 255
181 214 255
181 214 255
181 214 255
182 214 255
182 214 255
182 214 255
182 215 255
183 215 255
183 215 255
184 215 255
184 215 255
184 216 255
185 216 255
186 216 255
186 217 255
187 217 255
188 218 255
189 218 255
190 219 255
192 220 255
193 220 255
195 221 255
198 223 255
202 225 255
207 228 255
209 229 255
209 229 255
209 228 255
208 228 255
208 228 255
208 228 255
208 228 255
208 228 255
208 228 255
208 228 255
208 228 255
208 228 255
208 228 255
208 228 255
208 228 255
208 228 255
208 228 255
208 228 255
208 228 255
208 228 255
208 228 255
208 228 255
208 228 255
208 228 255
208 228 255
207 228 255
207 228 255
207 228 255
207 228 255
207 228 255
207 228 255
207 228 255
207 228 255
207 228 255
207 228 255
207 228 255
207 228 255
207 228 255
207 228 255
207 228 255
207 228 255
207 228 255
207 228 255
207 227 255
207 227 255
207 227 255
207 227 255
207 227 255
207 227 255
207 227 255
207 227 255
206 227 255
206 227 255
206 227 255
206 227 255
206 227 255
206 227 255
206 227 255
206 227 255
206 227 255
206 227 255
206 227 255
206 227 255
206 227 255
206 227 255
206 227 255
200 222 252
157 180 223
133 158 207
68 103 173
61 99 179
62 99 179
61 98 169
62 99 179
62 99 173
62 99 167
63 99 175
63 100 179
63 100 179
62 99 175
62 99 179
63 99 167
61 98 173
62 99 179
61 98 175
61 98 179
61 98 173
62 99 175
62 98 172
62 98 173
62 99 174
62 99 177
63 100 177
64 100 181
61 97 171
62 98 177
63 99 177
62 99 175
83 114 179
124 149 204
166 188 226
200 222 252
206 227 255
206 227 255
206 227 255
206 227 255
206 227 255
206 227 255
206 227 255
206 227 255
206 227 255
206 227 255
206 227 255
206 227 255
206 227 255
206 227 255
206 227 255
206 227 255
207 227 255
207 227 255
207 227 255
207 227 255
207 227 255
207 227 255
207 227 255
207 228 255
207 228 255
207 228 255
207 228 255
207 228 255
207 228 255
207 228 255
207 228 255
207 228 255
207 228 255
207 228 255
207 228 255
207 228 255
207 228 255
207 228 255
207 228 255
207 228 255
207 228 255
207 228 255
208 228 255
208 228 255
208 228 255
208 228 255
208 228 255
208 228 255
208 228 255
208 228 255
208 228 255
208 228 255
208 228 255
208 228 255
208 228 255
208 228 255
208 228 255
208 228 255
208 228 255
208 228 255
208 228 255
208 228 255
208 228 255
209 228 255
209 229 255
209 229 255
195 208 222
163 160 140
154 143 91
158 146 88
157 149 96
145 133 83
150 141 89
156 147 94
151 139 87
149 135 83
150 144 94
158 148 92
159 149 94
156 149 98
163 154 98
152 142 90
155 147 95
163 156 102
167 162 105
162 154 98
162 154 98
158 152 100
158 146 91
164 159 104
167 161 105
164 157 102
163 157 102
162 156 102
163 159 103
160 155 102
162 156 102
169 164 106
163 159 104
165 157 99
165 158 103
161 156 102
163 159 105
162 155 99
166 158 103
167 162 105
167 161 105
159 155 102
165 158 103
170 162 104
166 160 104
165 159 104
169 161 105
159 152 98
166 161 104
168 163 106
163 156 100
158 151 97
162 153 98
164 157 99
166 160 102
158 154 101
170 162 101
166 160 103
172 164 106
164 155 98
166 159 100
166 157 98
169 164 107
169 162 104
165 157 101
164 156 100
168 159 99
163 157 102
170 165 107
166 158 96
161 149 93
166 157 97
158 149 95
172 166 109
172 166 107
156 147 91
162 156 99
161 152 92
165 157 98
171 164 105
170 163 104
167 159 101
165 157 98
168 161 100
170 163 103
163 155 96
163 155 98
165 158 97
164 154 93
159 150 90
159 151 95
161 150 92
163 154 96
158 148 89
163 156 99
160 152 97
169 160 99
164 156 99
165 157 98
167 159 99
157 150 92
163 154 95
163 152 91
159 149 86
161 152 96
156 147 91
155 142 85
168 160 98
154 144 85
164 152 91
167 158 99
164 154 95
161 149 87
161 152 87
161 152 95
158 147 83
201 224 255
201 224 255
200 224 255
200 224 255
199 224 255
199 223 255
199 223 255
198 223 255
198 223 255
198 223 255
197 222 255
197 222 255
197 222 255
196 222 255
196 222 255
196 222 255
195 221 255
195 221 255
195 221 255
194 221 255
194 221 255
194 221 255
194 220 255
193 220 255
193 220 255
193 220 255
192 220 255
192 220 255
192 219 255
191 219 255
191 219 255
191 219 255
191 219 255
190 219 255
190 219 255
190 218 255
190 218 255
189 218 255
189 218 255
189 218 255
188 218 255
188 218 255
188 217 255
188 217 255
187 217 255
187 217 255
187 217 255
187 217 255
186 217 255
186 217 255
186 216 255
186 216 255
185 216 255
185 216 255
185 216 255
185 216 255
185 216 255
184 216 255
184 216 255
184 215 255
184 215 255
184 215 255
183 215 255
183 215 255
183 215 255
183 215 255
183 215 255
182 215 255
182 215 255
182 214 255
182 214 255
182 214 255
182 214 255
181 214 255
181 214 255
181 214 255
181 214 255
181 214 255
181 214 255
181 214 255
181 214 255
181 214 255
181 214 255
181 214 255
181 214 255
181 214 255
181 214 255
181 214 255
181 214 255
181 214 255
181 214 255
181 214 255
181 214 255
181 214 255
181 214 255
181 214 255
182 214 255
182 214 255
182 214 255
182 215 255
183 215 255
183 215 255
184 215 255
184 215 255
185 216 255
185 216 255
186 216 255
187 217 255
187 217 255
188 218 255
189 218 255
191 219 255
192 220 255
194 221 255
196 222 255
199 223 255
204 226 255
208 228 255
209 229 255
209 229 255
209 229 255
209 229 255
209 229 255
209 228 255
208 228 255
208 228 255
208 228 255
208 228 255
208 228 255
208 228 255
208 228 255
208 228 255
208 228 255
208 228 255
208 228 255
208 228 255
208 228 255
208 228 255
208 228 255
208 228 255
208 228 255
208 228 255
208 228 255
208 228 255
208 228 255
208 228 255
208 228 255
207 228 255
207 228 255
207 228 255
207 228 255
207 228 255
207 228 255
207 228 255
207 228 255
207 228 255
207 228 255
207 228 255
207 228 255
207 228 255
207 228 255
207 228 255
207 228 255
207 228 255
207 228 255
207 228 255
207 228 255
207 227 255
207 227 255
207 227 255
207 227 255
207 227 255
207 227 255
207 227 255
206 227 255
207 227 255
206 227 255
206 227 255
206 227 255
206 227 255
178 200 237
128 153 207
73 106 177
63 100 179
61 99 177
62 99 175
62 99 179
62 99 175
62 99 181
63 100 177
62 98 169
62 99 173
62 99 179
62 99 175
62 99 167
62 99 177
62 98 163
62 99 175
63 100 177
62 99 175
61 97 163
63 100 181
62 99 177
63 99 175
62 99 173
61 98 170
62 98 171
62 99 177
63 99 173
62 99 173
63 99 179
63 99 172
62 98 169
61 98 177
63 100 181
62 99 177
63 99 175
74 107 178
149 173 218
176 198 236
206 227 255
206 227 255
206 227 255
206 227 255
206 227 255
207 227 255
207 227 255
207 227 255
207 227 255
207 227 255
207 227 255
207 227 255
207 227 255
207 228 255
207 228 255
207 228 255
207 228 255
207 228 255
207 228 255
207 228 255
207 228 255
207 228 255
207 228 255
207 228 255
207 228 255
207 228 255
207 228 255
207 228 255
207 228 255
207 228 255
207 228 255
207 228 255
207 228 255
207 228 255
208 228 255
208 228 255
208 228 255
208 228 255
208 228 255
208 228 255
208 228 255
208 228 255
208 228 255
208 228 255
208 228 255
208 228 255
208 228 255
208 228 255
208 228 255
208 228 255
208 228 255
208 228 255
208 228 255
208 228 255
208 228 255
209 228 255
209 228 255
209 229 255
209 229 255
209 229 255
209 229 255
209 229 255
200 215 232
173 175 166
150 134 79
146 136 87
155 148 95
149 139 88
158 150 97
164 160 107
156 143 86
157 151 99
159 150 93
157 148 94
156 146 91
159 153 99
159 153 100
157 148 95
158 149 93
156 150 98
161 153 99
164 159 105
160 154 100
163 159 105
162 157 102
159 155 102
159 152 100
163 156 101
160 152 97
163 159 105
157 148 94
164 159 104
162 157 103
163 156 100
167 162 106
161 155 100
155 149 97
162 158 105
167 160 102
165 161 105
162 156 103
168 164 108
166 160 105
160 153 99
166 161 104
166 161 106
161 155 100
169 164 106
161 156 102
162 156 102
170 163 105
166 159 103
158 152 97
160 152 97
157 152 97
165 159 103
166 159 100
164 158 101
162 155 101
164 160 107
160 155 101
169 163 105
168 161 104
169 164 107
166 159 103
169 162 104
163 157 102
168 162 103
165 158 99
166 159 102
162 155 99
169 162 103
168 159 100
170 165 109
163 154 98
163 155 96
169 161 102
164 158 101
171 164 106
157 147 91
168 161 102
168 160 99
168 160 99
161 152 96
164 152 93
167 159 100
166 158 99
162 157 93
165 158 102
165 158 98
169 163 105
168 159 99
162 152 93
165 155 95
163 154 93
167 158 96
167 158 97
168 161 102
158 148 92
166 158 95
158 147 86
162 152 93
166 156 99
171 161 99
167 159 100
157 147 87
156 144 85
165 156 98
160 149 87
157 146 87
171 160 97
162 153 94
161 152 94
161 151 89
160 148 92
159 149 93
160 150 88
160 149 91
158 149 93
166 155 90
201 224 255
200 224 255
200 224 255
200 224 255
199 223 255
199 223 255
199 223 255
198 223 255
198 223 255
198 223 255
197 222 255
197 222 255
197 222 255
196 222 255
196 222 255
196 222 255
195 221 255
195 221 255
195 221 255
194 221 255
194 221 255
194 221 255
194 220 255
193 220 255
193 220 255
193 220 255
192 220 255
192 220 255
192 220 255
192 219 255
191 219 255
191 219 255
191 219 255
190 219 255
190 219 255
190 219 255
190 218 255
189 218 255
189 218 255
189 218 255
189 218 255
188 218 255
188 218 255
188 217 255
188 217 255
187 217 255
187 217 255
187 217 255
187 217 255
186 217 255
186 217 255
186 216 255
186 216 255
185 216 255
185 216 255
185 216 255
185 216 255
185 216 255
184 216 255
184 216 255
184 215 255
184 215 255
184 215 255
183 215 255
183 215 255
183 215 255
183 215 255
183 215 255
182 215 255
182 215 255
182 214 255
182 214 255
182 214 255
182 214 255
181 214 255
181 214 255
181 214 255
181 214 255
181 214 255
181 214 255
181 214 255
181 214 255
181 214 255
181 214 255
181 214 255
181 214 255
181 214 255
181 214 255
181 214 255
181 214 255
181 214 255
181 214 255
181 214 255
181 214 255
181 214 255
181 214 255
181 214 255
181 214 255
182 214 255
182 214 255
182 215 255
183 215 255
183 215 255
183 215 255
184 215 255
184 216 255
185 216 255
185 216 255
186 217 255
187 217 255
188 217 255
189 218 255
190 219 255
191 219 255
193 220 255
195 221 255
197 222 255
201 224 255
207 228 255
209 229 255
209 229 255
209 229 255
209 229 255
209 229 255
209 229 255
209 229 255
209 229 255
209 229 255
209 228 255
209 228 255
208 228 255
208 228 255
208 228 255
208 228 255
208 228 255
208 228 255
208 228 255
208 228 255
208 228 255
208 228 255
208 228 255
208 228 255
208 228 255
208 228 255
208 228 255
208 228 255
208 228 255
208 228 255
208 228 255
208 228 255
208 228 255
208 228 255
208 228 255
207 228 255
207 228 255
207 228 255
207 228 255
207 228 255
207 228 255
207 228 255
207 228 255
207 228 255
207 228 255
207 228 255
207 228 255
207 228 255
207 228 255
207 228 255
207 228 255
207 228 255
207 228 255
207 228 255
207 228 255
207 228 255
207 228 255
207 228 255
207 227 255
207 227 255
169 191 231
112 138 196
62 98 167
62 99 175
63 99 175
63 100 175
63 99 173
62 98 171
62 99 171
64 100 175
62 99 171
62 99 171
62 99 175
62 99 177
61 98 171
62 99 173
62 99 175
61 98 165
63 99 169
62 99 169
62 99 171
63 100 179
62 98 165
62 98 169
63 100 175
63 99 170
63 99 175
62 99 171
62 98 166
62 98 170
61 97 174
62 99 171
63 99 175
63 100 175
61 98 175
61 98 173
62 98 170
61 97 170
63 100 177
61 98 173
62 99 175
61 98 171
124 149 203
152 175 217
205 226 254
207 227 255
207 228 255
207 228 255
207 228 255
207 228 255
207 228 255
207 228 255
207 228 255
207 228 255
207 228 255
207 228 255
207 228 255
207 228 255
207 228 255
207 228 255
207 228 255
207 228 255
207 228 255
207 228 255
207 228 255
207 228 255
207 228 255
207 228 255
207 228 255
207 228 255
208 228 255
208 228 255
208 228 255
208 228 255
208 228 255
208 228 255
208 228 255
208 228 255
208 228 255
208 228 255
208 228 255
208 228 255
208 228 255
208 228 255
208 228 255
208 228 255
208 228 255
208 228 255
208 228 255
208 228 255
208 228 255
208 228 255
209 228 255
209 228 255
209 229 255
209 229 255
209 229 255
209 229 255
209 229 255
209 229 255
209 229 255
209 229 255
208 227 253
180 186 184
157 147 96
155 141 87
151 140 88
152 142 88
152 142 91
161 151 95
157 147 92
157 150 96
151 143 92
155 147 94
157 150 97
163 156 100
164 157 101
161 154 98
160 155 102
157 151 99
160 154 101
157 152 99
154 147 96
167 161 105
159 153 100
155 150 99
166 160 105
168 164 108
162 157 104
166 160 102
165 157 101
163 159 104
157 152 100
159 153 99
166 160 104
161 155 100
165 159 103
164 159 105
160 152 98
164 159 104
165 160 104
164 155 97
172 166 109
166 160 103
158 153 100
166 160 104
167 162 106
165 160 105
164 158 103
167 160 104
173 167 108
169 163 106
166 158 102
163 156 100
164 158 101
163 158 103
168 160 102
160 154 99
169 163 105
170 166 110
159 151 96
164 154 97
163 157 103
168 160 101
164 156 98
170 163 104
167 162 105
164 157 100
169 161 100
164 156 98
166 159 104
163 154 97
164 159 104
163 157 101
158 152 99
163 156 101
166 157 99
163 157 100
172 163 105
168 161 103
166 160 101
168 160 103
169 160 98
168 161 101
167 160 101
164 155 98
167 159 96
168 160 103
167 159 101
170 163 103
165 157 99
170 161 100
164 157 99
168 162 101
169 161 99
161 151 92
163 155 96
162 152 95
165 154 91
161 154 99
165 155 96
165 154 95
163 154 94
159 150 92
170 166 108
163 155 97
164 153 93
170 163 99
162 152 92
162 150 86
168 162 99
166 155 96
164 156 95
165 155 95
163 157 96
163 156 98
169 160 99
163 152 93
162 153 92
154 141 83
154 143 83
163 151 88
201 224 255
200 224 255
200 224 255
200 224 255
199 223 255
199 223 255
199 223 255
198 223 255
198 223 255
198 223 255
197 222 255
197 222 255
197 222 255
196 222 255
196 222 255
196 222 255
195 221 255
195 221 255
195 221 255
195 221 255
194 221 255
194 221 255
194 221 255
193 220 255
193 220 255
193 220 255
193 220 255
192 220 255
192 220 255
192 219 255
192 219 255
191 219 255
191 219 255
191 219 255
190 219 255
190 219 255
190 219 255
190 218 255
189 218 255
189 218 255
189 218 255
189 218 255
188 218 255
188 218 255
188 217 255
188 217 255
187 217 255
187 217 255
187 217 255
187 217 255
186 217 255
186 217 255
186 216 255
186 216 255
186 216 255
185 216 255
185 216 255
185 216 255
185 216 255
184 216 255
184 216 255
184 215 255
184 215 255
184 215 255
183 215 255
183 215 255
183 215 255
183 215 255
183 215 255
182 215 255
182 215 255
182 214 255
182 214 255
182 214 255
182 214 255
182 214 255
181 214 255
181 214 255
181 214 255
181 214 255
181 214 255
181 214 255
181 214 255
181 214 255
181 214 255
181 214 255
181 214 255
181 214 255
181 214 255
181 214 255
181 214 255
181 214 255
181 214 255
181 214 255
181 214 255
181 214 255
181 214 255
181 214 255
181 214 255
182 214 255
182 214 255
182 214 255
182 215 255
183 215 255
183 215 255
184 215 255
184 215 255
184 216 255
185 216 255
186 216 255
187 217 255
187 217 255
188 218 255
189 218 255
191 219 255
192 220 255
194 220 255
196 222 255
199 223 255
203 226 255
209 229 255
209 229 255
209 229 255
209 229 255
209 229 255
209 229 255
209 229 255
209 229 255
209 229 255
209 229 255
209 229 255
209 229 255
209 229 255
209 229 255
209 228 255
208 228 255
208 228 255
208 228 255
208 228 255
208 228 255
208 228 255
208 228 255
208 228 255
208 228 255
208 228 255
208 228 255
208 228 255
208 228 255
208 228 255
208 228 255
208 228 255
208 228 255
208 228 255
208 228 255
208 228 255
208 228 255
208 228 255
208 228 255
208 228 255
208 228 255
207 228 255
207 228 255
207 228 255
207 228 255
207 228 255
207 228 255
207 228 255
207 228 255
207 228 255
207 228 255
207 228 255
207 228 255
207 228 255
207 228 255
207 228 255
207 228 255
155 178 223
92 122 188
61 98 167
62 99 177
62 99 179
62 99 177
63 100 175
62 99 177
62 99 175
61 98 169
61 98 167
63 99 177
62 98 167
63 99 173
62 99 175
62 99 173
62 98 165
63 99 171
62 99 167
62 99 169
62 99 171
62 99 171
63 99 169
63 99 177
63 99 171
63 99 169
62 99 175
62 98 171
62 98 169
63 99 171
61 98 171
61 98 167
60 97 159
61 97 163
61 98 169
63 99 171
61 98 175
62 99 167
62 98 171
63 98 166
61 98 169
63 99 173
61 98 174
61 98 168
63 99 174
62 98 174
84 115 186
165 187 228
207 228 255
207 228 255
207 228 255
207 228 255
207 228 255
207 228 255
207 228 255
207 228 255
207 228 255
207 228 255
207 228 255
207 228 255
207 228 255
207 228 255
207 228 255
207 228 255
208 228 255
208 228 255
208 228 255
208 228 255
208 228 255
208 228 255
208 228 255
208 228 255
208 228 255
208 228 255
208 228 255
208 228 255
208 228 255
208 228 255
208 228 255
208 228 255
208 228 255
208 228 255
208 228 255
208 228 255
208 228 255
208 228 255
208 228 255
208 228 255
208 228 255
209 228 255
209 228 255
209 229 255
209 229 255
209 229 255
209 229 255
209 229 255
209 229 255
209 229 255
209 229 255
209 229 255
209 229 255
209 229 255
209 229 255
200 215 232
166 164 143
148 136 82
156 147 93
158 151 97
153 142 88
162 155 100
152 141 89
168 160 102
159 153 100
160 152 99
157 150 97
156 148 95
156 150 98
160 153 98
160 152 98
157 152 99
156 151 99
159 151 96
165 162 107
164 159 103
160 156 102
152 144 93
167 160 102
165 159 103
160 154 99
165 160 105
161 155 100
166 161 105
160 155 101
159 154 102
165 160 105
165 159 103
159 152 98
163 157 103
167 162 106
166 161 105
167 163 106
162 156 101
163 158 102
161 154 99
158 149 94
165 161 106
160 153 100
172 167 109
167 159 104
168 163 107
166 161 105
170 164 106
169 162 104
165 158 102
159 154 101
168 161 105
168 162 106
166 161 105
165 157 98
168 160 103
166 158 100
169 164 107
169 164 106
164 156 100
158 150 96
167 160 102
170 161 105
166 160 104
172 166 109
163 156 101
160 154 101
172 167 108
161 155 101
167 160 102
168 163 104
165 159 103
160 152 97
165 157 96
170 162 104
165 156 97
162 154 94
166 157 98
169 162 101
164 156 96
167 161 103
161 152 95
168 158 99
172 162 101
159 150 95
164 157 101
169 160 100
160 152 94
169 161 104
162 156 100
163 154 93
167 158 100
165 154 93
167 160 96
168 159 98
168 160 102
161 154 100
163 155 99
163 154 97
167 158 99
169 161 97
166 157 96
156 149 90
165 155 96
166 156 97
167 157 97
163 152 93
164 155 96
159 149 92
160 151 93
161 152 97
159 150 94
157 148 85
161 154 94
159 148 87
163 151 90
158 150 88
163 151 88
161 152 91
148 135 74
201 224 255
200 224 255
200 224 255
200 224 255
199 223 255
199 223 255
199 223 255
198 223 255
198 223 255
198 223 255
197 222 255
197 222 255
197 222 255
197 222 255
196 222 255
196 222 255
196 222 255
195 221 255
195 221 255
195 221 255
195 221 255
194 221 255
194 221 255
194 220 255
193 220 255
193 220 255
193 220 255
193 220 255
192 220 255
192 220 255
192 219 255
192 219 255
191 219 255
191 219 255
191 219 255
190 219 255
190 219 255
190 219 255
190 218 255
189 218 255
189 218 255
189 218 255
189 218 255
188 218 255
188 218 255
188 218 255
188 217 255
187 217 255
187 217 255
187 217 255
187 217 255
187 217 255
186 217 255
186 217 255
186 216 255
186 216 255
185 216 255
185 216 255
185 216 255
185 216 255
184 216 255
184 216 255
184 215 255
184 215 255
184 215 255
183 215 255
183 215 255
183 215 255
183 215 255
183 215 255
183 215 255
182 215 255
182 215 255
182 214 255
182 214 255
182 214 255
182 214 255
181 214 255
181 214 255
181 214 255
181 214 255
181 214 255
181 214 255
181 214 255
181 214 255
181 214 255
181 214 255
181 214 255
181 214 255
181 214 255
181 214 255
181 214 255
181 214 255
181 214 255
181 214 255
181 214 255
181 214 255
181 214 255
181 214 255
181 214 255
182 214 255
182 214 255
182 214 255
182 215 255
183 215 255
183 215 255
183 215 255
184 215 255
184 216 255
185 216 255
186 216 255
186 217 255
187 217 255
188 217 255
189 218 255
190 219 255
191 219 255
193 220 255
195 221 255
198 223 255
201 224 255
207 228 255
209 229 255
209 229 255
209 229 255
209 229 255
209 229 255
209 229 255
209 229 255
209 229 255
209 229 255
209 229 255
209 229 255
209 229 255
209 229 255
209 229 255
209 229 255
209 229 255
209 229 255
209 228 255
209 228 255
208 228 255
208 228 255
208 228 255
208 228 255
208 228 255
208 228 255
208 228 255
208 228 255
208 228 255
208 228 255
208 228 255
208 228 255
208 228 255
208 228 255
208 228 255
208 228 255
208 228 255
208 228 255
208 228 255
208 228 255
208 228 255
208 228 255
208 228 255
208 228 255
208 228 255
208 228 255
208 228 255
208 228 255
207 228 255
207 228 255
207 228 255
207 228 255
207 228 255
168 189 227
93 122 188
63 100 179
62 99 171
62 99 175
62 99 171
63 99 173
63 100 179
62 98 171
62 99 177
63 99 167
62 98 167
62 99 175
61 97 161
61 97 157
62 98 169
62 99 173
64 101 179
63 99 171
62 98 171
61 98 167
62 99 175
61 98 167
62 99 173
61 98 171
63 100 175
63 100 173
62 99 171
61 98 169
63 100 177
62 98 169
63 100 179
62 99 171
62 99 172
62 99 173
62 98 165
61 97 159
61 98 172
62 98 168
62 98 171
61 97 170
61 98 168
62 99 175
61 97 168
61 98 166
62 98 175
61 97 172
61 97 172
61 98 166
62 98 174
100 128 188
172 193 230
207 228 255
207 228 255
207 228 255
207 228 255
207 228 255
207 228 255
208 228 255
208 228 255
208 228 255
208 228 255
208 228 255
208 228 255
208 228 255
208 228 255
208 228 255
208 228 255
208 228 255
208 228 255
208 228 255
208 228 255
208 228 255
208 228 255
208 228 255
208 228 255
208 228 255
208 228 255
208 228 255
208 228 255
208 228 255
208 228 255
208 228 255
208 228 255
208 228 255
208 228 255
209 229 255
209 229 255
209 229 255
209 229 255
209 229 255
209 229 255
209 229 255
209 229 255
209 229 255
209 229 255
209 229 255
209 229 255
209 229 255
209 229 255
209 229 255
209 229 255
209 229 255
209 228 253
185 192 192
149 138 85
151 142 89
150 139 87
158 149 94
156 149 96
147 139 89
149 142 93
162 159 105
162 155 99
157 150 97
155 149 97
163 157 103
147 140 92
163 154 98
159 153 99
160 154 100
151 147 99
151 144 91
158 153 100
159 154 101
157 149 95
163 159 104
159 154 101
163 157 102
162 155 99
157 148 95
162 155 101
165 161 107
161 154 99
163 158 103
164 157 103
161 155 101
171 164 107
169 164 108
165 159 104
168 164 107
170 164 107
169 163 105
165 161 106
169 165 109
163 157 102
168 160 104
166 160 104
158 152 98
167 161 105
167 164 109
168 162 105
164 156 100
164 158 103
164 159 104
167 161 104
172 167 109
170 164 107
171 164 106
168 162 104
165 159 104
160 153 99
164 156 100
168 160 103
170 165 108
166 159 103
173 168 110
167 162 104
165 160 105
174 167 108
169 160 102
168 162 105
165 158 100
168 160 103
170 165 108
171 163 104
167 162 103
171 163 103
171 165 105
168 163 104
175 168 109
165 157 101
164 157 101
167 160 100
169 163 102
169 163 104
172 167 106
167 161 105
169 163 104
169 160 101
167 159 99
165 157 100
159 152 96
164 157 97
167 159 100
167 159 100
162 154 93
172 163 103
167 156 94
168 159 99
170 163 103
165 159 97
160 150 84
165 156 95
166 159 99
161 151 88
167 161 102
168 158 96
165 155 88
167 160 103
164 151 89
157 147 90
161 152 89
163 154 96
162 151 91
166 156 95
156 148 92
166 156 95
161 150 94
163 157 98
166 156 93
160 147 85
159 149 91
163 154 92
161 149 88
166 157 96
201 224 255
200 224 255
200 224 255
200 224 255
199 224 255
199 223 255
199 223 255
198 223 255
198 223 255
198 223 255
198 223 255
197 222 255
197 222 255
197 222 255
196 222 255
196 222 255
196 222 255
196 221 255
195 221 255
195 221 255
195 221 255
194 221 255
194 221 255
194 221 255
194 220 255
193 220 255
193 220 255
193 220 255
193 220 255
192 220 255
192 220 255
192 219 255
192 219 255
191 219 255
191 219 255
191 219 255
191 219 255
190 219 255
190 219 255
190 218 255
190 218 255
189 218 255
189 218 255
189 218 255
189 218 255
188 218 255
188 218 255
188 217 255
188 217 255
187 217 255
187 217 255
187 217 255
186 217 255
186 217 255
186 216 255
186 216 255
186 216 255
186 216 255
186 216 255
186 216 255
185 216 255
185 216 255
185 216 255
185 216 255
185 216 255
185 216 255
185 216 255
184 216 255
184 216 255
184 216 255
184 216 255
184 215 255
184 215 255
184 215 255
183 215 255
183 215 255
183 215 255
183 215 255
182 215 255
182 215 255
182 214 255
182 214 255
181 214 255
181 214 255
181 214 255
181 214 255
181 214 255
181 214 255
181 214 255
181 214 255
181 214 255
181 214 255
181 214 255
181 214 255
181 214 255
181 214 255
181 214 255
181 214 255
181 214 255
181 214 255
181 214 255
182 214 255
182 214 255
182 215 255
182 215 255
183 215 255
183 215 255
183 215 255
184 215 255
184 216 255
185 216 255
186 216 255
186 217 255
187 217 255
188 217 255
189 218 255
190 218 255
191 219 255
192 220 255
194 221 255
196 222 255
199 223 255
204 226 255
209 229 255
209 229 255
209 229 255
209 229 255
209 229 255
209 229 255
209 229 255
209 229 255
209 229 255
209 229 255
209 229 255
209 229 255
209 229 255
209 229 255
209 229 255
209 229 255
209 229 255
209 229 255
209 229 255
209 229 255
209 229 255
209 229 255
209 228 255
209 228 255
208 228 255
208 228 255
208 228 255
208 228 255
208 228 255
208 228 255
208 228 255
208 228 255
208 228 255
208 228 255
208 228 255
208 228 255
208 228 255
208 228 255
208 228 255
208 228 255
208 228 255
208 228 255
208 228 255
208 228 255
208 228 255
208 228 255
208 228 255
208 228 255
208 228 255
192 213 245
119 144 198
63 100 175
63 99 175
63 100 177
62 99 177
62 99 171
63 99 173
62 98 171
61 97 167
62 98 169
61 98 169
62 98 167
62 99 173
62 99 175
62 98 167
63 100 175
62 98 169
63 100 171
62 99 167
62 98 171
63 99 179
62 98 169
63 100 177
62 98 167
61 98 167
61 97 168
63 99 167
62 98 165
62 98 167
63 99 173
63 98 169
63 99 169
62 98 169
61 97 157
62 98 165
62 98 170
62 98 165
61 98 167
62 98 170
62 99 173
61 97 159
62 98 171
61 98 171
63 99 173
61 97 169
62 98 169
62 98 164
62 98 171
62 98 169
62 98 161
62 98 170
62 98 172
62 97 167
134 158 208
202 222 252
208 228 255
208 228 255
208 228 255
208 228 255
208 228 255
208 228 255
208 228 255
208 228 255
208 228 255
208 228 255
208 228 255
208 228 255
208 228 255
208 228 255
208 228 255
208 228 255
208 228 255
208 228 255
208 228 255
208 228 255
208 228 255
208 228 255
208 228 255
208 228 255
208 228 255
209 228 255
209 229 255
209 229 255
209 229 255
209 229 255
209 229 255
209 229 255
209 229 255
209 229 255
209 229 255
209 229 255
209 229 255
209 229 255
209 229 255
209 229 255
209 229 255
209 229 255
209 229 255
209 229 255
209 229 255
209 229 255
209 229 255
209 229 255
194 206 219
151 146 111
152 140 90
154 138 81
153 142 88
154 147 96
155 149 97
154 147 93
156 149 98
158 150 96
158 151 97
159 152 98
159 153 101
155 146 94
154 148 96
164 159 103
162 157 102
159 154 101
157 150 98
160 158 106
160 154 100
156 151 99
160 153 99
159 154 103
156 150 96
169 165 110
164 159 104
160 156 103
170 165 108
157 148 94
158 150 98
166 162 107
167 159 103
162 157 103
166 159 103
161 154 100
167 161 105
166 159 104
161 156 103
168 163 106
166 163 109
168 163 107
167 163 107
167 164 110
167 161 105
166 161 105
166 162 106
173 167 109
170 164 107
174 167 109
164 157 99
168 162 106
169 165 109
167 161 103
170 163 103
161 153 96
166 160 104
166 160 103
168 162 106
168 162 103
167 161 104
169 163 104
171 165 108
165 159 102
172 166 109
162 155 100
168 159 102
163 154 96
171 165 109
164 155 96
171 163 105
169 161 104
167 163 107
169 162 103
169 162 104
169 164 105
169 162 104
169 163 103
168 159 100
167 158 100
169 161 101
172 164 103
163 154 98
165 159 103
164 158 102
167 160 100
170 162 104
169 162 100
160 153 91
175 168 107
165 158 100
166 155 94
167 158 98
168 161 96
165 158 100
169 162 101
169 160 98
164 155 96
163 154 93
160 152 91
166 159 100
165 155 95
165 157 93
165 157 96
171 164 101
163 153 92
162 154 95
164 156 96
167 155 89
172 164 100
158 147 86
158 148 89
165 157 93
168 157 96
156 144 85
159 149 89
155 142 81
167 158 99
158 149 92
160 150 91
165 154 94
160 153 93
158 148 92
162 153 90
201 224 255
200 224 255
200 224 255
200 224 255
199 224 255
199 223 255
199 223 255
199 223 255
198 223 255
198 223 255
198 223 255
197 222 255
197 222 255
197 222 255
197 222 255
196 222 255
196 222 255
196 222 255
196 221 255
195 221 255
195 221 255
195 221 255
194 221 255
194 221 255
194 221 255
194 220 255
193 220 255
193 220 255
193 220 255
193 220 255
192 220 255
192 220 255
192 220 255
192 219 255
191 219 255
191 219 255
191 219 255
191 219 255
190 219 255
190 219 255
190 218 255
190 218 255
189 218 255
189 218 255
189 218 255
189 218 255
188 218 255
188 218 255
188 217 255
188 217 255
187 217 255
187 217 255
187 217 255
187 217 255
187 217 255
187 217 255
187 217 255
187 217 255
187 217 255
187 217 255
187 217 255
187 217 255
187 217 255
187 217 255
186 217 255
186 217 255
186 217 255
186 216 255
186 216 255
186 216 255
186 216 255
185 216 255
185 216 255
185 216 255
185 216 255
185 216 255
184 216 255
184 216 255
184 215 255
184 215 255
184 215 255
183 215 255
183 215 255
183 215 255
182 215 255
182 215 255
182 214 255
181 214 255
181 214 255
181 214 255
181 214 255
181 214 255
181 214 255
181 214 255
181 214 255
181 214 255
181 214 255
181 214 255
181 214 255
181 214 255
182 214 255
182 214 255
182 214 255
182 214 255
182 215 255
183 215 255
183 215 255
183 215 255
183 215 255
184 215 255
184 216 255
185 216 255
186 216 255
186 217 255
187 217 255
188 217 255
188 218 255
190 218 255
191 219 255
192 220 255
194 221 255
196 221 255
198 223 255
202 225 255
207 228 255
210 229 255
210 229 255
210 229 255
210 229 255
210 229 255
209 229 255
209 229 255
209 229 255
209 229 255
209 229 255
209 229 255
209 229 255
209 229 255
209 229 255
209 229 255
209 229 255
209 229 255
209 229 255
209 229 255
209 229 255
209 229 255
209 229 255
209 229 255
209 229 255
209 229 255
209 229 255
209 229 255
209 229 255
209 228 255
209 228 255
208 228 255
208 228 255
208 228 255
208 228 255
208 228 255
208 228 255
208 228 255
208 228 255
208 228 255
208 228 255
208 228 255
208 228 255
208 228 255
208 228 255
208 228 255
204 224 253
148 171 215
74 108 175
61 98 171
63 99 167
61 97 157
63 99 173
62 99 179
62 99 169
62 99 169
62 99 175
62 98 165
61 98 169
62 99 177
63 99 175
63 99 167
62 97 153
62 99 167
62 98 163
63 100 175
63 100 171
62 99 169
63 99 171
62 99 169
62 99 177
63 99 165
62 98 167
63 99 175
61 97 163
63 100 177
63 100 171
62 99 171
61 98 173
62 99 165
61 97 163
63 99 169
63 100 173
61 98 171
61 97 168
62 99 171
60 96 155
64 100 171
63 100 173
62 99 173
61 97 165
62 98 167
61 97 165
61 97 161
62 97 163
62 98 167
62 98 167
62 98 173
60 96 153
62 98 169
63 99 174
63 100 175
62 98 176
67 101 166
156 178 219
204 224 252
208 228 255
208 228 255
208 228 255
208 228 255
208 228 255
208 228 255
208 228 255
208 228 255
208 228 255
208 228 255
208 228 255
208 228 255
208 228 255
208 228 255
208 228 255
208 228 255
209 228 255
209 229 255
209 229 255
209 229 255
209 229 255
209 229 255
209 229 255
209 229 255
209 229 255
209 229 255
209 229 255
209 229 255
209 229 255
209 229 255
209 229 255
209 229 255
209 229 255
209 229 255
209 229 255
209 229 255
209 229 255
209 229 255
209 229 255
209 229 255
209 229 255
210 229 255
210 229 255
210 229 255
210 229 255
192 204 218
147 135 95
152 142 89
163 154 97
158 147 92
154 144 91
158 153 101
158 149 94
161 154 100
161 155 101
152 144 92
160 155 102
162 155 100
159 150 97
150 145 97
156 147 93
166 161 105
164 163 109
165 161 106
162 159 106
157 152 99
165 159 102
169 162 104
163 156 100
163 159 105
168 162 105
157 153 101
164 158 102
166 161 105
168 161 104
169 165 108
160 154 100
163 159 104
167 159 101
163 156 101
168 162 107
165 158 102
162 156 101
169 164 107
154 147 95
170 163 107
169 163 106
164 158 102
169 164 107
167 161 105
169 162 106
167 160 104
163 157 102
169 164 107
166 160 105
172 165 107
172 167 110
170 164 107
166 158 101
169 163 103
171 164 107
166 159 103
164 158 103
169 163 105
172 165 106
161 155 100
168 163 107
169 162 103
172 166 108
169 163 105
161 153 97
162 155 100
168 161 105
164 155 98
168 161 103
167 159 98
166 161 105
168 162 101
170 164 104
173 168 110
167 161 101
171 164 103
175 166 108
164 157 98
168 161 105
169 162 103
171 163 102
168 162 99
168 162 101
166 157 100
167 161 104
161 152 94
168 159 98
163 153 93
171 162 104
172 165 103
166 157 97
170 160 98
170 161 101
168 162 96
164 159 101
165 155 99
166 153 91
164 155 98
169 159 96
169 160 102
170 163 103
171 163 100
167 161 100
172 163 104
168 159 99
166 158 96
171 164 102
172 165 103
171 161 93
166 157 101
160 150 91
161 152 92
159 149 90
160 151 86
165 157 96
165 154 92
160 154 95
169 161 99
163 148 84
161 150 93
168 158 96
158 146 90
164 155 95
165 155 97
201 224 255
201 224 255
200 224 255
200 224 255
200 224 255
199 224 255
199 223 255
199 223 255
198 223 255
198 223 255
198 223 255
198 223 255
197 222 255
197 222 255
197 222 255
197 222 255
196 222 255
196 222 255
196 222 255
196 221 255
195 221 255
195 221 255
195 221 255
194 221 255
194 221 255
194 221 255
194 221 255
193 220 255
193 220 255
193 220 255
193 220 255
192 220 255
192 220 255
192 220 255
192 219 255
191 219 255
191 219 255
191 219 255
191 219 255
191 219 255
190 219 255
190 219 255
190 218 255
189 218 255
189 218 255
189 218 255
189 218 255
189 218 255
189 218 255
189 218 255
189 218 255
189 218 255
189 218 255
189 218 255
189 218 255
189 218 255
188 218 255
188 218 255
188 218 255
188 218 255
188 218 255
188 218 255
188 217 255
188 217 255
188 217 255
188 217 255
188 217 255
188 217 255
187 217 255
187 217 255
187 217 255
187 217 255
187 217 255
187 217 255
186 217 255
186 217 255
186 216 255
186 216 255
186 216 255
185 216 255
185 216 255
185 216 255
185 216 255
184 216 255
184 216 255
184 215 255
184 215 255
183 215 255
183 215 255
183 215 255
182 215 255
182 214 255
182 214 255
181 214 255
181 214 255
181 214 255
181 214 255
181 214 255
181 214 255
182 214 255
182 214 255
182 214 255
182 214 255
182 214 255
182 215 255
182 215 255
183 215 255
183 215 255
183 215 255
184 215 255
184 215 255
185 216 255
185 216 255
186 216 255
186 217 255
187 217 255
188 217 255
188 218 255
189 218 255
191 219 255
192 220 255
193 220 255
195 221 255
197 222 255
201 224 255
207 228 255
210 229 255
210 229 255
210 229 255
210 229 255
210 229 255
210 229 255
210 229 255
210 229 255
210 229 255
210 229 255
209 229 255
209 229 255
209 229 255
209 229 255
209 229 255
209 229 255
209 229 255
209 229 255
209 229 255
209 229 255
209 229 255
209 229 255
209 229 255
209 229 255
209 229 255
209 229 255
209 229 255
209 229 255
209 229 255
209 229 255
209 229 255
209 229 255
209 229 255
209 229 255
209 228 255
209 228 255
208 228 255
208 228 255
208 228 255
208 228 255
208 228 255
208 228 255
208 228 255
192 213 245
101 129 191
63 100 175
62 99 171
64 100 179
62 99 177
63 100 175
62 99 175
61 98 163
62 98 171
62 99 169
61 98 159
62 99 167
62 99 173
63 100 173
61 98 161
62 98 165
63 100 179
62 99 171
62 99 169
63 99 171
62 99 171
61 98 165
61 97 165
62 98 163
62 98 161
62 99 167
63 99 167
63 99 163
63 99 167
62 99 163
62 99 165
63 99 171
62 98 165
63 99 165
62 98 167
64 100 173
62 98 164
61 98 165
61 97 151
62 99 173
62 99 175
62 98 163
60 96 160
63 99 172
62 98 167
61 97 160
62 97 158
62 99 175
62 99 177
63 99 173
61 97 164
63 100 175
61 97 158
61 97 166
61 97 168
60 96 162
62 99 171
62 98 175
61 97 164
108 134 190
196 216 244
208 228 255
208 228 255
208 228 255
208 228 255
208 228 255
208 228 255
208 228 255
209 228 255
209 229 255
209 229 255
209 229 255
209 229 255
209 229 255
209 229 255
209 229 255
209 229 255
209 229 255
209 229 255
209 229 255
209 229 255
209 229 255
209 229 255
209 229 255
209 229 255
209 229 255
209 229 255
209 229 255
209 229 255
209 229 255
209 229 255
209 229 255
209 229 255
209 229 255
210 229 255
210 229 255
210 229 255
210 229 255
210 229 255
210 229 255
210 229 255
210 229 255
210 229 255
208 226 251
175 176 163
155 143 90
150 136 81
156 149 96
151 142 89
156 144 90
155 145 91
158 147 93
160 155 102
153 142 89
149 143 93
160 154 101
165 161 105
154 147 96
161 154 99
161 155 99
154 148 96
159 153 100
159 151 96
156 153 101
161 155 100
165 160 106
166 160 104
157 151 98
155 149 98
165 160 104
170 164 106
163 158 105
165 159 103
162 156 102
168 161 105
161 155 99
160 156 102
164 160 105
163 158 104
167 163 108
165 158 102
165 160 104
161 155 100
165 159 104
162 157 103
167 160 103
167 162 106
169 164 108
163 157 102
168 161 103
164 158 102
170 164 107
172 166 107
175 169 111
167 164 109
170 163 105
171 166 109
168 162 106
171 165 106
167 161 104
171 165 108
164 157 100
168 161 102
167 160 103
169 164 106
166 160 105
168 163 103
168 164 107
163 156 97
167 160 105
166 159 104
169 162 102
166 160 103
167 159 100
159 151 95
169 162 104
170 166 110
162 156 100
171 164 102
169 163 103
171 163 105
166 158 99
171 164 104
169 163 105
167 160 101
169 161 101
166 158 101
171 164 106
174 167 107
160 148 90
170 163 103
167 160 100
164 155 98
160 154 98
171 162 100
163 154 95
163 158 100
173 166 105
166 159 96
170 161 100
163 154 98
168 158 97
162 157 101
167 157 97
165 156 97
167 160 100
166 157 95
166 157 95
171 165 102
166 158 98
172 165 104
171 165 103
161 152 93
166 155 91
169 159 98
169 162 100
170 161 97
158 150 95
164 154 89
159 150 91
154 141 83
165 154 95
164 151 91
162 154 99
165 158 100
168 159 99
165 157 91
163 151 90
167 157 94
159 149 89
201 224 255
201 224 255
200 224 255
200 224 255
200 224 255
200 224 255
199 223 255
199 223 255
199 223 255
198 223 255
198 223 255
198 223 255
198 223 255
197 222 255
197 222 255
197 222 255
197 222 255
196 222 255
196 222 255
196 222 255
196 222 255
195 221 255
195 221 255
195 221 255
195 221 255
194 221 255
194 221 255
194 221 255
194 220 255
193 220 255
193 220 255
193 220 255
193 220 255
192 220 255
192 220 255
192 220 255
192 219 255
191 219 255
191 219 255
191 219 255
191 219 255
190 219 255
190 219 255
190 219 255
190 219 255
190 219 255
190 219 255
190 219 255
190 219 255
190 219 255
190 219 255
190 219 255
190 219 255
190 219 255
190 218 255
190 218 255
190 218 255
190 218 255
190 218 255
190 218 255
190 218 255
189 218 255
189 218 255
189 218 255
189 218 255
189 218 255
189 218 255
189 218 255
189 218 255
189 218 255
188 218 255
188 218 255
188 218 255
188 218 255
188 217 255
188 217 255
187 217 255
187 217 255
187 217 255
187 217 255
187 217 255
186 217 255
186 217 255
186 216 255
186 216 255
185 216 255
185 216 255
185 216 255
185 216 255
184 216 255
184 215 255
184 215 255
183 215 255
183 215 255
182 215 255
182 214 255
182 214 255
182 214 255
182 214 255
182 214 255
182 214 255
182 214 255
182 214 255
182 215 255
182 215 255
183 215 255
183 215 255
183 215 255
183 215 255
184 215 255
184 215 255
184 216 255
185 216 255
185 216 255
186 216 255
186 217 255
187 217 255
188 217 255
189 218 255
190 218 255
190 219 255
192 219 255
193 220 255
195 221 255
197 222 255
200 224 255
204 226 255
210 229 255
210 229 255
210 229 255
210 229 255
210 229 255
210 229 255
210 229 255
210 229 255
210 229 255
210 229 255
210 229 255
210 229 255
210 229 255
210 229 255
210 229 255
209 229 255
209 229 255
209 229 255
209 229 255
209 229 255
209 229 255
209 229 255
209 229 255
209 229 255
209 229 255
209 229 255
209 229 255
209 229 255
209 229 255
209 229 255
209 229 255
209 229 255
209 229 255
209 229 255
209 229 255
209 229 255
209 229 255
209 229 255
209 229 255
209 229 255
209 229 255
185 205 240
85 115 179
61 98 173
62 98 165
62 98 169
62 98 163
62 98 165
62 99 173
61 98 165
62 98 169
62 99 167
63 100 173
61 97 165
62 99 171
62 99 169
63 99 165
61 97 161
63 99 171
62 99 167
61 98 159
62 98 167
62 98 159
62 99 169
62 98 167
62 98 165
61 98 167
60 97 157
62 99 167
64 100 173
62 99 165
62 99 165
61 97 163
62 98 167
62 98 165
62 98 165
62 98 177
63 100 177
63 99 171
62 98 170
63 100 177
63 99 172
62 98 169
62 98 168
62 98 167
62 98 175
61 96 158
62 98 167
62 98 164
62 98 172
61 97 164
63 98 159
62 98 164
61 97 164
62 98 166
62 98 166
61 97 171
61 97 160
61 97 166
62 98 170
61 97 169
60 94 155
61 97 172
79 110 177
180 200 234
209 229 255
209 229 255
209 229 255
209 229 255
209 229 255
209 229 255
209 229 255
209 229 255
209 229 255
209 229 255
209 229 255
209 229 255
209 229 255
209 229 255
209 229 255
209 229 255
209 229 255
209 229 255
209 229 255
209 229 255
209 229 255
209 229 255
209 229 255
209 229 255
209 229 255
209 229 255
210 229 255
210 229 255
210 229 255
210 229 255
210 229 255
210 229 255
210 229 255
210 229 255
210 229 255
210 229 255
210 229 255
210 229 255
210 229 255
210 229 255
205 222 246
159 151 121
155 144 90
156 146 90
158 150 96
154 143 86
157 149 95
148 138 87
154 148 97
163 156 101
155 149 96
162 155 101
153 146 93
166 160 104
151 144 95
157 151 99
153 146 95
167 162 107
162 155 100
155 151 100
163 159 104
159 152 97
160 157 105
160 156 105
153 146 96
159 151 96
160 154 101
158 153 101
163 160 107
162 156 102
162 156 102
169 165 109
169 162 104
165 158 101
166 158 102
162 155 100
167 163 106
167 160 104
163 156 102
162 155 101
171 168 112
168 163 107
169 164 107
160 154 101
163 158 102
172 165 105
168 163 107
170 164 107
169 162 104
170 162 104
170 165 107
165 159 100
171 165 106
172 166 107
166 160 103
169 162 104
173 165 107
170 164 105
167 163 107
169 162 105
165 160 102
165 158 100
169 162 104
173 166 106
163 157 98
177 171 111
171 164 105
173 167 108
170 165 106
167 161 99
170 164 104
167 159 102
171 165 104
166 160 102
171 163 104
169 164 106
169 160 100
170 162 102
163 155 99
170 165 105
168 159 99
165 157 99
172 163 104
170 161 102
166 157 95
164 157 97
169 163 105
169 160 99
173 165 101
170 161 104
170 162 101
178 171 110
167 162 106
164 156 89
168 161 102
162 155 94
157 148 89
163 151 94
162 153 90
173 166 103
166 158 100
161 151 91
162 153 91
167 157 96
163 152 94
168 158 94
171 161 101
169 159 95
170 161 101
159 150 95
163 156 96
169 163 101
168 162 104
164 157 100
160 154 93
166 159 98
171 163 101
158 148 88
159 150 92
161 152 95
165 154 92
162 150 85
168 159 96
159 149 93
163 151 86
164 155 93
164 153 91
167 154 93
201 224 255
201 224 255
201 224 255
200 224 255
200 224 255
200 224 255
200 224 255
199 223 255
199 223 255
199 223 255
198 223 255
198 223 255
198 223 255
198 223 255
197 222 255
197 222 255
197 222 255
197 222 255
196 222 255
196 222 255
196 222 255
196 222 255
195 221 255
195 221 255
195 221 255
195 221 255
194 221 255
194 221 255
194 221 255
194 221 255
193 220 255
193 220 255
193 220 255
193 220 255
193 220 255
192 220 255
192 220 255
192 219 255
192 219 255
191 219 255
191 219 255
191 219 255
191 219 255
191 219 255
191 219 255
191 219 255
191 219 255
191 219 255
191 219 255
191 219 255
191 219 255
191 219 255
191 219 255
191 219 255
191 219 255
191 219 255
191 219 255
191 219 255
191 219 255
191 219 255
191 219 255
191 219 255
191 219 255
190 219 255
190 219 255
190 219 255
190 219 255
190 219 255
190 219 255
190 218 255
190 218 255
190 218 255
189 218 255
189 218 255
189 218 255
189 218 255
189 218 255
189 218 255
188 218 255
188 218 255
188 218 255
188 217 255
188 217 255
187 217 255
187 217 255
187 217 255
187 217 255
186 217 255
186 217 255
186 216 255
186 216 255
185 216 255
185 216 255
185 216 255
184 216 255
184 215 255
184 215 255
183 215 255
183 215 255
182 215 255
182 214 255
182 214 255
182 215 255
182 215 255
183 215 255
183 215 255
183 215 255
183 215 255
183 215 255
184 215 255
184 215 255
184 216 255
185 216 255
185 216 255
185 216 255
186 216 255
187 217 255
187 217 255
188 217 255
189 218 255
190 218 255
191 219 255
192 219 255
193 220 255
195 221 255
197 222 255
199 224 255
204 226 255
210 229 255
210 229 255
210 229 255
210 229 255
210 229 255
210 229 255
210 229 255
210 229 255
210 229 255
210 229 255
210 229 255
210 229 255
210 229 255
210 229 255
210 229 255
210 229 255
210 229 255
210 229 255
210 229 255
210 229 255
210 229 255
209 229 255
209 229 255
209 229 255
209 229 255
209 229 255
209 229 255
209 229 255
209 229 255
209 229 255
209 229 255
209 229 255
209 229 255
209 229 255
209 229 255
209 229 255
209 229 255
209 229 255
209 229 255
146 168 211
62 99 177
62 98 171
63 100 175
63 100 173
62 99 177
62 98 167
61 98 163
61 98 165
61 98 163
62 99 171
63 99 167
62 98 165
61 97 169
62 99 171
63 99 173
63 99 175
62 98 159
62 98 171
62 98 161
62 99 171
62 98 167
63 100 177
64 100 175
62 99 173
62 98 159
63 100 173
63 100 175
61 96 163
63 99 169
62 99 167
62 98 171
63 99 167
61 97 157
62 99 169
62 99 169
61 97 159
61 97 163
63 100 173
62 99 169
62 99 171
64 101 179
62 98 155
62 99 167
62 98 163
62 98 166
61 97 154
62 98 165
62 98 170
62 97 162
61 97 159
62 98 168
62 98 164
62 98 170
61 96 151
62 98 166
62 98 162
62 98 163
61 97 166
62 98 166
62 98 166
62 98 166
61 95 156
61 96 164
61 97 170
151 173 216
207 227 254
209 229 255
209 229 255
209 229 255
209 229 255
209 229 255
209 229 255
209 229 255
209 229 255
209 229 255
209 229 255
209 229 255
209 229 255
209 229 255
209 229 255
209 229 255
209 229 255
209 229 255
210 229 255
210 229 255
210 229 255
210 229 255
210 229 255
210 229 255
210 229 255
210 229 255
210 229 255
210 229 255
210 229 255
210 229 255
210 229 255
210 229 255
210 229 255
210 229 255
210 229 255
210 229 255
210 229 255
210 229 255
190 201 214
163 158 123
161 154 99
148 136 85
153 145 92
154 145 91
160 152 98
151 143 91
154 146 94
150 144 94
150 144 95
156 150 98
156 152 101
158 154 103
160 153 100
157 153 101
159 154 100
153 152 103
148 141 92
155 148 97
159 152 98
157 150 98
162 157 103
164 158 102
155 148 95
163 157 103
164 158 102
169 162 104
159 154 100
169 164 108
165 160 105
158 156 103
158 150 96
160 154 99
164 158 104
157 151 99
164 157 102
163 158 103
169 163 107
161 156 102
168 162 105
164 158 103
166 160 105
165 160 104
167 162 106
166 162 107
171 165 106
171 166 109
174 170 112
171 164 106
171 166 109
169 163 107
170 160 101
169 162 106
172 165 107
173 169 112
172 169 108
169 163 105
173 168 110
169 163 105
165 160 104
167 159 101
171 165 106
173 168 110
172 165 105
168 160 101
166 159 99
171 165 107
175 168 108
170 164 106
172 165 107
173 166 105
167 161 102
170 161 99
174 168 108
172 165 105
173 166 108
172 166 106
169 165 106
169 162 102
166 159 96
167 158 100
168 160 101
168 158 95
171 164 102
173 166 107
173 167 106
167 160 99
171 163 102
167 160 101
166 158 100
164 156 101
175 169 110
174 164 102
166 157 95
172 166 106
164 157 99
167 157 95
166 159 102
168 163 103
165 156 93
165 158 96
165 158 99
169 161 101
164 156 96
160 152 97
170 159 99
162 151 93
164 155 91
169 161 102
169 159 97
171 163 102
173 166 102
168 161 103
165 154 89
168 160 100
165 159 100
169 162 100
161 150 91
172 162 94
164 154 89
165 154 93
167 158 94
160 151 94
167 156 94
164 154 91
165 157 93
165 155 90
161 152 91
201 225 255
201 224 255
201 224 255
201 224 255
200 224 255
200 224 255
200 224 255
200 224 255
199 223 255
199 223 255
199 223 255
199 223 255
198 223 255
198 223 255
198 223 255
198 223 255
197 222 255
197 222 255
197 222 255
197 222 255
196 222 255
196 222 255
196 222 255
196 222 255
195 221 255
195 221 255
195 221 255
195 221 255
194 221 255
194 221 255
194 221 255
194 221 255
194 220 255
193 220 255
193 220 255
193 220 255
193 220 255
192 220 255
192 220 255
193 220 255
192 220 255
193 220 255
193 220 255
193 220 255
193 220 255
192 220 255
192 220 255
192 220 255
192 220 255
192 220 255
192 220 255
192 220 255
192 220 255
192 220 255
192 220 255
192 220 255
192 220 255
192 220 255
192 220 255
192 220 255
192 220 255
192 219 255
192 219 255
192 219 255
192 219 255
191 219 255
191 219 255
191 219 255
191 219 255
191 219 255
191 219 255
191 219 255
191 219 255
191 219 255
190 219 255
190 219 255
190 219 255
190 219 255
190 218 255
190 218 255
189 218 255
189 218 255
189 218 255
189 218 255
189 218 255
189 218 255
188 218 255
188 218 255
188 217 255
187 217 255
187 217 255
187 217 255
187 217 255
186 217 255
186 216 255
186 216 255
185 216 255
185 216 255
184 216 255
184 215 255
183 215 255
183 215 255
183 215 255
183 215 255
183 215 255
183 215 255
183 215 255
183 215 255
183 215 255
184 215 255
184 215 255
184 216 255
185 216 255
185 216 255
185 216 255
186 216 255
186 217 255
187 217 255
187 217 255
188 218 255
189 218 255
190 218 255
191 219 255
192 220 255
193 220 255
195 221 255
197 222 255
199 223 255
203 226 255
209 229 255
210 230 255
210 230 255
210 230 255
210 229 255
210 229 255
210 229 255
210 229 255
210 229 255
210 229 255
210 229 255
210 229 255
210 229 255
210 229 255
210 229 255
210 229 255
210 229 255
210 229 255
210 229 255
210 229 255
210 229 255
210 229 255
210 229 255
210 229 255
210 229 255
210 229 255
210 229 255
210 229 255
210 229 255
209 229 255
209 229 255
209 229 255
209 229 255
209 229 255
209 229 255
209 229 255
207 227 254
132 155 206
62 98 165
61 97 163
62 98 167
63 100 175
62 98 167
63 99 173
61 98 167
61 98 163
61 98 165
62 99 169
62 99 171
62 99 165
62 99 169
62 98 163
63 99 169
62 98 165
62 98 161
62 98 165
62 98 163
62 99 165
62 98 163
62 98 157
62 99 165
63 100 173
62 98 165
62 99 165
62 98 159
62 98 167
62 98 165
61 97 155
62 98 165
61 97 159
62 98 157
63 99 171
60 96 153
63 99 167
63 100 171
62 98 163
63 99 161
63 99 167
61 97 155
61 97 151
61 97 155
62 98 163
61 98 159
62 99 167
62 98 169
62 98 165
62 97 164
64 100 174
62 98 164
61 96 162
63 99 170
62 96 152
61 97 157
62 98 164
63 99 172
62 97 163
61 97 160
62 98 168
61 96 164
63 99 170
61 97 168
61 96 165
60 95 159
61 96 169
122 146 196
203 223 252
209 229 255
209 229 255
209 229 255
209 229 255
209 229 255
209 229 255
209 229 255
210 229 255
210 229 255
210 229 255
210 229 255
210 229 255
210 229 255
210 229 255
210 229 255
210 229 255
210 229 255
210 229 255
210 229 255
210 229 255
210 229 255
210 229 255
210 229 255
210 229 255
210 229 255
210 229 255
210 229 255
210 229 255
210 229 255
210 229 255
210 229 255
210 229 255
210 230 255
210 230 255
210 230 255
184 195 207
155 145 91
156 145 87
151 142 88
151 142 88
154 150 100
154 147 95
151 143 89
155 148 96
156 150 98
149 143 94
151 144 94
153 148 98
155 150 98
165 158 103
160 153 100
158 152 99
155 150 99
152 147 97
157 152 100
166 160 104
162 160 106
160 154 99
168 164 109
161 156 102
161 156 101
164 160 105
162 155 101
158 151 99
163 157 102
165 161 106
165 159 103
164 157 101
172 168 111
163 159 103
171 165 106
164 161 107
166 161 105
165 160 106
167 161 104
169 164 107
163 157 99
172 167 109
168 161 101
167 161 104
169 162 103
166 160 105
166 160 104
173 168 109
169 162 104
167 159 101
169 165 108
168 163 105
171 163 105
170 165 108
170 165 105
176 170 112
172 167 110
166 159 100
167 162 106
167 162 103
169 164 106
172 167 110
169 164 107
167 160 102
174 169 107
171 167 109
174 169 110
161 153 99
166 160 101
170 161 103
168 159 100
166 160 100
172 166 103
166 160 99
170 163 106
165 156 99
168 161 99
170 165 105
171 164 105
170 164 102
173 166 105
176 167 107
169 159 99
170 163 105
171 167 103
168 161 104
168 162 101
167 159 99
175 167 105
171 165 104
163 155 94
168 158 92
173 165 103
173 164 101
170 162 99
167 158 96
168 159 95
172 164 101
168 161 100
165 157 96
172 164 101
166 161 100
171 163 103
175 169 105
168 160 101
164 154 93
167 160 99
168 159 98
161 155 95
165 158 96
170 163 99
163 155 93
164 155 94
167 159 98
159 151 92
171 164 101
170 162 100
163 156 93
164 157 93
169 161 100
169 160 96
167 158 91
166 157 97
155 144 83
151 141 83
162 151 88
154 146 84
165 155 91
168 157 91
202 225 255
201 225 255
201 224 255
201 224 255
201 224 255
200 224 255
200 224 255
200 224 255
200 224 255
199 224 255
199 223 255
199 223 255
199 223 255
198 223 255
198 223 255
198 223 255
198 223 255
197 222 255
197 222 255
197 222 255
197 222 255
197 222 255
196 222 255
196 222 255
196 222 255
196 221 255
195 221 255
195 221 255
195 221 255
195 221 255
194 221 255
194 221 255
194 221 255
194 220 255
194 220 255
194 220 255
194 220 255
194 220 255
194 220 255
194 220 255
194 220 255
194 220 255
194 220 255
194 220 255
194 220 255
194 220 255
194 220 255
194 220 255
194 220 255
194 220 255
194 220 255
194 220 255
193 220 255
193 220 255
193 220 255
193 220 255
193 220 255
193 220 255
193 220 255
193 220 255
193 220 255
193 220 255
193 220 255
193 220 255
193 220 255
193 220 255
193 220 255
192 220 255
192 220 255
192 220 255
192 220 255
192 220 255
192 220 255
192 220 255
192 219 255
191 219 255
191 219 255
191 219 255
191 219 255
191 219 255
191 219 255
191 219 255
190 219 255
190 219 255
190 219 255
190 218 255
190 218 255
189 218 255
189 218 255
189 218 255
189 218 255
188 218 255
188 218 255
188 217 255
188 217 255
187 217 255
187 217 255
187 217 255
186 217 255
186 216 255
185 216 255
185 216 255
184 216 255
184 215 255
183 215 255
183 215 255
183 215 255
184 215 255
184 215 255
184 215 255
184 216 255
184 216 255
185 216 255
185 216 255
185 216 255
186 216 255
186 217 255
187 217 255
187 217 255
188 217 255
188 218 255
189 218 255
190 219 255
191 219 255
192 220 255
194 220 255
195 221 255
197 222 255
199 224 255
202 225 255
209 229 255
211 230 255
211 230 255
211 230 255
211 230 255
211 230 255
211 230 255
210 230 255
210 230 255
210 230 255
210 229 255
210 229 255
210 229 255
210 229 255
210 229 255
210 229 255
210 229 255
210 229 255
210 229 255
210 229 255
210 229 255
210 229 255
210 229 255
210 229 255
210 229 255
210 229 255
210 229 255
210 229 255
210 229 255
210 229 255
210 229 255
210 229 255
210 229 255
210 229 255
208 227 254
109 135 194
63 99 171
61 98 165
62 98 165
62 98 169
63 99 167
63 99 173
62 97 161
62 99 169
63 100 175
62 98 167
62 99 171
63 99 165
63 99 167
62 98 161
62 99 169
63 99 171
62 98 161
61 97 159
63 99 173
62 98 163
62 98 169
64 100 171
62 99 165
62 98 161
63 99 165
61 97 155
62 98 155
63 99 167
62 98 163
61 98 163
62 98 167
62 98 159
62 98 163
63 99 169
63 99 167
61 97 153
63 99 168
62 99 167
61 98 170
62 98 163
61 97 159
63 99 168
59 95 163
62 98 173
62 99 169
61 97 161
62 97 164
61 97 155
62 97 162
61 98 165
61 96 151
62 97 162
62 98 166
61 96 161
60 96 160
60 95 154
63 99 163
61 97 166
62 98 166
62 98 166
61 96 162
61 96 160
61 97 170
61 97 170
61 95 163
59 93 157
62 98 164
60 95 161
122 146 197
206 225 253
210 229 255
210 229 255
210 229 255
210 229 255
210 229 255
210 229 255
210 229 255
210 229 255
210 229 255
210 229 255
210 229 255
210 229 255
210 229 255
210 229 255
210 229 255
210 229 255
210 229 255
210 229 255
210 229 255
210 229 255
210 229 255
210 229 255
210 229 255
210 229 255
210 230 255
210 230 255
210 230 255
211 230 255
211 230 255
211 230 255
211 230 255
211 230 255
211 230 255
185 193 199
146 136 83
150 138 82
148 138 87
159 147 91
154 147 93
146 136 87
152 144 92
154 147 95
147 140 90
153 148 96
162 157 104
160 155 101
163 158 105
152 144 93
158 153 101
157 153 103
154 148 98
154 148 96
156 149 96
160 153 99
154 147 95
163 160 106
156 149 96
165 161 106
163 158 104
159 156 103
165 158 105
162 156 102
160 155 102
164 159 104
164 159 105
165 160 105
170 164 107
169 163 107
158 153 101
165 159 104
164 160 105
167 162 106
167 161 105
172 165 104
171 165 107
161 156 103
170 163 105
168 164 107
172 167 111
172 164 106
171 166 108
173 167 108
170 164 106
174 168 110
174 167 108
171 166 105
170 164 105
170 162 105
171 165 107
169 163 105
170 165 105
167 163 106
172 165 107
170 163 105
169 163 103
172 166 108
176 170 111
172 166 106
169 160 103
172 166 104
167 161 103
173 168 110
171 164 105
172 166 107
170 164 103
171 167 110
173 167 106
168 161 105
173 166 106
170 164 104
162 153 96
170 161 102
172 165 105
172 165 104
169 162 101
174 167 105
168 160 102
170 162 101
168 159 101
169 163 103
176 169 108
166 159 98
171 164 103
170 162 101
169 161 98
171 165 105
165 157 97
173 165 106
166 159 101
172 164 104
155 147 85
170 163 102
169 163 98
166 159 101
171 163 102
163 156 97
172 165 102
171 162 101
169 159 98
167 159 101
174 165 102
165 156 92
164 158 99
161 151 93
170 161 96
162 154 91
168 159 98
161 154 93
173 163 101
167 157 93
162 152 89
167 158 100
164 153 89
167 159 93
167 155 90
163 152 91
165 156 90
169 159 94
171 162 93
160 151 94
155 144 84
167 159 98
169 160 95
172 163 99
202 225 255
202 225 255
201 225 255
201 224 255
201 224 255
201 224 255
200 224 255
200 224 255
200 224 255
200 224 255
199 224 255
199 223 255
199 223 255
199 223 255
199 223 255
198 223 255
198 223 255
198 223 255
198 223 255
197 222 255
197 222 255
197 222 255
197 222 255
196 222 255
196 222 255
196 222 255
196 222 255
196 221 255
195 221 255
195 221 255
195 221 255
195 221 255
195 221 255
195 221 255
195 221 255
195 221 255
195 221 255
195 221 255
195 221 255
195 221 255
195 221 255
195 221 255
195 221 255
195 221 255
195 221 255
195 221 255
195 221 255
195 221 255
195 221 255
195 221 255
195 221 255
195 221 255
195 221 255
195 221 255
194 221 255
194 221 255
194 221 255
194 221 255
194 221 255
194 221 255
194 221 255
194 221 255
194 221 255
194 221 255
194 221 255
194 221 255
194 220 255
194 220 255
193 220 255
193 220 255
193 220 255
193 220 255
193 220 255
193 220 255
193 220 255
193 220 255
193 220 255
192 220 255
192 220 255
192 220 255
192 220 255
192 220 255
192 219 255
191 219 255
191 219 255
191 219 255
191 219 255
191 219 255
190 219 255
190 219 255
190 219 255
190 218 255
190 218 255
189 218 255
189 218 255
189 218 255
188 218 255
188 218 255
188 217 255
187 217 255
187 217 255
187 217 255
186 217 255
186 216 255
185 216 255
185 216 255
184 216 255
184 215 255
184 215 255
184 216 255
184 216 255
185 216 255
185 216 255
185 216 255
185 216 255
186 216 255
186 217 255
187 217 255
187 217 255
188 217 255
188 218 255
189 218 255
190 218 255
190 219 255
191 219 255
192 220 255
194 221 255
195 221 255
197 222 255
199 223 255
203 225 255
208 228 255
211 230 255
211 230 255
211 230 255
211 230 255
211 230 255
211 230 255
211 230 255
211 230 255
211 230 255
211 230 255
211 230 255
211 230 255
211 230 255
210 230 255
210 230 255
210 229 255
210 229 255
210 229 255
210 229 255
210 229 255
210 229 255
210 229 255
210 229 255
210 229 255
210 229 255
210 229 255
210 229 255
210 229 255
210 229 255
210 229 255
210 229 255
200 220 246
109 135 194
62 98 165
64 100 175
63 99 171
61 97 171
61 98 169
62 99 165
62 98 167
62 99 167
62 98 165
61 98 167
61 97 155
63 99 169
62 99 167
61 98 171
63 99 171
62 98 151
63 99 169
62 99 169
62 99 171
62 98 167
62 98 165
62 98 163
61 96 155
62 98 159
62 98 163
61 97 161
62 99 169
63 99 165
61 98 165
61 97 157
63 99 165
62 98 163
60 96 165
62 97 159
63 99 165
60 96 157
63 99 163
62 98 164
62 98 163
62 98 163
61 97 167
61 97 163
62 99 165
62 98 169
63 98 162
62 98 170
62 99 167
60 96 154
63 100 171
63 99 167
62 98 161
62 98 168
62 98 161
62 98 168
62 98 168
62 99 171
63 100 171
61 96 160
63 99 167
61 95 152
62 98 168
60 94 147
61 97 164
61 97 163
61 96 163
62 97 164
60 94 155
62 96 165
61 96 161
60 94 158
113 137 190
190 209 241
210 229 255
210 229 255
210 229 255
210 229 255
210 229 255
210 229 255
210 229 255
210 229 255
210 229 255
210 229 255
210 229 255
210 229 255
210 229 255
210 229 255
210 229 255
210 229 255
210 230 255
210 230 255
210 230 255
211 230 255
211 230 255
211 230 255
211 230 255
211 230 255
211 230 255
211 230 255
211 230 255
211 230 255
211 230 255
211 230 255
211 230 255
181 188 190
152 139 82
153 146 95
155 146 94
157 148 93
149 136 82
148 141 91
161 153 98
156 149 97
151 145 95
150 142 90
152 144 93
151 145 95
162 156 100
165 158 102
155 148 95
159 153 100
157 154 104
156 153 101
160 155 101
154 149 98
165 162 107
161 154 99
169 164 106
158 154 102
159 151 98
162 158 105
166 161 106
157 152 99
166 159 102
166 162 108
167 163 107
166 164 110
162 157 103
168 164 106
165 157 100
172 165 107
164 160 104
160 155 100
171 167 108
167 162 105
167 162 105
165 160 104
167 162 105
168 161 104
168 163 108
172 167 108
167 160 103
171 165 108
171 166 109
173 168 112
170 163 105
171 166 108
170 165 105
168 162 103
172 166 105
170 163 105
170 167 109
173 168 108
166 160 103
171 164 107
173 166 107
170 166 108
175 167 107
171 165 104
168 163 107
170 164 105
172 165 107
177 171 108
175 169 111
170 164 105
165 158 96
165 156 97
170 161 103
174 167 106
170 165 102
168 161 102
168 161 100
171 164 104
173 166 106
175 168 103
174 168 107
171 163 105
171 164 105
172 165 107
169 162 101
168 160 99
170 163 99
165 158 97
167 161 101
173 162 97
165 159 98
170 162 99
165 159 98
169 160 96
169 163 103
170 163 100
167 158 96
168 161 102
174 167 104
168 159 103
173 166 103
168 162 102
166 158 99
170 162 100
166 156 91
169 159 98
170 164 101
171 163 99
167 161 97
168 159 98
165 158 94
170 163 99
167 160 94
171 164 102
172 163 99
166 159 101
171 161 92
164 152 93
176 168 101
169 161 100
159 149 88
169 158 91
159 148 83
161 151 89
164 156 91
168 157 96
164 154 88
159 148 82
161 151 88
155 145 82
166 157 93
202 225 255
202 225 255
202 225 255
201 225 255
201 225 255
201 224 255
201 224 255
201 224 255
200 224 255
200 224 255
200 224 255
200 224 255
199 224 255
199 223 255
199 223 255
199 223 255
199 223 255
198 223 255
198 223 255
198 223 255
198 223 255
197 222 255
197 222 255
197 222 255
197 222 255
197 222 255
196 222 255
196 222 255
196 222 255
196 221 255
196 221 255
195 221 255
196 222 255
196 222 255
196 222 255
196 222 255
196 222 255
196 222 255
196 222 255
196 222 255
196 222 255
196 222 255
196 222 255
196 222 255
196 222 255
196 222 255
196 222 255
196 222 255
196 222 255
196 222 255
196 222 255
196 221 255
196 221 255
196 221 255
195 221 255
195 221 255
195 221 255
195 221 255
195 221 255
195 221 255
195 221 255
195 221 255
195 221 255
195 221 255
195 221 255
195 221 255
195 221 255
195 221 255
195 221 255
194 221 255
194 221 255
194 221 255
194 221 255
194 221 255
194 221 255
194 221 255
194 220 255
193 220 255
193 220 255
193 220 255
193 220 255
193 220 255
193 220 255
193 220 255
192 220 255
192 220 255
192 220 255
192 220 255
192 219 255
192 219 255
191 219 255
191 219 255
191 219 255
191 219 255
190 219 255
190 219 255
190 218 255
189 218 255
189 218 255
189 218 255
188 218 255
188 218 255
188 217 255
187 217 255
187 217 255
186 217 255
186 216 255
185 216 255
185 216 255
185 216 255
185 216 255
185 216 255
185 216 255
185 216 255
186 216 255
186 217 255
186 217 255
187 217 255
187 217 255
188 217 255
188 218 255
189 218 255
189 218 255
190 219 255
191 219 255
192 220 255
193 220 255
194 221 255
196 222 255
197 222 255
200 224 255
202 225 255
208 228 255
211 230 255
211 230 255
211 230 255
211 230 255
211 230 255
211 230 255
211 230 255
211 230 255
211 230 255
211 230 255
211 230 255
211 230 255
211 230 255
211 230 255
211 230 255
211 230 255
211 230 255
211 230 255
211 230 255
210 230 255
210 230 255
210 230 255
210 230 255
210 229 255
210 229 255
210 229 255
210 229 255
210 229 255
210 229 255
196 216 244
97 125 186
63 99 173
63 99 169
62 98 163
62 99 171
63 99 167
63 99 167
63 99 167
62 98 163
62 98 161
62 98 165
63 99 173
63 99 171
61 98 163
61 97 153
62 98 165
62 98 173
63 99 165
62 98 159
62 98 157
62 97 159
63 99 167
63 99 167
62 98 161
62 99 171
62 98 157
63 99 171
62 98 157
61 97 161
62 97 153
63 99 163
62 98 161
62 98 165
62 97 157
63 99 167
62 99 165
62 98 161
63 99 165
63 99 169
61 98 161
62 98 161
63 99 169
61 98 161
62 98 165
63 99 162
63 100 175
62 98 169
61 97 151
62 97 163
62 98 157
61 96 160
61 97 163
60 95 155
62 98 165
63 99 169
62 97 161
61 97 163
63 98 169
61 97 155
62 98 171
61 96 152
61 96 161
61 98 163
61 96 152
62 98 162
60 95 152
62 98 170
61 96 163
61 97 170
62 98 174
61 96 156
59 92 148
60 95 161
108 133 182
204 224 251
210 229 255
210 229 255
210 229 255
210 229 255
210 229 255
210 229 255
210 230 255
210 230 255
210 230 255
210 230 255
211 230 255
211 230 255
211 230 255
211 230 255
211 230 255
211 230 255
211 230 255
211 230 255
211 230 255
211 230 255
211 230 255
211 230 255
211 230 255
211 230 255
211 230 255
211 230 255
211 230 255
211 230 255
211 230 255
183 188 185
143 131 80
145 133 82
147 134 82
142 132 83
159 152 98
161 153 97
157 153 102
149 140 90
155 149 94
151 145 94
147 139 91
154 147 95
148 142 92
156 151 98
149 144 95
146 138 89
153 149 99
159 154 100
152 147 97
154 147 95
152 149 100
161 155 102
154 150 99
161 156 101
161 155 101
157 152 101
166 162 108
163 157 102
169 163 107
159 154 101
171 164 107
163 159 104
174 168 109
158 156 106
168 162 106
170 167 111
169 163 107
166 161 103
167 161 103
163 159 106
165 160 104
162 157 101
168 163 108
171 165 107
168 163 106
164 158 102
172 167 109
173 168 110
170 163 103
165 161 103
172 166 108
173 165 104
167 162 106
166 161 105
173 167 107
169 163 104
168 162 101
174 167 110
170 164 107
171 166 106
172 165 104
167 163 107
171 165 104
170 165 100
174 165 101
166 158 97
172 166 102
173 167 106
162 154 98
170 164 99
177 168 102
175 168 109
168 160 97
168 161 102
171 165 106
171 163 104
172 167 106
173 165 101
168 161 102
166 161 100
167 164 100
172 166 106
168 160 102
170 162 104
172 163 100
173 165 104
175 167 107
171 162 100
170 164 101
176 167 103
171 164 100
165 158 100
173 166 105
166 157 97
169 162 101
172 164 104
171 164 98
171 164 100
169 158 95
170 162 98
172 165 103
164 156 94
166 159 93
169 164 100
165 158 100
171 163 100
163 154 95
169 160 101
164 156 93
169 160 98
168 161 100
169 160 99
166 160 98
160 150 90
164 154 92
170 164 103
172 165 99
165 154 93
165 157 90
170 159 90
162 154 91
167 159 89
171 161 97
161 149 81
159 147 88
167 156 96
172 161 94
159 151 86
165 157 88
165 151 85
156 146 88
159 148 87
202 225 255
202 225 255
202 225 255
202 225 255
202 225 255
201 225 255
201 224 255
201 224 255
201 224 255
201 224 255
200 224 255
200 224 255
200 224 255
200 224 255
199 224 255
199 223 255
199 223 255
199 223 255
199 223 255
198 223 255
198 223 255
198 223 255
198 223 255
197 223 255
197 222 255
197 222 255
197 222 255
197 222 255
196 222 255
196 222 255
197 222 255
197 222 255
197 222 255
197 222 255
197 222 255
197 222 255
197 222 255
197 222 255
197 222 255
197 222 255
197 222 255
197 222 255
197 222 255
197 222 255
197 222 255
197 222 255
197 222 255
197 222 255
197 222 255
197 222 255
197 222 255
197 222 255
197 222 255
197 222 255
197 222 255
196 222 255
196 222 255
196 222 255
196 222 255
196 222 255
196 222 255
196 222 255
196 222 255
196 222 255
196 222 255
196 222 255
196 222 255
196 222 255
196 221 255
195 221 255
195 221 255
195 221 255
195 221 255
195 221 255
195 221 255
195 221 255
195 221 255
195 221 255
194 221 255
194 221 255
194 221 255
194 221 255
194 221 255
194 221 255
194 220 255
193 220 255
193 220 255
193 220 255
193 220 255
193 220 255
192 220 255
192 220 255
192 220 255
192 220 255
192 219 255
191 219 255
191 219 255
191 219 255
191 219 255
190 219 255
190 219 255
190 218 255
189 218 255
189 218 255
188 218 255
188 218 255
188 217 255
187 217 255
187 217 255
186 217 255
186 216 255
185 216 255
186 216 255
186 216 255
186 217 255
186 217 255
187 217 255
187 217 255
187 217 255
188 217 255
188 218 255
189 218 255
189 218 255
190 219 255
191 219 255
191 219 255
192 220 255
193 220 255
195 221 255
196 222 255
198 223 255
200 224 255
203 225 255
209 229 255
211 230 255
211 230 255
211 230 255
211 230 255
211 230 255
211 230 255
211 230 255
211 230 255
211 230 255
211 230 255
211 230 255
211 230 255
211 230 255
211 230 255
211 230 255
211 230 255
211 230 255
211 230 255
211 230 255
211 230 255
211 230 255
211 230 255
211 230 255
211 230 255
211 230 255
211 230 255
211 230 255
207 226 253
68 103 175
62 98 167
62 98 167
62 98 167
62 99 167
63 99 167
62 98 159
62 98 161
63 99 165
61 97 159
62 98 165
61 97 159
62 99 169
62 98 161
62 98 163
62 98 167
62 98 159
63 99 173
62 98 163
61 97 159
63 99 163
61 97 167
61 97 157
61 98 163
61 97 165
63 99 161
61 97 161
62 97 159
62 98 161
61 98 159
62 98 163
61 97 151
62 98 161
63 99 169
61 97 161
62 98 159
62 98 157
62 98 157
62 98 161
61 96 149
62 98 162
62 98 166
62 98 162
63 99 171
61 97 161
62 97 155
61 97 151
61 97 155
61 96 155
62 98 161
61 97 167
62 98 166
62 98 160
62 98 164
63 98 159
61 96 151
62 97 162
61 98 161
62 97 158
62 98 158
59 94 156
62 97 159
62 97 160
61 97 164
62 97 164
60 95 152
61 97 168
61 95 154
61 95 162
62 97 161
60 95 158
60 96 164
61 95 158
62 97 167
61 96 168
116 139 186
207 226 253
211 230 255
211 230 255
211 230 255
211 230 255
211 230 255
211 230 255
211 230 255
211 230 255
211 230 255
211 230 255
211 230 255
211 230 255
211 230 255
211 230 255
211 230 255
211 230 255
211 230 255
211 230 255
211 230 255
211 230 255
211 230 255
211 230 255
211 230 255
211 230 255
211 230 255
211 230 255
211 230 255
176 178 175
153 140 85
152 142 88
156 151 97
151 144 92
137 128 80
145 138 90
151 143 91
146 138 88
148 142 92
159 152 98
152 149 99
149 145 96
149 144 95
156 153 102
154 147 95
150 146 96
161 155 101
157 152 100
156 148 95
160 158 105
161 154 100
157 153 102
156 154 103
157 153 100
160 156 103
159 154 101
161 157 103
163 160 107
157 155 105
157 153 102
164 158 103
166 161 105
156 151 98
170 165 107
161 154 100
158 154 102
162 157 102
168 164 107
170 165 107
159 155 103
167 162 107
171 166 109
168 163 104
171 166 110
175 169 109
165 159 100
166 162 104
174 167 109
164 157 100
170 166 106
164 157 100
171 166 108
171 166 107
172 166 109
176 169 110
171 164 105
168 162 101
171 166 106
175 170 110
176 170 111
176 170 110
170 161 102
171 165 102
175 169 107
172 167 109
174 169 109
175 169 109
174 169 107
176 169 110
173 169 108
168 160 96
172 165 105
172 165 106
170 164 105
175 167 104
166 159 97
170 163 105
170 164 100
168 161 102
173 166 106
175 168 105
172 164 102
174 167 104
167 160 102
170 164 100
174 167 104
168 162 97
173 166 106
172 165 104
168 160 100
165 158 99
174 166 105
170 163 104
171 164 98
173 166 102
170 161 99
173 162 101
173 167 105
168 160 99
168 160 97
168 160 99
168 159 98
171 164 98
173 164 102
171 161 101
169 162 101
169 160 96
169 161 102
174 165 103
169 159 96
164 154 92
170 163 100
164 156 93
166 158 92
170 161 102
160 148 85
166 157 91
174 165 100
161 152 89
170 162 100
159 150 82
170 159 94
169 161 99
173 162 99
174 168 105
174 167 106
168 155 90
167 160 97
169 158 92
152 145 90
156 146 83
165 155 89
160 150 82
203 225 255
203 225 255
202 225 255
202 225 255
202 225 255
202 225 255
202 225 255
201 225 255
201 224 255
201 224 255
201 224 255
200 224 255
200 224 255
200 224 255
200 224 255
200 224 255
199 224 255
199 223 255
199 223 255
199 223 255
199 223 255
198 223 255
198 223 255
198 223 255
198 223 255
197 222 255
197 222 255
197 222 255
197 222 255
198 223 255
197 222 255
198 223 255
198 223 255
198 223 255
198 223 255
198 223 255
198 223 255
198 223 255
198 223 255
198 223 255
198 223 255
198 223 255
198 223 255
198 223 255
198 223 255
198 223 255
198 223 255
198 223 255
198 223 255
198 223 255
198 223 255
198 223 255
197 223 255
197 223 255
197 222 255
197 222 255
197 222 255
197 222 255
197 222 255
197 222 255
197 222 255
197 222 255
197 222 255
197 222 255
197 222 255
197 222 255
197 222 255
197 222 255
197 222 255
196 222 255
196 222 255
196 222 255
196 222 255
196 222 255
196 222 255
196 222 255
196 222 255
196 222 255
195 221 255
195 221 255
195 221 255
195 221 255
195 221 255
195 221 255
195 221 255
195 221 255
194 221 255
194 221 255
194 221 255
194 221 255
194 221 255
194 220 255
193 220 255
193 220 255
193 220 255
193 220 255
192 220 255
192 220 255
192 220 255
192 219 255
191 219 255
191 219 255
191 219 255
190 219 255
190 219 255
190 218 255
189 218 255
189 218 255
188 218 255
188 217 255
187 217 255
187 217 255
186 217 255
186 217 255
186 217 255
187 217 255
187 217 255
187 217 255
188 217 255
188 218 255
188 218 255
189 218 255
189 218 255
190 219 255
191 219 255
191 219 255
192 220 255
193 220 255
194 221 255
195 221 255
197 222 255
198 223 255
200 224 255
204 226 255
209 229 255
212 230 255
212 230 255
212 230 255
212 230 255
211 230 255
211 230 255
211 230 255
211 230 255
211 230 255
211 230 255
211 230 255
211 230 255
211 230 255
211 230 255
211 230 255
211 230 255
211 230 255
211 230 255
211 230 255
211 230 255
211 230 255
211 230 255
211 230 255
211 230 255
211 230 255
211 230 255
133 156 206
63 99 177
61 97 157
62 99 167
62 98 163
62 98 167
62 99 169
61 97 161
63 100 173
61 97 163
62 98 163
62 98 163
63 99 157
61 97 157
61 98 171
63 99 171
62 97 161
61 97 157
62 99 165
61 98 161
63 99 167
62 98 169
62 98 157
63 100 171
62 98 163
62 97 153
61 97 159
61 98 161
62 98 169
63 99 163
61 97 159
61 97 159
63 99 165
61 97 151
63 99 163
63 99 167
62 99 163
61 97 159
62 98 161
62 98 167
61 97 159
60 96 159
62 98 161
63 99 167
62 98 161
64 100 171
62 98 165
62 97 159
63 98 161
61 96 157
61 97 159
63 99 170
61 97 162
61 97 157
62 98 164
62 97 159
61 97 157
63 99 169
63 99 167
62 99 167
62 98 164
60 95 152
63 99 169
63 99 167
61 97 164
62 97 156
61 97 163
62 98 167
62 97 160
60 95 161
61 96 158
59 94 145
61 97 165
60 94 155
61 95 155
61 96 165
61 95 163
123 146 194
209 228 254
211 230 255
211 230 255
211 230 255
211 230 255
211 230 255
211 230 255
211 230 255
211 230 255
211 230 255
211 230 255
211 230 255
211 230 255
211 230 255
211 230 255
211 230 255
211 230 255
211 230 255
211 230 255
211 230 255
211 230 255
211 230 255
212 230 255
212 230 255
212 230 255
212 230 255
180 184 178
150 140 88
152 144 92
143 133 83
160 153 99
145 137 88
147 138 88
151 142 90
147 140 92
152 146 95
150 144 94
153 146 94
148 141 91
149 141 91
150 141 89
151 148 99
152 147 96
155 150 98
155 149 96
155 151 102
154 149 100
160 156 105
161 157 104
150 146 96
154 148 98
151 143 91
158 153 99
154 150 99
165 159 103
161 156 103
167 163 108
160 155 103
162 158 105
164 157 103
159 154 101
157 153 101
166 160 103
166 162 107
170 166 109
167 163 107
163 159 104
164 161 107
163 159 106
170 165 108
167 162 105
173 165 104
169 161 102
169 163 106
173 167 107
169 165 109
172 166 106
169 161 102
175 169 110
174 166 108
173 167 107
171 165 104
172 167 107
174 169 109
173 167 108
174 167 106
173 167 104
171 165 104
165 161 100
175 169 108
172 165 105
170 165 104
173 166 103
170 162 97
172 164 105
173 165 106
174 167 107
176 171 108
178 172 113
168 160 99
171 167 102
177 170 105
169 163 105
177 171 110
177 170 111
176 171 110
169 161 99
171 165 104
172 165 107
175 166 103
174 167 105
170 165 102
167 160 101
175 169 104
167 162 102
176 167 104
174 168 102
165 157 97
172 165 104
168 161 101
170 163 99
169 160 97
169 162 101
167 158 93
173 166 100
170 163 97
171 164 99
167 158 97
169 160 100
167 158 95
173 164 102
174 167 97
175 166 102
175 168 105
167 159 96
165 156 96
174 167 103
160 151 88
168 159 95
170 163 100
169 160 94
171 164 100
172 162 93
166 159 101
172 163 96
168 159 95
166 159 93
169 161 95
164 158 101
161 152 85
168 159 92
170 159 96
169 159 93
164 153 89
166 155 89
172 163 96
169 162 95
163 154 95
169 161 90
168 159 96
161 152 87
203 226 255
203 225 255
203 225 255
203 225 255
202 225 255
202 225 255
202 225 255
202 225 255
202 225 255
201 225 255
201 224 255
201 224 255
201 224 255
201 224 255
200 224 255
200 224 255
200 224 255
200 224 255
199 224 255
199 223 255
199 223 255
199 223 255
199 223 255
198 223 255
198 223 255
198 223 255
198 223 255
198 223 255
198 223 255
198 223 255
199 223 255
198 223 255
199 223 255
199 223 255
198 223 255
199 223 255
199 223 255
199 223 255
199 223 255
199 223 255
199 223 255
199 223 255
199 223 255
199 223 255
199 223 255
199 223 255
198 223 255
199 223 255
199 223 255
199 223 255
198 223 255
199 223 255
198 223 255
198 223 255
198 223 255
198 223 255
198 223 255
198 223 255
198 223 255
198 223 255
198 223 255
198 223 255
198 223 255
198 223 255
198 223 255
198 223 255
198 223 255
198 223 255
197 222 255
197 222 255
197 222 255
197 222 255
197 222 255
197 222 255
197 222 255
197 222 255
197 222 255
197 222 255
197 222 255
196 222 255
196 222 255
196 222 255
196 222 255
196 222 255
196 222 255
196 222 255
196 221 255
195 221 255
195 221 255
195 221 255
195 221 255
195 221 255
194 221 255
194 221 255
194 221 255
194 221 255
194 220 255
193 220 255
193 220 255
193 220 255
193 220 255
192 220 255
192 220 255
192 220 255
191 219 255
191 219 255
191 219 255
190 219 255
190 219 255
190 218 255
189 218 255
188 218 255
188 217 255
187 217 255
187 217 255
187 217 255
187 217 255
188 217 255
188 218 255
188 218 255
189 218 255
189 218 255
190 218 255
190 219 255
191 219 255
191 219 255
192 220 255
193 220 255
194 220 255
195 221 255
196 222 255
197 222 255
199 223 255
201 224 255
204 226 255
210 229 255
212 230 255
212 230 255
212 230 255
212 230 255
212 230 255
212 230 255
212 230 255
212 230 255
212 230 255
212 230 255
212 230 255
212 230 255
211 230 255
211 230 255
211 230 255
211 230 255
211 230 255
211 230 255
211 230 255
211 230 255
211 230 255
211 230 255
211 230 255
211 230 255
130 153 201
60 96 159
62 98 171
61 98 161
60 96 157
63 99 171
62 98 163
62 99 167
62 98 163
61 97 165
62 99 167
61 98 163
63 99 165
62 98 161
61 97 157
62 98 155
61 98 165
63 99 165
63 100 173
63 99 167
63 99 169
62 98 157
62 98 165
61 97 157
63 99 163
62 98 163
62 98 163
61 97 157
61 96 155
61 97 163
62 99 169
61 97 159
62 98 161
61 97 161
63 99 171
63 99 167
62 99 169
61 98 165
61 97 159
61 97 157
62 98 159
62 98 153
62 98 163
63 100 169
63 98 155
61 97 157
60 95 147
61 97 153
63 98 163
61 97 155
62 99 165
62 98 159
61 96 156
60 96 153
63 99 168
61 97 161
62 97 156
62 98 159
61 97 155
60 95 153
62 98 166
62 98 156
63 98 159
62 98 161
62 99 167
61 96 155
62 97 161
60 95 152
60 94 143
62 98 164
60 95 160
60 95 154
62 96 159
62 97 163
60 96 167
60 94 155
61 96 160
62 98 171
59 94 161
139 160 205
211 230 255
211 230 255
211 230 255
211 230 255
211 230 255
211 230 255
211 230 255
211 230 255
211 230 255
211 230 255
211 230 255
211 230 255
211 230 255
212 230 255
212 230 255
212 230 255
212 230 255
212 230 255
212 230 255
212 230 255
212 230 255
212 230 255
212 230 255
212 230 255
186 195 206
147 140 90
155 144 89
147 133 81
144 138 90
156 148 96
158 151 98
154 146 95
147 142 94
146 137 86
149 145 98
149 142 92
147 141 92
146 137 87
159 153 100
156 149 99
143 138 91
160 154 100
157 153 101
153 148 98
156 150 99
159 156 104
162 157 102
156 151 99
159 154 99
161 157 105
158 154 101
159 155 99
169 164 108
156 150 98
166 163 108
153 148 99
161 155 102
159 151 96
159 155 102
162 157 101
168 163 106
156 151 102
166 162 108
167 161 104
167 162 106
172 165 104
171 166 109
174 167 108
172 165 107
169 163 105
165 159 104
172 168 111
169 164 108
172 165 108
169 163 105
169 164 107
170 163 105
167 161 103
172 166 108
169 162 103
172 166 108
174 168 109
172 165 105
170 164 104
173 167 106
169 164 103
174 167 106
173 168 108
166 161 103
170 164 103
170 165 109
168 163 106
170 163 101
173 166 106
167 162 104
169 163 103
172 167 105
177 170 108
173 166 102
172 166 103
166 160 97
170 163 104
175 168 106
169 161 100
172 166 104
172 166 104
169 164 107
170 162 103
168 161 99
164 158 99
175 169 106
174 167 107
174 169 106
164 156 91
164 155 95
168 162 104
173 168 108
171 165 105
169 159 95
167 160 100
169 161 100
167 159 96
166 160 101
171 163 99
171 164 102
172 164 102
173 167 102
175 167 105
170 163 101
171 163 101
168 161 103
171 166 103
165 157 89
173 165 99
171 165 100
165 158 96
174 166 103
168 158 93
170 162 98
174 166 102
162 153 93
165 155 87
162 153 89
170 163 102
170 161 95
166 158 94
162 151 87
165 156 95
171 162 100
166 154 87
167 159 98
169 160 94
171 164 98
168 158 93
163 156 97
167 155 92
164 155 88
160 148 84
173 162 100
165 154 91
204 226 255
203 226 255
203 226 255
203 225 255
203 225 255
203 225 255
202 225 255
202 225 255
202 225 255
202 225 255
202 225 255
201 225 255
201 225 255
201 224 255
201 224 255
201 224 255
200 224 255
200 224 255
200 224 255
200 224 255
200 224 255
199 223 255
199 223 255
199 223 255
199 223 255
199 223 255
199 223 255
199 223 255
199 223 255
199 223 255
199 224 255
199 224 255
199 224 255
199 224 255
199 224 255
200 224 255
200 224 255
199 224 255
200 224 255
200 224 255
199 224 255
200 224 255
200 224 255
199 224 255
199 224 255
200 224 255
199 224 255
199 224 255
199 224 255
199 224 255
199 223 255
199 224 255
199 223 255
199 223 255
199 223 255
199 223 255
199 223 255
199 223 255
199 223 255
199 223 255
199 223 255
199 223 255
199 223 255
199 223 255
199 223 255
199 223 255
199 223 255
199 223 255
198 223 255
198 223 255
198 223 255
198 223 255
198 223 255
198 223 255
198 223 255
198 223 255
198 223 255
198 223 255
198 223 255
197 222 255
197 222 255
197 222 255
197 222 255
197 222 255
197 222 255
197 222 255
196 222 255
196 222 255
196 222 255
196 222 255
196 222 255
196 222 255
196 222 255
195 221 255
195 221 255
195 221 255
195 221 255
195 221 255
194 221 255
194 221 255
194 221 255
194 220 255
193 220 255
193 220 255
193 220 255
193 220 255
192 220 255
192 220 255
191 219 255
191 219 255
191 219 255
190 219 255
190 218 255
189 218 255
189 218 255
188 218 255
188 217 255
188 218 255
188 218 255
189 218 255
189 218 255
189 218 255
190 218 255
190 219 255
191 219 255
191 219 255
192 220 255
193 220 255
193 220 255
194 221 255
195 221 255
197 222 255
198 223 255
200 224 255
202 225 255
205 227 255
211 230 255
212 230 255
212 230 255
212 230 255
212 230 255
212 230 255
212 230 255
212 230 255
212 230 255
212 230 255
212 230 255
212 230 255
212 230 255
212 230 255
212 230 255
212 230 255
212 230 255
212 230 255
212 230 255
212 230 255
212 230 255
212 230 255
211 230 255
161 182 223
63 99 169
62 98 169
61 97 159
63 99 169
62 98 167
62 99 173
61 97 159
62 99 167
63 99 161
60 96 155
62 98 163
63 99 163
62 98 167
62 98 163
60 96 157
61 97 155
61 97 157
62 98 165
62 98 157
62 98 165
62 97 157
64 100 171
60 96 153
62 97 161
61 97 151
62 98 163
62 98 157
62 99 165
61 97 161
62 98 157
62 98 163
61 97 157
61 97 151
62 99 169
61 96 157
63 98 159
62 98 157
63 99 159
62 98 159
62 98 155
61 97 155
62 98 165
61 96 154
62 99 171
62 97 156
61 97 155
62 98 167
62 99 165
62 99 163
61 96 149
61 97 155
62 98 161
62 97 149
63 99 167
62 97 156
62 97 169
61 96 147
62 98 161
62 96 151
62 98 163
61 97 157
61 96 156
61 95 151
61 97 155
61 97 159
62 97 164
60 95 155
60 95 158
61 97 166
60 95 156
61 96 161
59 94 152
61 95 152
61 96 154
61 95 161
61 95 157
60 93 149
62 96 160
60 95 157
61 96 165
166 185 217
211 230 255
211 230 255
212 230 255
212 230 255
212 230 255
212 230 255
212 230 255
212 230 255
212 230 255
212 230 255
212 230 255
212 230 255
212 230 255
212 230 255
212 230 255
212 230 255
212 230 255
212 230 255
212 230 255
212 230 255
212 230 255
212 230 255
196 207 217
141 125 74
149 137 82
149 137 85
150 142 90
155 150 101
156 150 98
151 146 96
144 138 88
144 136 87
156 149 98
145 140 93
146 141 93
150 146 97
146 139 93
145 141 95
146 143 97
152 146 97
145 140 94
147 142 95
153 148 98
159 153 100
149 142 91
158 155 102
157 150 97
151 145 96
167 160 103
171 164 106
158 154 100
166 161 104
161 156 102
161 159 105
164 158 102
159 153 100
159 156 105
166 162 108
161 157 104
166 163 106
165 158 102
164 159 106
170 165 107
165 157 100
166 161 106
169 162 104
164 160 101
174 169 110
163 158 100
175 170 108
170 165 109
165 162 103
166 160 101
170 165 109
173 168 109
176 170 111
168 164 103
171 167 108
174 167 106
173 169 107
176 168 107
165 158 100
167 160 103
172 166 106
169 162 100
170 162 96
173 167 108
176 170 108
175 167 108
174 165 103
170 163 103
179 173 113
173 168 106
174 168 105
173 168 106
172 166 107
173 166 106
172 165 99
169 161 101
174 167 103
172 168 107
171 164 104
173 166 101
166 161 93
171 164 102
174 166 101
173 166 105
169 160 98
167 161 101
174 168 106
175 167 102
174 168 104
168 162 102
167 159 94
170 164 99
172 165 100
171 164 98
171 164 102
173 166 101
171 164 102
169 163 100
171 163 99
165 157 96
171 165 98
173 165 97
169 161 97
173 167 102
166 159 99
177 171 106
170 161 99
167 161 102
171 163 101
165 159 96
172 166 100
170 162 98
164 158 92
170 165 100
169 162 99
169 159 95
166 159 90
165 158 96
172 163 95
174 166 102
169 163 97
173 165 95
163 153 85
169 161 96
166 158 91
165 156 95
162 151 90
177 167 102
166 158 93
169 158 95
164 155 90
162 153 87
173 160 89
169 159 94
170 163 91
162 153 89
204 226 255
204 226 255
204 226 255
203 226 255
203 226 255
203 226 255
203 225 255
203 225 255
203 225 255
202 225 255
202 225 255
202 225 255
202 225 255
202 225 255
201 225 255
201 224 255
201 224 255
201 224 255
201 224 255
200 224 255
200 224 255
200 224 255
200 224 255
200 224 255
200 224 255
200 224 255
200 224 255
200 224 255
200 224 255
200 224 255
200 224 255
200 224 255
200 224 255
200 224 255
200 224 255
200 224 255
200 224 255
200 224 255
200 224 255
200 224 255
200 224 255
200 224 255
200 224 255
200 224 255
200 224 255
200 224 255
200 224 255
200 224 255
200 224 255
200 224 255
200 224 255
200 224 255
200 224 255
200 224 255
200 224 255
200 224 255
200 224 255
200 224 255
200 224 255
200 224 255
200 224 255
200 224 255
200 224 255
200 224 255
200 224 255
200 224 255
200 224 255
199 224 255
199 224 255
199 223 255
199 223 255
199 223 255
199 223 255
199 223 255
199 223 255
199 223 255
199 223 255
199 223 255
198 223 255
198 223 255
198 223 255
198 223 255
198 223 255
198 223 255
198 223 255
198 223 255
198 223 255
197 222 255
197 222 255
197 222 255
197 222 255
197 222 255
197 222 255
197 222 255
196 222 255
196 222 255
196 222 255
196 222 255
196 221 255
195 221 255
195 221 255
195 221 255
195 221 255
194 221 255
194 221 255
194 221 255
193 220 255
193 220 255
193 220 255
192 220 255
192 220 255
192 219 255
191 219 255
191 219 255
190 219 255
190 218 255
189 218 255
189 218 255
189 218 255
189 218 255
189 218 255
190 218 255
190 219 255
191 219 255
191 219 255
191 219 255
192 220 255
193 220 255
193 220 255
194 221 255
195 221 255
196 222 255
197 222 255
199 223 255
200 224 255
203 225 255
206 227 255
212 230 255
212 231 255
212 231 255
212 231 255
212 231 255
212 231 255
212 230 255
212 230 255
212 230 255
212 230 255
212 230 255
212 230 255
212 230 255
212 230 255
212 230 255
212 230 255
212 230 255
212 230 255
212 230 255
212 230 255
212 230 255
189 208 237
63 99 169
62 98 163
61 97 159
62 98 167
61 97 159
63 99 163
61 98 161
61 97 159
61 97 159
62 98 159
61 97 163
62 98 163
61 97 159
62 98 163
61 97 159
61 96 149
63 99 167
61 96 165
61 97 159
61 97 163
61 97 151
61 96 147
62 98 159
61 97 151
61 97 155
62 98 161
63 99 161
62 98 159
61 97 157
61 97 153
62 98 163
63 99 169
62 98 167
61 96 153
62 98 161
61 97 155
63 99 167
61 96 144
61 97 157
62 98 163
61 97 151
63 99 163
63 99 167
61 97 155
62 98 165
62 97 159
62 97 157
62 98 161
60 96 151
61 97 162
61 97 156
62 98 161
62 98 160
63 99 168
60 95 147
62 98 163
61 97 151
60 95 152
62 98 157
62 98 166
62 98 166
60 96 156
62 97 156
61 97 158
59 94 149
61 96 154
62 98 162
61 97 154
60 94 148
60 95 151
61 96 161
61 95 156
61 95 158
61 95 155
61 95 153
61 97 162
62 97 166
60 93 146
61 96 166
61 94 152
60 92 149
77 104 159
178 197 229
212 230 255
212 230 255
212 230 255
212 230 255
212 230 255
212 230 255
212 230 255
212 230 255
212 230 255
212 230 255
212 230 255
212 230 255
212 230 255
212 230 255
212 230 255
212 231 255
212 231 255
212 231 255
212 231 255
212 231 255
206 220 237
153 141 94
149 141 90
150 140 87
154 142 86
140 131 84
135 124 78
145 139 90
149 141 90
148 143 93
153 144 92
136 131 88
144 141 94
145 142 96
155 150 101
129 125 84
159 155 102
151 147 98
145 142 97
156 150 98
157 151 99
154 150 101
158 150 97
152 147 98
154 149 96
158 153 99
156 150 98
159 152 98
163 159 104
156 153 100
164 158 104
154 148 97
169 162 103
163 154 99
163 158 103
165 159 104
164 159 104
160 157 103
171 166 108
169 164 106
165 159 103
166 160 101
164 159 103
165 161 106
171 167 105
166 162 103
166 161 105
170 165 103
171 166 108
167 165 107
168 164 105
173 168 107
170 166 107
167 161 103
172 165 105
166 160 100
176 169 108
171 166 101
170 165 108
169 165 106
173 167 110
172 167 109
174 168 110
172 166 104
165 159 99
169 162 97
169 164 106
169 161 97
167 162 101
176 168 103
174 167 104
170 165 100
175 169 106
177 170 110
172 167 105
170 163 101
172 167 105
174 168 106
176 168 105
171 165 104
177 171 109
168 162 103
169 166 105
169 163 101
167 160 99
172 164 101
174 168 106
169 159 96
170 165 100
172 167 102
171 166 102
170 164 103
175 170 107
172 165 105
171 165 99
169 164 102
169 162 97
169 161 98
172 165 104
170 163 99
173 166 104
170 162 99
163 155 93
170 165 103
174 166 102
171 164 97
171 165 102
167 161 97
170 162 96
173 165 102
173 166 101
170 164 105
166 156 90
171 162 99
169 161 100
171 162 96
166 157 93
165 158 93
165 155 92
170 158 89
162 153 92
163 154 89
167 160 96
169 160 100
173 164 99
165 158 95
168 158 96
159 150 87
166 158 96
166 159 95
162 154 89
167 158 96
167 158 95
163 155 95
164 154 88
170 161 94
166 157 90
169 159 98
204 226 255
204 226 255
204 226 255
204 226 255
204 226 255
204 226 255
203 226 255
203 226 255
203 225 255
203 225 255
203 225 255
202 225 255
202 225 255
202 225 255
202 225 255
202 225 255
201 225 255
201 225 255
201 224 255
201 224 255
201 224 255
201 224 255
201 224 255
201 224 255
201 224 255
201 224 255
201 224 255
201 224 255
201 224 255
201 224 255
201 224 255
201 224 255
201 224 255
201 224 255
201 225 255
201 225 255
201 225 255
201 225 255
201 225 255
201 224 255
201 224 255
201 225 255
201 225 255
201 225 255
201 224 255
201 225 255
201 224 255
201 224 255
201 224 255
201 224 255
201 224 255
201 224 255
201 224 255
201 224 255
201 224 255
201 224 255
201 224 255
201 224 255
201 224 255
201 224 255
201 224 255
201 224 255
201 224 255
201 224 255
200 224 255
200 224 255
200 224 255
200 224 255
200 224 255
200 224 255
200 224 255
200 224 255
200 224 255
200 224 255
200 224 255
200 224 255
200 224 255
200 224 255
199 224 255
199 223 255
199 223 255
199 223 255
199 223 255
199 223 255
199 223 255
199 223 255
199 223 255
198 223 255
198 223 255
198 223 255
198 223 255
198 223 255
198 223 255
198 223 255
197 222 255
197 222 255
197 222 255
197 222 255
197 222 255
196 222 255
196 222 255
196 222 255
196 222 255
196 221 255
195 221 255
195 221 255
195 221 255
194 221 255
194 221 255
194 221 255
193 220 255
193 220 255
193 220 255
192 220 255
192 220 255
191 219 255
191 219 255
190 219 255
190 218 255
190 218 255
190 219 255
190 219 255
191 219 255
191 219 255
191 219 255
192 220 255
192 220 255
193 220 255
193 220 255
194 221 255
195 221 255
196 222 255
197 222 255
198 223 255
199 224 255
201 225 255
204 226 255
207 228 255
212 231 255
213 231 255
213 231 255
213 231 255
212 231 255
212 231 255
212 231 255
212 231 255
212 231 255
212 231 255
212 231 255
212 231 255
212 231 255
212 231 255
212 230 255
212 230 255
212 230 255
212 230 255
212 230 255
204 223 248
89 118 175
61 98 165
62 98 167
62 97 155
62 97 165
61 98 165
63 99 171
61 97 153
62 97 159
61 97 159
63 99 171
62 97 151
62 97 155
62 98 161
62 98 163
62 97 155
62 98 161
62 98 165
63 99 171
62 98 163
62 97 153
62 98 165
63 98 159
62 98 161
62 98 167
63 99 167
62 98 159
62 99 165
61 96 157
61 96 144
62 97 151
62 98 161
62 98 165
62 98 159
61 96 149
61 97 155
62 98 157
63 99 165
63 99 165
61 97 147
61 97 153
61 97 157
62 98 161
62 98 163
61 97 153
62 97 157
63 99 163
61 97 154
61 97 153
62 97 149
62 98 157
61 96 153
63 99 161
62 97 157
61 95 149
62 97 161
60 95 149
62 99 169
60 97 155
62 97 149
61 96 151
61 96 150
61 96 159
62 97 154
61 97 156
62 98 164
61 97 149
62 98 163
60 94 150
59 95 149
58 92 145
62 97 162
60 95 160
62 97 168
59 94 147
60 95 154
59 92 149
63 97 164
61 94 159
60 96 159
60 96 163
60 94 156
60 95 166
87 114 172
204 223 249
212 230 255
212 230 255
212 230 255
212 230 255
212 230 255
212 231 255
212 231 255
212 231 255
212 231 255
212 231 255
212 231 255
212 231 255
212 231 255
212 231 255
212 231 255
213 231 255
213 231 255
213 231 255
204 218 234
152 147 113
144 134 86
137 129 85
139 128 79
150 144 93
148 139 88
152 143 92
145 133 84
144 139 93
145 142 97
150 146 97
148 143 95
142 136 88
153 147 97
139 134 87
162 155 101
152 148 98
148 144 95
154 152 102
152 148 97
151 147 96
159 155 102
157 152 101
164 159 104
153 147 95
159 154 101
161 156 103
153 148 98
162 158 104
162 157 104
160 154 97
161 158 102
152 150 100
163 157 104
157 154 103
164 159 105
172 166 107
165 162 106
164 160 103
168 162 104
170 167 108
161 155 95
170 165 107
168 164 107
167 163 102
168 163 106
171 166 106
165 161 103
173 168 108
173 169 110
172 168 108
175 169 109
172 166 109
163 155 95
167 163 106
169 163 104
165 159 101
172 167 108
174 169 111
171 166 107
176 171 109
169 163 100
174 167 104
172 166 104
173 169 110
173 167 107
174 167 109
174 167 105
175 169 107
172 166 107
166 162 102
174 169 109
175 167 104
177 168 106
174 165 102
177 171 110
173 166 104
172 165 102
175 170 106
171 165 102
173 168 105
172 166 99
175 168 105
173 165 102
178 170 104
170 165 103
171 163 101
174 168 108
172 165 105
172 165 101
168 158 92
175 167 101
178 170 106
172 165 98
170 164 101
171 163 90
169 163 99
176 166 103
172 164 100
172 166 103
174 165 100
171 164 100
169 163 99
172 164 98
171 164 100
168 159 92
175 166 97
176 168 104
172 164 99
168 161 94
165 157 92
165 156 86
170 162 98
165 155 90
167 161 99
171 161 95
165 158 91
171 162 100
164 156 88
164 158 93
168 162 94
176 168 100
167 158 92
165 155 95
169 158 98
165 156 94
163 152 85
171 163 101
166 157 86
168 157 93
168 158 91
164 155 91
169 160 95
165 156 87
160 150 89
171 162 96
165 155 85
169 159 99
205 227 255
205 226 255
205 226 255
204 226 255
204 226 255
204 226 255
204 226 255
204 226 255
203 226 255
203 226 255
203 226 255
203 225 255
203 225 255
203 225 255
202 225 255
202 225 255
202 225 255
202 225 255
202 225 255
202 225 255
202 225 255
202 225 255
202 225 255
202 225 255
202 225 255
202 225 255
202 225 255
202 225 255
202 225 255
202 225 255
202 225 255
202 225 255
202 225 255
202 225 255
202 225 255
202 225 255
202 225 255
202 225 255
202 225 255
202 225 255
202 225 255
202 225 255
202 225 255
202 225 255
202 225 255
202 225 255
202 225 255
202 225 255
202 225 255
202 225 255
202 225 255
202 225 255
202 225 255
202 225 255
202 225 255
202 225 255
202 225 255
202 225 255
202 225 255
202 225 255
202 225 255
201 225 255
201 225 255
201 225 255
201 225 255
201 225 255
201 225 255
201 224 255
201 224 255
201 224 255
201 224 255
201 224 255
201 224 255
201 224 255
201 224 255
201 224 255
200 224 255
200 224 255
200 224 255
200 224 255
200 224 255
200 224 255
200 224 255
200 224 255
200 224 255
200 224 255
199 224 255
199 223 255
199 223 255
199 223 255
199 223 255
199 223 255
199 223 255
199 223 255
198 223 255
198 223 255
198 223 255
198 223 255
198 223 255
198 223 255
197 222 255
197 222 255
197 222 255
197 222 255
196 222 255
196 222 255
196 222 255
196 222 255
195 221 255
195 221 255
195 221 255
195 221 255
194 221 255
194 221 255
193 220 255
193 220 255
193 220 255
192 219 255
191 219 255
191 219 255
191 219 255
191 219 255
191 219 255
192 219 255
192 220 255
192 220 255
193 220 255
193 220 255
194 221 255
194 221 255
195 221 255
196 222 255
197 222 255
198 223 255
199 223 255
200 224 255
202 225 255
205 226 255
209 229 255
213 231 255
213 231 255
213 231 255
213 231 255
213 231 255
213 231 255
213 231 255
213 231 255
213 231 255
213 231 255
213 231 255
213 231 255
213 231 255
213 231 255
212 231 255
212 231 255
212 231 255
212 231 255
142 165 209
62 97 161
61 96 147
62 98 161
62 98 157
61 97 155
62 98 163
62 98 159
61 98 163
62 98 165
61 97 159
62 98 155
62 98 157
64 100 171
62 99 165
61 97 149
62 98 161
62 98 163
62 98 155
62 98 163
63 99 161
63 99 167
60 96 140
61 98 163
62 97 157
61 97 159
61 96 149
61 98 159
62 98 153
62 97 151
62 98 157
62 98 157
62 98 157
61 97 155
63 99 163
62 97 163
62 97 159
62 98 161
63 99 155
61 97 155
61 97 161
62 97 153
62 98 161
62 97 155
62 98 160
61 96 157
62 98 157
61 97 151
61 97 149
60 96 144
62 98 156
62 98 157
62 97 159
61 96 153
63 99 171
62 98 149
60 95 147
62 98 161
62 99 163
62 98 165
61 96 147
63 99 168
61 96 155
62 97 158
60 95 151
60 95 157
62 98 166
62 97 160
61 97 153
60 95 152
61 95 156
61 96 158
61 95 152
61 96 155
60 94 152
60 96 156
59 93 141
61 96 157
60 95 154
60 94 156
61 97 166
59 92 144
59 91 152
59 93 160
59 92 149
138 158 192
212 231 255
212 231 255
212 231 255
212 231 255
212 231 255
213 231 255
213 231 255
213 231 255
213 231 255
213 231 255
213 231 255
213 231 255
213 231 255
213 231 255
213 231 255
213 231 255
213 231 255
211 228 251
159 158 136
142 133 86
150 140 89
143 130 77
135 126 79
137 130 86
140 135 90
149 142 93
150 145 95
138 132 88
144 138 92
146 143 96
140 135 91
143 140 96
148 144 97
153 147 97
141 138 95
153 147 95
146 140 92
152 148 99
149 143 94
160 158 105
158 155 102
159 154 100
163 158 103
150 147 97
162 156 101
160 158 107
162 157 103
159 151 98
158 155 105
162 156 98
159 155 100
159 157 104
169 163 105
164 160 106
149 145 97
173 168 110
155 151 100
171 166 108
165 160 104
170 165 105
167 162 100
166 161 100
166 161 102
169 164 102
170 166 103
163 159 103
171 166 108
168 161 102
164 160 102
173 165 104
168 163 103
177 171 107
169 162 98
173 168 106
167 162 102
173 166 106
172 166 104
176 169 102
178 171 110
176 171 111
169 163 101
173 167 103
176 171 109
175 169 103
169 163 101
175 169 109
176 169 108
174 167 102
167 160 97
176 170 109
173 165 106
173 165 105
173 169 103
176 169 107
172 166 105
175 168 105
173 167 101
172 166 106
175 169 103
175 167 106
173 168 106
174 168 106
175 168 103
172 165 101
174 169 106
171 165 101
170 165 98
175 168 99
169 164 105
177 171 104
176 169 103
170 163 96
175 168 106
173 166 103
173 166 101
169 162 97
171 163 100
172 164 96
172 167 103
167 160 97
170 162 97
170 162 99
176 166 104
176 169 105
170 160 96
173 166 101
166 156 92
167 161 100
167 160 97
173 165 101
168 161 94
173 167 102
167 159 93
168 161 93
167 161 101
167 155 86
166 156 92
161 152 88
171 164 98
168 159 93
167 155 90
171 166 96
166 157 91
165 155 92
165 156 86
164 157 93
170 160 99
171 163 93
164 153 91
170 161 96
164 153 90
163 155 91
161 150 83
170 160 90
162 151 88
172 165 100
167 156 92
205 227 255
205 227 255
205 227 255
205 226 255
205 226 255
205 226 255
204 226 255
204 226 255
204 226 255
204 226 255
204 226 255
203 226 255
203 226 255
203 226 255
203 225 255
203 225 255
202 225 255
202 225 255
202 225 255
202 225 255
202 225 255
202 225 255
203 225 255
203 225 255
203 225 255
203 225 255
203 225 255
203 225 255
203 225 255
203 225 255
203 225 255
203 225 255
203 225 255
203 225 255
203 225 255
203 225 255
203 225 255
203 225 255
203 225 255
203 225 255
203 225 255
203 225 255
203 225 255
203 225 255
203 225 255
203 225 255
203 225 255
203 225 255
203 225 255
203 225 255
203 225 255
203 225 255
203 225 255
203 225 255
203 225 255
203 225 255
203 225 255
202 225 255
202 225 255
202 225 255
202 225 255
202 225 255
202 225 255
202 225 255
202 225 255
202 225 255
202 225 255
202 225 255
202 225 255
202 225 255
202 225 255
202 225 255
202 225 255
202 225 255
202 225 255
202 225 255
201 225 255
201 225 255
201 224 255
201 224 255
201 224 255
201 224 255
201 224 255
201 224 255
201 224 255
201 224 255
200 224 255
200 224 255
200 224 255
200 224 255
200 224 255
200 224 255
200 224 255
199 224 255
199 224 255
199 223 255
199 223 255
199 223 255
199 223 255
199 223 255
198 223 255
198 223 255
198 223 255
198 223 255
198 223 255
197 222 255
197 222 255
197 222 255
197 222 255
196 222 255
196 222 255
196 222 255
195 221 255
195 221 255
195 221 255
194 221 255
194 221 255
193 220 255
193 220 255
192 220 255
192 220 255
192 219 255
192 219 255
192 220 255
192 220 255
193 220 255
193 220 255
194 220 255
194 221 255
195 221 255
195 221 255
196 222 255
197 222 255
198 223 255
199 223 255
200 224 255
201 225 255
203 226 255
206 227 255
211 230 255
213 231 255
213 231 255
213 231 255
213 231 255
213 231 255
213 231 255
213 231 255
213 231 255
213 231 255
213 231 255
213 231 255
213 231 255
213 231 255
213 231 255
213 231 255
213 231 255
179 198 230
63 99 169
62 98 161
61 97 165
61 96 153
62 98 165
62 98 167
61 97 155
62 98 161
62 98 161
62 98 165
62 98 159
61 97 161
63 99 169
64 100 173
60 95 144
62 98 157
61 97 151
62 98 161
61 97 155
60 95 147
62 98 165
62 98 161
63 98 163
61 97 155
60 96 149
64 99 165
62 97 149
61 97 153
59 94 142
60 95 133
61 97 155
60 96 147
63 99 169
61 97 151
61 96 147
62 98 167
61 96 157
59 94 144
63 99 163
61 96 149
61 97 155
62 98 153
63 98 164
61 97 149
61 97 161
62 98 157
61 96 154
61 96 151
62 97 157
62 97 157
62 98 163
60 96 147
63 98 159
62 98 155
62 97 157
61 97 162
61 96 151
61 97 151
59 95 137
63 99 163
62 97 151
59 95 142
61 96 153
62 98 162
62 97 157
59 94 144
61 95 154
59 93 158
62 97 158
61 96 148
61 96 155
60 94 146
60 95 154
60 95 145
62 97 160
62 98 164
60 95 152
61 96 162
61 95 155
60 93 149
61 94 153
60 95 160
59 92 148
59 93 154
59 91 143
58 89 148
185 204 232
213 231 255
213 231 255
213 231 255
213 231 255
213 231 255
213 231 255
213 231 255
213 231 255
213 231 255
213 231 255
213 231 255
213 231 255
213 231 255
213 231 255
213 231 255
213 231 255
185 192 199
149 136 80
138 128 81
147 140 91
138 132 88
143 134 83
134 126 83
136 125 76
135 127 82
148 142 93
135 128 83
147 143 95
138 133 87
148 142 93
136 134 92
138 134 92
151 149 101
142 141 97
144 140 94
136 133 89
148 145 96
143 139 93
148 144 93
154 149 99
147 144 97
156 151 99
154 152 103
158 152 100
165 162 109
161 157 103
153 148 95
155 151 99
165 161 105
148 146 95
155 151 97
170 163 103
162 155 99
165 162 109
166 161 106
170 166 105
165 161 107
160 156 102
170 165 109
168 163 104
160 157 103
166 161 101
173 166 106
167 160 104
163 158 95
171 166 107
171 165 102
178 169 104
170 164 107
169 165 102
169 163 102
174 166 105
168 161 100
169 162 102
175 170 107
173 168 105
174 167 106
177 170 107
173 168 108
178 172 111
170 163 103
175 166 106
173 166 101
164 159 97
176 170 108
177 169 101
167 159 96
172 167 103
177 171 107
173 168 107
169 163 100
172 166 103
175 168 107
174 165 102
170 162 101
176 169 104
175 168 103
173 165 104
174 166 101
170 163 102
173 166 104
173 164 101
174 166 100
173 167 101
174 169 107
170 164 102
175 170 106
173 167 102
170 162 96
173 165 96
174 168 101
174 167 102
169 162 93
170 163 100
176 168 102
171 163 93
174 167 101
168 160 97
171 166 102
171 165 103
175 167 101
174 167 100
177 168 102
169 162 94
167 161 93
169 162 97
168 158 92
166 156 89
169 161 93
173 165 104
165 158 95
174 166 101
168 160 99
174 167 98
173 164 101
169 161 95
170 164 101
169 158 92
170 164 99
165 157 94
174 166 101
169 160 98
167 159 93
165 156 89
161 152 85
165 156 89
166 157 92
170 159 92
165 156 91
168 159 96
161 153 93
174 163 95
169 160 94
165 154 89
159 148 81
163 153 90
206 227 255
206 227 255
206 227 255
205 227 255
205 227 255
205 227 255
205 226 255
205 226 255
205 226 255
204 226 255
204 226 255
204 226 255
204 226 255
204 226 255
203 226 255
203 226 255
203 226 255
203 226 255
203 226 255
203 226 255
203 226 255
203 226 255
203 226 255
203 226 255
203 226 255
203 226 255
203 226 255
204 226 255
204 226 255
204 226 255
204 226 255
204 226 255
204 226 255
204 226 255
204 226 255
204 226 255
204 226 255
204 226 255
204 226 255
204 226 255
204 226 255
204 226 255
204 226 255
204 226 255
204 226 255
204 226 255
204 226 255
204 226 255
203 226 255
204 226 255
203 226 255
203 226 255
203 226 255
203 226 255
203 226 255
203 226 255
203 226 255
203 226 255
203 226 255
203 226 255
203 226 255
203 226 255
203 225 255
203 225 255
203 225 255
203 225 255
203 225 255
203 225 255
203 225 255
203 225 255
203 225 255
203 225 255
202 225 255
202 225 255
202 225 255
202 225 255
202 225 255
202 225 255
202 225 255
202 225 255
202 225 255
202 225 255
202 225 255
202 225 255
202 225 255
201 225 255
201 225 255
201 224 255
201 224 255
201 224 255
201 224 255
201 224 255
201 224 255
200 224 255
200 224 255
200 224 255
200 224 255
200 224 255
200 224 255
200 224 255
199 224 255
199 223 255
199 223 255
199 223 255
199 223 255
198 223 255
198 223 255
198 223 255
198 223 255
197 222 255
197 222 255
197 222 255
197 222 255
196 222 255
196 222 255
196 222 255
195 221 255
195 221 255
195 221 255
194 221 255
193 220 255
193 220 255
192 220 255
193 220 255
193 220 255
193 220 255
194 220 255
194 221 255
195 221 255
195 221 255
196 221 255
196 222 255
197 222 255
198 223 255
199 223 255
200 224 255
201 224 255
202 225 255
204 226 255
208 228 255
213 231 255
213 231 255
213 231 255
213 231 255
213 231 255
213 231 255
213 231 255
213 231 255
213 231 255
213 231 255
213 231 255
213 231 255
213 231 255
213 231 255
213 231 255
213 231 255
89 117 175
62 98 157
62 99 169
61 98 167
63 99 167
61 97 161
62 98 159
60 96 157
62 98 161
60 96 149
61 96 155
63 99 159
62 98 159
61 97 157
62 98 167
61 97 155
61 97 159
63 99 167
60 95 149
62 98 161
62 98 161
63 99 173
62 98 155
63 99 167
60 96 155
61 97 151
61 96 153
63 99 167
61 97 147
61 97 147
62 98 161
63 99 167
61 97 163
61 96 151
62 98 157
61 97 149
62 97 153
61 96 142
62 98 159
62 98 159
60 96 144
61 96 149
61 97 158
61 97 155
63 98 159
61 97 153
62 98 157
61 96 147
62 97 153
61 96 155
61 96 151
60 95 149
63 99 165
63 98 165
61 97 153
62 97 159
61 96 147
61 96 147
58 93 138
61 96 147
61 96 143
59 94 140
63 98 162
61 96 142
60 96 151
60 96 156
61 97 151
61 97 157
62 97 160
60 94 147
63 97 160
62 97 164
62 98 161
60 95 154
62 97 160
60 95 143
60 94 146
61 96 158
61 96 155
61 96 150
61 96 164
59 94 150
60 95 157
62 95 159
61 95 156
59 90 140
57 86 133
97 123 171
209 227 252
213 231 255
213 231 255
213 231 255
213 231 255
213 231 255
213 231 255
213 231 255
213 231 255
213 231 255
213 231 255
213 231 255
213 231 255
213 231 255
213 231 255
205 218 234
142 131 83
148 139 88
140 129 80
134 124 80
151 144 93
143 137 90
133 126 83
134 129 85
138 135 89
151 146 95
138 133 88
138 134 89
133 125 81
125 122 84
148 142 94
142 139 93
149 148 100
140 137 93
151 148 97
155 151 97
151 147 96
145 142 94
154 150 98
160 156 104
154 151 102
154 151 101
157 154 102
151 149 100
158 155 100
159 155 101
158 153 102
154 150 96
159 154 100
163 159 103
161 156 102
162 159 105
166 161 105
151 148 92
166 161 104
165 162 106
172 166 108
170 165 106
166 163 106
163 156 103
168 164 105
167 161 106
164 160 103
172 167 108
166 161 105
172 165 107
171 165 103
170 164 104
171 166 103
171 166 108
170 166 102
167 158 101
173 167 103
169 164 103
174 166 104
176 170 107
175 169 102
168 164 100
175 169 104
169 164 104
176 170 105
172 165 101
174 167 102
174 169 106
179 172 111
173 165 101
174 167 106
173 166 104
173 167 103
170 164 97
172 167 104
174 167 105
172 165 106
174 167 104
178 171 109
172 165 103
170 163 100
172 166 103
172 166 102
173 167 99
179 171 107
175 167 101
173 165 101
175 169 104
172 163 96
171 164 102
171 164 99
171 164 94
168 162 101
171 165 98
171 164 98
177 166 104
167 163 98
175 169 105
172 163 95
164 154 88
168 162 98
167 160 98
173 167 104
176 169 102
176 167 102
166 159 97
171 161 96
168 160 97
171 162 96
168 162 85
169 162 97
170 161 97
168 160 94
172 163 100
172 165 101
169 160 96
176 168 101
171 162 97
168 159 89
164 154 92
176 167 100
174 166 99
172 163 96
170 160 89
167 159 91
169 160 95
171 164 93
167 158 90
170 162 93
168 159 94
164 156 91
173 166 99
172 165 99
168 160 98
168 158 89
164 157 92
167 157 85
168 158 88
163 153 82
164 153 84
206 227 255
206 227 255
206 227 255
206 227 255
206 227 255
206 227 255
205 227 255
205 227 255
205 227 255
205 227 255
205 226 255
205 226 255
204 226 255
204 226 255
204 226 255
204 226 255
204 226 255
204 226 255
204 226 255
204 226 255
204 226 255
204 226 255
204 226 255
204 226 255
204 226 255
204 226 255
204 226 255
204 226 255
204 226 255
204 226 255
204 226 255
204 226 255
204 226 255
204 226 255
204 226 255
204 226 255
204 226 255
204 226 255
204 226 255
204 226 255
204 226 255
204 226 255
204 226 255
204 226 255
204 226 255
204 226 255
204 226 255
204 226 255
204 226 255
204 226 255
204 226 255
204 226 255
204 226 255
204 226 255
204 226 255
204 226 255
204 226 255
204 226 255
204 226 255
204 226 255
204 226 255
204 226 255
204 226 255
204 226 255
204 226 255
204 226 255
204 226 255
204 226 255
204 226 255
203 226 255
203 226 255
203 226 255
203 226 255
203 226 255
203 226 255
203 226 255
203 225 255
203 225 255
203 225 255
203 225 255
203 225 255
203 225 255
203 225 255
203 225 255
202 225 255
202 225 255
202 225 255
202 225 255
202 225 255
202 225 255
202 225 255
202 225 255
202 225 255
201 225 255
201 225 255
201 224 255
201 224 255
201 224 255
201 224 255
201 224 255
200 224 255
200 224 255
200 224 255
200 224 255
200 224 255
200 224 255
199 224 255
199 223 255
199 223 255
199 223 255
198 223 255
198 223 255
198 223 255
198 223 255
197 222 255
197 222 255
197 222 255
196 222 255
196 222 255
195 221 255
195 221 255
195 221 255
194 221 255
193 220 255
194 220 255
194 221 255
194 221 255
195 221 255
195 221 255
195 221 255
196 222 255
197 222 255
197 222 255
198 223 255
199 223 255
200 224 255
201 224 255
202 225 255
204 226 255
206 227 255
209 229 255
214 231 255
214 231 255
214 231 255
214 231 255
214 231 255
214 231 255
213 231 255
213 231 255
213 231 255
213 231 255
213 231 255
213 231 255
213 231 255
213 231 255
159 180 215
61 96 153
61 97 165
61 97 159
60 97 155
62 98 163
61 97 163
62 98 163
62 98 171
62 98 163
62 98 159
62 98 159
61 97 157
61 97 159
61 96 151
62 98 157
62 98 161
63 98 159
60 95 147
61 97 153
63 99 165
61 97 155
62 98 159
62 98 169
60 95 151
62 98 157
61 97 147
62 98 159
62 97 151
62 98 159
61 97 155
62 97 153
61 97 151
62 98 157
62 97 157
61 97 149
62 98 155
61 97 151
63 98 155
62 98 159
60 95 149
61 97 155
62 98 161
62 97 153
62 98 155
62 98 159
62 98 155
63 99 163
62 97 153
61 96 149
61 97 159
63 99 165
63 99 163
61 97 163
61 96 155
61 97 153
63 99 161
61 97 153
61 96 147
62 98 155
62 97 149
60 95 147
60 95 145
62 98 159
61 96 154
62 97 154
62 96 152
61 95 143
60 95 149
61 96 149
62 98 166
61 96 157
60 96 158
62 97 162
60 96 149
62 97 158
60 95 156
59 93 146
59 92 137
62 98 161
61 94 154
60 93 156
60 95 149
59 93 144
62 95 152
61 94 149
58 91 147
58 91 149
59 90 148
154 174 213
213 231 255
213 231 255
213 231 255
213 231 255
213 231 255
213 231 255
213 231 255
213 231 255
214 231 255
214 231 255
214 231 255
214 231 255
214 231 255
210 226 248
156 149 116
140 127 77
150 143 92
151 142 91
130 118 72
139 132 85
144 140 93
123 116 75
137 131 86
135 132 89
143 137 89
132 126 83
133 126 83
138 133 90
142 138 92
150 144 93
137 131 83
148 143 92
151 147 95
138 135 89
152 148 98
149 145 96
144 139 91
148 143 95
145 141 92
143 141 91
150 145 91
153 151 102
146 141 95
157 154 101
148 146 92
159 155 104
163 159 103
156 154 101
162 157 101
156 151 97
163 159 101
164 158 100
161 154 98
162 158 103
158 152 93
162 158 103
164 162 103
166 161 99
171 166 107
165 160 102
161 157 101
164 160 105
172 168 111
166 161 98
174 165 100
173 168 106
164 161 102
169 163 101
169 164 103
172 166 106
171 167 107
173 168 104
173 166 103
171 164 98
172 167 103
177 172 113
174 168 102
178 171 106
175 168 106
172 164 102
175 169 101
172 165 103
172 167 108
174 169 106
173 167 104
171 167 105
172 165 102
176 168 105
171 165 103
173 169 106
176 168 101
176 170 105
174 169 105
173 166 99
175 168 103
172 165 102
172 164 97
174 167 106
168 162 99
176 170 107
170 164 95
169 163 97
171 164 97
175 166 100
175 169 106
174 167 98
178 170 99
173 166 102
174 169 106
165 159 100
169 161 95
173 168 107
171 162 102
173 164 101
169 161 95
168 160 97
170 164 94
172 164 97
170 162 96
174 165 99
176 167 99
170 164 90
175 168 106
172 163 96
175 165 99
162 153 87
169 161 94
172 164 94
167 161 97
168 162 94
169 163 96
172 161 92
167 157 91
164 158 89
172 163 95
171 162 95
175 167 101
170 163 94
173 166 101
168 158 92
172 162 94
167 157 94
161 155 91
167 158 93
169 160 89
169 160 93
169 161 92
159 150 81
167 157 89
166 156 87
164 152 90
156 147 83
164 152 88
168 157 95
171 163 101
207 228 255
207 227 255
207 227 255
206 227 255
206 227 255
206 227 255
206 227 255
206 227 255
206 227 255
205 227 255
205 227 255
205 227 255
205 227 255
205 226 255
205 226 255
205 226 255
205 226 255
205 226 255
205 226 255
205 226 255
205 226 255
205 226 255
205 227 255
205 227 255
205 227 255
205 227 255
205 227 255
205 227 255
205 227 255
205 227 255
205 227 255
205 227 255
205 227 255
205 227 255
205 227 255
205 227 255
205 227 255
205 227 255
205 227 255
205 227 255
205 227 255
205 227 255
205 227 255
205 227 255
205 227 255
205 227 255
205 227 255
205 227 255
205 227 255
205 227 255
205 227 255
205 227 255
205 226 255
205 227 255
205 226 255
205 226 255
205 226 255
205 226 255
205 226 255
205 226 255
205 226 255
205 226 255
205 226 255
205 226 255
204 226 255
204 226 255
204 226 255
204 226 255
204 226 255
204 226 255
204 226 255
204 226 255
204 226 255
204 226 255
204 226 255
204 226 255
204 226 255
204 226 255
204 226 255
204 226 255
204 226 255
204 226 255
203 226 255
203 226 255
203 226 255
203 226 255
203 225 255
203 225 255
203 225 255
203 225 255
203 225 255
203 225 255
202 225 255
202 225 255
202 225 255
202 225 255
202 225 255
202 225 255
202 225 255
201 225 255
201 225 255
201 225 255
201 224 255
201 224 255
201 224 255
201 224 255
200 224 255
200 224 255
200 224 255
200 224 255
200 224 255
199 224 255
199 223 255
199 223 255
199 223 255
198 223 255
198 223 255
198 223 255
197 222 255
197 222 255
196 222 255
196 222 255
195 221 255
195 221 255
194 221 255
195 221 255
195 221 255
195 221 255
196 221 255
196 222 255
196 222 255
197 222 255
198 223 255
198 223 255
199 223 255
200 224 255
201 224 255
202 225 255
203 225 255
205 226 255
207 228 255
212 230 255
214 231 255
214 231 255
214 231 255
214 231 255
214 231 255
214 231 255
214 231 255
214 231 255
214 231 255
214 231 255
214 231 255
214 231 255
197 216 242
63 99 173
60 96 151
61 98 165
61 97 159
62 98 165
63 99 169
63 98 159
61 97 151
63 99 169
61 97 157
61 96 159
61 97 157
60 96 153
61 97 155
63 99 167
63 99 167
62 97 149
62 97 155
62 98 161
62 98 157
61 96 147
61 97 153
60 96 137
61 96 149
60 97 153
63 99 157
62 97 155
62 98 161
61 96 149
60 96 147
62 98 159
61 97 155
61 97 155
61 96 137
61 96 147
62 97 155
62 98 155
61 97 153
61 98 159
61 97 151
62 97 149
61 97 157
60 95 142
61 96 142
62 97 159
61 96 147
61 96 147
63 98 160
62 97 147
63 99 159
62 98 153
59 94 144
62 98 153
61 97 155
61 96 149
62 98 159
61 96 151
59 95 144
62 98 157
62 98 160
61 96 151
62 97 156
62 97 149
61 97 156
62 97 165
61 97 153
62 97 154
62 96 154
60 95 149
61 95 148
62 98 153
60 95 146
61 95 152
59 94 147
60 95 153
61 96 151
59 92 139
58 91 135
61 96 156
59 93 150
62 96 161
61 94 145
60 95 154
58 91 137
61 95 153
61 96 161
58 90 131
59 91 153
58 89 137
81 106 152
197 216 244
214 231 255
214 231 255
214 231 255
214 231 255
214 231 255
214 231 255
214 231 255
214 231 255
214 231 255
214 231 255
214 231 255
214 231 255
189 195 189
150 139 81
142 131 81
134 124 80
140 132 83
124 115 73
142 137 90
142 137 91
135 127 85
133 129 86
148 143 93
133 125 78
140 133 89
122 120 86
145 141 94
139 136 91
144 138 91
143 141 94
146 141 93
140 137 91
144 138 90
131 130 88
149 146 96
144 139 90
147 146 101
151 147 99
156 150 96
159 155 102
152 149 96
152 148 91
151 148 99
160 157 102
154 151 98
167 160 105
167 164 107
155 151 99
159 155 101
163 158 102
167 162 105
160 155 99
166 163 104
168 165 105
164 159 101
175 170 110
166 161 102
167 162 101
162 156 100
165 159 100
163 159 98
163 158 101
173 167 108
171 166 103
173 166 103
165 160 104
174 168 104
168 162 100
171 164 100
169 164 101
175 169 107
168 165 106
171 166 103
173 167 108
170 164 101
172 166 103
174 167 104
172 165 102
178 172 107
176 169 105
174 169 104
172 166 97
172 166 101
171 164 101
176 167 105
173 165 101
172 167 103
173 166 102
172 166 104
169 164 97
176 169 102
171 166 102
175 169 108
175 168 100
174 167 102
174 168 104
174 168 101
174 165 102
170 162 95
179 170 104
166 157 90
170 164 99
176 167 103
167 161 97
168 162 100
175 168 101
169 163 100
172 166 94
172 165 103
170 164 94
171 163 94
176 169 106
172 166 100
173 166 101
167 159 90
171 165 101
173 167 97
171 162 93
172 162 96
173 165 95
173 167 103
169 162 98
168 161 97
174 166 100
168 160 91
167 158 81
169 161 92
168 159 93
169 160 98
166 159 96
172 163 95
164 157 84
173 164 99
166 158 90
171 164 96
172 166 95
173 163 97
166 160 91
170 161 93
171 164 96
167 157 89
170 160 94
164 157 97
172 162 96
165 160 97
164 154 86
170 163 97
167 157 86
166 156 86
170 160 97
161 152 81
161 150 84
161 153 84
169 159 92
207 228 255
207 228 255
207 228 255
207 228 255
207 228 255
207 227 255
206 227 255
206 227 255
206 227 255
206 227 255
206 227 255
206 227 255
205 227 255
205 227 255
205 227 255
205 227 255
205 227 255
206 227 255
206 227 255
206 227 255
206 227 255
206 227 255
206 227 255
206 227 255
206 227 255
206 227 255
206 227 255
206 227 255
206 227 255
206 227 255
206 227 255
206 227 255
206 227 255
206 227 255
206 227 255
206 227 255
206 227 255
206 227 255
206 227 255
206 227 255
206 227 255
206 227 255
206 227 255
206 227 255
206 227 255
206 227 255
206 227 255
206 227 255
206 227 255
206 227 255
206 227 255
206 227 255
206 227 255
206 227 255
206 227 255
206 227 255
206 227 255
205 227 255
206 227 255
205 227 255
205 227 255
205 227 255
205 227 255
205 227 255
205 227 255
205 227 255
205 227 255
205 227 255
205 227 255
205 227 255
205 227 255
205 227 255
205 226 255
205 226 255
205 226 255
205 226 255
205 226 255
205 226 255
205 226 255
204 226 255
204 226 255
204 226 255
204 226 255
204 226 255
204 226 255
204 226 255
204 226 255
204 226 255
204 226 255
204 226 255
203 226 255
203 226 255
203 226 255
203 226 255
203 226 255
203 225 255
203 225 255
203 225 255
203 225 255
203 225 255
202 225 255
202 225 255
202 225 255
202 225 255
202 225 255
202 225 255
201 225 255
201 225 255
201 224 255
201 224 255
201 224 255
200 224 255
200 224 255
200 224 255
200 224 255
199 224 255
199 223 255
199 223 255
199 223 255
198 223 255
198 223 255
197 222 255
197 222 255
196 222 255
196 222 255
195 221 255
196 222 255
196 222 255
196 222 255
197 222 255
197 222 255
197 222 255
198 223 255
199 223 255
199 223 255
200 224 255
201 224 255
202 225 255
203 225 255
204 226 255
206 227 255
209 229 255
214 231 255
214 232 255
214 232 255
214 232 255
214 232 255
214 232 255
214 232 255
214 232 255
214 231 255
214 231 255
214 231 255
214 231 255
149 171 215
62 99 173
62 98 165
61 97 153
61 98 163
61 95 140
61 97 161
62 97 159
61 96 151
59 95 144
64 99 159
61 96 151
62 97 149
62 98 163
60 96 151
62 98 155
63 98 155
63 99 161
60 95 142
62 97 155
61 97 149
63 99 163
62 97 155
61 96 151
61 97 151
62 98 161
61 97 151
61 97 157
59 95 144
61 97 155
61 97 149
63 98 161
62 98 159
60 95 142
60 95 142
60 96 144
62 98 159
62 98 157
62 98 159
62 97 147
62 98 156
61 97 149
61 96 153
62 97 153
61 96 151
61 97 147
61 97 153
60 94 137
61 97 155
62 98 157
62 98 161
62 97 151
61 97 153
62 97 158
61 97 147
62 98 161
61 95 153
61 97 147
60 95 149
61 95 147
60 96 147
61 97 162
59 93 147
61 96 156
62 96 151
63 98 161
60 95 149
60 96 151
61 97 151
61 97 154
59 93 138
62 97 152
61 96 149
62 96 158
59 93 145
59 95 147
61 94 148
60 94 146
61 95 151
59 92 134
60 94 148
59 92 142
59 91 138
62 97 156
58 91 133
61 95 158
60 94 154
59 91 142
59 91 149
59 91 150
57 87 141
127 146 185
214 231 255
214 231 255
214 231 255
214 231 255
214 232 255
214 232 255
214 232 255
214 232 255
214 232 255
214 232 255
214 232 255
206 221 239
145 135 84
128 113 62
142 136 89
138 131 85
128 123 81
132 126 81
133 125 80
122 117 77
142 135 85
127 121 78
124 118 78
138 136 94
133 130 89
138 133 89
144 141 95
139 133 87
143 137 86
142 138 91
149 145 95
149 145 94
145 142 95
148 144 95
151 149 100
149 144 92
153 151 100
149 146 95
150 147 99
141 135 88
156 154 101
156 153 101
153 148 95
164 159 98
165 160 102
169 163 101
161 158 101
170 166 107
155 153 98
165 161 101
168 163 106
164 160 100
164 160 102
163 158 102
163 157 95
167 163 106
163 160 106
169 165 103
165 160 100
167 163 101
166 163 104
169 164 104
172 168 110
173 167 104
175 169 105
176 170 106
167 159 96
173 167 106
174 170 109
172 167 107
166 162 98
171 166 105
173 166 101
174 169 104
165 161 96
172 167 101
176 171 107
171 165 106
172 165 101
172 167 104
172 167 104
172 167 99
175 168 100
175 169 103
172 166 100
179 170 105
173 168 102
174 168 103
177 170 106
176 168 103
177 170 105
171 164 101
178 169 102
172 167 104
173 166 102
168 162 91
179 171 105
173 167 101
171 164 93
174 168 102
172 165 93
170 165 97
174 165 97
176 169 98
172 165 102
173 165 99
177 170 103
170 163 94
168 163 91
171 165 94
169 163 97
174 166 102
176 168 101
174 168 103
175 166 99
170 165 100
173 166 98
170 164 94
171 165 101
165 158 89
168 160 96
167 160 100
174 166 95
170 161 97
166 160 90
171 163 96
167 160 92
172 163 98
168 162 97
168 157 93
167 161 98
173 165 97
171 161 99
169 159 89
173 164 98
166 158 89
171 163 99
166 156 96
167 158 87
168 157 88
170 162 93
163 155 92
172 162 92
166 157 93
171 163 93
169 159 87
164 154 90
168 159 95
173 165 95
170 162 90
168 159 90
173 165 97
168 161 96
164 155 87
208 228 255
208 228 255
208 228 255
207 228 255
207 228 255
207 228 255
207 228 255
207 228 255
207 227 255
207 227 255
206 227 255
206 227 255
206 227 255
206 227 255
206 227 255
206 227 255
206 227 255
206 227 255
206 227 255
206 227 255
206 227 255
206 227 255
207 227 255
207 227 255
206 227 255
207 227 255
207 227 255
207 227 255
207 227 255
207 227 255
207 227 255
207 227 255
207 227 255
207 227 255
207 227 255
207 227 255
207 227 255
207 227 255
207 227 255
207 227 255
207 227 255
207 227 255
207 227 255
207 227 255
207 227 255
207 227 255
207 227 255
207 227 255
206 227 255
206 227 255
206 227 255
206 227 255
206 227 255
206 227 255
206 227 255
206 227 255
206 227 255
206 227 255
206 227 255
206 227 255
206 227 255
206 227 255
206 227 255
206 227 255
206 227 255
206 227 255
206 227 255
206 227 255
206 227 255
206 227 255
206 227 255
206 227 255
206 227 255
206 227 255
206 227 255
205 227 255
205 227 255
205 227 255
205 227 255
205 227 255
205 227 255
205 227 255
205 227 255
205 227 255
205 226 255
205 226 255
205 226 255
205 226 255
205 226 255
204 226 255
204 226 255
204 226 255
204 226 255
204 226 255
204 226 255
204 226 255
204 226 255
204 226 255
204 226 255
203 226 255
203 226 255
203 226 255
203 225 255
203 225 255
203 225 255
203 225 255
202 225 255
202 225 255
202 225 255
202 225 255
202 225 255
201 225 255
201 225 255
201 224 255
201 224 255
200 224 255
200 224 255
200 224 255
200 224 255
199 224 255
199 223 255
199 223 255
198 223 255
198 223 255
197 222 255
197 222 255
196 222 255
197 222 255
197 222 255
197 222 255
198 223 255
198 223 255
199 223 255
199 223 255
200 224 255
200 224 255
201 224 255
202 225 255
203 225 255
204 226 255
206 227 255
208 228 255
212 230 255
214 232 255
214 232 255
214 232 255
214 232 255
214 232 255
214 232 255
214 232 255
214 232 255
214 232 255
214 232 255
200 218 246
68 102 169
62 98 161
62 98 165
61 97 161
61 97 155
61 97 151
61 97 153
60 96 144
61 97 157
61 96 157
62 98 155
61 97 151
62 98 149
62 98 157
61 97 153
60 97 157
60 95 149
63 99 165
62 98 159
62 98 165
61 96 149
62 98 159
62 97 147
63 99 165
63 99 161
61 96 144
61 98 159
60 96 144
62 98 157
61 97 155
61 97 153
62 97 153
60 96 142
61 96 151
63 99 159
62 98 155
61 97 147
61 97 155
63 99 163
61 97 153
62 98 161
61 97 142
61 96 142
61 96 147
61 97 155
61 97 155
62 98 159
60 95 142
61 96 147
61 97 151
62 98 161
61 95 154
61 96 135
63 98 153
63 98 156
62 98 151
63 99 165
61 95 137
62 97 144
60 95 147
61 96 149
62 97 149
61 97 162
63 99 167
61 95 147
62 97 154
60 95 156
62 97 158
60 94 144
58 92 142
60 94 154
61 96 147
61 97 162
61 96 152
61 95 147
61 97 162
59 93 143
61 96 156
62 97 158
63 98 164
60 94 148
61 96 156
61 95 153
60 93 141
59 92 151
61 95 153
56 85 133
60 94 151
58 90 139
60 93 148
58 90 134
58 89 142
200 217 242
214 232 255
214 232 255
214 232 255
214 232 255
214 232 255
214 232 255
214 232 255
214 232 255
214 232 255
214 232 255
156 151 129
153 138 82
147 137 86
135 127 82
129 121 80
134 127 83
136 128 79
136 132 88
134 127 82
124 118 76
117 116 81
129 129 90
139 137 93
135 132 89
137 134 91
129 126 83
146 140 92
145 140 94
128 122 80
147 143 94
144 141 93
144 142 94
150 147 97
147 144 95
155 151 98
146 143 95
153 149 96
157 152 95
157 154 99
158 155 102
150 144 92
151 146 95
151 150 102
155 151 100
166 162 105
155 151 93
156 151 95
166 161 101
164 159 101
160 155 101
159 153 98
163 158 96
160 156 98
160 156 96
161 156 96
156 152 94
162 160 105
162 157 94
168 164 102
167 161 95
175 170 107
169 164 98
172 168 106
175 169 110
163 159 97
176 170 107
174 168 105
174 169 107
163 159 100
176 170 108
176 169 103
171 165 105
176 170 106
178 171 106
175 168 101
166 161 102
171 166 106
177 171 109
175 169 105
170 164 98
175 168 106
169 163 103
176 169 102
175 167 103
172 165 99
173 169 106
171 166 98
174 168 100
174 169 108
174 168 106
172 165 93
174 167 102
178 170 107
177 167 103
180 172 107
172 166 101
174 165 101
170 165 101
170 164 96
174 168 101
174 167 100
172 167 102
174 167 100
173 166 101
170 163 99
171 164 99
178 171 108
173 167 98
174 165 99
171 165 94
173 165 97
172 166 98
174 167 102
167 161 95
169 163 97
174 167 102
169 162 95
170 163 96
173 164 93
169 162 90
169 163 98
171 165 98
171 163 90
170 161 93
166 159 93
170 162 94
171 164 97
168 161 97
169 162 95
168 159 93
175 166 100
169 160 96
167 159 87
169 157 96
167 159 91
168 160 91
166 158 89
165 157 89
173 165 102
168 161 94
168 157 89
162 155 88
171 162 100
168 159 93
170 162 90
165 156 92
163 155 89
173 162 98
164 158 90
168 159 91
167 158 91
159 149 82
166 157 90
208 228 255
208 228 255
208 228 255
208 228 255
208 228 255
208 228 255
208 228 255
207 228 255
207 228 255
207 228 255
207 228 255
207 228 255
207 228 255
207 228 255
207 228 255
207 228 255
207 228 255
207 228 255
207 228 255
207 228 255
207 228 255
207 228 255
207 228 255
207 228 255
207 228 255
207 228 255
207 228 255
207 228 255
207 228 255
207 228 255
207 228 255
207 228 255
207 228 255
207 228 255
207 228 255
207 228 255
207 228 255
207 228 255
207 228 255
207 228 255
207 228 255
207 228 255
207 228 255
207 228 255
207 228 255
207 228 255
207 228 255
207 228 255
207 228 255
207 228 255
207 228 255
207 228 255
207 228 255
207 228 255
207 228 255
207 228 255
207 228 255
207 228 255
207 228 255
207 228 255
207 228 255
207 228 255
207 228 255
207 228 255
207 227 255
207 227 255
207 227 255
207 227 255
207 227 255
207 227 255
206 227 255
206 227 255
206 227 255
206 227 255
206 227 255
206 227 255
206 227 255
206 227 255
206 227 255
206 227 255
206 227 255
206 227 255
206 227 255
206 227 255
206 227 255
206 227 255
206 227 255
205 227 255
205 227 255
205 227 255
205 227 255
205 227 255
205 227 255
205 227 255
205 226 255
205 226 255
205 226 255
205 226 255
204 226 255
204 226 255
204 226 255
204 226 255
204 226 255
204 226 255
204 226 255
204 226 255
203 226 255
203 226 255
203 226 255
203 225 255
203 225 255
203 225 255
202 225 255
202 225 255
202 225 255
202 225 255
201 225 255
201 224 255
201 224 255
201 224 255
200 224 255
200 224 255
200 224 255
199 223 255
199 223 255
198 223 255
198 223 255
197 222 255
198 223 255
198 223 255
198 223 255
199 223 255
199 223 255
200 224 255
200 224 255
201 224 255
201 225 255
202 225 255
203 225 255
204 226 255
205 227 255
207 228 255
209 229 255
214 231 255
215 232 255
215 232 255
215 232 255
215 232 255
215 232 255
215 232 255
215 232 255
215 232 255
215 232 255
131 154 194
62 98 167
62 97 153
61 97 161
62 98 163
62 98 159
62 97 159
61 96 155
63 99 167
61 97 151
62 98 159
61 97 153
61 97 159
61 96 147
62 97 151
62 97 151
61 97 151
62 98 157
60 96 149
59 94 135
61 96 147
60 96 149
61 97 151
60 96 151
63 98 155
63 98 142
62 97 151
62 99 167
61 97 155
61 96 142
61 97 161
62 98 165
59 94 128
62 97 153
60 95 130
61 97 151
61 96 144
60 96 137
60 95 140
61 97 159
61 96 151
61 97 155
62 97 151
61 97 147
64 99 159
61 97 149
61 96 149
61 96 147
62 97 155
60 96 144
62 98 157
62 97 149
60 95 144
61 97 153
61 97 160
61 96 153
61 96 145
60 94 141
61 96 153
62 98 157
60 95 135
59 94 140
61 96 153
61 96 155
60 95 144
63 98 151
62 97 156
61 96 148
60 95 146
61 96 151
61 97 159
62 97 160
60 94 138
62 98 153
60 94 151
62 96 146
61 97 149
60 95 152
62 96 156
61 94 148
58 92 137
60 96 156
60 93 143
60 94 152
61 96 155
59 91 132
59 93 150
59 93 146
61 95 155
58 89 143
57 87 130
59 90 140
57 87 134
146 164 199
215 232 255
215 232 255
215 232 255
215 232 255
215 232 255
215 232 255
215 232 255
215 232 255
215 232 255
189 196 201
145 130 76
132 120 73
135 127 82
123 111 71
139 132 87
131 128 85
128 122 81
122 118 79
123 119 80
122 116 78
135 129 85
136 131 88
134 129 84
128 128 89
135 132 88
145 141 93
137 135 90
142 140 93
134 134 90
141 139 94
142 140 92
145 142 92
138 134 85
155 153 101
155 151 99
150 147 95
161 157 102
148 144 97
152 149 96
156 151 100
152 149 97
143 142 95
142 140 93
159 154 97
158 153 96
154 150 95
158 156 103
152 148 93
165 161 102
161 157 99
159 155 98
167 161 105
159 155 98
167 161 103
165 162 102
167 161 103
162 160 99
170 165 100
167 163 95
171 166 100
167 161 99
164 159 98
172 167 105
174 168 106
170 164 98
170 164 101
168 163 102
172 166 102
169 164 99
167 162 98
166 161 94
173 168 106
176 168 104
173 167 96
171 165 99
174 167 103
171 165 100
174 167 98
175 169 106
174 168 102
172 165 102
170 165 100
176 171 108
176 168 104
171 163 98
175 169 101
176 171 104
171 165 95
174 168 101
171 164 102
171 164 97
175 169 103
175 169 103
174 165 99
172 165 97
173 166 102
176 169 104
175 167 107
173 165 96
174 168 99
174 168 101
170 163 93
175 168 100
169 163 96
170 163 94
167 161 82
170 164 93
175 168 101
176 168 100
170 165 99
176 169 108
171 164 97
176 169 97
174 166 94
170 163 103
171 162 94
169 161 90
178 167 97
169 162 101
175 168 99
172 164 96
171 162 95
170 162 98
177 168 96
169 159 91
173 165 101
169 160 88
174 166 101
168 159 91
173 165 98
176 168 99
174 166 101
167 160 93
167 160 96
173 165 99
170 165 93
169 161 94
174 167 102
170 160 83
163 153 92
169 157 90
175 167 98
170 162 97
164 153 89
173 162 97
172 164 97
170 159 93
163 152 80
167 159 90
169 158 94
168 160 87
168 155 89
168 158 91
209 229 255
209 229 255
209 229 255
209 228 255
208 228 255
208 228 255
208 228 255
208 228 255
208 228 255
208 228 255
208 228 255
208 228 255
208 228 255
208 228 255
208 228 255
208 228 255
208 228 255
208 228 255
208 228 255
208 228 255
208 228 255
208 228 255
208 228 255
208 228 255
208 228 255
208 228 255
208 228 255
208 228 255
208 228 255
208 228 255
208 228 255
208 228 255
208 228 255
208 228 255
208 228 255
208 228 255
208 228 255
208 228 255
208 228 255
208 228 255
208 228 255
208 228 255
208 228 255
208 228 255
208 228 255
208 228 255
208 228 255
208 228 255
208 228 255
208 228 255
208 228 255
208 228 255
208 228 255
208 228 255
208 228 255
208 228 255
208 228 255
208 228 255
208 228 255
208 228 255
208 228 255
208 228 255
208 228 255
208 228 255
208 228 255
207 228 255
207 228 255
207 228 255
207 228 255
207 228 255
207 228 255
207 228 255
207 228 255
207 228 255
207 228 255
207 228 255
207 228 255
207 228 255
207 228 255
207 228 255
207 227 255
207 227 255
207 227 255
206 227 255
206 227 255
206 227 255
206 227 255
206 227 255
206 227 255
206 227 255
206 227 255
206 227 255
206 227 255
206 227 255
206 227 255
206 227 255
205 227 255
205 227 255
205 227 255
205 227 255
205 227 255
205 226 255
205 226 255
205 226 255
205 226 255
204 226 255
204 226 255
204 226 255
204 226 255
204 226 255
204 226 255
203 226 255
203 226 255
203 226 255
203 225 255
203 225 255
203 225 255
202 225 255
202 225 255
202 225 255
201 225 255
201 224 255
201 224 255
200 224 255
200 224 255
200 224 255
199 223 255
199 223 255
191 216 250
159 184 228
154 180 223
142 168 217
166 191 231
179 203 238
193 217 249
201 224 255
202 225 255
202 225 255
203 226 255
204 226 255
205 227 255
207 227 255
208 228 255
212 230 255
215 232 255
215 232 255
215 232 255
215 232 255
215 232 255
215 232 255
215 232 255
215 232 255
211 228 252
67 101 157
61 98 167
61 97 157
61 97 161
59 94 149
62 98 159
61 97 151
61 97 157
62 97 155
62 98 157
62 97 153
62 98 161
62 97 157
63 99 161
61 97 157
61 97 147
62 97 151
62 98 157
60 96 137
62 98 155
60 96 151
62 98 159
62 98 157
61 95 147
63 98 155
62 98 155
59 93 137
62 98 155
62 98 157
61 97 151
61 96 142
62 98 167
61 96 151
63 98 157
61 96 151
61 97 151
60 95 149
59 95 140
61 97 151
61 97 142
61 96 137
61 96 142
62 98 153
59 94 137
62 97 155
61 97 157
60 95 142
63 98 153
63 99 165
62 97 149
62 99 165
61 97 155
59 94 142
62 98 161
61 96 151
62 98 155
62 97 151
61 96 151
62 98 153
62 97 157
59 94 137
60 95 147
60 95 137
61 97 158
61 96 154
61 96 149
62 97 160
61 96 144
59 92 137
61 96 148
60 95 149
62 98 160
60 95 142
60 94 138
62 96 150
61 95 147
59 93 134
62 96 152
60 95 145
59 93 149
60 94 147
62 96 150
61 95 141
61 97 159
58 91 143
59 93 147
61 96 156
61 95 161
55 86 127
57 89 143
59 94 148
59 93 155
60 92 146
57 86 135
196 213 237
215 232 255
215 232 255
215 232 255
215 232 255
215 232 255
215 232 255
215 232 255
215 232 255
165 161 131
138 128 76
122 112 70
130 124 80
132 121 77
130 123 79
108 103 69
130 124 80
120 116 79
121 114 74
129 122 81
126 124 83
121 115 76
137 132 87
144 139 91
128 124 82
132 130 85
134 132 89
148 145 94
139 137 93
135 133 90
147 144 96
127 125 85
137 133 88
144 141 90
138 137 91
143 140 94
127 125 85
165 162 106
147 144 95
158 153 98
169 164 108
151 149 95
165 161 104
157 153 97
159 155 98
153 150 95
156 151 93
150 146 84
166 160 103
164 160 102
162 158 100
157 154 97
171 166 108
166 161 99
165 161 99
167 162 102
167 165 103
167 162 103
172 166 106
169 163 100
166 161 101
164 160 97
174 168 106
170 164 101
165 160 102
170 166 104
170 164 102
161 158 95
169 164 99
168 163 103
173 168 102
176 169 106
172 166 104
172 166 97
168 163 99
176 170 103
173 167 103
173 166 99
175 168 106
171 163 96
173 165 101
173 167 100
170 164 94
170 165 102
172 166 99
172 165 97
167 161 94
170 164 93
175 169 105
172 166 97
175 168 103
168 162 98
176 169 104
174 166 99
167 163 97
178 169 101
171 164 99
168 161 96
176 169 106
168 162 93
174 168 102
175 170 104
175 170 104
178 170 104
172 166 98
170 161 94
173 166 101
175 168 102
174 168 103
168 162 93
172 165 100
174 166 101
172 164 98
175 166 99
171 163 93
172 165 100
163 157 90
172 165 93
172 165 92
167 159 89
173 165 93
166 158 89
176 167 102
169 159 94
167 162 88
169 161 94
172 165 92
172 165 101
174 166 96
167 157 91
170 160 93
172 165 97
170 164 96
168 159 86
162 152 82
171 163 95
175 166 93
171 164 97
171 162 92
167 158 84
167 157 88
169 162 93
165 156 83
167 157 89
163 155 80
164 156 89
176 167 99
169 160 94
169 158 94
168 159 90
171 162 95
169 159 87
164 155 87
209 229 255
209 229 255
209 229 255
209 229 255
209 229 255
209 229 255
209 229 255
209 229 255
208 228 255
208 228 255
208 228 255
208 228 255
208 228 255
208 228 255
208 228 255
208 228 255
208 228 255
208 228 255
209 228 255
209 228 255
209 229 255
209 229 255
209 229 255
209 229 255
209 229 255
209 229 255
209 229 255
209 229 255
209 229 255
209 229 255
209 229 255
209 229 255
209 229 255
209 229 255
209 229 255
209 229 255
209 229 255
209 229 255
209 229 255
209 229 255
209 229 255
209 229 255
209 229 255
209 229 255
209 229 255
209 229 255
209 229 255
209 229 255
209 229 255
209 229 255
209 229 255
209 229 255
209 228 255
209 228 255
208 228 255
209 228 255
208 228 255
208 228 255
208 228 255
208 228 255
208 228 255
208 228 255
208 228 255
208 228 255
208 228 255
208 228 255
208 228 255
208 228 255
208 228 255
208 228 255
208 228 255
208 228 255
208 228 255
208 228 255
208 228 255
208 228 255
208 228 255
208 228 255
208 228 255
208 228 255
207 228 255
207 228 255
207 228 255
207 228 255
207 228 255
207 228 255
207 228 255
207 228 255
207 228 255
207 228 255
207 228 255
207 228 255
207 227 255
207 227 255
207 227 255
206 227 255
206 227 255
206 227 255
206 227 255
206 227 255
206 227 255
206 227 255
206 227 255
206 227 255
205 227 255
205 227 255
205 227 255
205 227 255
205 227 255
205 226 255
205 226 255
204 226 255
204 226 255
204 226 255
204 226 255
204 226 255
204 226 255
203 226 255
203 226 255
203 225 255
203 225 255
202 225 255
202 225 255
202 225 255
201 225 255
201 224 255
201 224 255
200 224 255
200 224 255
121 148 196
62 99 179
62 99 173
61 97 167
62 98 173
82 114 181
128 154 206
172 196 234
203 225 255
204 226 255
204 226 255
205 227 255
207 227 255
208 228 255
210 229 255
214 232 255
215 232 255
215 232 255
215 232 255
215 232 255
215 232 255
215 232 255
215 232 255
141 162 198
61 96 151
61 96 153
62 97 151
62 98 163
62 98 161
60 95 142
62 98 155
61 97 163
60 96 147
60 97 157
60 96 144
61 96 144
61 96 149
61 97 159
62 99 169
61 97 147
61 96 147
62 98 153
63 98 157
61 97 147
62 97 153
61 97 147
60 96 147
61 97 153
61 97 155
61 97 153
62 98 159
61 96 144
63 98 157
62 98 153
62 98 155
61 96 147
61 96 149
61 96 151
62 98 159
60 96 144
62 97 155
62 97 157
62 97 151
62 98 159
60 95 137
61 96 149
61 96 144
61 96 149
62 98 155
62 97 144
61 97 151
61 96 155
59 95 140
62 98 153
60 95 140
62 98 163
62 97 159
63 98 151
62 98 155
60 96 151
59 94 135
61 96 142
61 96 149
62 97 151
61 96 151
60 95 140
59 94 135
61 97 151
61 96 156
61 95 147
62 96 154
61 97 157
60 94 143
59 92 147
60 95 144
61 94 135
59 93 137
60 95 147
60 95 140
62 96 156
61 96 153
60 94 140
60 93 133
61 94 151
58 91 133
60 94 146
60 93 154
58 92 139
60 94 139
61 96 160
58 91 146
59 93 144
58 89 134
60 94 150
60 93 151
59 91 141
57 88 142
56 86 137
151 170 207
215 232 255
215 232 255
215 232 255
215 232 255
215 232 255
215 232 255
215 232 255
184 193 199
143 131 80
130 118 70
132 122 75
123 114 70
125 121 81
127 120 77
128 122 78
122 116 75
131 129 88
112 110 72
135 132 89
134 129 86
138 135 90
124 122 83
122 121 82
145 141 93
125 123 84
127 127 87
130 129 88
143 139 92
151 146 94
140 138 92
139 134 85
138 136 90
150 149 99
140 137 86
152 148 97
140 137 91
151 149 96
157 153 101
144 143 88
145 144 95
151 149 98
158 154 98
151 149 96
161 156 99
156 151 96
160 156 99
159 155 99
165 158 99
159 156 99
159 154 97
160 156 94
167 162 104
161 156 100
164 159 102
166 162 100
170 164 103
174 167 105
168 162 98
165 161 99
167 162 95
163 158 98
163 158 96
172 166 103
163 159 101
173 166 105
174 169 103
169 164 100
170 165 95
168 161 95
173 167 102
168 162 97
172 166 104
172 166 96
174 169 104
173 167 100
175 168 104
168 161 92
174 167 104
172 167 103
171 166 98
178 170 102
176 169 101
175 168 101
169 164 98
172 166 99
173 165 100
175 169 106
175 168 102
177 171 106
172 164 97
173 167 97
174 167 101
178 171 105
177 171 103
175 169 101
176 170 106
169 164 98
174 168 100
172 165 93
171 166 101
172 166 97
167 162 94
176 167 101
178 171 104
176 168 103
170 160 91
167 159 92
168 162 97
173 168 101
170 163 91
167 161 94
169 163 93
172 163 98
171 162 99
170 163 91
175 167 100
173 165 97
174 166 97
173 166 95
175 167 96
173 164 96
171 161 93
178 169 103
170 159 93
173 165 95
166 158 91
172 163 96
173 163 93
172 165 94
164 155 93
172 165 97
169 159 90
170 162 93
165 156 90
173 166 96
170 162 94
172 163 98
159 153 85
169 160 88
163 152 85
172 163 93
165 157 87
173 161 94
172 163 97
172 163 95
172 163 96
160 150 81
166 156 86
169 161 94
159 149 81
173 165 91
173 165 94
210 229 255
210 229 255
210 229 255
210 229 255
210 229 255
209 229 255
209 229 255
209 229 255
209 229 255
209 229 255
209 229 255
209 229 255
209 229 255
209 229 255
209 229 255
209 229 255
209 229 255
209 229 255
209 229 255
209 229 255
209 229 255
209 229 255
209 229 255
209 229 255
209 229 255
209 229 255
209 229 255
209 229 255
209 229 255
209 229 255
209 229 255
209 229 255
209 229 255
209 229 255
209 229 255
209 229 255
209 229 255
209 229 255
209 229 255
209 229 255
209 229 255
209 229 255
209 229 255
209 229 255
209 229 255
209 229 255
209 229 255
209 229 255
209 229 255
209 229 255
209 229 255
209 229 255
209 229 255
209 229 255
209 229 255
209 229 255
209 229 255
209 229 255
209 229 255
209 229 255
209 229 255
209 229 255
209 229 255
209 229 255
209 229 255
209 229 255
209 229 255
209 229 255
209 229 255
209 229 255
209 229 255
209 229 255
209 229 255
209 229 255
208 228 255
208 228 255
208 228 255
208 228 255
208 228 255
208 228 255
208 228 255
208 228 255
208 228 255
208 228 255
208 228 255
208 228 255
208 228 255
208 228 255
208 228 255
208 228 255
208 228 255
208 228 255
207 228 255
207 228 255
207 228 255
207 228 255
207 228 255
207 228 255
207 228 255
207 228 255
207 228 255
207 227 255
207 227 255
206 227 255
206 227 255
206 227 255
206 227 255
206 227 255
206 227 255
206 227 255
206 227 255
205 227 255
205 227 255
205 227 255
205 227 255
205 226 255
205 226 255
204 226 255
204 226 255
204 226 255
204 226 255
204 226 255
203 226 255
203 225 255
203 225 255
202 225 255
202 225 255
201 225 255
201 224 255
188 211 246
73 107 177
61 98 171
61 98 165
61 98 165
62 98 171
61 98 167
61 97 169
116 142 194
185 207 241
205 226 255
206 227 255
207 227 255
208 228 255
210 229 255
213 231 255
216 232 255
216 232 255
216 232 255
216 232 255
215 232 255
215 232 255
213 230 254
89 118 169
60 95 151
62 98 169
62 97 159
61 96 149
61 97 159
61 96 149
59 95 147
62 98 161
62 98 159
60 96 151
62 97 151
61 97 155
61 96 144
60 96 151
62 97 147
62 97 149
60 95 137
62 97 144
60 95 147
61 97 155
63 99 161
61 97 153
62 97 153
61 98 159
61 96 147
61 97 147
62 98 155
60 95 135
61 97 151
62 98 149
62 97 155
62 97 147
60 96 140
61 96 151
64 99 161
62 98 151
61 97 144
62 97 151
61 96 142
61 96 147
61 97 149
61 96 144
61 96 144
62 97 155
61 95 149
62 98 155
59 95 142
63 98 153
62 97 151
61 96 149
61 96 144
59 94 137
60 95 144
61 96 145
61 96 142
61 96 149
61 96 144
60 94 149
60 96 159
62 97 147
60 95 142
62 96 152
61 95 150
62 97 155
60 94 141
61 95 149
60 96 144
60 94 142
63 98 159
59 93 138
60 95 139
61 95 141
61 97 155
60 95 144
60 94 138
60 93 139
61 95 147
60 94 153
60 93 142
60 95 153
61 95 151
60 95 145
60 94 148
58 89 119
58 91 147
58 91 138
58 92 147
60 94 141
59 91 143
60 92 147
59 91 138
59 91 144
60 92 152
56 87 134
74 97 140
211 228 252
215 232 255
215 232 255
216 232 255
216 232 255
216 232 255
215 231 253
141 133 105
138 125 75
119 112 71
140 132 83
120 113 72
116 110 72
112 108 71
119 116 79
102 97 62
115 110 75
129 124 80
123 119 78
128 126 85
125 123 83
121 118 80
130 129 88
136 132 87
138 136 92
130 128 86
124 123 83
145 141 96
129 126 85
139 137 88
145 143 96
151 148 95
146 142 94
143 140 92
144 139 87
141 138 89
145 143 93
142 142 97
151 148 95
134 133 90
148 144 94
158 156 99
161 157 100
154 151 96
156 153 98
156 152 98
156 152 95
151 150 97
163 157 96
159 155 96
162 156 94
163 159 90
166 161 98
167 161 101
154 151 92
173 167 106
173 166 107
167 163 104
165 159 98
170 165 102
171 165 104
175 169 105
163 159 98
160 156 98
168 165 103
176 171 107
163 159 95
173 167 108
175 168 99
174 167 102
174 167 101
171 166 96
176 169 103
169 165 98
169 164 102
177 169 107
178 171 104
177 171 107
176 169 101
174 168 100
175 168 101
172 168 97
175 169 100
175 168 98
173 168 99
175 168 97
178 171 107
172 166 95
177 170 103
179 171 107
170 164 97
175 168 101
167 160 84
171 163 95
178 170 102
177 170 102
174 168 99
175 168 97
169 161 95
174 167 96
176 170 103
172 165 93
168 162 93
175 168 102
176 169 98
175 167 91
172 166 96
172 166 96
175 166 96
172 164 99
175 166 96
173 166 98
168 163 93
172 164 93
174 167 101
163 154 86
175 168 96
165 159 91
175 165 93
172 164 97
173 166 93
173 166 94
170 162 89
173 166 95
169 162 89
169 159 91
174 165 99
176 169 100
168 160 90
169 161 94
162 156 85
168 157 88
170 162 94
170 161 91
167 158 86
174 164 94
170 161 93
169 158 91
167 160 96
169 161 94
172 164 99
168 159 93
172 161 96
167 158 90
167 155 81
168 160 93
167 158 87
163 155 83
168 160 90
163 152 79
163 152 83
166 155 91
211 230 255
210 230 255
210 229 255
210 229 255
210 229 255
210 229 255
210 229 255
210 229 255
210 229 255
210 229 255
210 229 255
210 229 255
210 229 255
210 229 255
210 229 255
210 229 255
210 229 255
210 229 255
210 229 255
210 229 255
210 229 255
210 229 255
210 229 255
210 229 255
210 229 255
210 229 255
210 229 255
210 229 255
210 229 255
210 229 255
210 229 255
210 229 255
210 229 255
210 229 255
210 229 255
210 229 255
210 229 255
210 229 255
210 229 255
210 229 255
210 229 255
210 229 255
210 229 255
210 229 255
210 229 255
210 229 255
210 229 255
210 229 255
210 229 255
210 229 255
210 229 255
210 229 255
210 229 255
210 229 255
210 229 255
210 229 255
210 229 255
210 229 255
210 229 255
210 229 255
210 229 255
210 229 255
210 229 255
210 229 255
210 229 255
210 229 255
210 229 255
210 229 255
209 229 255
209 229 255
209 229 255
209 229 255
209 229 255
209 229 255
209 229 255
209 229 255
209 229 255
209 229 255
209 229 255
209 229 255
209 229 255
209 229 255
209 229 255
209 229 255
209 229 255
209 229 255
209 229 255
209 229 255
209 228 255
209 228 255
208 228 255
208 228 255
208 228 255
208 228 255
208 228 255
208 228 255
208 228 255
208 228 255
208 228 255
208 228 255
208 228 255
208 228 255
207 228 255
207 228 255
207 228 255
207 228 255
207 228 255
207 228 255
207 228 255
207 227 255
207 227 255
206 227 255
206 227 255
206 227 255
206 227 255
206 227 255
206 227 255
205 227 255
205 227 255
205 227 255
205 226 255
205 226 255
204 226 255
204 226 255
204 226 255
203 226 255
203 226 255
203 225 255
202 225 255
202 225 255
147 171 218
63 99 171
61 97 161
62 99 175
61 98 174
61 98 171
62 98 163
61 98 169
61 98 175
164 186 223
206 227 255
207 228 255
208 228 255
209 229 255
211 230 255
215 232 255
216 233 255
216 233 255
216 232 255
216 232 255
216 232 255
174 192 227
61 97 169
60 96 157
60 96 147
60 95 147
61 97 161
60 96 149
61 96 155
60 95 147
59 95 137
61 96 149
61 97 149
61 97 151
62 99 165
59 94 137
62 97 151
62 98 159
61 97 153
62 97 149
62 97 151
61 96 151
61 97 153
61 97 147
61 97 142
60 96 144
62 97 147
61 97 149
62 98 157
61 96 142
60 96 142
61 97 159
62 98 159
61 97 147
63 99 161
63 99 165
60 95 142
59 94 133
61 96 149
60 96 140
60 95 149
61 97 151
60 96 153
61 96 149
62 97 147
62 98 155
61 96 142
62 98 159
61 96 140
60 96 140
61 96 142
61 96 138
61 96 155
61 97 147
61 96 147
61 95 144
61 95 142
63 99 157
61 96 135
61 96 151
62 98 157
59 93 142
60 95 144
62 97 151
61 96 133
61 97 149
61 96 149
62 97 157
60 96 145
61 96 145
62 96 138
60 95 142
61 95 145
60 95 144
61 96 151
60 95 140
61 97 159
62 98 157
60 94 150
61 96 149
61 96 154
60 92 137
62 96 152
59 93 140
59 91 142
60 95 145
60 93 137
60 95 148
60 93 140
59 91 135
59 92 146
59 90 136
58 90 130
58 89 129
59 92 147
55 84 125
57 87 130
53 81 126
181 199 230
216 232 255
216 232 255
216 232 255
216 233 255
216 233 255
192 203 214
150 139 84
124 117 76
126 115 70
117 110 72
119 107 66
117 111 74
132 125 83
132 130 87
130 125 84
109 106 71
127 121 79
128 124 83
117 115 78
123 119 78
105 105 72
128 123 80
129 127 85
127 124 85
133 130 87
119 117 82
129 126 81
132 132 93
141 138 90
146 142 94
142 138 91
132 130 87
136 134 87
148 147 92
136 134 85
158 155 101
142 139 91
148 144 92
161 158 103
153 151 96
155 152 94
149 144 93
158 154 97
154 150 89
161 158 102
166 162 103
162 158 101
156 152 94
164 159 99
172 167 104
169 165 106
173 163 98
162 159 100
169 164 102
167 160 93
165 160 97
160 156 96
162 159 95
167 162 98
167 162 101
173 167 104
171 166 97
172 167 106
169 162 97
169 165 99
169 164 99
171 164 102
167 162 102
178 172 106
176 170 108
176 171 103
170 165 96
174 168 103
174 168 102
171 165 100
178 172 110
169 164 90
177 169 98
172 167 101
173 167 93
173 168 101
175 168 95
177 170 106
173 166 100
180 173 108
178 170 104
172 165 94
172 166 96
169 163 96
175 167 99
169 163 93
173 166 97
171 166 94
173 167 94
171 165 98
177 170 97
172 164 94
176 170 103
168 162 93
173 166 93
173 165 94
174 168 101
174 168 100
172 166 94
178 168 97
173 167 93
175 168 99
176 168 98
170 163 96
172 166 98
173 168 101
169 162 91
171 166 93
171 164 97
174 167 100
171 165 97
170 161 94
179 171 105
174 165 97
174 167 100
171 163 91
170 163 96
172 165 100
170 162 93
169 159 88
171 164 95
166 159 87
173 164 94
174 164 100
172 163 96
157 150 81
166 160 90
164 158 85
168 160 90
167 160 92
168 162 93
168 160 85
167 159 86
168 161 93
166 160 89
170 161 92
170 161 91
166 156 82
165 157 84
168 157 91
159 146 86
167 160 90
160 154 85
173 164 91
164 155 89
169 159 89
211 230 255
211 230 255
211 230 255
211 230 255
211 230 255
211 230 255
210 230 255
210 229 255
210 229 255
210 229 255
210 229 255
210 230 255
210 230 255
211 230 255
211 230 255
211 230 255
211 230 255
211 230 255
211 230 255
211 230 255
211 230 255
211 230 255
211 230 255
211 230 255
211 230 255
211 230 255
211 230 255
211 230 255
211 230 255
211 230 255
211 230 255
211 230 255
211 230 255
211 230 255
211 230 255
211 230 255
211 230 255
211 230 255
211 230 255
211 230 255
211 230 255
211 230 255
211 230 255
211 230 255
211 230 255
211 230 255
211 230 255
211 230 255
211 230 255
211 230 255
211 230 255
211 230 255
211 230 255
211 230 255
211 230 255
211 230 255
210 230 255
211 230 255
210 230 255
210 230 255
210 230 255
210 229 255
210 229 255
210 229 255
210 229 255
210 229 255
210 229 255
210 229 255
210 229 255
210 229 255
210 229 255
210 229 255
210 229 255
210 229 255
210 229 255
210 229 255
210 229 255
210 229 255
210 229 255
210 229 255
210 229 255
210 229 255
210 229 255
210 229 255
209 229 255
209 229 255
209 229 255
209 229 255
209 229 255
209 229 255
209 229 255
209 229 255
209 229 255
209 229 255
209 229 255
209 229 255
209 229 255
209 229 255
209 229 255
209 229 255
208 228 255
208 228 255
208 228 255
208 228 255
208 228 255
208 228 255
208 228 255
208 228 255
208 228 255
208 228 255
207 228 255
207 228 255
207 228 255
207 228 255
207 228 255
207 227 255
207 227 255
206 227 255
206 227 255
206 227 255
206 227 255
206 227 255
205 227 255
205 227 255
205 227 255
205 226 255
204 226 255
204 226 255
204 226 255
203 226 255
188 210 245
61 97 167
61 98 171
61 97 159
61 98 171
60 96 156
60 96 163
61 97 158
61 97 163
61 98 171
150 173 217
207 228 255
208 228 255
209 229 255
211 230 255
214 231 255
216 233 255
216 233 255
216 233 255
216 233 255
216 233 255
129 151 189
61 97 155
61 96 151
60 96 153
61 96 151
62 97 161
58 93 142
62 98 159
62 98 155
60 96 151
61 97 161
59 95 142
59 94 133
61 97 149
62 97 151
62 98 161
59 94 135
60 95 149
60 96 142
62 97 144
60 95 137
59 94 142
62 97 157
61 96 140
61 96 149
62 98 151
62 98 151
63 98 155
61 96 147
62 98 161
61 96 149
62 97 147
62 97 153
62 97 161
62 98 157
60 96 137
62 98 151
61 96 133
61 97 153
62 98 159
61 97 155
62 97 149
60 95 137
61 97 151
63 98 157
60 94 151
59 94 137
63 97 154
62 98 153
61 97 144
62 98 161
62 97 144
62 98 157
60 95 149
62 98 163
60 96 151
60 95 137
62 96 155
60 95 147
61 96 151
60 95 149
61 96 147
61 96 147
59 94 138
61 97 157
60 96 144
60 95 144
61 97 149
60 95 140
63 98 155
61 96 147
60 95 145
60 96 157
60 94 136
60 95 145
61 96 147
60 95 155
61 95 155
60 93 143
60 95 147
61 95 141
62 97 150
62 97 152
60 94 137
60 93 143
57 90 139
59 92 140
55 85 127
57 90 130
60 93 144
56 86 125
60 93 150
58 90 119
55 85 133
56 88 137
53 82 132
55 85 122
123 141 165
216 233 255
216 233 255
216 233 255
216 233 255
216 233 255
160 156 125
129 119 73
128 121 78
114 107 70
125 120 76
110 105 71
111 105 69
124 118 77
117 109 70
118 111 75
116 113 75
116 109 72
117 115 78
119 118 80
123 120 80
120 120 82
120 122 84
116 117 85
118 115 78
137 135 90
138 136 87
130 127 83
147 144 92
129 124 80
128 128 87
125 126 83
147 145 91
147 144 96
158 153 95
149 145 94
137 133 82
153 149 99
151 148 91
151 147 94
154 151 94
161 157 100
165 161 104
155 151 96
151 148 95
153 150 93
162 157 98
156 152 91
159 156 102
166 159 99
160 156 95
168 163 101
161 157 95
163 158 98
159 155 93
157 153 94
163 159 97
171 164 97
169 164 101
166 161 100
163 159 94
164 160 102
173 166 102
170 163 99
174 169 106
174 169 106
168 163 96
170 164 101
168 162 97
170 165 101
172 168 100
171 165 96
175 169 99
172 166 101
173 167 101
178 172 107
177 170 100
172 166 97
173 166 98
176 168 97
174 167 102
172 167 99
169 162 95
170 162 96
170 164 94
177 169 102
174 168 97
174 167 98
177 170 103
170 166 99
175 168 100
178 170 103
177 171 104
175 168 101
174 167 98
170 163 93
177 168 100
173 165 98
170 164 87
175 167 100
175 167 96
169 161 94
171 162 92
174 167 95
178 168 100
173 163 96
174 166 99
172 166 94
167 161 90
168 160 80
167 160 86
175 166 94
173 165 94
172 165 95
174 166 92
178 170 105
170 162 88
171 162 90
170 162 94
169 160 90
174 166 95
175 168 97
177 168 99
165 159 88
171 163 90
175 166 96
173 167 93
172 162 89
168 160 98
171 163 90
167 157 82
172 164 97
168 158 97
172 164 94
168 162 88
167 159 94
166 160 85
166 158 94
166 155 90
168 159 94
164 156 85
167 159 88
168 159 87
168 161 86
162 153 83
173 166 93
172 161 87
168 160 93
168 160 86
174 165 97
173 164 94
174 164 97
212 230 255
212 230 255
212 230 255
211 230 255
211 230 255
211 230 255
211 230 255
211 230 255
211 230 255
211 230 255
211 230 255
211 230 255
211 230 255
211 230 255
211 230 255
211 230 255
211 230 255
211 230 255
211 230 255
211 230 255
211 230 255
211 230 255
211 230 255
211 230 255
211 230 255
211 230 255
211 230 255
211 230 255
211 230 255
211 230 255
211 230 255
211 230 255
211 230 255
211 230 255
211 230 255
211 230 255
211 230 255
211 230 255
211 230 255
211 230 255
211 230 255
211 230 255
211 230 255
211 230 255
211 230 255
211 230 255
211 230 255
211 230 255
211 230 255
211 230 255
211 230 255
211 230 255
211 230 255
211 230 255
211 230 255
211 230 255
211 230 255
211 230 255
211 230 255
211 230 255
211 230 255
211 230 255
211 230 255
211 230 255
211 230 255
211 230 255
211 230 255
211 230 255
211 230 255
211 230 255
211 230 255
211 230 255
211 230 255
211 230 255
211 230 255
211 230 255
211 230 255
211 230 255
210 230 255
210 230 255
210 230 255
210 229 255
210 229 255
210 229 255
210 229 255
210 229 255
210 229 255
210 229 255
210 229 255
210 229 255
210 229 255
210 229 255
210 229 255
210 229 255
210 229 255
210 229 255
210 229 255
209 229 255
209 229 255
209 229 255
209 229 255
209 229 255
209 229 255
209 229 255
209 229 255
209 229 255
209 229 255
209 228 255
209 228 255
208 228 255
208 228 255
208 228 255
208 228 255
208 228 255
208 228 255
208 228 255
208 228 255
207 228 255
207 228 255
207 228 255
207 228 255
207 227 255
206 227 255
206 227 255
206 227 255
206 227 255
205 227 255
205 227 255
205 227 255
204 226 255
204 226 255
113 140 198
61 97 163
62 99 165
60 96 155
61 96 156
62 98 169
61 97 155
59 95 155
61 98 173
60 97 166
137 160 206
209 228 255
209 229 255
211 230 255
213 231 255
216 233 255
216 233 255
216 233 255
216 233 255
210 227 252
74 106 164
60 94 147
61 97 155
61 96 149
61 96 144
61 97 155
61 97 151
60 95 149
61 97 157
61 97 149
60 96 151
61 96 142
60 96 140
60 95 147
61 97 153
59 93 135
62 98 153
63 98 155
61 96 144
61 97 151
60 96 137
61 96 147
61 97 157
61 97 155
62 97 149
60 96 149
61 97 151
59 95 140
60 96 149
62 98 151
61 96 149
60 95 144
61 96 151
60 94 137
61 96 149
60 96 135
60 95 153
62 97 155
61 97 155
61 96 144
60 95 137
61 96 144
61 96 149
61 97 155
60 94 137
60 95 133
60 96 149
61 97 151
61 97 144
61 96 140
61 96 153
63 98 155
61 97 147
62 97 151
61 97 156
60 95 137
61 96 144
61 95 144
60 95 140
63 99 163
62 97 147
60 95 145
60 95 137
62 97 153
60 95 147
61 97 149
60 95 147
61 96 142
61 95 135
62 96 145
60 94 144
61 96 154
61 96 147
61 96 137
62 98 156
60 94 142
58 92 133
60 94 141
61 94 150
60 94 134
60 95 140
59 94 142
59 94 140
58 91 135
59 93 136
59 93 140
61 95 151
61 94 146
60 93 146
58 89 130
59 92 139
58 90 132
58 90 134
56 88 132
58 87 136
57 88 134
53 83 129
61 85 120
206 222 246
216 233 255
216 233 255
216 233 255
201 213 226
128 118 65
135 122 70
114 105 63
113 104 62
118 111 72
110 104 67
126 119 75
120 118 78
124 122 83
102 103 73
110 109 76
131 126 83
101 99 64
119 116 78
120 119 84
111 109 70
124 120 75
132 128 86
115 113 74
120 121 82
124 124 85
139 137 94
124 125 82
145 141 90
139 139 89
133 130 80
151 146 94
144 143 93
154 149 95
140 140 90
151 147 95
151 148 88
142 139 90
143 141 88
142 140 90
159 156 100
149 147 93
155 152 90
157 152 98
144 142 89
153 150 95
161 157 98
151 148 87
160 155 92
155 151 89
160 158 101
168 161 96
163 158 94
162 158 95
162 155 93
167 162 96
163 159 99
166 160 95
170 166 101
171 166 99
171 165 103
171 166 99
170 164 101
167 161 95
164 159 90
171 165 103
171 166 101
176 170 99
168 163 101
171 165 94
174 168 103
174 167 98
167 162 91
177 171 103
172 166 95
166 161 93
171 166 99
173 166 97
171 166 100
174 168 99
179 171 102
173 167 97
176 169 102
171 166 95
174 167 96
176 168 101
172 167 99
169 163 95
174 168 99
176 169 101
171 166 94
176 168 101
175 167 97
172 167 97
172 166 96
174 166 98
178 170 102
173 167 97
170 162 93
167 160 87
176 168 100
169 164 95
165 157 86
172 165 91
172 165 90
175 167 97
177 170 103
169 164 96
177 170 105
169 160 92
171 165 93
168 162 95
170 161 92
170 163 94
167 161 92
175 168 98
169 161 88
169 162 89
171 163 93
172 166 96
177 168 102
175 167 96
168 162 90
167 158 89
174 164 93
167 156 89
165 156 88
167 158 85
169 159 90
164 156 87
171 164 95
176 167 98
170 163 93
167 157 84
171 161 93
168 160 90
162 154 84
166 158 86
170 162 93
169 158 87
171 163 91
166 156 82
163 154 84
167 162 88
173 162 96
170 158 87
166 155 88
163 153 89
163 154 81
158 148 74
171 163 94
212 231 255
212 230 255
212 230 255
212 230 255
212 230 255
212 230 255
212 230 255
212 230 255
212 230 255
212 230 255
212 230 255
212 230 255
212 230 255
212 230 255
212 230 255
212 230 255
212 230 255
212 230 255
212 230 255
212 230 255
212 230 255
212 230 255
212 230 255
212 230 255
212 230 255
212 230 255
212 230 255
212 230 255
212 230 255
212 230 255
212 230 255
212 230 255
212 230 255
212 230 255
212 230 255
212 230 255
212 230 255
212 230 255
212 230 255
212 230 255
212 230 255
212 230 255
212 230 255
212 230 255
212 230 255
212 230 255
212 230 255
212 230 255
212 230 255
212 230 255
212 230 255
212 230 255
212 230 255
212 230 255
212 230 255
212 230 255
212 230 255
212 230 255
212 230 255
212 230 255
212 230 255
212 230 255
212 230 255
212 230 255
212 230 255
212 230 255
212 230 255
212 230 255
212 230 255
212 230 255
212 230 255
211 230 255
211 230 255
211 230 255
211 230 255
211 230 255
211 230 255
211 230 255
211 230 255
211 230 255
211 230 255
211 230 255
211 230 255
211 230 255
211 230 255
211 230 255
211 230 255
211 230 255
211 230 255
211 230 255
211 230 255
211 230 255
211 230 255
211 230 255
210 230 255
210 229 255
210 229 255
210 229 255
210 229 255
210 229 255
210 229 255
210 229 255
210 229 255
210 229 255
210 229 255
210 229 255
210 229 255
210 229 255
209 229 255
209 229 255
209 229 255
209 229 255
209 229 255
209 229 255
209 229 255
209 229 255
208 228 255
208 228 255
208 228 255
208 228 255
208 228 255
208 228 255
208 228 255
207 228 255
207 228 255
207 228 255
207 227 255
206 227 255
206 227 255
206 227 255
205 227 255
159 182 224
62 98 165
61 98 165
60 96 157
60 97 165
62 98 163
62 99 175
61 98 169
61 97 167
61 97 165
61 98 169
166 187 223
210 229 255
211 230 255
212 231 255
216 232 255
217 233 255
217 233 255
217 233 255
191 208 237
61 97 163
60 95 140
61 96 151
61 97 153
62 98 159
62 97 144
59 94 144
60 96 153
61 96 144
60 96 144
62 97 151
61 96 144
61 96 142
60 96 151
60 95 137
62 97 147
59 95 140
61 95 140
63 99 161
60 96 144
60 95 149
61 97 147
62 98 153
62 97 153
61 97 155
61 95 151
60 95 149
60 95 144
60 95 144
60 96 142
61 97 149
62 98 149
59 95 144
60 95 140
62 98 155
60 95 144
60 95 130
63 99 157
59 93 133
60 95 147
61 95 142
62 97 144
61 96 151
62 98 155
62 97 153
61 95 133
61 96 151
61 96 147
62 97 142
62 97 149
62 97 142
62 98 157
60 94 128
61 96 142
62 97 157
60 94 133
61 97 151
61 96 144
62 97 151
60 95 135
61 96 155
61 97 151
62 97 157
62 98 153
61 96 144
62 96 153
61 97 151
60 94 133
61 95 142
59 92 140
59 93 135
61 95 135
61 96 144
61 96 147
61 96 147
62 97 156
61 95 155
61 95 145
59 93 145
59 92 133
59 93 147
61 96 156
61 96 151
60 94 145
59 93 139
60 94 144
60 93 140
58 89 127
58 89 144
59 92 152
59 92 145
58 89 137
59 91 136
57 88 144
57 88 137
56 86 128
55 84 127
53 82 133
186 203 229
217 233 255
217 233 255
217 233 255
182 182 170
133 122 71
115 103 65
122 111 67
110 104 65
111 105 67
114 108 71
109 105 72
122 118 79
98 98 70
98 98 70
127 124 83
112 107 69
118 118 83
127 125 86
120 120 83
116 112 74
123 120 80
125 124 87
124 122 78
125 122 81
123 123 83
133 132 86
133 132 82
135 129 78
138 134 84
135 133 84
148 144 90
156 153 96
149 147 95
138 137 86
143 138 87
147 143 82
158 154 98
156 153 91
152 149 94
154 150 91
153 150 89
161 156 97
150 148 89
149 144 85
158 154 94
151 148 87
160 155 99
166 162 99
166 160 98
157 153 90
155 149 93
160 156 96
156 153 95
168 163 94
162 158 98
170 164 101
163 159 96
168 163 101
163 159 95
169 164 98
167 163 99
173 166 103
173 168 104
170 164 97
166 161 91
169 164 101
168 162 93
164 159 88
174 167 102
167 162 93
169 163 95
166 162 84
175 169 98
174 167 97
178 170 102
168 163 91
175 170 101
169 161 94
170 164 93
175 169 102
175 169 96
175 169 103
174 168 97
175 168 101
176 167 100
172 167 95
174 169 102
171 165 92
173 166 95
172 165 96
173 166 96
173 166 98
172 166 94
174 168 100
170 164 90
170 162 88
170 165 94
180 171 101
171 165 94
172 166 98
172 165 93
176 168 101
172 165 94
168 161 89
173 165 87
165 160 87
168 161 90
169 160 83
174 166 99
170 163 84
172 167 103
172 166 94
171 163 95
169 160 88
170 162 98
174 165 92
177 170 103
173 166 98
166 158 86
170 163 96
171 164 91
167 162 90
175 167 97
169 161 91
171 163 94
172 164 95
170 162 92
169 158 86
172 165 91
166 157 84
167 158 86
173 166 95
174 165 88
170 163 98
165 156 86
169 161 86
158 148 81
167 160 96
166 157 84
164 155 85
172 163 96
170 163 93
167 157 91
161 152 87
172 163 94
172 163 93
168 158 91
161 148 77
163 156 84
163 155 84
213 231 255
213 231 255
213 231 255
213 231 255
213 231 255
212 231 255
212 231 255
212 231 255
212 231 255
212 231 255
212 231 255
212 231 255
212 231 255
212 231 255
213 231 255
213 231 255
213 231 255
213 231 255
213 231 255
213 231 255
213 231 255
213 231 255
213 231 255
213 231 255
213 231 255
213 231 255
213 231 255
213 231 255
213 231 255
213 231 255
213 231 255
213 231 255
213 231 255
213 231 255
213 231 255
213 231 255
213 231 255
213 231 255
213 231 255
213 231 255
213 231 255
213 231 255
213 231 255
213 231 255
213 231 255
213 231 255
213 231 255
213 231 255
213 231 255
213 231 255
213 231 255
213 231 255
213 231 255
213 231 255
213 231 255
213 231 255
213 231 255
212 231 255
212 231 255
212 231 255
212 231 255
212 231 255
212 231 255
212 231 255
212 231 255
212 231 255
212 231 255
212 231 255
212 231 255
212 230 255
212 230 255
212 230 255
212 230 255
212 230 255
212 230 255
212 230 255
212 230 255
212 230 255
212 230 255
212 230 255
212 230 255
212 230 255
212 230 255
212 230 255
212 230 255
212 230 255
212 230 255
212 230 255
211 230 255
211 230 255
211 230 255
211 230 255
211 230 255
211 230 255
211 230 255
211 230 255
211 230 255
211 230 255
211 230 255
211 230 255
211 230 255
211 230 255
211 230 255
211 230 255
211 230 255
211 230 255
210 229 255
210 229 255
210 229 255
210 229 255
210 229 255
210 229 255
210 229 255
210 229 255
210 229 255
210 229 255
209 229 255
209 229 255
209 229 255
209 229 255
209 229 255
209 229 255
209 229 255
208 228 255
208 228 255
208 228 255
208 228 255
207 228 255
207 228 255
207 228 255
207 227 255
202 223 252
61 98 173
60 96 157
60 97 163
60 96 163
61 97 166
60 97 168
59 94 158
61 97 164
61 97 161
59 94 156
60 96 159
183 203 233
211 230 255
212 231 255
215 232 255
217 233 255
217 233 255
217 233 255
129 151 189
61 97 157
60 97 157
60 95 144
59 94 147
61 96 151
61 96 142
61 97 159
61 97 157
61 97 147
61 97 153
60 96 155
60 96 147
62 97 151
62 97 151
60 95 144
59 94 137
61 96 153
59 94 140
60 96 147
60 96 142
62 97 153
59 94 130
61 97 149
62 97 149
60 95 133
60 95 147
60 95 140
59 94 133
60 96 144
60 95 133
62 97 153
61 96 142
60 95 130
61 97 149
62 98 151
59 94 142
61 97 153
60 95 142
60 95 144
61 97 155
60 95 149
59 94 144
60 95 144
62 98 155
61 97 147
61 96 149
62 98 160
61 96 144
60 95 133
58 91 138
61 97 149
59 94 144
59 94 133
60 95 138
60 94 144
62 98 155
62 97 144
62 97 155
60 95 135
60 95 130
59 93 134
61 96 142
61 97 151
60 95 143
59 92 128
60 94 147
60 94 133
62 97 153
63 98 149
61 96 147
61 96 147
59 94 137
60 94 138
63 98 158
60 95 147
61 96 142
59 94 147
60 94 130
61 96 158
61 95 141
59 94 131
59 93 140
62 96 156
61 94 137
59 91 134
59 93 142
59 92 139
59 92 138
60 93 142
57 87 115
57 89 116
58 90 137
59 91 138
58 91 130
55 83 113
57 88 121
57 88 136
55 85 135
120 138 166
217 233 255
217 233 255
217 233 255
140 136 107
121 111 66
106 95 55
118 112 73
120 116 74
108 97 56
110 103 65
100 96 65
101 95 59
121 117 77
109 109 74
105 104 72
94 95 64
106 104 72
111 110 74
120 117 77
123 120 79
110 111 78
118 115 76
123 125 87
126 124 81
128 128 85
122 122 81
120 120 79
126 124 82
129 129 90
138 134 88
145 143 89
145 144 93
138 136 85
141 138 88
150 147 97
147 144 92
152 149 99
145 143 92
156 152 98
153 150 90
156 152 93
160 155 94
155 153 96
162 157 98
159 153 96
155 151 93
160 156 95
155 152 96
166 161 97
164 160 97
164 160 98
160 156 94
164 159 97
158 153 91
168 164 103
170 165 102
167 161 97
174 168 100
173 168 102
161 156 93
169 162 97
161 155 95
163 159 93
170 165 100
176 168 103
172 166 97
170 165 96
174 167 104
171 165 98
170 163 95
170 164 99
167 163 93
170 165 95
166 162 93
167 162 88
170 164 93
175 170 101
170 164 100
178 170 102
174 166 98
176 171 104
175 169 102
171 166 97
177 170 101
176 168 101
169 162 90
175 168 102
167 162 90
174 168 97
175 169 99
174 166 101
174 168 97
174 168 97
175 169 98
176 167 101
171 164 90
170 163 90
170 164 95
174 167 96
173 166 102
171 162 93
166 160 87
174 168 97
174 168 95
170 163 88
171 163 91
172 164 93
175 169 97
165 159 87
173 167 91
170 163 91
173 165 97
173 164 92
175 166 93
176 169 97
171 164 90
166 157 83
163 156 84
174 165 97
172 163 91
168 159 85
171 163 91
165 160 90
174 168 97
172 162 92
165 158 87
167 160 84
169 159 86
169 162 93
173 166 94
169 162 82
170 161 88
170 162 93
171 163 93
165 156 81
171 164 90
170 162 91
160 151 79
163 156 85
165 157 80
166 155 86
172 163 93
168 157 82
157 150 73
165 156 81
165 157 88
165 158 84
164 154 81
165 154 82
167 158 86
213 231 255
213 231 255
213 231 255
213 231 255
213 231 255
213 231 255
213 231 255
213 231 255
213 231 255
213 231 255
213 231 255
213 231 255
213 231 255
213 231 255
213 231 255
213 231 255
213 231 255
213 231 255
213 231 255
213 231 255
213 231 255
213 231 255
213 231 255
213 231 255
213 231 255
213 231 255
213 231 255
213 231 255
213 231 255
213 231 255
213 231 255
213 231 255
213 231 255
213 231 255
213 231 255
213 231 255
213 231 255
213 231 255
213 231 255
213 231 255
213 231 255
213 231 255
213 231 255
213 231 255
213 231 255
213 231 255
213 231 255
213 231 255
213 231 255
213 231 255
213 231 255
213 231 255
213 231 255
213 231 255
213 231 255
213 231 255
213 231 255
213 231 255
213 231 255
213 231 255
213 231 255
213 231 255
213 231 255
213 231 255
213 231 255
213 231 255
213 231 255
213 231 255
213 231 255
213 231 255
213 231 255
213 231 255
213 231 255
213 231 255
213 231 255
213 231 255
213 231 255
213 231 255
213 231 255
213 231 255
213 231 255
213 231 255
212 231 255
212 231 255
212 231 255
212 231 255
212 231 255
212 231 255
212 230 255
212 230 255
212 230 255
212 230 255
212 230 255
212 230 255
212 230 255
212 230 255
212 230 255
212 230 255
212 230 255
212 230 255
212 230 255
212 230 255
211 230 255
211 230 255
211 230 255
211 230 255
211 230 255
211 230 255
211 230 255
211 230 255
211 230 255
211 230 255
211 230 255
211 230 255
210 230 255
210 230 255
210 229 255
210 229 255
210 229 255
210 229 255
210 229 255
210 229 255
210 229 255
209 229 255
209 229 255
209 229 255
209 229 255
209 229 255
208 228 255
208 228 255
208 228 255
207 228 255
115 140 189
61 97 159
60 96 161
61 98 161
59 95 142
61 97 156
60 96 169
60 97 172
61 97 161
60 96 158
59 94 161
96 123 166
210 228 254
213 231 255
214 232 255
217 233 255
217 233 255
217 233 255
85 115 175
59 95 151
60 95 151
60 95 135
59 94 151
59 95 133
60 95 144
62 97 155
60 95 151
60 94 142
60 95 142
59 94 144
60 96 151
60 95 144
59 94 137
61 96 147
60 95 140
62 97 153
61 96 142
61 97 155
62 98 159
60 96 149
62 97 153
62 97 155
60 95 135
61 96 140
60 95 140
61 96 140
62 97 144
62 97 153
61 96 147
62 97 142
60 95 149
60 95 130
59 94 133
60 96 137
62 97 151
60 95 147
60 95 133
61 97 144
60 95 137
62 97 142
61 96 147
60 95 130
60 95 149
60 95 135
61 95 142
61 97 155
61 97 155
61 96 149
61 96 147
62 97 149
62 97 149
61 96 149
61 96 147
59 94 144
60 95 147
60 96 147
61 96 153
59 93 128
60 94 135
60 95 144
60 94 133
60 95 149
60 94 138
62 97 151
60 95 138
59 93 142
60 94 138
60 95 128
61 95 140
59 94 141
61 96 140
60 95 135
58 92 125
59 94 147
59 93 138
61 95 146
60 94 150
59 93 134
59 92 142
60 94 149
60 93 138
59 93 143
60 94 142
59 92 137
58 92 131
58 88 140
59 93 144
58 91 131
59 91 143
58 90 136
59 91 142
59 92 134
59 91 136
58 88 130
57 89 137
56 87 133
55 84 122
67 90 122
217 233 255
217 233 255
206 219 234
134 123 71
132 120 67
96 88 56
120 112 72
111 104 68
79 77 52
106 105 72
105 102 67
91 92 69
103 104 74
97 95 62
97 99 72
104 105 72
102 95 64
105 109 79
120 119 83
124 122 81
118 115 71
118 117 79
130 126 83
117 119 81
130 129 86
126 124 81
118 117 75
134 133 84
125 125 85
132 129 77
146 142 90
132 128 82
148 144 84
133 130 83
143 140 83
155 151 93
158 154 96
142 140 86
152 149 96
156 154 99
151 145 83
152 149 89
156 153 97
160 156 97
166 161 96
164 158 98
162 156 88
153 149 86
166 161 98
165 161 101
164 160 91
158 154 92
157 153 96
174 167 104
161 157 88
165 161 96
167 162 96
159 155 91
170 164 94
170 165 99
171 166 99
174 167 102
168 162 99
171 164 100
175 167 100
170 165 93
169 164 90
175 168 103
170 165 96
166 162 101
170 164 96
171 167 95
174 167 98
172 166 90
177 169 97
168 161 92
171 166 95
175 167 98
171 165 96
168 163 87
173 165 94
174 166 91
176 169 97
171 165 94
174 166 95
168 162 91
172 166 101
172 165 90
174 167 97
174 167 96
169 163 93
173 166 94
178 171 99
172 165 100
170 164 91
175 168 99
169 163 91
175 168 97
168 161 88
168 162 90
172 165 98
176 168 96
166 158 85
171 164 96
171 164 87
175 168 99
173 166 93
173 165 90
174 167 94
166 159 77
171 165 95
173 165 94
169 159 82
170 163 90
175 167 97
170 162 98
170 162 86
172 163 91
173 166 96
172 166 91
172 165 94
170 162 87
172 164 94
166 158 86
171 164 91
177 168 97
172 163 96
170 163 91
168 160 94
165 156 79
165 154 82
166 157 89
173 162 92
162 153 84
170 159 87
162 155 85
163 156 84
166 160 89
169 160 86
169 161 88
169 159 94
169 163 90
159 150 72
164 154 84
165 156 87
167 158 92
165 156 84
168 158 86
168 159 86
162 153 76
214 232 255
214 231 255
214 231 255
214 231 255
214 231 255
214 231 255
214 231 255
214 231 255
214 231 255
214 231 255
214 231 255
214 231 255
214 231 255
214 231 255
214 231 255
214 231 255
214 231 255
214 231 255
214 231 255
214 231 255
214 231 255
214 231 255
214 231 255
214 231 255
214 231 255
214 231 255
214 231 255
214 231 255
214 231 255
214 231 255
214 231 255
214 231 255
214 231 255
214 231 255
214 231 255
214 232 255
214 231 255
214 231 255
214 231 255
214 231 255
214 232 255
214 231 255
214 231 255
214 231 255
214 231 255
214 231 255
214 231 255
214 231 255
214 231 255
214 231 255
214 231 255
214 231 255
214 231 255
214 231 255
214 231 255
214 231 255
214 231 255
214 231 255
214 231 255
214 231 255
214 231 255
214 231 255
214 231 255
214 231 255
214 231 255
214 231 255
214 231 255
214 231 255
214 231 255
214 231 255
214 231 255
213 231 255
213 231 255
213 231 255
213 231 255
213 231 255
213 231 255
213 231 255
213 231 255
213 231 255
213 231 255
213 231 255
213 231 255
213 231 255
213 231 255
213 231 255
213 231 255
213 231 255
213 231 255
213 231 255
213 231 255
213 231 255
213 231 255
213 231 255
213 231 255
213 231 255
213 231 255
213 231 255
212 231 255
212 231 255
212 231 255
212 231 255
212 231 255
212 230 255
212 230 255
212 230 255
212 230 255
212 230 255
212 230 255
212 230 255
212 230 255
212 230 255
212 230 255
211 230 255
211 230 255
211 230 255
211 230 255
211 230 255
211 230 255
211 230 255
211 230 255
211 230 255
210 230 255
210 230 255
210 229 255
210 229 255
210 229 255
210 229 255
209 229 255
209 229 255
209 229 255
209 229 255
163 185 220
59 95 158
60 96 156
61 97 163
61 97 161
61 97 165
57 92 147
60 94 149
58 93 148
60 95 157
60 96 161
59 94 155
169 188 223
213 231 255
214 232 255
217 233 255
218 233 255
190 207 234
59 95 149
58 93 133
59 94 140
61 96 151
61 96 151
61 96 144
60 96 153
63 98 155
61 97 147
61 97 149
59 94 137
61 97 149
58 93 135
62 98 151
61 96 147
61 96 142
61 96 147
62 97 147
61 95 135
61 96 142
60 96 147
60 94 130
60 95 137
62 98 155
62 98 149
58 94 142
62 97 153
61 96 147
60 95 128
60 95 144
60 95 142
60 95 144
60 95 142
60 94 130
62 97 153
60 95 133
61 97 147
62 98 151
61 96 142
62 97 147
60 94 142
60 94 140
60 95 135
60 96 147
61 96 149
61 96 147
62 98 155
61 96 147
60 95 135
61 96 140
61 96 151
61 95 149
61 96 144
60 95 133
61 96 147
61 96 149
61 96 149
61 96 137
61 96 155
60 96 149
59 94 135
60 94 138
61 96 140
61 97 149
61 96 147
61 96 137
61 96 144
59 93 136
59 94 142
60 95 145
61 95 138
59 93 136
57 90 136
60 94 136
60 95 135
59 91 129
58 91 131
61 96 151
58 92 135
59 91 133
60 95 152
61 95 147
60 94 133
60 93 137
59 92 141
58 93 131
61 95 151
60 93 134
60 91 130
58 89 132
60 93 144
58 90 140
59 92 147
57 88 137
56 85 119
59 92 144
53 81 121
55 85 119
55 84 133
55 84 128
196 211 232
218 233 255
189 196 201
118 109 61
116 108 61
112 103 67
114 105 67
107 102 66
91 89 64
100 94 61
91 85 51
101 99 65
94 93 62
107 106 71
108 108 73
105 100 64
102 101 69
104 100 64
107 103 65
119 118 79
116 117 82
129 127 80
114 109 66
129 127 84
124 122 79
127 124 82
133 130 83
120 120 76
133 131 83
136 133 82
145 142 86
131 131 79
132 131 82
142 139 88
137 135 79
121 121 79
146 142 89
156 152 91
153 149 92
145 143 90
148 146 94
151 147 87
154 152 96
158 154 94
150 146 88
162 158 101
162 158 91
154 150 90
156 153 94
165 160 99
155 152 91
156 152 88
170 165 101
165 161 94
164 161 95
166 161 95
164 160 93
168 164 95
164 160 93
167 161 92
171 165 95
161 157 91
162 157 87
175 168 95
166 161 94
174 169 103
167 160 93
173 167 100
166 161 84
168 163 91
167 162 97
163 157 88
169 163 87
167 163 93
177 170 101
175 169 97
174 168 100
174 168 96
174 165 98
171 166 88
177 170 98
174 166 96
173 167 100
176 168 96
174 168 90
176 169 98
178 169 97
170 163 89
171 165 93
175 168 98
168 161 85
173 166 95
174 168 97
170 164 80
171 165 85
173 167 94
168 162 85
171 165 94
170 164 91
174 166 95
172 165 91
176 168 101
174 167 98
174 168 102
169 164 93
169 162 91
169 159 92
168 162 90
180 171 102
173 166 88
164 157 86
173 166 96
174 165 89
172 167 101
170 162 84
171 164 87
171 164 92
172 163 91
173 164 90
170 162 91
173 165 93
177 169 98
168 160 89
173 164 92
171 163 88
172 165 95
168 158 81
168 157 86
172 164 94
166 157 84
169 160 83
172 164 96
172 166 92
168 160 89
168 159 81
164 156 83
170 161 96
162 155 80
168 160 91
165 155 83
164 153 84
168 159 87
159 150 74
163 156 87
156 147 76
162 152 84
176 166 98
167 159 88
162 149 78
170 161 92
215 232 255
215 232 255
214 232 255
214 232 255
214 232 255
214 232 255
214 232 255
214 232 255
214 232 255
214 232 255
214 232 255
214 232 255
214 232 255
214 232 255
214 232 255
214 232 255
215 232 255
214 232 255
215 232 255
215 232 255
215 232 255
215 232 255
215 232 255
215 232 255
215 232 255
215 232 255
215 232 255
215 232 255
215 232 255
215 232 255
215 232 255
215 232 255
215 232 255
215 232 255
215 232 255
215 232 255
215 232 255
215 232 255
215 232 255
215 232 255
215 232 255
215 232 255
215 232 255
215 232 255
215 232 255
215 232 255
215 232 255
215 232 255
215 232 255
215 232 255
214 232 255
214 232 255
214 232 255
214 232 255
214 232 255
214 232 255
214 232 255
214 232 255
214 232 255
214 232 255
214 232 255
214 232 255
214 232 255
214 232 255
214 232 255
214 232 255
214 232 255
214 232 255
214 232 255
214 232 255
214 232 255
214 232 255
214 232 255
214 232 255
214 232 255
214 232 255
214 232 255
214 232 255
214 231 255
214 231 255
214 231 255
214 231 255
214 231 255
214 231 255
214 231 255
214 231 255
214 231 255
214 231 255
214 231 255
214 231 255
214 231 255
214 231 255
213 231 255
213 231 255
213 231 255
213 231 255
213 231 255
213 231 255
213 231 255
213 231 255
213 231 255
213 231 255
213 231 255
213 231 255
213 231 255
213 231 255
213 231 255
213 231 255
213 231 255
213 231 255
213 231 255
213 231 255
212 231 255
212 231 255
212 230 255
212 230 255
212 230 255
212 230 255
212 230 255
212 230 255
212 230 255
212 230 255
211 230 255
211 230 255
211 230 255
211 230 255
211 230 255
211 230 255
210 230 255
210 229 255
210 229 255
210 229 255
196 216 245
58 92 154
61 97 161
61 96 156
60 96 160
60 96 159
61 97 164
59 94 155
59 94 150
58 93 154
58 94 165
61 97 165
83 112 171
201 219 245
214 232 255
217 233 255
218 234 255
183 200 224
60 95 149
60 95 130
62 98 153
59 94 140
61 97 151
61 97 142
60 95 142
61 97 151
61 96 140
60 95 142
60 95 137
60 95 133
61 97 147
61 96 140
59 94 140
60 95 130
60 96 137
61 97 151
63 99 167
59 94 142
61 96 147
60 94 130
61 96 144
61 96 135
61 97 151
61 96 142
60 95 142
59 94 135
61 96 144
62 97 147
62 98 155
61 96 147
60 94 135
61 97 144
59 94 137
60 94 140
60 95 133
61 96 147
60 95 140
59 94 125
61 96 140
62 96 144
59 94 133
60 94 135
62 98 149
59 94 137
62 98 153
61 97 149
61 95 135
60 95 144
61 95 135
61 97 149
61 96 144
60 95 140
62 98 161
62 97 155
59 93 135
62 97 144
59 94 130
60 94 140
61 95 138
61 96 140
60 94 142
59 94 149
59 94 137
60 94 142
60 95 144
61 96 147
58 92 135
61 96 153
61 96 146
60 95 144
60 95 148
61 95 141
61 96 144
61 96 142
58 92 128
58 91 135
59 93 136
58 91 133
61 95 145
61 94 132
59 92 134
60 94 143
59 93 139
60 95 151
57 90 140
57 89 124
58 90 117
59 93 137
59 94 141
55 86 121
59 92 139
58 90 140
58 89 135
58 90 139
57 89 134
55 84 112
54 82 130
52 78 105
177 193 219
218 234 255
170 173 168
119 109 67
118 103 56
93 86 52
99 91 56
101 95 62
97 93 62
93 89 58
100 96 63
109 103 64
90 87 58
99 97 65
108 110 79
88 88 59
114 108 68
103 103 71
116 117 82
116 115 76
119 119 79
100 99 65
129 127 81
111 112 68
110 111 71
127 124 78
136 134 86
133 131 84
140 137 86
131 130 79
130 128 76
148 143 89
136 133 76
142 139 89
150 147 96
141 139 82
153 151 96
161 156 97
147 144 88
150 148 93
147 145 89
156 152 90
159 154 86
157 153 85
167 161 99
160 156 98
158 155 95
161 155 96
167 161 99
160 157 96
163 159 92
164 158 94
150 147 84
162 157 94
165 159 90
168 164 93
168 162 95
170 165 97
168 163 99
164 159 87
166 161 91
170 165 96
174 168 100
168 161 92
168 162 93
172 166 93
168 163 95
172 165 96
170 163 94
175 168 99
171 166 96
176 168 102
178 170 101
171 165 98
175 169 103
173 168 101
175 168 101
177 170 102
169 164 87
169 162 90
169 162 87
175 167 101
170 165 90
171 163 90
170 165 90
176 170 102
167 162 83
175 167 94
178 170 101
170 163 91
171 164 91
175 168 91
171 163 88
167 160 85
177 170 101
176 170 101
171 164 97
175 168 93
169 163 94
177 169 97
169 163 94
176 169 96
171 164 90
171 164 91
173 165 88
174 168 94
168 162 87
172 166 91
170 163 94
177 169 97
175 167 94
171 161 89
169 161 88
171 164 93
170 165 88
171 163 91
171 163 87
171 163 87
172 162 92
169 164 88
166 159 82
171 162 91
172 164 88
166 159 86
169 160 91
171 163 89
169 162 96
168 159 86
164 155 81
172 163 94
160 150 76
171 164 93
171 164 94
172 165 93
166 156 87
168 159 89
164 157 80
168 162 94
164 156 79
167 156 87
164 155 88
161 151 71
168 157 84
166 155 82
169 161 88
165 155 79
164 156 85
163 152 81
165 156 86
165 158 81
215 232 255
215 232 255
215 232 255
215 232 255
215 232 255
215 232 255
215 232 255
215 232 255
215 232 255
215 232 255
215 232 255
215 232 255
215 232 255
215 232 255
215 232 255
215 232 255
215 232 255
215 232 255
215 232 255
215 232 255
215 232 255
215 232 255
215 232 255
215 232 255
215 232 255
215 232 255
215 232 255
215 232 255
215 232 255
215 232 255
215 232 255
215 232 255
215 232 255
215 232 255
215 232 255
215 232 255
215 232 255
215 232 255
215 232 255
215 232 255
215 232 255
215 232 255
215 232 255
215 232 255
215 232 255
215 232 255
215 232 255
215 232 255
215 232 255
215 232 255
215 232 255
215 232 255
215 232 255
215 232 255
215 232 255
215 232 255
215 232 255
215 232 255
215 232 255
215 232 255
215 232 255
215 232 255
215 232 255
215 232 255
215 232 255
215 232 255
215 232 255
215 232 255
215 232 255
215 232 255
215 232 255
215 232 255
215 232 255
215 232 255
215 232 255
215 232 255
215 232 255
215 232 255
215 232 255
215 232 255
215 232 255
215 232 255
215 232 255
215 232 255
214 232 255
214 232 255
214 232 255
214 232 255
214 232 255
214 232 255
214 232 255
214 232 255
214 232 255
214 232 255
214 232 255
214 232 255
214 232 255
214 232 255
214 231 255
214 231 255
214 231 255
214 231 255
214 231 255
214 231 255
214 231 255
214 231 255
214 231 255
214 231 255
214 231 255
213 231 255
213 231 255
213 231 255
213 231 255
213 231 255
213 231 255
213 231 255
213 231 255
213 231 255
213 231 255
213 231 255
213 231 255
213 231 255
212 231 255
212 231 255
212 230 255
212 230 255
212 230 255
212 230 255
212 230 255
211 230 255
211 230 255
211 230 255
207 226 253
67 100 155
61 97 160
60 96 157
61 97 157
59 95 157
61 96 152
58 93 150
59 94 156
61 96 157
59 94 154
61 96 157
58 94 152
160 180 214
215 232 255
216 233 255
218 234 255
152 171 203
59 93 128
60 96 147
59 94 142
59 94 137
62 97 149
60 95 144
62 97 151
60 95 149
61 96 144
59 94 135
61 97 161
61 96 147
60 95 142
59 95 140
60 96 142
59 94 135
60 95 137
63 98 155
61 96 147
61 96 144
60 95 142
60 95 137
60 95 137
61 97 147
61 97 149
59 95 140
61 96 144
61 96 137
60 95 142
61 97 144
61 96 149
62 98 153
61 97 149
60 95 133
60 95 133
60 95 137
62 97 151
60 95 137
61 96 144
61 96 144
61 96 144
60 95 155
63 98 157
62 98 153
58 93 128
62 97 151
61 95 135
61 95 137
61 96 142
62 98 159
60 96 144
59 93 135
61 96 149
62 98 151
60 95 137
60 95 133
61 96 140
60 96 144
60 95 135
61 95 142
61 97 149
60 94 134
61 96 153
60 95 140
60 95 149
60 95 147
59 93 133
61 96 144
61 95 147
60 95 135
61 96 138
59 93 133
61 95 149
63 98 159
60 94 144
61 94 145
59 92 134
59 93 136
60 94 148
59 94 135
59 93 141
60 92 141
60 93 143
61 95 138
60 94 129
59 93 145
59 92 130
57 89 124
58 90 141
59 92 126
60 93 137
58 89 135
59 92 144
58 90 142
59 91 136
59 91 143
58 90 133
55 84 118
57 85 133
53 80 117
156 172 198
214 229 250
116 103 54
121 106 59
107 97 57
101 92 52
108 97 56
107 98 64
91 87 53
91 92 62
112 106 67
96 94 63
81 81 59
97 98 71
108 110 78
98 99 67
105 105 73
106 105 72
112 107 67
112 111 69
122 118 75
129 128 79
131 128 84
109 110 73
123 121 79
128 125 73
130 127 77
128 126 78
129 127 79
125 124 80
129 128 79
137 136 82
136 134 89
138 136 89
155 151 96
139 138 88
141 138 80
142 141 86
160 156 100
146 143 82
155 148 95
151 149 89
155 149 85
156 153 93
154 151 93
154 150 86
156 152 85
162 157 94
153 150 91
159 155 86
162 158 94
156 152 87
161 157 90
157 153 88
166 161 97
170 165 94
173 167 98
154 151 85
168 161 97
165 160 88
165 160 92
171 166 100
176 169 98
170 165 95
170 164 91
168 161 91
172 165 95
168 162 93
170 165 97
171 166 90
177 170 101
170 165 91
164 160 93
175 168 96
172 166 95
175 169 95
173 165 88
171 165 96
173 168 98
171 165 92
172 166 85
167 163 84
170 164 85
175 167 95
176 167 94
173 166 94
170 165 91
171 166 95
173 166 92
170 164 89
175 166 96
174 169 103
173 166 91
169 162 88
168 163 91
175 168 101
171 162 91
173 164 90
179 171 102
169 163 91
173 166 96
170 165 93
171 165 93
175 168 96
169 163 87
174 166 95
171 163 97
169 163 92
172 165 96
167 159 83
171 163 89
174 165 91
168 159 84
169 161 88
172 164 87
165 158 81
171 163 93
170 161 89
171 163 93
173 163 92
167 159 86
168 160 89
165 157 81
175 167 94
170 161 91
174 164 91
172 164 87
163 157 82
166 158 81
172 163 88
173 164 92
171 162 88
171 161 89
172 164 91
167 159 88
160 152 81
169 159 89
161 154 81
170 162 96
166 157 81
163 153 83
162 154 77
169 160 86
166 158 84
172 162 91
164 156 81
173 164 91
165 156 79
169 159 86
170 160 93
216 232 255
216 232 255
216 232 255
216 232 255
216 232 255
216 232 255
216 232 255
216 232 255
216 232 255
216 232 255
216 232 255
216 232 255
216 232 255
216 232 255
216 232 255
216 232 255
216 232 255
216 232 255
216 232 255
216 232 255
216 232 255
216 232 255
216 232 255
216 232 255
216 233 255
216 233 255
216 233 255
216 232 255
216 233 255
216 233 255
216 233 255
216 233 255
216 233 255
216 233 255
216 233 255
216 233 255
216 233 255
216 233 255
216 233 255
216 233 255
216 233 255
216 233 255
216 232 255
216 232 255
216 233 255
216 232 255
216 232 255
216 232 255
216 232 255
216 232 255
216 232 255
216 232 255
216 232 255
216 232 255
216 232 255
216 232 255
216 232 255
216 232 255
216 232 255
216 232 255
216 232 255
216 232 255
216 232 255
216 232 255
216 232 255
216 232 255
216 232 255
216 232 255
216 232 255
215 232 255
215 232 255
215 232 255
215 232 255
215 232 255
215 232 255
215 232 255
215 232 255
215 232 255
215 232 255
215 232 255
215 232 255
215 232 255
215 232 255
215 232 255
215 232 255
215 232 255
215 232 255
215 232 255
215 232 255
215 232 255
215 232 255
215 232 255
215 232 255
215 232 255
215 232 255
215 232 255
215 232 255
215 232 255
215 232 255
215 232 255
215 232 255
215 232 255
215 232 255
214 232 255
215 232 255
214 232 255
214 232 255
214 232 255
214 232 255
214 232 255
214 232 255
214 232 255
214 232 255
214 231 255
214 231 255
214 231 255
214 231 255
214 231 255
214 231 255
214 231 255
213 231 255
213 231 255
213 231 255
213 231 255
213 231 255
213 231 255
213 231 255
213 231 255
213 231 255
212 231 255
212 230 255
212 230 255
212 230 255
88 117 173
57 91 145
60 95 148
60 95 151
60 95 147
59 94 155
57 91 136
57 92 152
58 93 149
60 96 167
60 96 157
58 93 146
106 132 181
213 230 254
216 233 255
218 234 255
115 139 181
59 95 143
62 98 153
62 97 155
61 96 149
62 98 151
61 97 147
59 94 137
61 97 149
59 94 130
60 95 128
60 96 149
59 94 133
60 95 147
61 96 144
60 95 135
62 97 147
61 96 151
60 95 147
60 94 142
59 93 117
58 93 128
61 96 144
59 93 117
61 96 147
60 95 140
61 97 149
61 97 149
60 94 133
61 97 155
60 95 137
61 96 142
62 98 155
60 96 147
60 95 142
63 99 155
61 97 149
59 94 147
62 97 149
62 98 151
60 96 140
60 95 140
62 97 144
58 93 128
61 96 151
61 96 144
60 95 147
60 96 137
59 94 130
61 96 147
59 94 135
62 98 149
62 97 153
59 94 140
61 96 142
61 96 149
61 96 147
60 96 142
62 97 144
61 95 143
62 97 142
60 94 142
60 95 135
60 94 140
60 95 142
59 93 138
60 95 137
61 96 144
62 97 155
61 96 144
61 95 145
58 92 133
59 92 136
60 93 147
59 94 140
59 93 136
60 95 151
60 95 145
60 95 140
60 94 153
58 91 126
58 91 129
60 94 136
59 93 129
59 93 133
59 93 132
61 96 147
58 92 125
59 93 141
58 90 130
58 91 120
59 91 130
60 93 150
54 83 119
59 90 143
59 91 141
58 90 132
59 89 129
54 83 123
54 81 113
53 81 111
109 128 164
204 216 232
128 114 59
113 103 60
100 93 56
120 113 71
92 86 54
92 87 55
98 92 55
97 92 58
91 86 57
103 103 69
85 86 56
106 104 68
113 109 68
85 86 55
91 93 59
102 102 64
107 104 62
90 94 62
113 111 75
122 123 78
120 118 73
124 121 76
116 116 71
121 119 72
125 125 80
142 140 87
135 133 85
139 135 77
143 140 88
136 134 85
137 135 85
140 138 86
136 135 81
122 119 76
149 145 84
145 142 92
161 155 88
152 148 90
146 143 84
158 153 91
156 153 93
153 149 87
152 148 87
166 161 95
156 152 90
160 156 93
156 152 87
158 153 83
159 156 88
165 160 90
168 162 95
158 154 85
157 152 87
164 160 85
169 163 91
163 158 93
169 163 100
163 160 94
173 167 95
172 166 98
170 163 91
168 162 97
175 169 103
172 166 93
171 164 88
174 166 93
168 163 96
166 160 88
172 165 95
168 162 87
173 168 97
172 166 95
174 166 99
169 163 90
172 166 93
172 164 93
173 167 95
173 168 94
172 166 93
175 168 98
172 167 94
172 166 93
172 167 95
176 169 102
174 168 93
173 165 94
169 163 88
171 164 87
175 167 97
172 166 94
175 168 95
176 170 98
171 164 90
167 162 88
177 169 94
169 161 87
171 164 90
171 164 81
167 159 82
172 164 95
167 160 84
174 165 91
174 167 91
173 166 90
171 163 84
168 160 82
168 161 89
169 159 90
168 159 87
164 156 74
164 157 84
173 165 93
173 166 90
169 160 85
168 160 80
169 159 91
169 160 88
172 164 88
169 161 84
170 163 93
170 162 82
168 159 87
170 161 91
169 161 87
170 164 90
160 153 79
169 160 87
164 155 82
169 159 91
169 164 90
171 163 90
166 156 80
169 158 85
174 167 97
166 158 85
171 163 86
162 154 81
168 160 85
173 164 90
165 158 86
169 159 85
166 157 78
170 160 84
169 158 79
168 159 86
166 155 86
166 155 74
159 152 78
216 233 255
216 233 255
216 233 255
216 233 255
216 233 255
216 233 255
216 233 255
216 233 255
216 233 255
216 233 255
216 233 255
216 233 255
216 233 255
216 233 255
216 233 255
216 233 255
216 233 255
216 233 255
216 233 255
216 233 255
216 233 255
216 233 255
216 233 255
216 233 255
216 233 255
216 233 255
216 233 255
216 233 255
216 233 255
216 233 255
216 233 255
216 233 255
216 233 255
216 233 255
216 233 255
216 233 255
216 233 255
216 233 255
216 233 255
216 233 255
216 233 255
216 233 255
216 233 255
216 233 255
216 233 255
216 233 255
216 233 255
216 233 255
216 233 255
216 233 255
216 233 255
216 233 255
216 233 255
216 233 255
216 233 255
216 233 255
216 233 255
216 233 255
216 233 255
216 233 255
216 233 255
216 233 255
216 233 255
216 233 255
216 233 255
216 233 255
216 233 255
216 233 255
216 233 255
216 233 255
216 233 255
216 233 255
216 233 255
216 233 255
216 233 255
216 233 255
216 233 255
216 233 255
216 233 255
216 233 255
216 233 255
216 233 255
216 233 255
216 233 255
216 233 255
216 233 255
216 233 255
216 233 255
216 232 255
216 232 255
216 232 255
216 232 255
216 232 255
216 232 255
216 232 255
216 232 255
216 232 255
215 232 255
215 232 255
215 232 255
215 232 255
215 232 255
215 232 255
215 232 255
215 232 255
215 232 255
215 232 255
215 232 255
215 232 255
215 232 255
215 232 255
215 232 255
215 232 255
215 232 255
215 232 255
215 232 255
215 232 255
215 232 255
215 232 255
215 232 255
214 232 255
214 232 255
214 232 255
214 232 255
214 232 255
214 231 255
214 231 255
214 231 255
214 231 255
213 231 255
213 231 255
213 231 255
213 231 255
148 169 208
60 96 151
60 96 151
60 96 155
60 95 151
60 95 145
59 94 144
58 92 145
60 96 157
57 92 149
58 92 143
57 92 140
58 93 152
192 210 236
216 233 255
218 234 255
78 107 137
60 95 151
58 92 130
61 97 155
59 95 155
62 98 155
61 95 140
61 96 149
62 97 147
60 95 133
60 94 140
60 95 142
60 95 142
60 95 137
60 94 135
62 97 149
60 95 137
60 95 130
58 93 133
61 96 130
61 96 147
61 96 144
59 94 133
61 97 151
62 98 157
61 96 147
60 95 142
61 96 147
63 98 153
60 95 133
61 96 140
62 98 153
61 95 159
62 97 153
61 96 147
60 94 142
61 96 142
58 92 128
61 96 142
59 94 122
58 92 117
61 95 137
60 96 142
61 96 147
61 96 149
58 93 111
61 96 137
59 94 140
61 97 153
59 93 133
61 96 142
63 98 153
61 96 144
60 96 149
58 92 130
61 95 140
60 94 133
61 96 147
59 93 128
58 93 135
62 97 144
61 95 142
61 97 151
59 93 125
59 93 140
61 95 142
61 95 145
59 93 137
58 92 125
61 96 150
60 94 137
60 95 135
58 93 135
61 96 147
58 91 135
61 96 133
60 94 143
59 93 125
60 94 135
59 93 131
61 95 154
61 96 149
60 94 143
60 93 134
58 90 118
62 97 152
57 89 120
59 93 133
59 92 137
59 90 141
59 91 135
59 92 127
56 87 118
58 89 131
59 92 138
57 89 136
58 92 134
55 85 132
57 88 133
50 76 102
56 86 128
65 85 116
170 172 167
117 109 65
104 89 49
96 84 47
93 82 47
96 89 56
80 77 52
84 77 47
87 83 52
79 77 56
102 93 57
92 90 62
87 88 61
99 97 60
95 95 63
113 107 67
89 92 66
93 89 55
108 108 71
120 117 75
110 111 75
110 109 62
115 114 75
122 122 72
127 126 81
123 122 80
133 131 82
139 138 83
129 127 78
132 131 81
134 131 79
135 133 78
142 139 90
144 140 82
151 146 80
148 144 88
145 142 85
137 135 84
146 144 86
144 141 85
151 149 88
155 151 84
151 148 85
161 157 88
154 151 81
164 160 90
161 156 90
164 159 91
155 152 84
153 149 85
152 149 80
161 156 88
160 154 82
166 159 87
167 160 92
166 162 94
163 158 88
166 159 90
159 155 81
164 159 97
169 163 90
169 163 86
170 163 93
168 162 91
163 159 90
169 163 93
163 158 86
171 166 96
171 164 92
169 163 92
176 169 102
173 166 90
169 163 93
173 168 99
172 165 97
171 166 92
174 167 92
170 164 95
175 167 95
169 163 95
173 167 91
171 165 93
172 166 93
172 166 94
171 166 91
172 167 94
173 165 94
172 166 93
169 163 84
175 167 96
175 168 94
173 166 94
172 165 94
175 167 96
175 169 95
174 166 94
171 164 87
169 163 86
171 164 94
174 166 92
172 165 91
174 166 91
169 164 87
172 166 96
173 165 93
169 163 91
174 166 97
178 169 95
174 165 94
171 162 85
177 169 98
166 157 82
174 167 99
168 158 81
170 163 90
175 165 93
168 161 81
168 159 80
173 167 88
167 159 85
169 163 88
168 161 93
170 163 87
171 164 94
172 166 95
171 161 89
162 154 77
167 159 82
165 157 81
169 159 82
169 161 85
171 164 93
166 157 81
171 162 87
169 160 88
170 162 92
162 153 78
170 162 84
152 143 71
161 152 81
165 155 80
168 160 85
166 158 86
164 153 87
166 157 83
162 152 78
170 163 82
166 156 79
168 159 83
217 233 255
217 233 255
217 233 255
217 233 255
217 233 255
217 233 255
217 233 255
217 233 255
217 233 255
217 233 255
217 233 255
217 233 255
217 233 255
217 233 255
217 233 255
217 233 255
217 233 255
217 233 255
217 233 255
217 233 255
217 233 255
217 233 255
217 233 255
217 233 255
217 233 255
217 233 255
217 233 255
217 233 255
217 233 255
217 233 255
217 233 255
217 233 255
217 233 255
217 233 255
217 233 255
217 233 255
217 233 255
217 233 255
217 233 255
217 233 255
217 233 255
217 233 255
217 233 255
217 233 255
217 233 255
217 233 255
217 233 255
217 233 255
217 233 255
217 233 255
217 233 255
217 233 255
217 233 255
217 233 255
217 233 255
217 233 255
217 233 255
217 233 255
217 233 255
217 233 255
217 233 255
217 233 255
217 233 255
217 233 255
217 233 255
217 233 255
217 233 255
217 233 255
217 233 255
217 233 255
217 233 255
217 233 255
217 233 255
217 233 255
217 233 255
217 233 255
217 233 255
217 233 255
217 233 255
217 233 255
217 233 255
217 233 255
217 233 255
217 233 255
217 233 255
217 233 255
216 233 255
216 233 255
216 233 255
216 233 255
216 233 255
216 233 255
216 233 255
216 233 255
216 233 255
216 233 255
216 233 255
216 233 255
216 233 255
216 233 255
216 233 255
216 233 255
216 233 255
216 233 255
216 233 255
216 233 255
216 233 255
216 233 255
216 233 255
216 233 255
216 232 255
216 232 255
216 232 255
216 232 255
216 232 255
216 232 255
215 232 255
215 232 255
215 232 255
215 232 255
215 232 255
215 232 255
215 232 255
215 232 255
215 232 255
215 232 255
215 232 255
215 232 255
215 232 255
214 232 255
214 232 255
214 232 255
214 232 255
163 182 215
54 87 144
59 95 144
57 91 139
60 95 157
59 94 157
57 92 136
59 94 148
60 95 161
57 90 140
61 96 159
55 88 144
58 92 148
140 159 192
217 233 255
212 228 248
61 97 147
61 97 147
61 95 145
62 98 159
60 95 142
61 96 144
59 94 140
60 95 144
61 97 149
60 95 133
62 98 153
60 95 137
60 95 142
59 94 128
61 96 140
61 96 147
61 96 133
60 95 140
59 94 140
61 96 144
60 95 128
61 97 155
59 94 130
60 96 140
61 96 135
60 95 140
60 95 137
61 96 135
60 95 137
60 95 140
59 93 130
58 92 135
60 95 147
61 96 144
61 96 142
61 96 144
60 95 140
62 97 144
59 94 135
60 94 137
60 95 140
60 95 137
62 96 147
61 96 144
60 96 147
60 95 147
60 94 137
62 97 149
63 99 161
63 99 159
60 95 133
61 95 142
61 96 142
60 95 142
61 96 144
59 95 149
61 96 151
59 93 122
62 97 149
60 95 137
61 95 142
61 95 135
60 95 135
60 94 134
58 91 133
59 94 142
60 94 140
62 97 159
60 95 133
62 96 149
60 94 135
59 93 134
59 94 137
58 91 131
59 92 132
61 95 135
61 95 141
61 95 140
61 96 144
62 96 142
61 95 143
59 92 142
60 92 137
59 92 134
61 96 133
60 93 143
59 93 145
60 93 143
58 91 134
59 92 136
59 90 129
59 92 134
57 89 132
56 86 124
55 84 103
56 86 133
55 86 125
58 89 133
52 81 106
56 85 128
54 82 100
51 77 105
161 162 159
101 89 49
102 88 49
106 97 57
100 93 59
99 91 56
84 76 41
91 83 50
89 81 50
69 68 43
86 85 59
90 88 57
101 96 56
96 93 65
108 107 71
85 89 58
98 99 64
119 116 77
121 121 81
115 110 70
125 123 78
123 123 75
114 114 72
108 109 72
129 128 81
115 114 69
128 125 78
144 141 86
128 127 73
145 141 84
138 136 85
132 130 74
142 139 77
143 141 88
139 136 81
143 140 84
146 143 79
146 143 87
138 137 86
157 152 86
158 153 89
155 151 92
147 143 79
159 153 97
155 151 81
163 156 95
162 157 91
158 153 84
157 154 80
161 156 91
156 152 86
171 165 93
156 152 87
160 157 87
167 160 89
164 158 94
158 153 88
164 159 90
168 162 91
164 159 88
169 163 93
163 158 88
165 160 85
166 161 93
159 154 81
164 160 87
165 162 97
167 162 81
174 168 97
170 163 91
171 166 89
168 162 86
173 165 93
169 164 85
174 168 99
174 168 94
170 165 92
172 166 93
165 159 88
175 167 90
175 168 97
171 164 91
177 167 96
168 160 84
171 164 92
174 167 90
169 163 91
172 164 85
170 164 88
177 169 98
174 166 90
174 167 94
168 163 87
168 164 87
174 167 88
171 165 93
172 165 91
168 162 85
173 167 94
171 164 87
172 166 94
172 165 88
170 163 84
174 166 91
170 162 90
176 169 97
170 161 88
168 161 82
168 161 80
167 159 80
173 168 98
174 164 87
169 162 84
166 158 82
171 166 91
167 161 83
168 163 82
167 160 81
175 167 92
168 159 84
172 163 91
171 163 83
171 165 91
165 157 81
167 157 88
162 155 78
167 159 83
165 155 78
162 153 77
167 159 87
172 164 97
168 160 86
169 160 85
172 162 84
172 163 90
165 157 84
167 159 85
165 155 84
172 164 84
166 155 78
170 161 79
172 163 88
168 158 86
163 154 77
175 166 94
167 157 92
165 154 84
165 156 80
169 161 88
218 233 255
218 233 255
218 233 255
217 233 255
217 233 255
218 233 255
218 233 255
217 233 255
218 233 255
218 233 255
218 233 255
218 233 255
218 234 255
218 233 255
218 234 255
218 234 255
218 234 255
218 233 255
218 234 255
218 234 255
218 233 255
218 234 255
218 234 255
218 234 255
218 234 255
218 234 255
218 234 255
218 234 255
218 234 255
218 234 255
218 234 255
218 234 255
218 234 255
218 234 255
218 234 255
218 234 255
218 234 255
218 234 255
218 234 255
218 234 255
218 234 255
218 234 255
218 234 255
218 234 255
218 234 255
218 234 255
218 234 255
218 233 255
218 233 255
218 233 255
218 233 255
218 233 255
218 233 255
218 233 255
218 233 255
218 233 255
218 233 255
218 233 255
218 233 255
218 233 255
218 233 255
218 233 255
218 233 255
217 233 255
217 233 255
217 233 255
217 233 255
217 233 255
217 233 255
217 233 255
217 233 255
217 233 255
217 233 255
217 233 255
217 233 255
217 233 255
217 233 255
217 233 255
217 233 255
217 233 255
217 233 255
217 233 255
217 233 255
217 233 255
217 233 255
217 233 255
217 233 255
217 233 255
217 233 255
217 233 255
217 233 255
217 233 255
217 233 255
217 233 255
217 233 255
217 233 255
217 233 255
217 233 255
217 233 255
217 233 255
217 233 255
217 233 255
217 233 255
217 233 255
217 233 255
217 233 255
217 233 255
217 233 255
217 233 255
217 233 255
217 233 255
217 233 255
217 233 255
216 233 255
216 233 255
216 233 255
216 233 255
216 233 255
216 233 255
216 233 255
216 233 255
216 233 255
216 233 255
216 233 255
216 233 255
216 232 255
216 232 255
216 232 255
216 232 255
215 232 255
215 232 255
215 232 255
215 232 255
180 199 228
58 93 155
59 94 142
59 93 142
58 93 155
60 96 145
60 95 148
59 94 135
57 91 129
56 91 149
57 91 136
57 92 147
57 91 134
101 124 164
218 233 255
195 212 236
59 94 135
59 94 128
61 96 142
60 94 147
61 97 151
59 93 130
60 95 144
61 96 144
61 96 149
61 97 149
59 93 137
61 96 144
61 96 142
59 93 133
60 95 142
58 93 128
63 98 155
63 98 147
59 93 135
59 93 137
62 98 155
60 95 140
60 95 130
60 95 135
58 93 125
59 93 135
61 96 137
62 96 144
60 94 133
59 94 137
60 95 142
62 97 153
61 96 137
62 97 151
58 93 133
59 93 128
59 93 130
61 96 147
62 97 147
61 96 137
61 97 144
60 94 130
61 97 153
60 95 142
59 93 133
59 93 120
60 95 144
60 95 144
60 95 135
61 96 151
58 92 133
60 95 142
62 97 149
59 93 130
62 97 142
61 95 147
61 96 149
58 92 128
62 97 149
59 93 135
58 92 120
60 95 135
60 95 130
60 95 140
61 96 151
60 94 133
60 94 145
60 95 138
62 97 149
58 92 130
60 94 134
61 96 145
61 96 147
59 92 134
60 95 149
60 94 140
59 93 129
59 91 129
62 96 151
60 95 147
59 93 138
60 93 138
60 95 144
59 93 136
61 96 143
59 91 128
58 90 126
60 94 130
56 86 123
55 86 124
57 89 124
56 87 120
56 88 123
60 93 136
54 83 110
55 84 114
58 88 125
52 80 94
53 81 110
56 84 124
54 80 105
49 72 98
116 110 82
117 105 58
94 83 51
101 89 43
92 83 51
77 75 48
88 75 41
96 89 51
81 73 41
77 82 59
77 74 48
99 95 60
88 85 59
96 95 64
96 95 65
108 106 68
90 91 57
95 95 63
100 98 60
111 111 69
106 106 68
112 113 74
117 116 70
114 115 67
129 124 73
109 108 63
131 130 77
120 120 73
132 131 72
126 127 80
141 138 79
119 119 71
140 137 74
150 147 82
143 140 82
146 144 87
143 137 78
141 139 80
145 142 76
154 151 91
152 148 85
147 145 83
151 147 86
149 146 75
151 148 84
157 152 83
151 147 88
159 155 89
153 147 88
151 148 84
154 151 88
154 150 81
158 153 87
162 157 83
160 156 87
160 155 88
166 161 87
164 159 93
161 156 84
160 156 88
164 159 92
161 157 80
168 162 88
167 162 95
172 166 95
161 157 87
168 162 88
171 164 88
170 164 92
168 160 82
164 159 81
170 164 88
173 166 90
174 167 93
168 162 88
175 169 98
171 164 87
168 162 91
172 166 91
165 161 85
172 165 87
166 160 77
167 161 77
165 161 86
171 164 85
172 165 88
176 168 93
176 168 93
176 168 94
171 164 87
172 165 93
176 168 95
178 169 97
175 166 94
176 167 94
173 165 94
172 164 94
172 165 85
171 163 88
170 162 89
175 167 97
173 166 96
172 164 88
171 163 86
173 165 87
169 162 91
177 170 97
168 162 76
172 164 88
168 161 84
166 159 75
170 160 87
173 167 93
169 162 88
168 161 87
171 165 87
172 163 84
171 166 88
165 159 81
173 166 93
166 155 85
168 160 89
171 165 88
171 164 87
169 162 88
167 159 77
163 155 82
172 163 89
168 158 81
172 164 87
172 163 83
168 160 84
170 162 85
159 150 72
170 162 93
166 157 76
170 163 84
165 155 73
167 159 87
171 162 84
167 159 88
170 161 85
158 149 78
169 161 87
164 155 71
165 155 76
165 156 81
167 159 86
168 158 81
218 234 255
218 234 255
218 234 255
218 234 255
218 234 255
218 234 255
218 234 255
218 234 255
218 234 255
218 234 255
218 234 255
218 234 255
218 234 255
218 234 255
218 234 255
218 234 255
218 234 255
218 234 255
218 234 255
218 234 255
218 234 255
218 234 255
218 234 255
218 234 255
218 234 255
218 234 255
218 234 255
218 234 255
218 234 255
218 234 255
218 234 255
218 234 255
218 234 255
218 234 255
218 234 255
218 234 255
218 234 255
218 234 255
218 234 255
218 234 255
218 234 255
218 234 255
218 234 255
218 234 255
218 234 255
218 234 255
218 234 255
218 234 255
218 234 255
218 234 255
218 234 255
218 234 255
218 234 255
218 234 255
218 234 255
218 234 255
218 234 255
218 234 255
218 234 255
218 234 255
218 234 255
218 234 255
218 234 255
218 234 255
218 234 255
218 234 255
218 234 255
218 234 255
218 234 255
218 234 255
218 234 255
218 234 255
218 234 255
218 234 255
218 234 255
218 234 255
218 234 255
218 234 255
218 234 255
218 234 255
218 234 255
218 234 255
218 234 255
218 234 255
218 234 255
218 234 255
218 234 255
218 234 255
218 234 255
218 234 255
218 234 255
218 234 255
218 234 255
218 234 255
218 234 255
218 234 255
218 234 255
218 234 255
218 234 255
218 234 255
218 234 255
218 233 255
218 233 255
218 233 255
218 233 255
217 233 255
217 233 255
217 233 255
217 233 255
217 233 255
217 233 255
217 233 255
217 233 255
217 233 255
217 233 255
217 233 255
217 233 255
217 233 255
217 233 255
217 233 255
217 233 255
217 233 255
217 233 255
217 233 255
217 233 255
217 233 255
217 233 255
217 233 255
216 233 255
216 233 255
216 233 255
216 233 255
216 233 255
195 212 237
59 94 151
55 88 141
58 92 126
60 96 151
61 96 148
57 91 136
60 95 154
58 93 129
57 92 135
57 91 147
54 87 143
57 92 158
57 91 137
210 226 249
181 198 228
60 96 142
60 96 147
60 95 149
60 95 155
58 91 130
60 95 137
58 92 133
62 97 153
61 96 144
59 93 120
61 97 147
59 94 144
59 94 128
61 96 140
59 94 128
58 93 135
61 96 142
60 95 135
62 97 151
61 95 135
61 96 140
61 96 144
60 95 135
60 95 140
59 94 133
59 94 133
61 96 144
61 96 147
59 95 128
59 93 133
61 97 149
60 94 130
60 95 153
62 97 149
60 94 149
62 98 153
59 93 128
62 97 147
60 95 130
60 95 147
61 96 142
61 96 137
61 95 144
61 95 133
61 96 142
60 96 137
61 96 140
60 95 135
58 92 125
61 96 135
59 93 130
59 93 137
59 94 140
61 95 133
60 96 142
60 95 142
59 93 130
61 96 142
60 94 142
60 95 157
60 94 130
61 96 144
58 91 117
61 96 133
61 96 142
62 97 153
62 96 154
60 94 133
61 96 151
60 94 151
61 96 147
60 94 138
59 92 128
60 94 142
59 94 137
59 93 131
60 94 131
61 95 146
60 95 142
59 91 138
61 96 147
61 94 139
60 93 131
59 92 137
58 90 126
59 93 140
59 92 136
56 86 120
59 91 133
61 95 151
58 90 129
58 89 130
59 91 126
58 92 136
58 90 137
56 86 124
58 89 122
56 84 109
56 84 118
53 81 110
54 81 115
48 71 104
93 93 82
127 112 57
96 90 52
85 73 38
82 73 42
71 63 37
88 83 51
76 76 50
92 89 62
92 84 50
71 68 41
98 90 52
101 100 70
90 92 65
96 91 59
91 92 62
74 80 56
107 108 70
104 102 65
100 102 68
107 107 72
86 87 48
121 118 69
126 122 77
127 128 81
125 124 72
109 111 77
129 127 77
140 138 83
127 125 72
140 135 78
124 124 79
144 141 83
135 135 75
144 139 86
144 142 86
150 146 78
148 145 87
153 150 87
144 141 84
142 141 77
166 160 96
144 143 87
156 152 85
161 156 93
154 150 87
156 152 84
158 155 81
154 150 81
168 162 93
158 154 85
156 152 81
168 163 93
169 162 87
162 157 87
160 155 79
169 164 87
159 155 84
170 164 94
157 153 75
171 165 97
167 161 84
159 154 81
167 161 87
163 158 95
168 163 85
176 169 98
164 160 84
166 159 84
166 160 83
176 168 97
172 166 95
171 166 93
170 165 85
174 168 94
171 165 88
173 166 82
172 165 92
170 164 92
178 170 102
176 168 94
174 165 94
175 167 95
169 163 94
171 165 90
173 166 91
175 168 97
173 165 94
169 163 85
171 163 87
178 168 94
174 167 90
167 161 85
164 159 82
170 164 91
177 168 98
172 164 84
165 159 81
173 166 91
176 168 95
174 168 98
171 163 90
179 171 104
171 164 87
169 163 85
170 163 87
176 168 94
171 162 83
175 168 93
163 155 82
164 155 81
171 162 88
173 164 88
175 167 93
166 159 87
176 167 93
167 160 80
166 158 86
175 167 94
171 163 90
166 158 84
168 161 82
168 159 84
168 160 78
163 154 74
172 164 88
170 162 86
168 161 79
160 153 77
165 156 79
171 163 90
165 157 76
165 156 83
169 162 87
170 163 88
161 152 71
166 159 77
164 157 81
169 159 84
168 159 84
162 151 79
166 157 79
169 159 83
167 155 79
167 158 86
161 150 76
167 157 78
169 158 82
169 160 83
219 234 255
219 234 255
219 234 255
219 234 255
219 234 255
219 234 255
219 234 255
219 234 255
219 234 255
219 234 255
219 234 255
219 234 255
219 234 255
219 234 255
219 234 255
219 234 255
219 234 255
219 234 255
219 234 255
219 234 255
219 234 255
219 234 255
219 234 255
219 234 255
219 234 255
219 234 255
219 234 255
219 234 255
219 234 255
219 234 255
219 234 255
219 234 255
219 234 255
219 234 255
219 234 255
219 234 255
219 234 255
219 234 255
219 234 255
219 234 255
219 234 255
219 234 255
219 234 255
219 234 255
219 234 255
219 234 255
219 234 255
219 234 255
219 234 255
219 234 255
219 234 255
219 234 255
219 234 255
219 234 255
219 234 255
219 234 255
219 234 255
219 234 255
219 234 255
219 234 255
219 234 255
219 234 255
219 234 255
219 234 255
219 234 255
219 234 255
219 234 255
219 234 255
219 234 255
219 234 255
219 234 255
219 234 255
219 234 255
219 234 255
219 234 255
219 234 255
219 234 255
219 234 255
219 234 255
219 234 255
219 234 255
219 234 255
219 234 255
219 234 255
219 234 255
219 234 255
219 234 255
219 234 255
218 234 255
218 234 255
218 234 255
218 234 255
219 234 255
218 234 255
218 234 255
218 234 255
218 234 255
218 234 255
218 234 255
218 234 255
218 234 255
218 234 255
218 234 255
218 234 255
218 234 255
218 234 255
218 234 255
218 234 255
218 234 255
218 234 255
218 234 255
218 234 255
218 234 255
218 234 255
218 234 255
218 234 255
218 234 255
218 234 255
218 234 255
218 234 255
218 234 255
218 234 255
218 234 255
218 234 255
218 234 255
218 234 255
218 233 255
218 233 255
218 233 255
217 233 255
217 233 255
217 233 255
217 233 255
184 201 226
58 92 138
55 89 139
59 94 139
56 90 133
57 91 141
58 93 136
55 89 136
56 89 122
56 89 128
57 91 141
58 92 140
56 90 141
54 87 141
183 200 228
174 191 215
59 94 135
60 96 142
60 95 140
58 93 130
57 92 130
62 97 151
60 95 137
60 95 133
59 94 135
60 95 135
61 97 155
60 95 140
59 93 128
59 93 135
58 92 117
58 92 130
61 97 147
60 95 140
59 93 133
60 95 140
60 95 128
60 95 140
61 96 147
59 94 137
61 96 149
60 95 133
60 96 147
60 95 140
61 96 147
62 97 144
60 94 140
60 95 140
62 97 144
62 97 147
59 94 137
59 94 140
60 95 137
59 93 128
60 95 122
59 94 135
61 96 144
60 94 128
61 96 147
60 94 140
61 95 140
59 93 128
60 95 125
61 96 140
58 92 128
61 96 137
60 95 137
60 96 144
58 92 131
59 93 137
59 93 128
58 92 128
60 94 140
60 95 142
60 95 140
61 96 135
63 99 159
61 96 142
57 90 125
59 93 130
60 94 135
61 95 130
59 93 123
59 93 131
59 94 128
61 96 140
59 93 115
61 95 144
57 91 125
61 96 151
58 91 126
60 94 139
59 92 116
59 93 133
58 92 130
59 93 122
57 89 117
59 92 131
60 93 131
58 91 130
58 91 135
60 93 137
58 91 129
59 91 127
57 90 125
61 95 141
58 89 127
59 92 143
58 90 124
58 88 135
56 84 123
57 87 127
55 85 121
56 86 115
54 83 106
58 90 135
53 81 116
50 74 96
110 103 77
92 78 42
91 79 40
74 66 35
71 63 32
87 77 42
76 73 40
69 69 47
81 75 43
80 75 45
76 75 47
89 91 65
79 74 47
88 86 57
100 95 58
93 94 66
103 104 72
100 99 62
100 100 63
115 113 66
100 98 65
116 114 68
123 122 76
109 110 72
119 117 74
122 121 70
132 127 72
132 131 85
129 127 69
139 138 83
137 136 83
149 145 84
132 130 80
139 135 76
150 144 87
148 144 87
143 141 76
145 142 80
150 146 87
142 138 65
150 146 81
143 141 80
141 140 84
146 142 78
156 152 85
156 152 89
152 149 80
156 152 91
158 153 87
156 151 85
149 146 76
164 158 87
168 163 94
157 153 80
164 158 84
163 158 85
156 153 78
167 162 89
158 152 88
162 155 83
170 165 93
161 155 91
166 161 89
165 159 84
168 162 84
164 159 90
170 164 99
164 158 91
174 167 97
169 164 90
168 163 92
172 165 91
171 165 91
170 163 88
168 161 87
166 160 84
168 161 90
172 165 95
172 165 84
174 165 94
166 162 82
170 163 82
172 166 91
173 166 91
165 158 90
174 167 90
169 164 85
173 166 90
173 166 95
175 169 97
165 158 77
174 166 85
171 164 87
168 163 93
171 165 91
170 163 88
174 165 90
175 167 93
166 158 84
166 158 84
174 167 90
176 168 91
172 164 92
173 165 93
166 160 79
171 163 79
174 166 86
166 159 85
167 159 85
171 163 93
174 165 87
174 165 88
171 162 85
166 158 77
167 159 84
169 160 86
172 163 84
170 159 88
172 164 88
169 161 90
169 161 83
171 164 91
163 153 80
171 163 87
170 162 81
172 166 90
164 155 78
173 165 89
170 161 82
173 164 92
169 162 86
168 158 86
165 157 73
168 160 90
162 155 81
161 152 81
158 148 74
168 158 83
161 153 77
176 167 89
168 157 76
169 157 85
170 163 82
166 157 81
160 149 65
164 155 82
170 162 87
166 155 85
167 158 86
219 235 255
219 234 255
219 234 255
219 234 255
219 234 255
219 234 255
219 235 255
219 234 255
219 234 255
219 235 255
219 235 255
219 234 255
219 235 255
219 234 255
219 235 255
219 235 255
219 235 255
219 235 255
219 234 255
219 234 255
219 235 255
219 235 255
219 235 255
219 235 255
219 235 255
219 235 255
219 235 255
219 235 255
219 235 255
219 235 255
219 235 255
219 235 255
219 235 255
219 235 255
219 235 255
219 235 255
219 235 255
219 235 255
219 235 255
219 235 255
219 235 255
219 235 255
219 235 255
219 234 255
219 235 255
219 234 255
219 235 255
219 235 255
219 235 255
219 235 255
219 235 255
219 234 255
219 234 255
219 234 255
219 235 255
219 235 255
219 234 255
219 234 255
219 234 255
219 234 255
219 234 255
219 234 255
219 235 255
219 234 255
219 234 255
219 234 255
219 234 255
219 234 255
219 234 255
219 234 255
219 234 255
219 234 255
219 234 255
219 234 255
219 234 255
219 234 255
219 234 255
219 234 255
219 234 255
219 234 255
219 234 255
219 234 255
219 234 255
219 234 255
219 234 255
219 234 255
219 234 255
219 234 255
219 234 255
219 234 255
219 234 255
219 234 255
219 234 255
219 234 255
219 234 255
219 234 255
219 234 255
219 234 255
219 234 255
219 234 255
219 234 255
219 234 255
219 234 255
219 234 255
219 234 255
219 234 255
219 234 255
219 234 255
219 234 255
219 234 255
219 234 255
219 234 255
219 234 255
219 234 255
219 234 255
219 234 255
219 234 255
219 234 255
219 234 255
219 234 255
219 234 255
219 234 255
219 234 255
219 234 255
219 234 255
219 234 255
219 234 255
218 234 255
218 234 255
218 234 255
218 234 255
218 234 255
218 234 255
208 224 246
56 90 133
56 90 141
59 93 137
56 91 131
56 90 140
57 91 125
58 92 131
56 89 129
55 90 142
56 89 140
51 83 134
53 85 126
55 87 142
152 170 205
157 175 197
59 94 137
60 94 142
59 94 147
58 92 129
59 93 125
61 96 133
59 94 128
58 92 117
59 94 140
60 95 137
59 93 128
60 95 137
61 96 140
59 93 122
60 95 151
60 95 144
60 94 130
61 96 144
62 98 149
60 95 142
59 94 125
62 97 147
60 95 137
61 96 137
58 93 120
60 96 142
59 93 133
59 93 128
59 94 137
57 91 125
60 95 144
60 95 144
60 95 135
61 96 137
58 91 128
59 93 130
61 96 140
61 96 142
60 94 144
61 96 140
60 95 135
61 96 142
60 94 135
62 97 149
60 94 142
61 96 155
60 95 128
61 95 151
61 96 142
61 96 142
62 97 153
63 99 151
60 95 137
60 95 142
59 94 135
59 93 130
60 95 135
58 92 135
59 92 123
59 94 120
60 95 133
60 93 135
58 91 130
60 94 140
60 94 125
61 96 142
58 93 123
58 92 117
59 92 128
60 94 135
59 94 135
61 95 149
60 93 135
60 94 135
60 94 136
61 95 143
60 93 129
59 92 125
60 94 138
60 95 149
61 95 150
57 89 109
61 94 138
60 94 143
59 92 131
61 94 136
58 92 139
59 91 131
58 90 132
57 87 124
59 93 128
59 92 129
58 90 122
55 86 126
57 89 123
58 89 130
57 87 124
58 88 122
55 83 112
58 87 132
50 74 103
53 81 114
88 88 86
108 95 46
89 80 39
87 82 47
81 72 37
75 70 41
70 63 37
47 47 30
71 69 44
69 66 43
77 80 56
86 86 55
88 86 57
97 95 52
100 100 62
97 98 60
97 96 61
92 91 54
113 110 62
112 112 72
124 123 73
102 102 63
122 121 72
121 119 72
127 126 81
128 127 76
131 129 64
124 121 70
129 129 80
127 125 72
124 121 69
137 133 72
135 132 81
132 130 72
157 153 86
151 145 84
147 144 89
159 153 89
144 142 74
151 146 77
145 141 85
143 139 78
155 151 89
146 143 79
155 151 81
160 156 88
161 155 90
152 148 84
164 157 87
154 150 78
159 155 88
156 153 90
161 158 89
166 160 86
159 156 90
172 165 96
156 152 83
170 164 90
167 160 87
166 160 79
167 161 85
169 164 94
166 160 88
169 164 93
165 160 84
168 162 77
161 156 80
171 165 88
168 162 89
169 164 92
170 164 89
173 166 91
170 163 87
170 164 82
169 163 93
173 165 89
171 164 84
169 162 80
166 162 87
175 168 91
172 165 90
173 166 85
174 167 91
172 165 93
171 164 88
167 160 80
172 166 93
175 169 94
172 165 90
172 165 91
172 165 87
177 168 95
171 163 88
177 169 94
171 163 84
168 161 82
170 162 85
166 157 78
172 165 87
171 164 88
170 162 84
170 161 84
169 161 81
168 163 88
173 164 87
171 163 90
172 165 85
170 161 79
171 163 80
170 161 84
173 164 90
171 164 90
168 161 74
169 162 90
173 164 91
170 162 82
169 163 87
162 153 76
169 164 84
168 161 85
170 160 87
164 155 82
168 158 82
168 157 81
171 161 81
169 161 85
172 166 93
166 158 81
166 157 79
168 160 86
173 167 90
167 156 81
164 153 82
167 159 78
170 162 88
167 157 80
173 163 92
162 151 78
166 156 71
170 162 86
168 158 84
167 157 78
166 157 78
168 159 81
164 155 81
168 157 82
164 155 79
164 156 72
162 154 81
220 235 255
220 235 255
220 235 255
220 235 255
220 235 255
220 235 255
220 235 255
220 235 255
220 235 255
220 235 255
220 235 255
220 235 255
220 235 255
220 235 255
220 235 255
220 235 255
220 235 255
220 235 255
220 235 255
220 235 255
220 235 255
220 235 255
220 235 255
220 235 255
220 235 255
220 235 255
220 235 255
220 235 255
220 235 255
220 235 255
220 235 255
220 235 255
220 235 255
220 235 255
220 235 255
220 235 255
220 235 255
220 235 255
220 235 255
220 235 255
220 235 255
220 235 255
220 235 255
220 235 255
220 235 255
220 235 255
220 235 255
220 235 255
220 235 255
220 235 255
220 235 255
220 235 255
220 235 255
220 235 255
220 235 255
220 235 255
220 235 255
220 235 255
220 235 255
220 235 255
220 235 255
220 235 255
220 235 255
220 235 255
220 235 255
220 235 255
220 235 255
220 235 255
220 235 255
220 235 255
220 235 255
220 235 255
220 235 255
220 235 255
220 235 255
220 235 255
220 235 255
220 235 255
220 235 255
220 235 255
220 235 255
220 235 255
220 235 255
220 235 255
220 235 255
220 235 255
220 235 255
220 235 255
220 235 255
220 235 255
220 235 255
220 235 255
220 235 255
220 235 255
220 235 255
220 235 255
220 235 255
220 235 255
220 235 255
220 235 255
220 235 255
220 235 255
220 235 255
220 235 255
220 235 255
220 235 255
220 235 255
220 235 255
220 235 255
220 235 255
220 235 255
220 235 255
220 235 255
220 235 255
220 235 255
220 235 255
220 235 255
220 235 255
220 235 255
220 235 255
220 235 255
219 235 255
219 235 255
220 235 255
219 235 255
219 235 255
219 234 255
219 234 255
219 234 255
219 234 255
219 234 255
219 234 255
219 234 255
215 230 253
56 90 134
57 91 144
58 92 130
58 92 140
58 93 142
57 91 135
58 92 135
58 91 134
56 90 131
53 84 131
51 82 133
53 85 123
55 89 144
157 174 198
158 176 205
59 94 142
59 92 131
59 94 137
61 96 149
58 92 133
58 93 125
58 93 130
59 93 133
60 95 142
59 94 147
63 98 149
63 98 147
60 95 137
60 95 133
58 92 133
59 94 137
60 94 130
59 94 144
59 93 133
60 94 135
61 96 142
61 96 133
60 95 142
60 96 140
60 95 144
61 96 137
61 96 135
61 96 137
59 93 135
60 95 128
62 97 147
59 93 125
62 97 142
60 95 142
61 96 149
60 96 137
61 96 142
60 94 120
61 97 144
61 95 137
59 93 125
61 96 144
62 97 149
59 94 144
60 94 122
60 96 137
58 92 120
60 95 144
61 95 137
57 91 133
60 96 144
60 95 147
59 93 128
61 94 137
56 90 117
56 90 128
59 93 137
60 94 140
60 95 133
60 95 137
58 92 115
60 95 142
60 95 142
59 94 130
60 93 125
60 94 135
61 96 142
60 94 135
60 95 144
60 95 140
60 94 142
60 95 138
60 94 133
59 93 141
57 90 129
59 93 140
58 91 133
59 92 138
59 92 128
58 90 141
58 91 131
57 90 118
60 94 135
58 91 125
58 90 135
61 94 143
60 93 126
59 92 131
57 88 116
59 93 136
57 89 118
58 91 129
57 88 125
56 88 117
57 87 118
57 87 135
53 82 111
55 84 118
56 84 128
55 83 126
53 81 124
48 72 91
84 80 73
103 90 44
60 54 23
95 82 42
80 70 35
78 70 38
70 61 33
74 70 41
71 66 39
72 67 42
73 70 39
86 81 50
78 79 45
85 79 47
82 84 48
91 90 54
85 89 60
100 105 72
107 105 62
118 118 70
108 106 68
112 111 64
113 112 68
126 123 77
110 107 57
114 114 69
104 101 44
140 135 76
127 127 81
130 126 70
142 141 80
139 135 74
129 127 71
143 140 80
130 129 65
140 138 73
137 136 75
148 146 83
145 142 74
151 148 80
152 148 82
148 146 81
143 140 81
148 143 78
159 154 87
156 153 86
144 141 68
163 158 85
154 151 82
164 159 89
153 150 83
161 155 84
157 153 80
161 157 90
166 160 79
166 159 85
158 153 77
165 159 84
154 151 81
158 152 83
166 160 88
173 166 91
162 158 73
162 158 81
162 157 79
161 156 84
170 164 90
172 166 88
162 158 88
172 165 87
167 162 87
167 161 84
165 158 89
172 165 88
170 164 88
172 165 93
171 163 87
169 163 84
170 163 87
168 162 84
176 169 95
172 164 93
175 168 95
169 163 88
168 162 88
174 165 93
176 167 90
167 161 77
167 162 80
171 164 82
174 168 93
162 158 84
171 165 90
166 160 84
174 166 91
172 165 93
174 167 90
167 160 79
176 168 97
172 164 87
177 169 98
169 161 82
173 165 90
167 160 81
171 164 90
174 164 87
163 154 76
169 161 82
171 163 90
165 156 79
173 166 91
159 152 81
173 165 85
171 162 84
170 162 87
172 163 85
169 162 88
167 160 83
172 163 88
173 165 86
171 164 87
174 165 94
174 164 92
169 162 87
171 164 85
168 159 87
169 160 84
160 152 76
171 163 90
163 155 80
163 154 80
165 157 84
166 159 74
165 155 77
164 156 74
170 161 90
163 155 79
170 161 87
161 153 73
160 150 76
169 161 88
172 164 89
172 164 91
162 153 75
166 156 77
163 154 66
159 150 68
168 158 83
164 159 72
221 235 255
221 235 255
221 235 255
221 235 255
221 235 255
221 235 255
221 235 255
221 235 255
221 235 255
221 235 255
221 235 255
221 235 255
221 235 255
221 235 255
221 235 255
221 235 255
221 235 255
221 235 255
221 235 255
221 235 255
221 235 255
221 235 255
221 235 255
221 235 255
221 235 255
221 235 255
221 235 255
221 235 255
221 235 255
221 235 255
221 235 255
221 235 255
221 235 255
221 235 255
221 235 255
221 235 255
221 235 255
221 235 255
221 235 255
221 235 255
221 235 255
221 235 255
221 235 255
221 235 255
221 235 255
221 235 255
221 235 255
221 235 255
221 235 255
221 235 255
221 235 255
221 235 255
221 235 255
221 235 255
221 235 255
221 235 255
221 235 255
221 235 255
221 235 255
221 235 255
221 235 255
221 235 255
221 235 255
221 235 255
221 235 255
221 235 255
221 235 255
221 235 255
221 235 255
221 235 255
221 235 255
221 235 255
221 235 255
221 235 255
221 235 255
221 235 255
221 235 255
221 235 255
221 235 255
221 235 255
221 235 255
221 235 255
221 235 255
221 235 255
221 235 255
221 235 255
221 235 255
221 235 255
221 235 255
221 235 255
221 235 255
221 235 255
221 235 255
221 235 255
221 235 255
221 235 255
221 235 255
220 235 255
220 235 255
220 235 255
220 235 255
221 235 255
220 235 255
220 235 255
221 235 255
221 235 255
220 235 255
220 235 255
220 235 255
220 235 255
220 235 255
220 235 255
220 235 255
220 235 255
220 235 255
220 235 255
220 235 255
220 235 255
220 235 255
220 235 255
220 235 255
220 235 255
220 235 255
220 235 255
220 235 255
220 235 255
220 235 255
220 235 255
220 235 255
220 235 255
220 235 255
220 235 255
220 235 255
218 233 253
55 88 134
51 83 116
58 93 140
56 89 128
59 94 150
58 92 136
57 90 125
58 92 139
55 89 129
54 87 122
54 86 131
54 85 132
53 85 134
141 158 175
166 182 207
58 92 133
58 93 133
59 94 142
59 93 128
60 95 140
60 94 140
60 95 133
58 93 130
62 98 147
61 95 137
61 96 147
61 95 125
60 96 140
61 97 149
59 93 133
61 96 144
55 88 102
61 95 135
60 95 135
60 95 135
59 93 135
60 94 133
59 93 130
60 95 140
59 94 137
59 94 130
61 95 133
60 95 130
62 97 149
59 94 137
60 95 130
61 96 140
59 94 125
61 96 142
62 97 142
60 94 140
61 95 140
58 93 128
60 95 135
59 93 130
61 96 142
59 93 128
59 93 142
59 93 137
60 95 137
62 97 138
61 96 149
63 98 155
61 97 149
59 94 130
61 96 137
59 94 137
61 96 144
59 94 135
61 95 149
60 96 142
59 93 135
60 95 137
61 96 149
58 92 128
62 97 151
60 94 142
61 96 142
59 94 133
61 96 151
57 89 123
58 92 133
59 93 133
60 94 137
60 94 131
60 94 144
59 93 128
59 93 140
59 93 138
59 93 135
55 88 109
60 95 152
60 94 137
60 93 138
60 95 140
60 94 135
60 94 133
57 90 120
58 90 118
60 94 142
57 91 125
57 90 134
58 92 133
59 90 130
58 89 132
57 88 119
57 89 131
57 88 121
57 89 134
56 87 113
54 83 108
57 88 118
55 84 112
56 83 114
57 86 123
50 76 110
47 70 93
73 78 74
111 101 56
96 84 39
70 58 29
70 61 30
65 52 20
69 64 38
76 66 30
74 66 36
76 70 41
61 59 41
74 73 48
88 87 56
88 88 47
86 84 52
84 86 47
102 102 66
97 96 55
114 108 63
109 108 68
107 104 52
117 116 65
108 109 66
125 123 75
120 120 58
124 121 67
124 123 72
132 131 73
129 128 81
128 126 75
124 122 63
137 134 78
134 131 76
145 141 86
146 142 77
139 136 71
134 133 75
140 137 75
134 132 75
145 142 85
142 139 77
147 142 68
139 136 70
143 140 81
149 144 79
147 143 78
154 150 82
160 154 85
148 144 69
156 152 84
154 151 79
156 152 87
154 149 73
158 152 75
158 153 66
157 153 82
166 159 90
159 155 72
170 163 91
167 160 87
158 153 82
176 170 98
168 163 86
168 163 91
169 163 93
167 162 90
169 163 92
166 160 84
163 159 76
166 159 77
169 162 88
166 162 80
172 166 93
171 164 87
169 162 87
169 162 82
169 163 82
173 166 88
168 162 82
174 167 87
174 168 95
175 167 95
175 168 93
173 165 88
175 168 98
171 163 87
169 163 79
172 164 80
168 162 77
167 160 81
170 163 82
171 164 88
166 160 82
168 160 82
169 161 84
170 162 85
173 167 87
174 167 90
163 156 79
166 160 77
166 159 79
173 164 90
170 162 85
172 164 82
165 158 82
168 162 84
169 163 82
170 164 87
164 157 76
172 164 90
173 165 79
167 159 81
174 166 88
170 163 82
170 161 82
170 161 82
172 163 87
162 155 79
169 161 88
171 162 87
170 162 79
174 166 90
170 163 87
168 159 90
163 156 79
171 163 90
173 165 90
171 162 86
170 162 80
162 154 76
164 156 75
169 161 82
172 161 91
174 163 86
167 158 82
169 161 83
169 158 87
167 159 81
166 157 81
168 157 86
160 148 74
169 159 83
167 159 81
162 153 70
157 151 67
169 160 83
162 152 77
172 164 83
165 155 80
221 236 255
221 236 255
221 236 255
221 236 255
221 236 255
221 236 255
221 236 255
221 236 255
221 236 255
221 236 255
221 236 255
221 236 255
221 236 255
221 236 255
221 236 255
221 236 255
221 236 255
221 236 255
221 236 255
221 236 255
221 236 255
221 236 255
221 236 255
221 236 255
221 236 255
221 236 255
221 236 255
221 236 255
221 236 255
221 236 255
221 236 255
221 236 255
221 236 255
221 236 255
221 236 255
221 236 255
221 236 255
221 236 255
221 236 255
221 236 255
221 236 255
221 236 255
221 236 255
221 236 255
221 236 255
221 236 255
221 236 255
221 236 255
221 236 255
221 236 255
221 236 255
221 236 255
221 236 255
221 236 255
221 236 255
221 236 255
221 236 255
221 236 255
221 236 255
221 236 255
221 236 255
221 235 255
221 236 255
221 236 255
221 236 255
221 236 255
221 236 255
221 235 255
221 236 255
221 236 255
221 236 255
221 236 255
221 236 255
221 236 255
221 236 255
221 236 255
221 236 255
221 236 255
221 236 255
221 236 255
221 236 255
221 236 255
221 236 255
221 236 255
221 236 255
221 236 255
221 236 255
221 236 255
221 236 255
221 236 255
221 236 255
221 236 255
221 236 255
221 236 255
221 236 255
221 236 255
221 236 255
221 236 255
221 236 255
221 236 255
221 236 255
221 236 255
221 236 255
221 236 255
221 236 255
221 236 255
221 236 255
221 236 255
221 236 255
221 236 255
221 236 255
221 236 255
221 236 255
221 236 255
221 236 255
221 236 255
221 236 255
221 236 255
221 236 255
221 235 255
221 235 255
221 236 255
221 236 255
221 235 255
221 236 255
221 235 255
221 236 255
221 236 255
221 236 255
221 235 255
221 236 255
221 235 255
221 236 255
221 236 255
58 93 133
54 87 128
58 91 125
56 89 121
58 92 125
58 93 134
56 90 136
57 90 124
56 90 131
55 88 131
53 85 128
52 83 126
53 85 129
140 157 176
141 160 190
55 89 122
57 91 128
60 95 135
60 95 149
61 95 135
58 91 128
59 94 133
59 93 122
61 96 140
60 96 135
62 97 144
59 93 125
61 97 140
59 93 130
61 95 140
59 94 133
60 94 130
61 96 140
61 96 140
59 93 142
61 95 144
61 96 140
62 97 144
59 93 125
59 94 128
60 94 133
59 94 135
60 95 140
62 97 147
59 93 135
60 95 130
59 93 133
61 96 135
59 93 130
60 95 140
61 96 144
61 96 142
61 96 142
59 94 125
59 93 128
60 95 135
61 96 147
60 95 133
59 94 137
61 96 142
60 94 128
60 94 137
59 94 133
61 96 137
59 93 125
59 94 122
60 93 133
61 96 140
59 93 128
59 93 135
59 94 149
59 93 137
59 93 125
61 97 147
58 91 120
59 94 130
57 91 117
60 95 140
61 96 137
61 96 147
60 93 140
58 91 131
60 94 130
59 93 130
61 96 142
58 92 128
60 94 142
59 94 137
57 89 120
57 91 133
60 95 138
61 95 140
59 93 131
57 90 117
58 89 126
58 92 112
55 88 120
59 92 126
58 90 123
60 95 138
59 93 125
58 90 131
57 90 126
60 94 138
58 90 129
55 86 122
59 91 127
60 92 132
57 88 129
58 90 133
58 89 128
55 86 120
57 87 131
53 81 116
53 81 103
54 81 109
48 72 95
71 70 64
97 82 35
73 64 32
75 63 26
78 71 39
76 67 38
64 61 38
68 63 41
66 62 31
66 69 44
69 69 44
89 83 49
68 67 38
74 75 52
93 89 55
95 94 52
89 92 56
118 116 64
93 95 56
96 95 61
117 115 70
119 116 63
119 119 62
114 115 69
134 132 75
121 120 71
121 121 63
123 121 78
127 126 64
134 132 75
141 139 83
124 122 66
133 130 70
139 136 78
133 131 72
143 139 77
137 134 74
135 132 74
143 140 80
146 142 76
148 145 82
149 146 79
148 145 80
149 145 82
151 146 84
148 144 70
149 146 78
152 148 71
166 160 87
157 151 74
168 162 93
158 152 84
165 159 84
161 156 84
162 156 85
163 157 86
162 155 78
165 161 90
152 148 75
157 152 81
162 157 78
159 155 72
169 163 93
168 163 88
167 160 76
167 161 89
168 163 91
169 163 84
168 162 84
167 160 76
157 152 74
163 158 75
173 165 91
171 165 87
173 167 94
170 163 89
170 164 82
173 167 94
172 165 87
167 160 86
174 166 88
168 162 84
168 162 78
175 167 94
164 157 75
167 161 84
170 164 84
165 160 77
172 163 90
163 156 75
172 165 90
173 166 88
166 159 79
171 162 90
168 160 81
166 159 84
168 162 82
167 160 81
165 159 75
165 160 77
168 162 77
162 154 79
173 164 90
169 160 79
171 164 87
171 163 87
171 164 82
167 160 84
168 160 82
164 157 79
164 157 81
172 164 94
169 161 81
164 156 76
166 158 79
172 165 92
169 162 82
173 164 87
172 162 87
171 163 82
169 162 91
164 156 81
168 160 84
167 158 84
168 160 77
170 161 86
170 162 87
171 161 85
166 158 74
168 160 82
169 161 85
173 164 87
171 162 90
158 149 75
172 165 90
163 154 76
172 165 90
170 161 80
172 163 85
168 162 80
170 162 84
168 159 81
169 160 89
172 164 88
164 157 84
164 152 75
162 152 76
165 156 81
164 155 76
222 236 255
222 236 255
222 236 255
222 236 255
222 236 255
222 236 255
222 236 255
222 236 255
222 236 255
222 236 255
222 236 255
222 236 255
222 236 255
222 236 255
222 236 255
222 236 255
222 236 255
222 236 255
222 236 255
222 236 255
222 236 255
222 236 255
222 236 255
222 236 255
222 236 255
222 236 255
222 236 255
222 236 255
222 236 255
222 236 255
222 236 255
222 236 255
222 236 255
222 236 255
222 236 255
222 236 255
222 236 255
222 236 255
222 236 255
222 236 255
222 236 255
222 236 255
222 236 255
222 236 255
222 236 255
222 236 255
222 236 255
222 236 255
222 236 255
222 236 255
222 236 255
222 236 255
222 236 255
222 236 255
222 236 255
222 236 255
222 236 255
222 236 255
222 236 255
222 236 255
222 236 255
222 236 255
222 236 255
222 236 255
222 236 255
222 236 255
222 236 255
222 236 255
222 236 255
222 236 255
222 236 255
222 236 255
222 236 255
222 236 255
222 236 255
222 236 255
222 236 255
222 236 255
222 236 255
222 236 255
222 236 255
222 236 255
222 236 255
222 236 255
222 236 255
222 236 255
222 236 255
222 236 255
222 236 255
222 236 255
222 236 255
222 236 255
222 236 255
222 236 255
222 236 255
222 236 255
222 236 255
222 236 255
222 236 255
222 236 255
222 236 255
222 236 255
222 236 255
222 236 255
222 236 255
222 236 255
222 236 255
222 236 255
222 236 255
222 236 255
222 236 255
222 236 255
222 236 255
222 236 255
222 236 255
222 236 255
222 236 255
222 236 255
222 236 255
222 236 255
222 236 255
222 236 255
222 236 255
222 236 255
222 236 255
222 236 255
222 236 255
222 236 255
222 236 255
222 236 255
222 236 255
222 236 255
222 236 255
222 236 255
54 87 122
50 81 114
57 91 131
56 89 125
59 94 130
56 90 117
53 86 126
53 84 113
54 87 129
57 90 140
53 84 131
49 79 110
52 84 112
140 157 184
141 159 185
58 92 129
59 93 133
60 95 147
59 94 130
61 97 147
59 94 128
60 95 137
60 95 142
57 92 114
60 95 140
57 91 108
59 93 120
60 94 130
60 94 130
61 96 137
61 96 140
60 94 128
60 94 142
59 94 122
59 93 125
59 93 130
60 95 135
60 95 140
60 95 135
61 96 133
62 97 153
60 95 140
60 95 135
61 96 137
59 93 130
60 95 140
60 94 130
61 95 140
62 97 144
59 94 133
58 93 135
62 96 137
63 98 157
59 93 117
61 95 147
60 94 137
60 95 135
61 96 135
58 91 128
60 95 130
60 95 133
61 96 144
61 96 130
58 92 108
58 92 123
60 94 125
61 96 142
60 94 133
60 95 125
56 89 114
61 95 142
62 97 153
61 95 142
62 97 151
59 93 130
61 96 131
59 94 137
59 93 128
61 96 147
60 93 133
59 93 128
58 93 133
58 92 122
60 95 138
60 93 134
58 91 109
59 93 138
60 94 135
59 92 133
60 95 137
61 96 149
59 93 128
62 97 149
59 93 138
59 93 123
60 94 141
60 94 138
58 90 122
58 92 125
58 90 115
58 92 138
59 91 131
58 90 123
60 94 134
57 90 118
57 89 123
59 90 130
56 88 118
58 90 119
56 88 129
57 90 128
56 87 116
57 87 122
52 79 102
55 86 118
50 75 96
45 68 88
82 80 54
105 90 44
98 90 44
91 83 45
63 56 22
82 71 32
66 60 33
81 77 42
67 64 39
65 62 35
61 59 39
60 61 31
72 72 39
92 92 56
89 84 46
95 94 54
84 84 52
101 99 61
82 86 49
93 90 51
103 102 54
107 106 61
104 103 52
105 107 62
123 121 63
126 123 65
118 116 60
115 116 55
125 122 70
137 133 77
142 137 67
138 135 73
130 129 76
127 126 68
132 130 64
145 140 79
146 143 81
151 146 80
137 135 73
154 149 86
153 149 85
143 141 76
150 144 72
143 141 75
153 148 73
154 150 79
165 159 85
142 140 66
153 149 76
161 157 85
154 150 80
156 151 77
159 154 79
155 151 69
157 153 72
153 149 77
165 160 84
158 154 79
166 159 93
159 154 85
168 163 90
157 151 87
166 160 81
168 162 85
167 161 89
171 164 84
170 163 87
173 165 91
159 154 81
170 163 89
170 164 84
166 160 77
172 163 90
174 167 85
169 164 87
168 160 80
168 162 84
170 162 79
164 157 79
170 163 85
173 166 91
174 166 90
172 166 88
170 163 85
170 164 91
169 161 79
169 164 85
168 160 78
173 163 86
168 162 84
175 168 98
174 166 93
171 164 85
168 160 74
169 162 88
176 168 93
174 167 93
174 166 87
174 166 88
170 163 82
171 163 85
176 168 93
170 161 88
169 163 80
166 159 79
171 163 84
165 160 77
167 159 79
171 163 77
172 164 79
169 160 81
166 158 75
167 161 87
172 165 90
167 159 76
174 166 87
173 164 85
166 158 79
157 150 60
167 159 82
165 158 84
156 151 63
170 161 84
167 157 77
161 153 67
174 165 89
168 160 81
168 159 81
167 159 87
173 163 90
167 157 81
164 155 76
162 155 87
166 157 81
172 162 87
162 154 71
166 156 86
171 163 85
172 163 84
160 150 74
164 156 76
175 165 88
169 160 83
164 156 85
163 154 79
161 151 68
171 163 81
168 161 93
161 152 73
222 236 255
222 236 255
222 236 255
222 236 255
222 236 255
222 236 255
222 236 255
222 236 255
222 236 255
222 236 255
222 236 255
222 236 255
222 236 255
222 236 255
222 236 255
222 236 255
222 236 255
222 236 255
222 236 255
222 236 255
222 236 255
222 236 255
222 236 255
222 236 255
222 236 255
222 236 255
222 236 255
222 236 255
222 236 255
222 236 255
222 236 255
222 236 255
222 236 255
222 236 255
222 236 255
222 236 255
222 236 255
222 236 255
222 236 255
222 236 255
222 236 255
222 236 255
222 236 255
222 236 255
222 236 255
222 236 255
222 236 255
222 236 255
222 236 255
222 236 255
222 236 255
222 236 255
222 236 255
222 236 255
222 236 255
222 236 255
222 236 255
222 236 255
222 236 255
222 236 255
222 236 255
222 236 255
222 236 255
222 236 255
222 236 255
222 236 255
222 236 255
222 236 255
222 236 255
222 236 255
222 236 255
222 236 255
222 236 255
222 236 255
222 236 255
223 236 255
223 236 255
222 236 255
222 236 255
222 236 255
223 236 255
223 236 255
222 236 255
223 236 255
223 236 255
223 236 255
222 236 255
222 236 255
223 236 255
223 236 255
223 236 255
223 236 255
223 236 255
223 236 255
223 236 255
223 236 255
223 236 255
223 236 255
223 236 255
223 236 255
223 236 255
223 236 255
223 236 255
223 236 255
223 236 255
223 236 255
223 236 255
223 236 255
223 236 255
223 236 255
223 236 255
223 236 255
223 236 255
223 236 255
223 236 255
223 236 255
223 236 255
223 236 255
223 236 255
223 236 255
223 236 255
223 236 255
223 236 255
223 236 255
223 236 255
223 237 255
223 237 255
223 237 255
223 237 255
223 237 255
223 237 255
223 237 255
223 237 255
217 231 249
56 89 114
51 82 101
58 91 120
52 84 109
56 90 117
55 88 125
57 90 130
57 92 115
54 86 125
51 82 113
55 88 121
48 79 107
50 80 114
168 184 207
158 176 206
60 95 147
58 93 117
57 91 133
58 92 128
60 94 135
59 94 130
58 92 114
58 91 125
59 93 130
60 95 137
59 94 135
60 94 125
57 91 125
62 97 140
59 94 128
59 94 128
58 92 128
59 94 130
60 95 137
61 96 149
59 93 130
60 94 142
61 96 142
62 97 149
58 92 135
59 94 128
60 95 142
57 92 111
60 95 133
60 94 128
60 95 133
60 95 130
62 97 140
60 95 128
60 94 133
61 96 142
59 93 135
58 91 130
59 93 120
60 95 137
60 94 128
61 95 133
59 94 128
59 94 122
59 94 130
59 94 120
60 94 130
60 94 140
60 94 135
60 95 142
59 94 120
62 96 142
60 95 140
62 97 149
60 95 130
60 95 133
61 96 137
60 95 137
63 98 157
59 94 125
60 94 128
60 94 133
62 96 144
59 93 120
59 93 122
60 94 133
58 92 125
59 92 128
61 95 142
61 96 140
60 93 130
61 95 137
59 94 140
60 94 136
61 95 145
58 91 120
59 94 131
59 92 123
59 91 118
59 93 131
60 94 125
59 92 121
57 89 120
59 92 129
59 93 139
58 91 126
57 88 115
57 89 119
57 88 119
57 88 125
57 90 121
56 87 119
53 81 105
56 86 130
54 82 120
56 86 109
57 88 137
55 85 113
56 85 121
53 79 102
52 80 97
50 75 91
74 77 74
104 91 46
84 71 31
96 82 30
71 63 33
80 68 29
77 65 22
72 67 27
69 65 39
79 77 43
73 72 40
72 68 37
75 73 41
73 73 45
90 91 55
89 92 57
81 81 49
99 95 51
87 89 45
111 112 68
104 101 58
87 91 57
108 107 63
117 116 68
118 118 67
132 128 70
122 122 65
122 120 67
124 123 73
128 126 66
121 120 67
126 124 59
132 127 71
143 141 73
136 134 74
134 132 71
139 136 80
137 133 70
133 130 71
130 127 62
143 139 70
157 151 88
149 146 71
143 140 78
144 139 69
143 141 67
150 145 75
150 146 63
140 136 72
158 153 76
151 148 81
157 152 83
154 151 72
152 147 70
156 151 75
161 155 79
163 157 82
162 157 75
159 153 81
159 154 76
166 159 90
164 158 81
167 161 89
166 161 80
160 155 73
169 161 84
167 160 83
162 156 89
166 160 87
158 152 70
163 157 80
165 158 85
161 155 69
162 156 80
166 161 83
169 162 82
170 163 85
166 159 77
166 160 81
166 159 81
168 161 84
170 162 87
169 162 82
169 163 79
169 162 82
172 164 81
166 160 88
170 162 90
167 160 80
171 164 82
171 165 87
170 163 80
166 159 82
169 161 76
171 165 82
174 166 87
168 161 79
172 163 85
170 164 87
171 164 84
174 166 95
162 157 74
160 154 70
173 165 90
168 160 81
167 160 79
170 162 88
164 158 83
167 159 81
161 154 67
168 161 78
160 151 72
166 158 74
171 164 79
170 161 87
172 165 91
165 154 75
175 166 93
161 155 67
167 159 82
165 155 78
164 157 79
171 162 84
172 163 82
167 160 77
167 159 83
166 156 82
161 152 76
166 157 75
164 154 74
169 162 88
165 156 80
170 160 83
168 159 87
170 163 85
164 157 76
167 159 84
168 159 72
163 154 68
171 160 83
167 159 77
166 158 78
165 157 81
167 156 86
166 154 78
160 146 66
166 154 84
164 155 81
170 160 85
223 237 255
223 237 255
223 237 255
223 237 255
223 237 255
223 237 255
223 237 255
223 237 255
223 237 255
223 237 255
223 237 255
223 237 255
223 237 255
223 237 255
223 237 255
223 237 255
223 237 255
223 237 255
223 237 255
223 236 255
223 237 255
223 237 255
223 237 255
223 237 255
223 237 255
223 237 255
223 237 255
223 236 255
223 237 255
223 237 255
223 237 255
223 237 255
223 237 255
223 236 255
223 237 255
223 236 255
223 236 255
223 237 255
223 237 255
223 236 255
223 236 255
223 237 255
223 237 255
223 237 255
223 237 255
223 237 255
223 237 255
223 237 255
223 237 255
223 237 255
223 237 255
223 237 255
223 237 255
223 237 255
223 237 255
223 237 255
223 236 255
223 237 255
223 237 255
223 237 255
223 237 255
223 237 255
223 237 255
223 237 255
223 237 255
223 237 255
223 237 255
223 237 255
223 237 255
223 237 255
223 237 255
223 237 255
223 237 255
223 237 255
223 237 255
223 237 255
223 237 255
223 237 255
223 237 255
223 237 255
223 237 255
223 237 255
223 237 255
223 237 255
223 237 255
223 237 255
223 237 255
223 237 255
223 237 255
223 237 255
223 237 255
223 237 255
223 237 255
223 237 255
223 237 255
223 237 255
223 237 255
223 237 255
223 237 255
223 237 255
223 237 255
223 237 255
223 237 255
223 237 255
223 237 255
223 237 255
223 237 255
223 237 255
223 237 255
223 237 255
223 237 255
223 237 255
223 237 255
224 237 255
224 237 255
224 237 255
224 237 255
224 237 255
224 237 255
224 237 255
224 237 255
224 237 255
224 237 255
224 237 255
224 237 255
224 237 255
224 237 255
224 237 255
224 237 255
224 237 255
224 237 255
224 237 255
224 237 255
217 231 242
54 87 139
55 88 119
55 88 122
56 90 123
55 88 129
54 86 118
58 92 135
56 89 121
52 84 112
51 82 118
55 88 120
55 88 133
54 86 125
181 195 214
158 175 203
60 95 130
60 96 140
60 95 149
59 92 135
57 91 122
58 91 128
60 94 144
60 96 140
60 95 128
59 94 144
55 88 102
59 92 114
60 95 130
59 93 117
60 95 133
60 95 128
60 96 142
59 94 125
60 95 133
58 93 120
58 92 114
60 94 122
58 92 128
60 95 125
59 94 128
60 94 135
60 94 140
60 94 135
60 95 144
58 93 130
58 91 108
60 95 128
60 95 133
59 94 120
61 96 140
58 92 125
61 95 137
58 93 125
60 94 122
61 96 135
59 93 120
61 96 140
59 94 122
61 97 153
58 92 125
58 92 122
60 94 137
60 95 128
59 93 122
60 94 125
60 93 133
60 95 125
61 96 144
59 93 128
60 94 135
59 93 123
61 96 140
60 94 135
60 94 142
58 91 128
59 93 128
60 95 137
59 93 125
59 92 138
59 93 128
59 93 122
58 91 125
58 92 133
60 94 135
61 95 133
59 92 133
58 93 135
59 91 114
57 90 114
58 90 126
58 91 131
57 90 121
60 95 142
58 90 118
60 94 137
59 92 129
59 93 122
60 92 129
57 89 128
58 91 128
57 90 126
59 91 123
58 90 131
58 89 129
58 91 129
59 93 138
57 87 112
57 87 112
57 87 117
57 87 125
55 85 101
55 85 109
55 84 112
52 81 105
54 82 93
50 74 101
48 72 78
100 94 61
107 95 44
84 71 31
73 62 29
86 71 27
62 46 20
77 68 27
70 63 19
70 71 40
69 61 34
58 58 36
70 71 38
78 79 41
83 82 49
70 72 32
86 81 38
95 95 43
99 101 64
91 90 52
95 98 59
106 107 63
111 107 56
115 114 56
114 110 65
108 107 60
111 109 55
108 107 59
137 134 70
125 124 68
128 126 67
127 124 65
121 120 60
128 127 64
147 142 74
127 126 70
119 119 64
122 120 61
148 144 80
134 132 66
141 139 67
144 140 78
146 141 79
149 145 77
146 142 71
152 147 77
151 146 70
153 148 73
155 150 68
138 134 56
155 150 78
150 146 77
145 143 71
155 150 73
156 151 80
166 160 88
167 160 83
160 155 88
159 154 81
156 151 73
155 151 75
159 154 76
166 161 84
162 156 78
159 153 84
166 160 80
165 160 82
157 152 71
163 158 84
164 158 80
168 161 87
169 162 89
169 161 90
159 153 64
173 165 85
167 160 84
168 162 82
165 160 80
167 160 75
176 168 90
167 162 86
165 159 74
163 157 74
170 163 77
168 161 80
173 165 84
166 159 80
167 160 80
168 161 79
170 163 80
167 159 80
167 162 80
168 161 79
168 161 79
162 156 73
172 164 87
168 160 82
166 159 74
165 158 82
169 162 85
171 165 82
171 163 84
168 161 74
171 164 88
168 161 77
170 163 82
166 160 84
167 160 82
173 164 84
167 160 84
171 162 85
172 165 90
165 156 78
169 161 86
169 160 81
163 153 73
166 161 83
173 166 88
165 157 72
164 157 76
166 159 81
168 160 76
166 157 76
165 156 79
171 162 84
171 162 80
170 162 79
165 156 78
163 155 70
168 160 72
166 159 81
164 155 82
166 158 79
166 156 74
163 156 72
168 158 79
164 155 80
163 155 79
166 157 78
164 154 76
169 161 83
167 158 82
168 160 74
168 159 78
164 155 81
164 154 76
164 154 78
167 155 79
166 156 79
167 157 85
224 237 255
224 237 255
224 237 255
224 237 255
224 237 255
224 237 255
224 237 255
224 237 255
224 237 255
224 237 255
224 237 255
224 237 255
224 237 255
224 237 255
224 237 255
224 237 255
224 237 255
224 237 255
224 237 255
224 237 255
224 237 255
224 237 255
224 237 255
224 237 255
224 237 255
224 237 255
223 237 255
224 237 255
224 237 255
224 237 255
224 237 255
224 237 255
224 237 255
224 237 255
224 237 255
224 237 255
224 237 255
223 237 255
224 237 255
224 237 255
224 237 255
224 237 255
224 237 255
224 237 255
224 237 255
224 237 255
224 237 255
224 237 255
224 237 255
224 237 255
224 237 255
224 237 255
224 237 255
224 237 255
224 237 255
224 237 255
224 237 255
224 237 255
224 237 255
224 237 255
224 237 255
224 237 255
224 237 255
224 237 255
224 237 255
224 237 255
224 237 255
224 237 255
224 237 255
224 237 255
224 237 255
224 237 255
224 237 255
224 237 255
224 237 255
224 237 255
224 237 255
224 237 255
224 237 255
224 237 255
224 237 255
224 237 255
224 237 255
224 237 255
224 237 255
224 237 255
224 237 255
224 237 255
224 237 255
224 237 255
224 237 255
224 237 255
224 237 255
224 237 255
224 237 255
224 237 255
224 237 255
224 237 255
224 237 255
224 237 255
224 237 255
224 237 255
224 237 255
224 237 255
224 237 255
224 237 255
224 237 255
224 237 255
224 237 255
224 237 255
224 237 255
224 237 255
224 237 255
224 237 255
224 237 255
224 237 255
224 237 255
224 237 255
222 235 248
222 236 250
216 231 231
211 227 217
208 224 201
202 219 188
202 220 188
205 222 194
198 216 165
198 217 173
193 213 153
191 210 140
186 207 125
181 203 88
174 198 0
160 183 0
57 90 115
54 87 109
55 88 111
58 92 120
56 89 124
55 88 103
58 93 138
54 87 113
55 87 111
54 86 124
52 82 110
50 81 110
52 84 115
182 197 216
182 197 219
56 90 121
58 92 111
61 95 142
58 93 117
59 94 125
58 92 122
59 94 137
59 94 133
59 94 125
59 94 128
59 93 122
58 92 122
59 93 125
57 90 108
60 94 130
60 94 137
58 92 125
60 95 133
61 96 144
62 97 147
57 91 111
59 93 128
59 93 120
60 95 137
60 94 122
59 93 135
61 96 130
59 93 122
61 96 144
62 96 133
59 94 135
59 94 128
61 96 142
60 95 133
59 93 130
60 94 133
58 91 117
61 95 137
60 94 135
57 90 122
60 95 135
58 93 128
58 92 122
61 95 137
58 92 120
58 92 130
58 93 130
59 94 122
59 94 122
61 95 149
59 93 133
59 93 130
59 94 128
60 94 130
60 94 130
59 92 125
58 93 125
59 93 133
58 92 125
60 95 133
61 96 140
61 95 135
60 95 140
59 93 133
59 94 135
61 96 142
60 95 128
60 95 145
61 96 147
56 89 109
59 93 128
58 92 125
60 94 135
59 93 125
60 93 133
58 92 142
61 95 133
60 94 133
61 95 142
59 92 125
59 92 136
59 93 135
60 94 138
56 88 110
59 93 133
57 90 133
58 90 129
56 87 125
58 91 115
58 91 132
56 87 124
56 86 119
56 88 127
57 89 118
60 94 140
56 86 112
54 83 111
56 86 130
55 84 104
54 84 105
51 78 101
48 72 94
90 86 45
96 82 38
92 81 35
78 65 32
76 66 23
70 63 23
81 73 34
65 58 19
60 57 33
74 70 38
79 70 26
92 88 32
88 84 45
84 78 38
80 81 47
101 99 54
89 91 49
97 95 50
94 93 47
94 94 54
106 108 61
109 106 56
114 110 57
102 100 53
121 119 65
120 117 63
111 110 61
116 114 62
123 122 56
113 113 65
123 118 56
136 132 69
102 103 58
119 117 60
144 140 77
138 134 69
141 138 74
132 130 70
146 142 73
136 133 70
136 133 61
143 139 75
142 140 68
150 145 79
138 135 69
146 142 78
157 152 78
146 141 61
154 149 71
159 154 85
164 158 76
158 153 76
150 147 70
160 153 83
162 155 84
152 148 78
154 151 77
157 152 72
153 149 80
157 152 78
159 153 73
157 151 83
158 154 81
161 155 75
169 161 85
160 154 80
159 154 69
153 150 69
161 155 74
169 161 90
165 159 82
165 159 75
166 160 78
162 156 77
163 155 72
167 162 82
168 160 87
165 159 84
167 161 82
164 158 72
166 160 82
166 157 75
167 160 78
165 159 75
168 161 88
162 154 77
165 158 77
165 158 74
167 161 77
170 163 91
170 162 82
173 165 87
165 159 80
169 161 72
166 160 82
170 162 87
168 159 84
175 166 85
175 167 90
174 165 88
170 164 87
170 160 81
171 163 82
166 159 82
170 162 81
169 161 85
165 159 79
166 156 74
169 163 85
175 167 95
175 166 90
170 163 85
167 159 83
167 158 82
166 160 82
171 163 90
162 155 69
161 155 71
163 155 70
168 157 81
167 160 81
166 160 77
169 159 79
170 161 86
169 161 81
166 160 79
170 161 84
164 155 81
172 163 82
158 148 76
169 161 81
164 158 70
168 159 84
170 161 85
153 143 61
164 153 77
168 159 83
170 161 86
164 155 71
164 155 76
153 145 69
160 151 72
170 160 86
158 148 76
169 159 83
161 152 67
166 155 72
163 154 80
166 157 76
224 237 255
224 237 255
224 237 255
224 237 255
224 237 255
224 237 255
224 237 255
224 237 255
224 237 255
224 237 255
224 237 255
224 237 255
224 237 255
224 237 255
224 237 255
224 237 255
224 237 255
224 237 255
224 237 255
224 237 255
224 237 255
224 237 255
224 237 255
224 237 255
224 237 255
224 237 255
224 237 255
224 237 255
224 237 255
224 237 255
224 237 255
224 237 255
224 237 255
224 237 255
224 237 255
224 237 255
224 237 255
224 237 255
224 237 255
224 237 255
224 237 255
224 237 255
224 237 255
224 237 255
224 237 255
224 237 255
224 237 255
224 237 255
224 237 255
224 237 255
224 237 255
224 237 255
224 237 255
224 237 255
224 237 255
224 237 255
224 237 255
224 237 255
224 237 255
224 237 255
224 237 255
224 237 255
224 237 255
224 237 255
224 237 255
224 237 255
224 237 255
224 237 255
224 237 255
224 237 255
224 237 255
224 237 255
224 237 255
224 237 255
224 237 255
224 237 255
224 237 255
224 237 255
224 237 255
224 237 255
224 237 255
224 237 255
224 237 255
224 237 255
224 237 255
225 237 255
225 237 255
224 237 255
225 237 255
225 237 255
225 237 255
225 237 255
224 237 253
225 237 255
224 237 253
218 232 237
218 232 237
215 230 226
212 227 217
206 223 201
213 228 220
213 228 220
209 225 207
207 223 198
210 226 211
203 220 188
196 215 165
195 214 153
196 215 169
202 219 177
193 212 144
190 210 140
185 206 108
187 207 120
180 202 72
181 203 88
177 200 62
173 197 0
172 197 0
175 198 0
171 195 0
174 198 0
176 199 0
172 196 0
173 197 0
175 198 0
174 198 0
172 196 0
175 198 0
173 197 0
173 197 0
173 197 0
173 197 0
150 174 57
53 85 115
55 88 111
54 86 128
54 85 129
59 93 137
56 90 119
57 91 120
57 90 114
55 87 118
57 91 130
49 79 93
51 82 118
54 85 130
209 223 237
192 207 228
60 95 144
59 93 135
59 94 130
60 94 130
61 96 142
58 92 133
58 93 130
60 95 137
59 93 130
59 93 130
59 93 125
59 93 135
61 96 137
59 94 130
60 94 144
59 94 137
60 94 140
60 95 130
59 93 125
59 93 122
59 94 130
59 93 114
61 95 137
57 90 114
59 93 125
61 96 137
60 94 133
60 95 133
58 92 122
59 93 130
59 93 140
58 91 120
59 94 137
60 94 130
59 94 135
60 94 140
61 95 135
59 94 130
60 94 125
59 94 135
59 93 133
58 91 125
59 93 125
59 93 128
60 95 140
58 91 117
59 94 142
61 96 142
58 92 122
57 91 122
59 93 130
60 94 140
60 95 135
59 93 135
60 94 130
61 95 140
59 92 133
62 97 151
60 95 135
57 90 120
59 93 128
59 92 130
58 92 128
58 91 120
60 94 125
60 94 131
61 95 140
62 96 142
60 94 133
59 93 130
58 91 120
59 93 138
58 90 129
60 94 138
57 90 129
58 90 123
57 88 106
58 92 123
57 89 109
62 95 139
58 91 126
59 91 130
59 92 126
57 90 122
60 94 138
59 92 140
58 90 121
57 90 128
56 87 118
56 88 120
59 91 129
57 89 128
55 85 116
57 88 122
56 86 113
51 78 95
56 86 123
55 84 126
52 80 100
53 83 118
54 82 109
50 75 79
88 81 54
121 107 48
94 83 30
85 72 29
86 75 27
75 65 26
70 61 24
59 53 19
64 65 32
62 59 30
66 62 30
80 80 44
62 61 32
88 88 41
76 76 44
94 91 51
67 74 46
97 96 48
83 86 53
110 105 56
93 91 48
113 112 62
113 113 60
112 110 57
95 98 57
99 102 57
125 122 69
123 121 63
106 105 57
121 120 64
122 122 66
124 123 57
136 132 68
127 125 68
132 128 65
141 135 69
139 134 64
148 142 75
136 132 65
143 138 71
145 142 67
138 135 70
140 138 72
141 138 65
147 145 70
147 144 71
140 137 71
156 149 67
152 148 69
165 159 78
155 151 70
155 150 75
152 147 68
151 148 73
158 153 80
143 140 69
153 148 69
161 155 67
160 155 81
160 154 84
160 155 82
168 162 82
160 155 72
161 155 76
166 160 81
168 160 81
162 155 84
158 151 72
160 156 71
167 162 75
169 161 84
164 156 77
163 157 75
169 164 82
159 154 70
162 157 70
165 160 73
169 163 84
169 163 79
162 157 76
165 159 77
172 165 82
166 160 84
160 155 70
166 161 78
170 163 82
173 166 88
169 161 76
164 158 79
168 161 74
172 165 93
168 163 77
167 160 80
169 162 77
169 163 77
169 162 77
168 160 84
175 166 88
168 161 77
167 159 85
170 163 77
172 165 88
170 163 82
168 160 82
171 162 79
163 155 72
162 154 74
167 161 77
171 164 82
162 156 79
167 160 70
168 160 79
166 157 79
168 159 85
165 156 74
175 167 90
160 153 76
166 155 79
170 163 85
164 154 74
165 157 76
169 161 77
176 167 96
159 150 72
162 155 68
168 162 79
171 161 79
172 161 86
168 160 84
170 162 84
166 159 76
166 157 80
160 152 71
168 158 77
161 151 82
164 156 76
167 157 84
162 155 69
156 144 67
164 157 69
167 158 70
168 160 83
158 148 73
164 154 79
164 155 74
160 152 71
168 156 82
167 158 76
164 154 73
225 238 255
225 238 255
225 238 255
223 236 250
221 235 245
223 236 250
225 238 255
225 238 255
225 238 255
225 238 255
225 238 255
225 238 255
225 238 255
225 238 255
225 238 255
225 238 255
225 238 255
225 237 255
225 238 255
225 237 255
225 237 255
225 238 255
225 238 255
225 237 255
225 237 255
225 237 255
225 237 255
225 237 255
225 237 255
225 238 255
225 238 255
225 237 255
225 237 255
225 237 255
225 238 255
225 238 255
225 237 255
225 238 255
225 238 255
225 237 255
225 237 255
225 238 255
225 238 255
225 238 255
225 238 255
225 238 255
225 238 255
225 238 255
225 238 255
225 238 255
225 238 255
225 238 255
224 237 253
222 235 248
222 235 245
221 235 245
222 235 248
223 236 250
218 232 234
219 233 237
216 231 231
216 230 231
216 230 228
217 231 231
212 227 217
208 224 204
213 228 220
209 224 204
204 221 194
204 221 191
199 217 177
209 225 207
201 219 181
203 220 188
201 219 181
198 216 169
193 212 149
201 219 181
203 220 188
197 216 169
195 214 153
196 214 161
185 207 120
193 212 149
190 209 130
189 210 140
191 210 135
180 202 88
184 206 114
180 202 80
176 199 51
175 199 51
174 198 0
175 198 0
175 198 0
171 196 0
176 199 0
175 198 0
175 198 0
176 198 0
173 197 0
176 199 0
175 198 0
175 198 0
174 198 0
175 198 0
175 198 0
174 197 0
173 197 0
175 198 0
174 198 0
173 197 0
175 198 0
174 198 0
174 197 0
175 198 0
175 198 0
172 197 0
177 199 0
177 199 0
174 197 0
174 198 0
175 198 0
176 199 0
173 196 0
174 198 0
174 198 0
174 198 0
175 197 0
171 196 0
172 197 0
174 198 0
172 197 0
146 169 72
58 92 118
54 86 119
58 92 120
57 90 134
58 92 114
55 87 107
54 86 117
54 86 111
55 88 107
53 84 105
53 86 114
51 82 92
85 111 120
186 206 114
202 216 236
55 88 110
57 92 125
58 92 133
59 93 122
58 92 128
59 94 133
58 92 102
63 98 153
59 94 140
56 90 105
60 94 135
58 93 122
60 95 135
59 94 130
56 89 108
58 92 135
57 90 120
61 96 140
58 92 120
58 93 128
58 92 125
61 96 142
60 95 133
58 92 120
58 92 133
58 91 111
58 93 128
59 93 130
60 94 133
59 94 128
60 95 135
62 96 147
61 95 133
59 92 128
60 95 147
61 96 140
58 92 122
61 95 130
59 94 128
60 94 133
61 95 140
59 93 125
61 96 144
60 95 130
59 94 133
59 93 111
61 95 140
61 96 140
60 95 142
59 93 128
60 94 133
59 93 128
60 95 142
61 96 144
60 94 125
61 95 133
61 96 149
60 95 135
59 93 135
61 95 144
59 93 125
60 94 128
61 96 135
58 91 115
60 94 134
60 95 130
59 93 135
60 93 134
59 93 135
59 93 126
58 90 123
59 91 125
59 93 133
60 94 135
61 96 140
59 92 126
59 93 135
57 90 109
57 90 115
58 92 128
57 90 129
58 91 128
60 95 138
58 90 134
60 93 138
57 88 112
56 87 107
57 87 118
57 89 125
58 90 133
59 91 131
56 88 110
53 81 94
55 85 117
56 86 115
55 84 101
56 87 123
55 86 104
56 86 122
52 79 88
54 82 98
51 77 93
104 93 71
78 61 19
84 77 27
76 62 25
81 70 24
76 65 20
71 60 22
61 52 30
70 64 25
69 60 29
72 71 28
80 75 40
79 79 40
91 85 43
85 82 35
71 72 44
79 77 34
100 97 51
93 90 40
98 98 51
107 106 43
91 92 45
98 98 49
96 98 58
108 105 59
105 104 50
123 122 60
111 110 52
121 116 65
123 122 63
112 113 60
128 127 66
128 126 65
131 126 60
130 127 66
144 140 72
140 139 64
147 142 73
134 130 74
148 143 67
144 139 66
142 139 69
150 146 75
146 143 69
151 145 75
150 145 72
135 133 62
143 140 69
151 146 74
151 145 72
155 150 72
147 143 72
158 153 73
162 156 80
165 159 84
163 157 80
149 145 79
162 155 75
161 156 78
170 162 87
164 158 75
166 158 82
167 160 82
162 156 82
167 159 84
169 162 81
165 159 80
165 159 77
163 158 77
173 166 93
165 158 74
166 159 79
168 162 82
173 165 85
165 158 81
173 165 82
163 157 81
166 161 88
163 157 76
169 160 76
164 158 66
164 158 87
168 161 79
155 149 66
163 156 79
166 160 74
166 159 77
164 159 75
169 162 82
162 156 72
169 162 77
168 162 70
167 159 72
164 159 70
168 161 79
164 157 74
173 164 85
168 162 82
165 159 72
163 156 76
167 160 79
172 164 84
167 159 77
167 160 77
167 160 77
164 157 76
164 157 76
165 158 80
171 162 85
168 159 74
169 163 75
170 163 80
162 154 68
175 167 88
158 152 60
162 156 75
162 155 74
163 153 74
162 155 72
164 157 76
162 155 74
163 152 72
160 151 73
169 159 76
166 157 82
163 153 67
162 151 71
167 158 78
161 153 69
168 160 83
171 162 82
163 155 71
167 157 76
166 158 70
157 147 65
167 158 83
169 160 78
160 153 69
156 149 56
162 155 72
167 157 67
162 155 63
163 156 74
158 151 72
162 154 74
161 153 61
159 150 68
166 156 73
173 163 84
178 201 72
183 204 95
172 197 0
172 196 0
175 198 0
176 198 0
175 198 0
174 198 0
178 200 51
178 200 51
186 207 120
178 200 62
182 203 88
185 206 108
182 204 95
180 202 80
184 205 95
187 207 114
185 205 102
184 205 108
184 205 102
186 207 114
178 201 72
183 205 108
185 206 108
186 207 120
187 208 125
189 209 125
183 204 95
190 210 140
186 207 120
187 207 114
186 207 114
191 211 140
190 210 135
184 205 102
180 202 72
185 206 108
174 198 0
182 203 88
181 203 95
179 202 80
181 203 95
182 203 80
186 206 108
175 199 51
173 197 0
178 200 62
175 198 0
176 199 0
174 197 0
174 198 0
176 198 0
174 198 0
173 197 0
174 198 0
175 198 0
175 198 0
174 198 0
174 197 0
176 199 0
174 198 0
175 198 0
172 197 0
176 199 0
173 197 0
173 197 0
175 198 0
176 199 0
174 198 0
176 198 0
176 198 0
174 198 0
174 198 0
175 198 0
174 197 0
173 197 0
174 198 0
173 197 0
174 198 0
175 198 0
176 199 0
175 198 0
175 198 0
173 197 0
176 198 0
175 198 0
174 198 0
172 197 0
175 198 0
171 195 0
175 198 0
174 197 0
176 199 0
175 198 0
174 198 0
173 197 0
177 199 0
174 198 0
174 198 0
174 198 0
175 198 0
175 198 0
172 196 0
175 198 0
174 198 0
173 196 0
174 198 0
172 195 0
176 199 0
174 197 0
174 198 0
175 198 0
172 196 0
173 197 0
174 197 0
176 199 0
173 196 0
173 197 0
173 197 0
175 198 0
173 196 0
174 198 0
173 197 0
174 198 0
171 195 0
175 198 0
172 196 0
173 197 0
172 195 0
174 198 0
175 198 0
174 197 0
132 156 84
54 86 100
58 93 133
53 85 120
56 89 120
56 88 114
55 87 105
56 89 126
56 90 133
51 82 97
51 83 108
53 84 110
56 89 124
125 149 88
174 197 0
209 224 221
57 91 124
60 94 137
58 93 128
57 90 120
59 93 128
58 92 114
57 91 117
60 94 137
57 91 125
56 89 128
60 94 142
59 94 137
59 94 140
59 93 135
59 93 128
61 96 149
60 95 125
56 90 114
61 96 140
57 91 105
58 92 111
58 91 117
61 95 135
59 93 130
60 94 140
60 95 142
59 93 130
57 91 122
61 95 128
60 95 135
58 92 117
59 93 130
59 94 122
61 96 135
59 94 125
60 95 142
60 94 130
61 96 140
59 94 130
59 93 122
59 94 137
58 93 117
59 94 128
59 93 122
58 91 111
58 92 117
59 93 122
57 90 117
61 96 144
59 94 140
59 93 125
61 96 142
60 94 125
59 93 130
58 91 102
58 91 133
59 93 128
60 94 142
58 91 128
61 96 147
56 90 125
60 95 130
58 93 128
59 93 128
59 93 125
59 93 120
60 94 135
56 88 111
59 92 125
61 96 142
59 93 130
59 92 125
59 91 115
58 92 120
59 93 120
59 90 133
59 91 123
62 96 138
60 94 134
56 88 130
59 93 122
57 89 131
59 92 131
59 93 131
57 89 122
61 94 135
58 90 125
54 85 103
58 90 125
55 86 115
58 90 120
54 83 97
56 87 119
55 85 97
56 88 117
55 83 106
59 90 132
55 85 116
53 79 94
48 71 84
49 73 83
50 77 86
141 141 130
110 95 39
88 75 34
83 73 30
86 72 27
76 69 20
72 63 29
68 60 28
77 69 18
71 66 17
69 66 30
75 71 29
80 78 26
69 70 30
75 72 31
79 81 42
84 84 46
81 82 39
89 89 33
93 91 48
102 101 50
96 95 50
120 117 57
116 113 62
116 113 67
112 110 49
116 117 65
110 110 52
117 114 49
127 126 61
123 121 62
139 135 71
128 126 51
126 124 64
125 123 61
123 123 54
131 125 62
125 124 64
147 142 66
142 140 71
144 139 70
132 131 57
134 132 62
155 148 66
147 144 68
139 136 62
146 142 65
148 146 62
149 145 72
144 143 65
161 155 74
144 140 64
157 150 74
161 155 79
156 151 75
158 150 75
157 151 75
163 157 84
159 153 72
162 156 80
156 151 72
155 150 70
157 151 69
154 149 66
157 153 74
153 147 63
166 159 82
160 156 80
164 157 75
168 163 81
161 155 75
149 145 68
170 161 79
166 160 76
154 148 61
166 160 79
161 157 71
172 164 85
167 162 78
168 161 79
169 163 77
169 163 84
165 158 77
166 159 79
163 156 72
162 156 74
168 160 72
164 157 72
172 164 77
169 162 80
171 162 82
167 160 77
171 164 79
169 162 84
169 162 84
173 166 87
160 154 72
168 161 82
169 163 82
167 159 84
167 161 82
164 158 82
166 161 82
169 162 79
167 159 79
168 161 77
166 158 70
167 159 77
157 150 67
160 152 66
170 161 74
157 150 58
168 160 82
169 161 81
169 163 84
168 159 76
169 162 79
161 151 72
164 158 75
159 151 63
165 156 67
164 154 78
168 160 77
165 156 77
166 158 77
163 153 78
168 160 85
171 162 92
166 156 80
164 155 81
167 159 82
159 150 61
169 162 83
168 160 82
162 153 71
167 157 74
164 154 65
161 153 74
159 151 72
158 148 65
166 157 77
160 152 69
166 156 76
167 158 81
167 158 77
163 151 71
164 154 66
154 145 54
153 145 68
171 195 0
176 199 0
175 198 0
173 197 0
175 198 0
175 198 0
176 199 0
175 198 0
175 198 0
173 197 0
175 198 0
172 196 0
174 198 0
174 198 0
174 198 0
173 197 0
175 198 0
174 197 0
175 198 0
175 198 0
173 197 0
174 198 0
175 198 0
175 198 0
176 199 0
176 198 0
174 197 0
173 197 0
174 197 0
174 198 0
176 199 0
174 198 0
173 197 0
174 198 0
173 197 0
173 197 0
176 198 0
175 198 0
178 200 0
174 198 0
177 199 0
174 197 0
175 198 0
175 198 0
176 199 0
173 197 0
174 198 0
175 198 0
172 196 0
172 197 0
176 198 0
175 198 0
173 196 0
172 196 0
174 198 0
175 198 0
176 199 0
174 197 0
174 198 0
175 198 0
175 198 0
176 199 0
174 198 0
173 197 0
174 198 0
172 197 0
173 197 0
175 198 0
175 198 0
176 199 0
175 198 0
175 198 0
173 197 0
174 198 0
175 198 0
173 197 0
174 198 0
176 198 0
173 197 0
174 198 0
173 197 0
175 198 0
178 200 0
172 197 0
172 197 0
176 198 0
176 199 0
171 196 0
173 197 0
172 196 0
175 198 0
172 196 0
174 197 0
176 199 0
173 197 0
172 196 0
174 197 0
174 198 0
173 197 0
174 198 0
177 199 0
177 199 0
173 197 0
174 197 0
173 197 0
174 198 0
177 199 0
174 198 0
173 197 0
174 197 0
173 197 0
171 195 0
170 196 0
175 198 0
173 197 0
171 196 0
174 197 0
174 197 0
176 199 0
173 197 0
171 194 0
173 197 0
175 198 0
174 197 0
173 197 0
173 197 0
171 195 0
170 193 0
173 197 0
171 194 0
173 196 0
174 195 0
172 195 0
107 132 72
52 84 85
55 88 114
54 86 95
58 91 122
55 89 123
54 86 108
59 93 125
54 87 117
57 90 121
53 85 114
52 83 99
53 85 107
151 174 65
175 198 0
212 227 220
79 107 140
58 92 125
57 91 130
59 93 135
59 93 133
59 93 128
60 94 120
59 94 135
59 93 120
57 91 128
59 93 122
61 95 130
58 92 111
60 94 130
59 94 128
59 94 128
58 93 128
59 93 128
60 95 125
60 95 142
59 94 130
59 93 120
58 92 120
60 95 137
58 92 108
59 92 128
58 93 125
59 93 135
60 94 140
60 94 130
59 94 125
58 92 117
61 96 140
61 96 140
58 92 105
61 96 137
57 91 117
58 91 120
59 94 117
60 95 130
60 96 135
57 91 117
58 93 135
60 95 135
58 92 120
59 94 140
58 92 108
59 94 133
59 92 122
60 94 137
59 93 125
58 91 114
58 92 117
60 93 125
59 93 120
61 95 133
59 93 133
59 92 130
58 92 128
58 91 122
61 96 137
61 95 137
61 95 137
62 97 142
59 93 128
58 92 142
60 94 135
60 95 137
59 92 123
58 91 125
58 90 135
59 92 135
59 92 122
59 93 120
60 94 141
60 94 135
59 92 130
60 93 133
58 92 120
57 91 125
55 85 112
60 93 136
57 88 121
56 89 108
56 86 112
55 86 113
58 91 131
57 90 109
59 90 133
55 85 113
57 89 122
58 90 122
56 87 119
57 88 112
56 87 117
58 90 130
52 81 108
56 86 103
48 71 74
49 74 97
46 70 87
82 99 110
174 177 173
107 94 40
93 82 36
96 84 27
89 77 29
67 58 15
80 68 28
66 62 19
57 59 32
77 70 22
92 82 29
79 71 22
72 74 26
82 79 34
79 73 29
77 76 39
81 81 38
82 84 37
106 100 55
94 94 38
98 95 52
111 109 52
117 112 44
110 109 46
107 105 52
109 106 46
100 101 49
105 103 54
114 110 51
131 125 60
124 124 58
137 133 66
133 130 59
140 135 72
120 119 58
137 133 54
144 140 70
137 134 61
138 135 58
139 138 69
134 130 60
141 137 66
150 146 68
144 140 66
143 139 75
152 145 73
154 150 73
144 139 62
148 145 64
148 143 67
152 147 73
153 148 67
161 156 81
147 143 69
147 143 69
167 161 85
149 146 67
149 144 66
159 153 70
155 149 78
157 152 81
158 154 68
163 157 72
167 161 82
160 155 74
150 144 68
161 155 67
159 155 82
169 162 88
163 157 63
168 161 84
158 152 71
167 160 75
161 157 68
161 154 75
160 154 75
168 161 82
158 153 68
170 163 84
162 155 76
164 158 79
170 163 79
162 155 67
168 162 75
166 159 79
165 157 80
171 164 87
168 163 80
173 165 82
166 160 75
156 149 62
173 165 88
166 159 77
166 158 74
166 158 79
166 159 75
164 158 60
168 159 81
172 164 82
170 161 80
166 157 79
169 162 79
165 157 76
168 160 80
168 161 72
164 157 74
164 157 74
163 155 72
159 150 69
167 160 77
164 157 70
172 163 86
167 158 81
169 161 74
174 165 91
166 157 76
170 160 79
166 159 77
166 158 71
166 159 76
168 160 74
167 157 79
166 158 77
161 154 72
168 158 79
168 160 75
161 153 74
168 160 81
163 153 81
164 156 76
164 155 76
157 149 77
165 156 78
162 153 74
162 153 73
161 150 65
166 157 75
164 154 78
162 153 79
167 158 76
161 153 76
164 155 70
171 163 81
167 159 76
166 155 78
166 157 76
164 157 79
169 159 82
160 152 72
175 198 0
176 198 0
174 198 0
174 198 0
176 199 0
175 198 0
174 198 0
175 198 0
174 198 0
173 197 0
175 198 0
173 197 0
172 197 0
171 195 0
175 198 0
173 197 0
174 197 0
174 197 0
173 197 0
175 198 0
175 198 0
172 196 0
176 198 0
172 197 0
175 198 0
175 198 0
173 197 0
174 197 0
174 197 0
174 198 0
175 198 0
175 198 0
174 197 0
175 198 0
173 197 0
173 197 0
175 198 0
175 198 0
173 197 0
174 197 0
174 197 0
173 197 0
173 197 0
173 197 0
175 198 0
176 198 0
176 199 0
173 197 0
176 199 0
173 197 0
175 198 0
178 199 0
175 198 0
176 199 0
175 198 0
173 197 0
176 199 0
178 200 0
174 197 0
175 198 0
172 196 0
177 199 0
175 197 0
176 199 0
174 198 0
175 198 0
174 197 0
175 198 0
174 198 0
175 198 0
175 198 0
176 198 0
172 197 0
175 198 0
175 198 0
176 199 0
173 197 0
173 197 0
177 199 0
173 197 0
175 198 0
175 198 0
173 197 0
173 197 0
172 197 0
173 197 0
173 197 0
174 196 0
175 198 0
174 198 0
174 197 0
172 197 0
174 198 0
173 196 0
175 198 0
172 197 0
174 198 0
175 198 0
175 198 0
173 197 0
174 197 0
172 197 0
174 198 0
175 198 0
173 196 0
174 197 0
175 197 0
173 197 0
175 198 0
173 196 0
173 196 0
175 198 0
175 198 0
172 196 0
174 198 0
176 199 0
168 192 0
173 196 0
171 194 0
174 198 0
173 196 0
174 198 0
174 198 0
172 197 0
171 195 0
169 194 0
173 196 0
169 192 0
171 194 0
174 197 0
174 198 0
171 196 0
170 194 0
78 105 82
55 87 106
54 85 99
53 85 111
57 90 120
57 91 117
52 83 103
54 86 108
51 82 103
57 91 122
52 83 101
53 84 102
85 111 100
174 197 0
174 198 0
216 231 231
125 145 177
56 89 110
55 87 94
56 89 100
58 92 117
59 93 120
56 90 114
60 95 140
59 94 135
61 96 144
60 95 122
60 95 133
58 92 117
59 93 135
59 94 128
58 91 125
60 95 130
58 92 122
59 94 142
60 94 128
58 92 120
59 93 125
59 94 137
59 94 128
60 94 142
59 93 135
57 91 114
58 92 128
58 92 117
60 94 128
58 92 122
60 93 130
58 93 108
57 91 120
60 94 130
59 93 140
61 95 140
59 93 128
61 96 137
57 90 120
60 94 128
60 94 125
57 91 128
60 94 130
60 94 137
60 94 122
60 94 130
59 94 133
59 93 125
58 92 128
55 88 108
59 93 125
58 92 130
60 94 130
60 95 133
60 95 125
59 93 122
60 95 135
53 86 112
57 90 112
58 92 111
60 95 133
60 96 140
58 91 122
58 92 117
59 94 137
62 97 147
58 92 117
59 93 133
57 90 117
57 89 117
59 93 131
60 94 128
57 90 112
57 88 114
57 89 117
59 92 131
61 95 143
57 89 114
59 92 129
57 89 112
57 89 111
58 90 126
57 89 126
59 93 131
56 88 113
56 86 103
57 87 120
56 87 117
59 90 119
60 93 135
57 89 125
56 86 101
55 84 109
53 81 107
55 84 116
53 80 93
53 82 99
53 79 97
48 72 83
48 73 107
121 135 147
212 221 232
108 94 38
93 79 26
79 68 17
76 69 17
65 59 21
72 64 22
63 56 18
78 69 16
71 64 17
70 67 21
69 67 24
80 76 26
71 73 32
84 80 28
90 85 36
85 87 34
85 84 39
101 99 41
95 94 47
97 96 41
96 96 41
98 98 47
114 113 61
102 99 51
105 103 44
109 106 45
125 120 50
107 105 55
137 131 62
122 121 57
133 131 50
115 114 49
112 109 46
131 126 65
147 144 71
125 123 58
141 137 66
141 137 68
139 135 64
139 137 77
133 131 58
148 143 76
150 147 75
151 144 66
151 147 54
151 147 72
148 144 65
151 145 63
155 150 75
155 149 74
160 154 80
147 143 62
143 140 61
141 139 53
140 138 58
161 154 66
158 152 76
153 146 62
159 154 64
163 158 75
161 154 74
164 159 74
156 150 68
156 151 67
153 146 70
158 153 65
158 152 77
162 155 74
164 158 69
158 153 75
154 149 70
163 157 74
165 159 72
164 158 74
165 159 70
165 159 70
164 158 74
163 157 75
167 160 75
163 156 70
164 159 66
170 162 84
173 166 88
167 161 80
158 152 64
163 158 64
158 153 70
162 155 69
160 153 62
176 167 91
163 154 72
165 157 73
167 161 75
168 159 79
167 160 76
168 161 75
167 161 70
169 161 80
168 161 76
165 159 67
167 161 75
166 159 72
166 160 77
171 162 84
167 161 79
170 162 81
161 154 64
168 159 79
161 153 74
169 161 80
163 154 72
165 157 74
171 160 82
169 161 81
168 157 80
166 158 79
165 157 80
164 157 65
162 153 66
164 156 69
164 155 76
164 154 74
168 160 81
168 160 82
166 156 80
162 153 70
170 160 84
162 152 65
159 150 79
165 156 74
164 155 70
167 160 80
166 157 74
155 144 67
165 155 76
167 156 75
160 148 68
164 156 68
159 150 68
158 148 63
164 154 72
170 161 80
159 148 61
161 153 74
163 154 66
165 156 80
161 153 65
158 148 68
174 197 0
176 199 0
175 198 0
176 199 0
173 197 0
177 199 0
173 197 0
175 198 0
176 199 0
175 198 0
176 198 0
175 198 0
175 198 0
176 199 0
177 199 0
175 198 0
173 197 0
174 198 0
175 198 0
175 198 0
173 197 0
173 197 0
175 198 0
175 198 0
176 199 0
175 198 0
175 198 0
174 198 0
174 198 0
173 197 0
173 197 0
173 197 0
173 197 0
176 198 0
178 200 0
172 197 0
175 198 0
175 198 0
174 198 0
174 198 0
175 198 0
172 197 0
173 197 0
175 198 0
174 198 0
174 197 0
175 198 0
172 196 0
173 197 0
174 197 0
173 197 0
172 196 0
172 197 0
177 199 0
174 198 0
173 196 0
175 198 0
177 199 0
176 199 0
174 198 0
173 197 0
175 198 0
175 198 0
174 198 0
175 198 0
173 197 0
174 197 0
171 196 0
173 197 0
175 198 0
174 198 0
174 197 0
175 198 0
175 198 0
175 198 0
173 197 0
173 197 0
175 198 0
173 196 0
175 198 0
173 197 0
172 197 0
176 199 0
174 198 0
172 196 0
175 198 0
174 198 0
176 199 0
176 199 0
176 199 0
177 199 0
173 197 0
175 198 0
177 199 0
172 197 0
171 196 0
170 194 0
174 197 0
174 198 0
172 197 0
174 198 0
176 199 0
172 196 0
174 198 0
173 196 0
172 196 0
172 195 0
172 196 0
170 196 0
174 197 0
176 199 0
175 198 0
173 197 0
173 197 0
175 198 0
173 196 0
174 197 0
176 199 0
174 197 0
173 196 0
170 194 0
171 195 0
172 197 0
173 196 0
170 194 0
171 195 0
170 194 0
172 195 0
166 191 0
171 195 0
169 192 0
173 196 0
166 190 25
51 82 101
56 88 107
55 88 113
56 89 114
56 89 111
57 90 105
56 88 103
56 89 115
56 89 114
54 86 110
52 83 94
55 87 118
119 142 65
174 197 0
173 197 36
223 236 253
154 170 187
56 88 117
58 93 139
59 93 128
59 94 133
58 91 125
57 91 105
59 93 128
58 91 114
59 93 130
58 92 128
59 93 130
58 93 120
55 89 102
56 90 105
60 94 135
59 93 111
60 94 140
60 95 133
59 93 122
59 93 117
59 93 122
58 92 117
59 94 128
57 91 108
60 95 130
60 95 144
59 93 125
59 93 130
60 95 135
58 92 120
60 95 135
59 93 135
61 95 130
57 91 111
59 93 120
59 93 125
62 97 142
59 93 125
58 92 122
57 91 114
59 94 135
59 94 135
59 93 125
59 93 125
60 95 130
61 96 137
60 94 133
58 91 114
60 95 151
61 96 135
57 90 122
59 92 125
60 94 130
61 95 130
59 92 130
59 93 128
61 95 135
58 92 125
58 92 125
57 90 114
58 92 120
59 92 135
60 94 128
60 94 133
60 94 133
60 93 129
58 91 117
58 92 123
59 91 128
58 92 120
60 94 131
59 93 123
58 92 128
59 93 122
57 90 130
57 89 120
57 90 112
59 91 117
57 90 105
55 86 120
57 89 129
55 85 115
58 91 121
60 94 142
58 91 123
57 90 106
57 89 117
57 88 120
53 84 112
54 85 90
57 89 119
55 84 111
60 93 141
49 78 81
50 78 95
54 81 106
54 82 106
48 76 82
51 76 93
46 70 85
125 139 149
219 231 248
125 116 71
99 90 32
87 74 27
93 84 19
73 67 22
65 58 23
73 65 19
75 67 20
71 69 17
62 61 21
86 82 18
71 68 22
62 65 44
83 77 27
76 78 36
74 78 43
83 81 39
98 97 35
87 85 43
96 94 49
97 96 44
94 93 46
95 93 36
126 123 61
100 98 40
109 105 38
117 115 51
132 130 60
115 114 57
105 106 43
114 112 53
129 125 55
134 130 63
137 132 58
136 132 69
135 130 61
133 131 70
137 134 52
128 124 58
135 132 68
137 135 72
138 133 60
133 131 51
145 140 62
145 140 67
148 145 67
148 143 75
144 139 68
154 149 65
145 141 66
152 146 70
154 148 67
147 143 66
151 146 59
149 144 71
149 145 69
154 150 60
157 151 71
157 151 76
165 158 72
162 155 79
157 152 68
157 152 74
159 153 70
158 151 66
162 156 73
160 154 70
164 157 69
159 152 68
166 160 72
156 151 71
165 160 84
158 153 73
165 158 75
161 154 65
169 161 82
169 162 82
163 158 74
162 156 77
164 157 67
166 159 75
167 160 75
163 157 70
166 158 84
163 157 72
161 154 78
167 159 74
162 157 74
165 157 72
163 158 64
160 154 70
166 157 70
162 157 77
172 164 79
171 164 80
162 157 66
167 160 74
164 157 65
164 157 74
164 157 72
164 158 75
169 161 77
166 158 72
160 153 72
169 162 79
167 159 78
166 158 74
157 151 63
167 157 70
162 155 69
163 157 72
167 159 75
165 155 71
164 154 75
166 159 77
163 156 73
170 162 79
166 159 81
166 158 69
168 160 77
164 154 71
165 156 74
163 154 71
168 160 77
171 164 84
164 155 69
164 156 73
162 154 63
164 156 74
164 155 70
158 149 67
171 160 81
165 157 70
163 152 74
165 158 72
162 155 67
170 162 81
158 151 68
162 152 72
159 149 69
161 151 67
168 158 79
163 154 72
166 155 79
164 154 71
161 149 71
161 154 74
165 156 67
174 198 0
176 199 0
175 198 0
173 197 0
175 198 0
176 199 0
173 197 0
176 199 0
174 198 0
173 197 0
173 197 0
175 198 0
174 197 0
177 199 0
175 198 0
174 198 0
173 197 0
175 198 0
173 196 0
174 197 0
176 198 0
174 197 0
173 197 0
178 200 0
174 198 0
176 198 0
176 198 0
176 199 0
174 198 0
176 199 0
175 198 0
174 198 0
175 198 0
175 198 0
172 196 0
174 198 0
174 198 0
175 198 0
177 199 0
172 197 0
175 198 0
175 198 0
175 198 0
175 198 0
173 196 0
173 197 0
174 198 0
175 198 0
176 199 0
172 195 0
175 198 0
173 197 0
173 197 0
173 197 0
175 198 0
173 197 0
175 198 0
175 198 0
173 197 0
173 197 0
176 198 0
173 197 0
173 197 0
173 197 0
171 196 0
174 197 0
173 196 0
174 198 0
175 198 0
174 198 0
174 197 0
173 197 0
174 198 0
171 195 0
175 198 0
172 196 0
174 198 0
170 195 0
173 197 0
176 199 0
174 198 0
176 198 0
173 196 0
175 198 0
174 198 0
174 197 0
175 198 0
175 198 0
173 197 0
175 198 0
175 198 0
175 198 0
175 198 0
176 199 0
173 197 0
174 198 0
175 198 0
173 197 0
174 198 0
171 196 0
174 197 0
177 199 0
173 197 0
174 198 0
174 197 0
176 198 0
175 198 0
173 197 0
173 196 0
175 198 0
172 195 0
174 197 0
170 194 0
175 198 0
175 198 0
170 193 0
173 197 0
174 197 0
175 198 0
170 195 0
174 197 0
172 196 0
171 194 0
174 197 0
170 195 0
173 196 0
170 193 0
167 189 0
174 197 0
173 196 0
169 191 0
167 190 0
154 178 36
55 88 107
54 87 97
56 89 103
57 90 105
56 89 105
58 92 114
53 84 99
52 84 110
55 87 111
51 82 86
55 88 99
72 100 93
169 193 25
175 197 0
182 204 95
222 235 248
184 200 209
56 89 111
56 89 114
57 91 102
56 89 99
57 92 114
58 92 117
55 87 102
60 94 133
59 93 125
59 94 133
56 90 105
56 89 111
58 92 120
59 94 130
58 92 114
62 97 142
58 92 125
61 96 140
59 92 120
60 94 130
60 94 133
59 93 125
58 91 117
58 92 117
61 95 133
59 94 130
59 93 128
59 92 128
60 94 125
59 93 122
58 92 130
59 94 128
61 95 135
58 92 128
59 93 128
59 93 130
61 95 133
57 91 111
61 95 125
58 92 125
60 94 125
60 95 135
60 95 135
61 96 142
60 95 142
60 95 128
59 92 115
61 95 133
61 96 135
58 92 133
60 94 128
59 93 133
60 94 135
60 94 135
59 93 120
59 93 122
58 92 120
58 92 111
58 91 117
59 92 111
59 93 122
60 95 142
61 96 133
60 94 142
59 93 122
58 91 115
58 92 117
59 91 128
58 91 128
58 92 130
56 89 111
59 93 130
59 93 125
59 92 126
58 91 133
58 91 133
58 90 115
59 93 125
59 93 125
56 88 96
61 95 142
57 89 120
58 90 117
58 91 112
55 85 109
53 82 99
57 88 121
56 88 100
58 92 128
57 89 113
56 87 117
55 86 115
54 85 106
54 82 87
53 81 91
53 81 99
48 71 77
51 78 92
51 77 84
47 71 81
177 191 189
218 232 237
143 135 95
105 91 28
84 71 8
97 84 30
86 74 17
85 72 22
71 70 24
80 67 17
86 79 23
72 68 35
76 68 31
63 60 24
76 72 22
77 77 28
86 86 35
82 80 37
93 91 42
95 92 41
94 95 36
101 98 40
108 104 40
111 109 58
111 110 53
115 110 49
122 117 51
114 113 54
95 97 42
122 120 56
115 110 48
124 122 58
121 118 45
120 116 47
109 109 47
134 128 62
133 130 68
125 123 55
112 110 47
138 134 65
132 130 61
128 124 57
133 129 59
154 148 69
137 133 59
135 131 56
139 136 59
146 140 62
137 133 59
150 146 66
151 145 66
150 143 64
152 148 72
143 139 57
148 143 62
160 156 76
159 153 69
150 145 63
158 152 78
145 141 65
162 155 76
163 155 72
166 160 75
152 146 62
158 151 72
161 156 76
157 152 64
162 156 75
161 153 80
158 154 69
169 162 74
153 147 79
167 160 82
165 157 79
168 160 77
156 150 70
168 161 77
159 151 66
163 156 72
168 160 79
154 147 60
158 151 72
163 155 75
166 158 70
169 161 77
160 155 72
166 157 77
159 152 70
160 156 64
160 153 67
163 157 70
163 155 77
167 158 79
158 153 56
170 161 74
161 154 65
166 159 75
173 165 87
170 161 80
170 163 80
165 158 72
166 160 79
164 154 72
165 155 77
163 156 72
164 157 72
162 154 71
162 152 69
169 161 74
164 156 71
162 157 67
175 166 85
170 160 83
162 155 68
166 157 71
165 156 62
163 156 70
168 162 76
167 157 78
166 159 81
167 160 77
165 155 77
165 159 72
167 158 74
168 159 84
163 153 76
163 153 74
157 148 67
167 157 73
166 156 78
166 158 72
163 152 59
166 159 71
161 153 67
161 150 70
160 151 63
166 158 77
169 159 76
165 156 77
164 154 67
165 156 79
157 146 71
168 159 81
163 154 72
163 153 74
150 141 53
159 148 63
170 162 82
160 151 71
165 155 78
173 197 0
174 197 0
175 198 0
174 198 0
176 199 0
175 198 0
175 198 0
176 199 0
174 198 0
172 197 0
175 198 0
174 198 0
175 198 0
173 197 0
173 197 0
176 199 0
176 199 0
174 198 0
173 197 0
173 197 0
176 198 0
175 198 0
175 198 0
173 197 0
172 197 0
173 197 0
173 197 0
175 198 0
176 199 0
175 198 0
175 198 0
174 197 0
176 199 0
174 198 0
176 199 0
172 197 0
172 196 0
174 198 0
174 198 0
174 197 0
175 198 0
173 197 0
175 198 0
174 198 0
177 199 0
176 198 0
174 197 0
173 197 0
172 196 0
176 199 0
172 197 0
175 198 0
175 198 0
173 197 0
172 196 0
177 199 0
176 198 0
173 197 0
174 198 0
173 197 0
173 197 0
174 198 0
176 198 0
176 199 0
176 198 0
172 197 0
178 200 0
175 198 0
174 198 0
174 197 0
176 199 0
175 198 0
173 197 0
175 198 0
174 198 0
175 198 0
173 197 0
174 197 0
174 197 0
172 197 0
173 197 0
174 197 0
172 195 0
177 199 0
176 198 0
171 195 0
174 197 0
175 198 0
174 198 0
173 197 0
175 198 0
171 195 0
173 197 0
174 197 0
175 198 0
174 197 0
176 199 0
175 197 0
174 197 0
173 196 0
173 197 0
175 198 0
173 196 0
172 195 0
176 199 0
174 196 0
172 196 0
175 198 0
172 194 0
172 196 0
173 196 0
174 198 0
172 196 0
173 197 0
175 198 0
172 195 0
167 190 0
169 193 0
168 192 0
171 194 0
170 194 0
169 192 0
173 197 0
170 193 0
169 194 0
174 196 0
168 191 0
167 190 0
158 180 0
167 191 0
165 187 0
162 186 0
140 164 57
55 87 82
54 86 94
57 90 105
54 86 99
55 87 103
54 86 84
55 88 118
54 87 97
53 85 100
52 82 94
52 83 90
111 135 51
169 193 0
175 198 0
175 198 0
174 197 0
168 191 36
55 87 110
57 91 105
59 93 125
57 91 111
57 90 114
58 91 122
58 92 111
59 92 135
58 92 117
56 89 99
57 91 125
55 88 105
56 90 111
60 94 142
59 93 125
60 95 133
58 92 122
59 93 120
57 91 120
57 91 128
60 95 137
57 91 114
59 93 133
60 95 135
60 95 125
59 93 137
58 93 128
57 91 102
56 89 117
60 94 128
60 94 135
58 91 114
60 94 122
60 94 122
55 88 108
57 90 117
60 93 133
60 95 142
60 95 130
56 89 117
60 94 135
59 94 128
57 91 114
59 94 130
58 92 120
57 91 102
59 93 128
61 96 142
60 95 140
58 91 122
60 94 130
56 88 108
59 93 120
60 94 131
59 93 120
59 94 140
59 94 125
57 90 102
59 92 130
60 93 125
56 89 111
58 91 125
57 89 117
58 92 120
58 91 135
58 91 120
57 89 121
58 91 131
58 92 130
58 91 114
58 92 117
58 91 128
61 94 128
58 92 123
58 91 125
57 90 117
58 90 122
59 92 117
58 90 105
58 91 118
57 89 120
58 90 121
55 87 114
58 90 122
57 88 126
55 86 122
58 91 126
60 94 125
56 87 115
55 86 103
55 86 112
53 81 106
54 82 103
53 82 101
53 81 95
51 77 95
54 82 103
50 77 98
49 75 96
49 73 81
164 186 1
174 197 0
145 148 17
105 91 22
102 93 38
88 76 23
80 70 22
98 84 15
74 62 7
77 66 13
79 74 31
65 63 24
81 74 21
82 75 22
77 75 25
84 76 25
78 76 23
91 88 36
83 80 30
84 82 24
97 91 41
102 100 46
101 96 33
95 96 38
112 108 50
102 102 35
112 109 37
111 105 57
114 115 40
109 107 47
121 118 51
120 117 48
110 105 53
110 110 55
138 134 60
122 118 49
137 133 63
140 136 59
120 117 55
140 135 59
133 129 65
118 113 55
131 129 53
140 137 61
150 145 68
154 148 75
140 135 52
154 148 69
144 139 67
141 138 63
145 140 66
149 145 63
146 143 59
147 142 63
148 143 69
149 144 65
148 145 71
148 144 53
150 145 67
155 151 59
150 145 61
153 148 65
160 154 75
160 154 66
157 151 71
154 147 62
161 154 66
165 159 71
160 153 75
155 149 75
151 147 56
159 154 71
149 144 69
163 155 66
161 155 64
160 153 71
159 153 61
155 150 65
157 151 66
163 157 73
158 153 65
166 158 72
167 160 82
170 161 82
159 153 69
166 158 72
168 162 75
164 158 74
165 159 72
162 155 66
167 160 79
163 156 76
165 158 72
161 152 62
165 158 70
163 156 72
165 159 74
168 159 76
159 152 64
162 155 74
159 153 63
168 162 77
164 157 69
167 158 67
166 159 72
158 152 66
160 153 65
168 160 76
173 166 80
167 158 75
166 158 74
161 152 67
163 157 68
167 158 78
166 157 76
159 151 58
163 154 67
165 156 71
159 151 66
167 160 79
165 155 72
166 158 72
158 153 60
163 157 67
164 158 71
162 154 72
162 154 69
162 151 70
164 154 69
161 153 69
160 153 64
170 160 72
161 153 69
165 156 76
168 158 79
159 150 67
158 148 67
159 151 72
159 151 61
165 153 73
161 148 65
159 152 63
162 152 71
167 158 78
165 156 76
159 149 69
163 151 74
161 152 71
167 158 72
159 147 74
176 198 0
173 197 0
172 196 0
176 199 0
174 198 0
177 199 0
172 196 0
175 198 0
174 197 0
174 196 0
172 197 0
173 197 0
176 199 0
176 199 0
173 197 0
175 198 0
176 198 0
173 197 0
173 197 0
173 197 0
171 196 0
175 198 0
178 200 0
174 198 0
172 197 0
174 198 0
176 199 0
177 199 0
172 197 0
175 198 0
175 198 0
174 198 0
173 197 0
174 197 0
173 197 0
175 198 0
173 196 0
175 198 0
175 198 0
173 197 0
176 198 0
176 199 0
173 197 0
173 196 0
174 198 0
171 196 0
174 197 0
175 198 0
174 198 0
172 196 0
173 197 0
171 195 0
173 196 0
175 198 0
174 198 0
174 197 0
171 195 0
173 197 0
176 199 0
173 197 0
172 195 0
177 199 0
173 197 0
176 198 0
175 198 0
173 197 0
173 197 0
177 199 0
174 198 0
172 197 0
174 197 0
174 197 0
175 198 0
172 197 0
175 198 0
175 198 0
174 198 0
173 196 0
176 199 0
172 197 0
167 192 0
173 197 0
177 199 0
172 196 0
173 196 0
174 197 0
171 195 0
174 197 0
174 198 0
173 197 0
174 198 0
176 199 0
172 196 0
174 197 0
170 194 0
172 196 0
174 198 0
172 196 0
173 196 0
175 198 0
174 198 0
174 198 0
171 196 0
173 197 0
174 197 0
174 197 0
175 198 0
169 193 0
172 195 0
175 198 0
174 198 0
170 194 0
175 198 0
170 194 0
169 193 0
172 196 0
174 198 0
170 194 0
170 194 0
175 197 0
169 193 0
172 196 0
167 192 0
170 194 0
168 191 0
171 194 0
171 194 0
167 192 0
163 185 0
163 188 0
164 187 0
161 183 0
103 126 72
52 84 95
55 88 105
55 88 103
53 85 80
56 88 99
54 86 90
54 86 88
52 83 90
50 81 88
54 85 81
74 104 117
160 182 25
171 194 0
175 197 0
175 198 0
175 198 0
175 198 0
76 103 105
58 91 117
59 94 133
56 90 122
58 91 120
59 93 125
60 95 140
60 95 135
60 94 137
57 91 114
58 92 122
59 93 133
57 91 117
57 90 111
59 94 130
58 92 117
59 92 120
58 92 117
61 96 140
59 92 114
61 95 137
59 93 117
61 96 140
58 92 114
60 95 133
61 95 140
59 93 122
59 94 120
59 93 120
59 93 120
59 94 125
58 92 125
59 93 117
59 93 120
60 94 130
58 92 120
60 95 140
57 90 92
58 91 120
62 97 140
56 89 105
59 93 130
56 90 105
59 93 128
58 92 111
56 89 105
59 94 125
56 89 117
59 93 122
58 92 128
60 93 130
59 93 130
57 90 108
58 92 122
56 88 115
59 93 133
59 93 122
61 96 137
59 93 114
60 93 133
59 94 137
58 90 130
58 92 114
57 91 117
59 92 130
59 93 126
56 88 106
57 90 135
59 92 123
56 88 120
58 92 122
56 88 99
60 93 125
59 92 138
58 92 123
57 90 118
60 94 140
59 92 131
56 88 108
58 89 118
56 89 108
59 92 136
55 86 117
57 89 115
58 90 112
57 89 110
56 86 112
54 84 97
54 84 100
55 86 121
52 80 97
58 88 132
53 81 118
53 82 107
50 78 88
51 76 100
51 78 83
54 81 96
51 77 105
81 100 61
172 197 0
174 198 0
171 188 28
127 115 44
95 83 30
93 82 29
88 76 19
83 76 21
70 64 17
85 76 19
87 76 21
67 64 30
73 66 22
74 74 30
80 75 22
94 89 25
94 90 38
106 98 39
102 97 27
93 89 24
94 92 40
89 85 33
104 100 38
100 97 46
108 103 45
104 102 48
108 107 34
101 101 43
126 122 53
123 121 56
113 107 47
126 124 57
123 120 52
107 106 41
121 117 51
128 125 55
129 123 57
138 134 52
122 120 44
131 128 65
131 129 57
129 126 48
140 136 61
135 131 58
135 129 51
137 133 57
141 136 51
142 138 70
149 144 68
151 145 60
152 146 79
149 144 54
141 137 56
147 142 49
151 145 62
157 151 76
155 150 69
155 151 65
155 150 61
155 150 62
162 155 76
161 155 73
147 143 49
152 147 61
154 149 65
159 154 73
159 153 67
164 157 79
156 151 53
153 148 56
159 152 68
157 152 62
161 155 74
157 151 72
162 155 72
170 162 79
159 153 68
162 155 74
159 154 72
161 154 68
167 158 68
163 157 68
161 153 68
161 154 77
158 152 68
166 160 72
160 153 67
162 155 74
163 155 64
159 152 65
162 156 64
165 157 70
169 161 75
163 155 80
156 150 57
165 158 64
168 159 79
160 153 62
166 157 74
169 162 74
167 158 78
160 152 70
165 158 80
165 159 68
168 159 77
171 162 79
166 160 77
166 157 76
163 156 62
165 157 72
161 153 68
162 153 70
174 166 85
159 151 72
167 160 75
165 158 72
168 159 78
162 154 74
160 154 68
170 160 89
168 161 72
152 141 65
165 160 77
161 152 65
161 153 70
155 146 64
165 156 79
158 150 58
160 152 76
159 151 72
166 158 73
165 156 73
168 159 82
160 150 67
170 161 79
163 153 74
156 149 63
166 158 79
162 153 71
163 154 68
149 140 61
161 151 72
152 143 57
167 157 73
158 148 65
162 154 74
159 151 66
166 157 78
167 158 84
167 157 69
173 197 0
175 198 0
176 199 0
173 197 0
174 197 0
171 196 0
174 198 0
176 199 0
174 197 0
175 198 0
176 199 0
176 199 0
177 199 0
173 197 0
175 198 0
177 199 0
175 198 0
173 197 0
175 198 0
173 197 0
173 197 0
173 197 0
175 198 0
171 195 0
175 198 0
173 197 0
174 197 0
173 197 0
176 199 0
177 199 0
175 198 0
172 196 0
173 197 0
175 198 0
175 198 0
173 197 0
176 198 0
177 199 0
172 196 0
173 197 0
176 198 0
174 198 0
175 198 0
173 197 0
173 197 0
176 199 0
174 198 0
172 196 0
175 198 0
177 199 0
172 197 0
175 198 0
174 198 0
176 199 0
173 197 0
175 198 0
173 197 0
174 197 0
172 197 0
174 198 0
173 196 0
173 197 0
173 197 0
172 196 0
173 196 0
174 198 0
175 198 0
175 198 0
176 198 0
175 198 0
176 199 0
175 198 0
175 198 0
171 195 0
173 197 0
173 197 0
172 197 0
173 197 0
173 197 0
173 197 0
174 197 0
171 195 0
174 198 0
176 199 0
173 197 0
171 195 0
172 197 0
172 196 0
175 198 0
177 199 0
175 198 0
174 198 0
176 199 0
174 198 0
173 197 0
171 195 0
174 197 0
175 197 0
174 197 0
175 198 0
172 196 0
173 196 0
171 195 0
169 193 0
170 195 0
176 199 0
168 192 0
170 195 0
171 195 0
172 195 0
174 198 0
175 198 0
170 193 0
169 193 0
172 195 0
172 195 0
165 190 0
168 192 0
170 193 0
168 192 0
170 194 0
167 190 0
168 192 0
171 195 0
171 194 0
165 189 0
166 188 0
170 194 0
165 187 0
159 182 0
162 185 0
148 170 0
60 92 92
55 88 105
56 88 88
57 90 108
53 86 80
56 89 100
54 85 107
55 86 111
54 86 113
54 87 92
56 87 72
152 174 25
171 194 0
174 198 0
173 195 0
175 198 0
175 197 0
175 198 0
121 144 82
57 90 105
58 92 117
58 92 122
58 92 105
57 89 125
58 92 122
57 89 92
59 93 111
56 88 114
59 93 120
58 92 111
58 92 111
59 93 140
59 93 133
59 93 120
61 95 128
59 93 137
58 92 114
59 93 130
59 93 122
60 94 135
58 92 111
57 91 120
57 90 99
60 94 128
58 92 125
59 94 128
55 88 102
61 96 142
59 93 125
57 90 122
58 91 122
58 92 108
59 92 120
59 94 133
55 88 111
60 94 133
60 94 130
58 92 117
57 90 111
56 90 114
57 90 105
57 91 125
55 87 102
59 94 125
59 92 128
59 93 128
57 91 111
59 93 128
59 92 125
59 93 111
57 91 122
55 87 99
57 90 117
59 93 120
58 92 108
60 94 137
60 94 140
58 92 120
56 89 114
60 93 125
53 84 103
58 91 120
59 92 125
59 91 120
58 92 122
56 88 106
59 92 122
57 90 120
60 94 140
59 91 122
57 90 120
56 89 115
57 89 109
57 88 115
56 88 120
58 90 125
53 84 105
57 89 117
54 84 111
57 89 123
57 89 117
54 85 106
56 89 109
58 91 121
58 90 123
55 83 117
54 84 99
54 83 101
53 83 108
55 87 110
57 87 118
55 84 95
53 81 117
54 82 104
52 78 104
52 77 97
46 70 73
118 139 58
175 198 0
175 198 0
175 198 0
126 118 41
116 101 34
88 79 34
104 87 30
80 73 26
89 75 14
88 82 22
82 79 23
73 69 24
86 82 21
88 80 21
98 89 32
78 74 24
68 59 21
80 78 20
95 93 38
93 91 31
89 87 32
104 102 45
97 92 24
96 94 36
108 104 41
107 99 32
106 104 44
122 118 56
118 114 46
110 112 49
125 121 52
140 133 66
114 111 53
126 121 48
135 130 57
127 123 50
127 124 52
125 124 48
126 123 44
117 114 47
125 121 38
134 130 54
141 135 59
137 133 57
147 142 68
144 139 72
142 139 67
139 135 57
146 140 68
144 141 59
152 147 63
146 137 61
143 139 54
148 143 64
138 133 59
158 153 65
148 142 61
146 143 54
154 146 67
155 149 62
157 150 64
152 146 68
162 154 66
151 146 62
155 149 66
161 153 75
157 150 67
156 151 71
159 152 66
168 160 77
153 147 61
157 149 67
161 156 71
159 154 64
163 158 71
160 153 70
155 151 56
160 154 60
168 160 74
157 152 66
162 155 62
163 157 79
169 160 77
156 150 61
161 152 69
165 159 75
155 149 48
165 158 70
166 160 66
172 164 82
164 156 64
155 149 60
164 158 70
158 150 62
159 153 67
169 163 77
164 158 72
166 159 77
164 158 74
165 158 75
164 157 68
167 157 78
159 153 62
166 159 70
165 156 72
158 150 58
158 151 67
170 160 81
166 160 72
166 158 72
160 150 70
163 156 68
163 155 72
158 152 64
162 156 72
168 158 74
168 159 84
162 153 75
159 150 69
165 156 75
160 152 62
158 148 58
157 150 63
164 157 76
170 162 84
165 158 71
161 151 72
159 153 62
161 151 70
156 145 70
167 160 72
165 158 77
158 151 67
160 152 65
164 155 69
157 149 58
160 150 74
158 150 61
162 152 74
159 149 68
163 153 67
157 149 67
162 153 74
154 145 58
162 152 68
156 146 63
166 155 73
162 153 69
157 146 65
159 148 74
174 198 0
173 196 0
172 196 0
174 198 0
174 198 0
176 199 0
174 197 0
174 197 0
175 198 0
173 197 0
175 198 0
176 198 0
174 197 0
173 197 0
172 196 0
175 198 0
176 199 0
174 198 0
174 197 0
175 198 0
174 198 0
173 197 0
175 198 0
174 196 0
174 198 0
173 197 0
176 199 0
174 198 0
176 199 0
173 197 0
175 197 0
174 197 0
174 198 0
173 197 0
174 198 0
175 198 0
175 198 0
175 198 0
174 198 0
171 195 0
174 198 0
175 198 0
175 198 0
174 198 0
175 198 0
174 197 0
173 197 0
170 195 0
176 198 0
175 198 0
173 197 0
175 198 0
173 197 0
174 198 0
175 198 0
174 198 0
173 197 0
176 199 0
173 197 0
174 198 0
175 198 0
176 199 0
175 198 0
175 198 0
173 197 0
174 198 0
175 198 0
175 198 0
173 197 0
173 197 0
175 198 0
172 197 0
173 197 0
174 197 0
173 197 0
171 195 0
171 195 0
173 197 0
173 197 0
172 195 0
169 194 0
174 198 0
174 198 0
174 198 0
172 197 0
174 198 0
173 197 0
174 197 0
173 197 0
173 197 0
174 198 0
169 194 0
172 196 0
173 197 0
172 196 0
173 196 0
173 197 0
173 197 0
169 193 0
176 198 0
170 195 0
170 194 0
175 198 0
169 193 0
171 195 0
177 199 0
174 198 0
173 197 0
174 198 0
171 195 0
169 192 0
173 196 0
169 193 0
171 194 0
174 198 0
172 196 0
169 192 0
173 196 0
172 195 0
170 194 0
168 191 0
167 188 0
162 186 0
164 189 0
167 191 0
168 190 0
164 186 0
171 195 0
163 186 0
151 174 0
142 165 0
108 130 44
55 88 92
55 88 92
56 89 103
56 88 92
51 81 72
53 84 84
52 83 93
56 88 105
50 80 88
52 82 80
125 149 51
172 195 0
166 189 0
171 195 0
172 196 0
174 197 0
174 198 0
175 198 0
154 178 51
58 92 111
58 93 120
56 89 80
58 92 125
59 93 120
57 91 111
55 88 92
59 92 135
56 89 111
56 89 122
57 91 105
58 90 111
56 90 108
59 94 133
58 91 122
59 94 130
59 94 122
60 95 128
60 94 144
58 92 114
55 88 92
59 93 117
59 92 120
61 96 135
55 89 111
58 92 120
58 92 111
58 92 122
58 91 122
58 91 128
59 94 128
59 93 125
58 91 117
59 93 122
58 92 120
58 92 120
59 92 111
58 92 122
59 92 128
59 93 122
59 93 114
57 90 125
57 91 111
60 95 128
58 91 114
59 94 130
59 93 125
59 93 130
58 92 115
57 91 114
56 89 120
61 95 130
59 93 120
60 95 137
57 91 114
58 92 120
56 89 105
58 91 105
59 93 128
57 89 120
58 90 120
57 90 117
56 89 122
60 93 133
58 91 117
57 90 117
59 92 128
57 90 117
59 93 128
59 92 125
57 90 111
58 91 117
59 93 130
58 90 123
60 93 147
56 88 120
57 89 117
55 86 114
58 91 115
58 91 115
56 87 112
56 87 106
55 86 90
54 84 94
56 86 103
57 89 130
57 89 121
55 84 112
57 88 120
56 86 116
53 82 101
55 86 107
56 86 105
54 82 103
52 79 95
55 83 97
50 76 87
52 75 85
141 162 58
173 197 0
174 198 0
174 198 0
146 155 34
108 93 34
100 92 24
111 97 31
95 86 29
88 81 19
87 79 18
68 60 19
72 72 24
90 87 19
77 71 13
75 72 16
82 79 22
80 75 17
89 87 26
89 85 32
100 96 42
92 90 32
111 105 34
106 103 39
99 97 35
110 104 49
102 98 38
114 107 49
105 102 38
121 116 44
101 100 45
120 115 47
132 128 52
118 117 46
127 123 52
121 119 53
138 134 61
128 124 53
140 136 55
125 122 51
130 126 41
142 138 61
134 132 44
142 139 54
141 137 66
134 131 51
149 143 70
143 138 54
147 141 66
144 141 62
143 139 57
147 141 61
141 137 45
154 146 61
147 143 66
149 144 62
149 144 56
147 142 63
154 148 65
152 146 61
156 149 68
148 142 62
154 149 66
160 153 76
161 153 72
159 151 66
152 148 60
161 154 64
157 151 66
164 156 70
159 153 59
158 151 63
158 151 65
169 161 72
159 153 69
167 159 70
159 152 64
152 145 64
153 147 58
156 147 58
156 150 60
158 154 62
157 150 60
167 159 75
159 152 64
157 151 66
164 158 64
164 156 60
155 147 60
158 151 68
161 153 70
164 157 65
165 157 72
166 158 70
168 160 69
168 161 77
157 152 58
156 149 67
161 152 56
167 160 70
163 156 68
155 149 51
164 157 69
169 161 79
164 155 62
164 157 68
168 160 76
159 151 64
160 153 61
161 155 72
166 161 77
169 162 74
158 150 56
170 161 79
164 155 63
158 151 60
159 150 67
157 151 58
159 153 58
161 153 63
169 161 67
169 159 81
168 160 74
168 160 76
168 160 74
162 153 72
160 153 65
157 148 63
163 155 72
162 152 65
163 154 69
168 159 76
167 158 74
162 151 73
166 156 78
158 151 63
160 151 64
161 152 61
163 155 68
162 153 68
162 155 70
162 152 73
163 154 70
165 156 72
159 152 66
171 158 80
160 150 68
157 147 64
161 151 65
161 153 63
163 154 78
174 197 0
173 197 0
174 197 0
172 196 0
176 199 0
175 198 0
173 197 0
172 195 0
172 197 0
170 194 0
175 198 0
173 197 0
175 198 0
175 198 0
173 196 0
174 198 0
172 197 0
174 198 0
174 197 0
173 197 0
174 198 0
176 198 0
175 198 0
175 198 0
174 197 0
176 198 0
175 198 0
175 198 0
176 199 0
175 198 0
173 197 0
175 198 0
174 198 0
172 197 0
174 198 0
177 199 0
174 198 0
175 198 0
173 197 0
172 195 0
172 197 0
174 198 0
174 197 0
175 198 0
174 197 0
177 199 0
173 197 0
173 197 0
176 198 0
173 197 0
174 198 0
173 197 0
173 197 0
172 196 0
175 198 0
173 197 0
174 198 0
174 197 0
174 198 0
171 195 0
169 194 0
173 197 0
174 197 0
172 197 0
171 195 0
177 199 0
171 195 0
171 195 0
175 198 0
171 195 0
172 197 0
173 196 0
177 199 0
176 199 0
173 197 0
174 198 0
169 193 0
172 196 0
173 197 0
174 197 0
173 197 0
176 199 0
172 196 0
176 199 0
173 196 0
171 194 0
174 198 0
175 198 0
170 194 0
173 197 0
169 193 0
171 195 0
170 194 0
171 195 0
172 197 0
172 196 0
173 197 0
171 195 0
176 199 0
170 194 0
173 195 0
173 196 0
166 191 0
170 194 0
169 193 0
172 195 0
170 194 0
173 196 0
176 198 0
173 197 0
171 194 0
168 192 0
171 194 0
171 194 0
167 189 0
171 195 0
168 193 0
162 186 0
164 188 0
166 191 0
168 192 0
170 193 0
157 181 0
163 186 0
165 189 0
156 179 0
162 185 0
165 187 0
157 180 0
151 173 0
148 170 0
81 106 76
56 89 84
53 84 92
56 89 95
52 83 102
52 83 84
53 84 80
51 82 80
53 84 86
54 86 74
109 130 67
160 181 0
169 192 0
170 192 0
174 198 0
174 197 0
175 198 0
174 197 0
173 197 0
175 197 0
60 92 95
55 88 102
56 89 99
56 89 111
57 91 105
58 92 111
58 92 120
57 91 122
58 93 130
58 92 111
58 92 108
58 92 122
56 89 117
60 95 133
57 91 105
58 91 117
59 92 114
57 90 120
59 93 128
59 94 130
61 96 135
57 91 120
59 93 125
59 93 125
59 94 120
58 91 122
57 91 120
57 91 108
59 93 122
60 95 137
58 91 111
57 90 122
59 93 125
62 96 142
59 94 133
60 94 133
59 93 114
60 95 135
57 90 120
60 94 133
60 94 125
59 94 120
60 94 120
57 89 114
59 93 130
56 89 102
59 92 117
59 93 120
58 91 99
60 94 133
57 90 125
55 87 108
55 88 99
58 92 125
58 92 117
58 91 106
59 92 125
60 94 130
58 90 108
58 91 111
61 95 130
57 91 117
59 94 125
58 91 122
58 91 117
57 90 103
57 90 115
58 92 125
56 89 107
58 91 114
57 88 117
57 90 125
59 93 135
62 96 138
59 92 135
58 90 128
59 92 125
59 93 120
56 88 121
57 89 108
57 90 112
55 84 106
58 91 128
54 85 93
57 88 112
55 84 115
55 86 105
56 88 115
55 85 109
55 86 102
52 81 86
55 86 101
54 82 103
54 84 91
51 76 90
47 73 71
53 78 84
60 83 98
170 193 8
174 197 0
174 198 0
174 197 0
161 176 23
115 103 37
103 86 29
84 74 22
90 80 19
96 88 25
88 73 22
93 83 18
87 78 27
84 75 13
85 78 27
66 62 25
84 76 18
93 88 21
79 77 17
86 83 31
87 84 27
92 90 32
108 105 34
108 102 30
105 103 31
105 99 25
106 101 40
96 93 35
103 102 47
105 106 31
113 110 36
117 115 43
122 119 47
105 104 30
119 117 41
115 109 50
136 130 56
131 124 55
130 126 49
126 123 53
132 125 58
128 125 47
124 122 45
139 134 58
132 129 54
119 116 48
139 133 56
138 134 59
142 137 58
147 141 59
136 132 51
144 141 48
148 143 58
145 140 56
147 142 58
150 144 56
145 140 62
154 148 66
147 141 60
156 151 52
153 147 66
147 142 62
144 139 61
137 133 41
146 143 56
160 153 66
156 149 68
156 150 62
154 150 57
161 155 70
160 153 62
160 154 64
164 158 68
157 152 61
158 152 66
164 157 69
156 150 64
167 159 75
163 156 68
165 158 66
155 148 64
150 144 39
166 158 76
166 158 74
162 157 75
158 151 66
157 151 67
160 153 72
163 156 69
164 155 65
164 159 68
161 152 62
157 151 60
165 158 74
154 148 56
170 162 76
163 156 58
165 158 62
167 158 74
162 154 65
164 155 68
162 154 68
158 152 48
166 156 69
164 156 68
157 150 54
159 151 61
164 154 74
162 154 67
165 157 70
162 156 67
165 157 76
165 156 65
164 156 67
158 151 58
169 158 75
159 152 59
158 149 66
156 148 64
163 157 70
169 162 75
165 156 66
169 160 77
163 156 66
159 150 68
158 151 58
160 152 57
159 150 64
164 157 68
164 155 70
165 156 70
164 154 68
159 150 65
164 153 76
162 153 65
154 144 66
170 161 82
165 156 79
161 152 71
157 149 51
159 149 62
156 148 62
168 157 79
163 154 73
158 146 66
164 155 72
153 145 68
161 150 64
162 150 73
161 151 67
167 156 74
173 197 0
174 198 0
172 197 0
175 198 0
174 197 0
173 197 0
174 198 0
174 197 0
177 198 0
174 197 0
173 197 0
175 198 0
174 198 0
172 196 0
176 198 0
177 199 0
173 197 0
174 198 0
173 197 0
174 196 0
176 198 0
174 198 0
176 198 0
175 198 0
173 196 0
173 197 0
175 198 0
173 197 0
174 197 0
174 198 0
173 196 0
171 195 0
176 199 0
174 197 0
172 196 0
173 197 0
174 198 0
175 198 0
173 197 0
174 198 0
174 198 0
172 197 0
172 196 0
169 194 0
174 198 0
174 197 0
175 198 0
173 197 0
175 198 0
174 197 0
176 199 0
173 197 0
173 196 0
174 198 0
171 194 0
173 197 0
173 196 0
175 198 0
174 198 0
176 199 0
173 196 0
175 198 0
171 194 0
173 197 0
175 198 0
174 198 0
173 197 0
173 196 0
172 196 0
171 195 0
172 196 0
176 198 0
171 195 0
174 197 0
175 198 0
169 194 0
173 197 0
173 197 0
171 194 0
171 196 0
175 197 0
174 198 0
177 199 0
174 198 0
174 197 0
172 196 0
171 194 0
172 196 0
171 194 0
173 196 0
173 197 0
175 198 0
167 191 0
173 197 0
171 195 0
171 195 0
171 195 0
172 196 0
170 193 0
173 197 0
171 193 0
168 191 0
171 194 0
167 191 0
173 197 0
169 193 0
175 197 0
172 197 0
171 195 0
168 193 0
170 193 0
174 196 0
173 196 0
172 196 0
169 193 0
170 194 0
169 192 0
167 191 0
167 191 0
170 194 0
170 194 0
167 191 0
174 197 0
168 191 0
152 176 0
159 183 0
155 177 0
163 186 0
149 171 0
153 175 0
135 157 0
53 84 95
51 82 92
55 87 80
53 86 67
53 85 72
55 88 86
52 83 92
54 86 95
54 86 84
114 138 44
157 180 0
165 188 0
170 193 0
165 189 0
168 192 0
174 197 0
170 195 0
177 199 0
175 198 0
176 199 0
110 135 76
57 92 120
54 87 102
54 86 80
57 91 114
59 93 133
59 93 117
57 91 111
58 92 111
56 90 92
59 92 114
59 93 135
54 86 114
60 95 130
59 93 125
54 87 88
59 92 117
58 92 114
57 90 120
59 93 111
58 92 108
57 91 117
58 91 122
59 93 122
58 91 133
58 92 125
58 92 105
58 91 117
58 92 122
58 92 117
55 88 102
60 94 125
57 91 108
60 94 125
58 91 120
60 94 140
58 92 105
57 89 120
57 91 117
58 92 125
57 90 117
55 86 102
58 93 108
58 91 117
57 89 111
56 89 114
57 91 125
60 94 135
56 88 125
59 93 120
56 89 117
59 93 120
58 92 114
58 92 128
59 93 120
58 91 115
59 93 122
59 93 133
56 90 105
57 91 120
57 89 108
59 93 128
58 92 128
60 94 128
58 92 125
57 90 117
58 92 115
59 93 133
59 92 120
59 92 133
56 88 111
59 92 117
56 88 117
59 93 128
57 89 117
57 89 114
55 86 106
58 92 117
55 86 99
57 90 111
53 84 108
58 90 117
57 88 112
55 85 113
55 86 99
54 86 106
55 85 96
53 81 117
55 85 118
53 83 100
54 83 88
57 86 114
55 85 106
49 76 79
51 78 81
50 75 91
49 72 89
113 133 39
174 198 0
174 197 0
173 197 0
174 197 0
173 196 0
137 137 34
128 116 43
107 91 22
106 95 30
93 83 24
88 78 18
91 84 13
89 81 24
94 85 16
70 69 25
76 65 8
71 64 17
82 78 22
94 89 35
60 60 16
91 86 28
104 101 32
106 101 33
106 100 32
103 98 35
111 109 48
101 98 29
98 94 31
114 112 50
119 112 48
121 118 58
115 110 37
121 117 46
118 114 34
95 95 34
131 127 45
131 126 48
117 116 47
128 124 51
142 137 56
132 126 50
133 127 44
146 141 58
144 137 58
144 140 51
138 133 57
138 135 56
147 139 63
145 139 57
146 140 57
143 137 58
151 146 51
158 151 68
149 142 68
146 142 48
148 143 49
149 143 56
145 141 59
163 156 71
149 144 56
152 147 47
155 149 62
157 150 61
158 152 60
150 146 51
161 155 65
154 148 67
145 142 56
154 148 58
159 152 65
154 148 64
162 155 64
157 152 52
151 144 60
156 150 65
167 160 74
159 154 58
162 155 58
165 157 60
159 152 60
154 146 61
163 157 68
155 149 63
160 153 65
160 152 56
164 157 67
156 151 60
164 157 70
160 152 68
159 153 66
164 156 70
158 151 61
166 159 72
161 153 68
165 158 70
162 154 72
168 159 72
166 158 74
160 152 64
164 156 70
159 150 61
153 146 56
161 154 62
161 153 62
156 150 62
163 155 68
162 153 61
164 156 65
167 158 70
166 159 74
161 153 72
159 149 64
163 154 66
164 156 66
167 159 77
157 148 63
153 146 39
164 157 72
159 153 64
166 156 76
164 155 78
159 152 65
167 155 70
164 154 73
157 148 68
157 152 58
167 157 79
168 160 81
163 154 67
159 150 57
171 162 74
162 152 72
157 148 67
164 154 71
164 156 65
165 157 72
168 158 68
154 145 64
165 155 77
161 151 54
162 152 68
166 154 72
157 148 59
156 146 62
155 145 58
158 149 64
159 147 59
162 153 72
163 153 67
157 146 57
161 152 74
172 196 0
175 198 0
174 197 0
174 198 0
175 198 0
174 198 0
173 197 0
175 198 0
175 198 0
172 196 0
173 197 0
175 198 0
176 199 0
173 197 0
173 197 0
175 198 0
174 197 0
173 197 0
174 198 0
176 199 0
174 198 0
174 197 0
175 198 0
175 198 0
173 197 0
176 199 0
172 195 0
174 197 0
174 198 0
172 196 0
174 198 0
173 197 0
175 198 0
175 198 0
174 198 0
170 194 0
173 196 0
173 197 0
174 197 0
174 197 0
176 198 0
175 198 0
174 197 0
171 196 0
177 199 0
173 197 0
171 195 0
173 197 0
174 197 0
174 197 0
173 196 0
174 197 0
175 198 0
175 198 0
174 198 0
171 196 0
172 196 0
173 197 0
174 198 0
176 199 0
175 198 0
173 197 0
172 197 0
173 197 0
175 198 0
174 197 0
173 197 0
171 195 0
172 196 0
171 195 0
174 198 0
172 196 0
172 196 0
175 198 0
173 197 0
175 198 0
172 195 0
174 198 0
170 194 0
173 196 0
171 196 0
171 195 0
173 197 0
174 198 0
170 194 0
172 195 0
175 198 0
173 197 0
172 195 0
176 198 0
170 194 0
166 190 0
173 197 0
172 196 0
173 197 0
172 195 0
169 194 0
169 193 0
173 197 0
173 195 0
172 196 0
172 195 0
170 194 0
171 195 0
166 191 0
166 190 0
174 197 0
169 193 0
172 195 0
170 193 0
173 196 0
167 192 0
171 194 0
166 189 0
166 190 0
167 191 0
172 196 0
171 194 0
165 190 0
166 189 0
162 185 0
167 191 0
163 187 0
162 186 0
161 184 0
147 169 0
152 175 0
156 180 0
146 169 0
136 156 0
85 108 57
53 84 72
57 90 99
56 88 95
53 85 80
52 84 92
53 85 76
53 85 62
69 97 80
123 146 44
156 178 0
157 181 0
160 183 0
169 192 0
168 192 0
175 198 0
173 196 0
174 197 0
176 199 0
174 197 0
173 197 0
150 173 62
55 88 95
56 90 80
55 88 108
58 92 114
58 91 125
55 88 92
54 86 102
56 89 111
58 92 125
56 89 102
58 92 125
56 90 108
59 93 125
59 94 120
58 92 128
58 92 120
59 93 122
56 89 108
60 94 122
56 89 92
58 91 130
57 90 120
58 91 120
58 93 125
58 92 102
57 90 122
54 87 95
60 95 128
58 91 133
56 89 99
59 93 140
58 92 120
57 90 117
58 92 99
56 89 105
59 94 125
57 90 120
58 92 122
56 88 105
59 93 125
57 90 114
57 91 105
58 93 125
60 93 125
58 93 122
58 92 117
58 91 117
59 93 122
53 84 95
57 91 114
58 92 120
59 92 122
58 92 114
57 91 114
57 91 114
58 91 120
59 93 122
57 90 117
59 93 117
59 94 120
59 93 125
56 89 115
58 92 128
60 92 134
58 92 120
58 90 111
55 87 114
57 90 117
55 87 92
60 94 135
58 91 108
58 91 125
54 85 112
55 87 95
56 89 114
58 91 114
59 93 125
54 84 107
56 88 120
60 94 131
56 88 114
54 84 102
55 85 109
53 83 100
55 85 99
56 88 107
53 81 105
53 83 87
51 78 87
54 84 110
51 80 92
53 83 105
52 79 89
50 75 82
50 78 90
49 73 81
143 165 52
172 195 0
171 195 0
170 194 0
172 195 0
174 197 0
164 175 41
117 105 29
120 105 37
113 99 27
99 92 20
98 88 21
84 80 12
87 79 25
82 79 17
81 74 15
70 67 12
91 84 9
88 82 19
97 89 13
100 94 23
98 93 30
87 85 35
105 101 25
107 99 35
101 96 23
94 91 36
107 98 37
113 106 41
109 104 36
110 105 40
117 115 47
107 107 39
120 119 43
128 121 48
132 129 50
124 121 41
125 120 44
131 126 54
129 127 47
117 114 38
143 138 56
130 127 52
129 127 46
140 133 56
141 137 66
130 128 48
135 130 49
144 140 55
146 139 58
148 142 68
138 133 53
140 134 52
143 138 59
132 129 49
148 144 49
144 138 62
152 147 58
143 139 58
156 149 67
147 142 59
148 142 53
143 137 56
156 149 64
158 151 68
159 151 65
152 145 63
160 153 68
156 149 68
144 139 60
147 141 52
155 150 57
162 156 66
159 153 60
142 138 49
148 141 49
149 144 62
157 150 70
159 153 60
155 148 51
160 154 68
159 152 64
162 154 58
164 156 74
161 156 60
167 160 72
159 152 64
162 155 66
164 157 62
153 146 58
163 158 60
147 140 56
159 151 58
171 162 79
168 160 77
157 151 62
165 158 70
161 153 62
158 149 62
161 152 67
162 156 68
158 150 58
163 155 61
163 153 69
162 153 62
163 155 66
160 153 72
159 152 64
162 155 66
159 151 58
152 146 54
165 156 70
163 156 65
160 152 72
172 164 84
163 151 67
160 152 66
157 147 61
159 151 60
157 147 62
160 152 61
162 153 70
169 159 82
158 151 56
167 158 76
164 155 71
165 156 70
165 155 69
162 151 64
163 155 72
159 150 66
157 149 58
157 148 66
164 156 68
157 150 63
160 150 65
161 152 73
155 144 51
162 151 75
154 141 66
159 151 63
152 144 58
166 156 77
156 147 65
160 150 69
162 152 69
157 146 61
155 142 49
153 143 56
160 153 58
161 152 69
158 146 65
171 194 0
172 197 0
171 195 0
173 197 0
172 196 0
173 197 0
175 198 0
172 196 0
174 197 0
174 197 0
177 199 0
169 194 0
171 195 0
174 197 0
171 195 0
173 197 0
175 198 0
173 197 0
174 196 0
174 197 0
174 197 0
174 198 0
174 197 0
173 197 0
173 197 0
172 196 0
173 196 0
174 197 0
174 198 0
172 196 0
176 199 0
173 197 0
174 197 0
173 197 0
173 196 0
174 197 0
173 197 0
175 198 0
174 197 0
174 197 0
174 198 0
170 193 0
174 198 0
174 198 0
172 197 0
171 196 0
171 195 0
173 197 0
174 197 0
171 194 0
173 197 0
172 196 0
174 198 0
173 196 0
172 196 0
172 196 0
174 197 0
175 198 0
172 195 0
176 199 0
175 198 0
176 199 0
174 198 0
173 197 0
173 197 0
170 193 0
173 197 0
172 196 0
174 198 0
173 196 0
172 197 0
175 198 0
177 199 0
173 197 0
172 197 0
173 196 0
175 198 0
169 193 0
169 195 0
172 196 0
172 197 0
168 193 0
171 194 0
171 195 0
172 195 0
173 196 0
173 197 0
170 195 0
172 196 0
169 193 0
174 198 0
173 196 0
167 191 0
177 199 0
171 194 0
175 198 0
172 194 0
170 194 0
170 194 0
168 192 0
160 186 0
171 195 0
172 195 0
172 196 0
169 191 0
174 197 0
169 192 0
166 190 0
167 190 0
170 194 0
170 192 0
169 193 0
165 189 0
173 196 0
174 197 0
165 189 0
171 193 0
168 192 0
160 183 0
171 194 0
160 184 0
161 185 0
164 189 0
166 190 0
160 184 0
154 177 0
152 173 0
154 176 0
137 160 0
96 114 25
47 76 62
50 80 57
53 84 84
54 85 84
54 86 88
50 80 76
51 82 57
69 96 67
126 145 25
142 163 0
156 179 0
160 184 0
158 182 0
167 191 0
171 195 0
172 196 0
176 199 0
170 194 0
172 195 0
174 198 0
175 198 0
173 197 0
71 100 105
55 87 80
57 91 99
59 93 114
57 90 114
58 91 111
57 91 105
58 92 111
59 92 120
57 90 99
58 92 114
58 91 111
57 90 105
57 91 117
55 88 111
55 88 102
53 86 84
60 94 128
59 93 120
57 90 108
56 88 108
59 93 117
59 93 128
60 94 125
58 92 111
58 92 117
60 94 125
56 89 102
58 92 122
60 94 135
55 88 117
59 93 125
58 92 120
57 91 125
58 91 111
59 94 122
59 93 111
57 90 105
57 90 122
59 93 120
58 91 120
59 93 120
60 95 142
59 92 125
56 89 122
58 92 108
59 93 114
58 92 128
56 90 105
56 89 108
58 91 120
56 89 105
58 90 122
56 89 112
58 92 122
59 93 120
59 93 123
58 91 120
59 93 122
56 88 111
59 93 125
55 87 93
55 87 108
59 91 120
57 90 121
55 86 95
57 91 111
58 91 117
58 91 123
58 91 117
59 93 123
58 92 117
58 91 111
57 89 121
56 87 107
58 90 108
58 91 120
56 88 112
56 88 108
55 85 106
53 84 95
57 88 117
55 85 90
54 83 98
54 85 99
52 81 99
55 86 113
52 81 81
55 83 107
53 82 89
54 84 101
53 81 105
48 73 84
55 83 101
51 79 93
79 98 78
170 193 11
173 197 0
175 198 0
174 198 0
171 195 0
175 198 0
171 195 0
120 113 17
117 100 23
106 95 26
104 91 24
86 71 21
89 78 20
67 63 16
87 80 18
74 68 19
94 86 29
88 85 7
79 76 23
88 81 26
91 86 21
82 79 14
89 83 28
101 100 36
112 103 41
110 108 26
99 97 35
100 97 30
99 95 35
106 105 48
107 104 44
122 119 42
111 109 39
116 112 34
122 119 36
121 119 39
111 105 34
124 120 36
127 123 51
128 124 47
123 119 46
134 130 44
134 129 49
134 127 57
134 127 57
135 130 62
140 135 42
136 131 56
139 134 42
139 134 45
131 126 38
140 136 58
144 138 52
142 139 59
152 147 66
145 138 57
149 141 54
152 148 59
144 140 58
138 135 48
146 142 61
151 147 57
152 147 53
158 152 58
147 141 54
150 145 56
160 154 58
151 146 66
153 149 58
159 153 62
155 147 69
151 144 49
160 150 64
151 145 57
146 142 49
156 151 62
155 146 58
158 151 60
163 156 74
162 156 68
155 150 62
164 157 68
156 149 62
161 154 66
161 154 66
161 153 74
162 157 62
169 161 74
156 151 60
156 150 56
157 150 62
153 146 60
155 149 66
163 154 70
166 159 72
169 160 74
162 156 70
165 158 74
162 155 66
164 155 67
158 150 53
158 150 64
160 150 70
164 156 68
164 156 67
164 158 74
161 153 66
162 154 60
162 155 60
160 152 67
162 156 64
162 154 70
161 152 68
146 138 39
152 143 49
164 153 63
157 149 60
153 146 58
162 152 69
165 156 70
160 151 67
158 149 53
163 154 63
157 146 59
164 155 70
160 153 64
160 150 65
164 155 69
160 150 63
163 154 65
166 158 67
155 145 58
163 155 72
162 155 67
166 158 77
163 155 60
150 139 57
160 152 63
159 152 64
162 153 71
164 154 69
161 151 67
153 145 60
161 151 67
157 147 67
165 158 74
160 148 65
156 145 63
164 155 78
164 151 70
154 146 54
159 150 60
174 197 0
171 195 0
174 196 0
172 196 0
173 195 0
173 197 0
173 197 0
173 197 0
172 196 0
173 197 0
169 193 0
174 198 0
176 198 0
175 198 0
173 197 0
173 196 0
168 192 0
170 194 0
172 196 0
173 196 0
176 198 0
171 196 0
174 196 0
175 198 0
176 199 0
174 197 0
174 197 0
173 197 0
174 197 0
174 198 0
174 198 0
174 197 0
175 198 0
173 197 0
175 198 0
172 196 0
173 197 0
172 196 0
173 196 0
177 199 0
171 195 0
174 198 0
175 198 0
175 198 0
174 198 0
172 197 0
173 196 0
175 198 0
174 197 0
173 197 0
174 198 0
175 198 0
173 197 0
172 197 0
174 198 0
174 198 0
175 198 0
174 196 0
172 196 0
173 197 0
173 196 0
174 198 0
173 197 0
172 197 0
175 198 0
173 196 0
173 196 0
177 199 0
174 197 0
173 197 0
171 193 0
174 197 0
174 197 0
174 198 0
173 196 0
175 197 0
173 197 0
168 192 0
173 197 0
174 198 0
173 196 0
174 197 0
166 189 0
174 197 0
174 198 0
169 193 0
173 197 0
171 195 0
172 195 0
169 193 0
170 194 0
169 194 0
173 196 0
170 194 0
172 195 0
173 195 0
173 196 0
170 194 0
171 194 0
174 197 0
171 195 0
171 195 0
173 196 0
172 195 0
169 193 0
168 191 0
166 191 0
168 192 0
172 195 0
176 199 0
168 190 0
161 184 0
164 187 0
165 188 0
167 191 0
172 196 0
165 189 0
171 193 0
167 191 0
157 181 0
157 181 0
158 181 0
160 183 0
157 180 0
170 193 0
156 178 0
150 173 0
150 168 0
130 148 0
68 92 44
48 78 67
50 80 62
48 78 62
52 82 88
52 79 57
77 100 44
119 140 44
131 151 0
139 161 0
146 167 0
138 158 0
154 176 0
164 188 0
166 190 0
173 196 0
172 197 0
170 195 0
174 197 0
176 199 0
175 198 0
175 198 0
172 196 0
130 155 72
58 91 122
58 91 99
56 90 108
56 89 102
56 89 108
57 91 120
57 90 105
60 94 135
58 93 125
57 90 105
56 90 117
54 86 95
57 91 108
58 92 117
59 93 114
59 92 120
58 92 114
54 86 88
57 89 117
57 90 120
56 89 105
57 90 108
60 94 122
57 91 120
55 88 95
57 89 125
56 89 102
58 92 122
56 88 120
57 90 114
58 92 111
58 91 130
60 94 120
58 91 114
58 92 128
59 93 125
58 92 120
60 95 125
56 89 120
58 91 105
58 92 130
57 91 122
59 93 122
57 92 117
58 91 111
56 89 114
58 92 120
59 92 128
57 90 111
58 91 122
57 89 99
58 91 120
58 91 115
58 92 122
58 92 117
57 91 117
57 90 120
58 92 117
58 91 125
57 89 114
60 93 128
59 92 114
58 90 117
58 92 122
58 90 115
57 90 112
56 89 95
56 89 103
56 88 108
58 90 135
56 88 105
56 88 92
58 90 121
59 93 128
57 91 114
59 92 111
57 89 112
58 90 123
55 86 111
58 91 125
58 89 121
54 84 103
55 87 108
57 89 133
57 88 112
56 86 106
55 84 116
52 78 89
54 84 99
54 81 97
55 84 106
53 81 94
51 79 84
46 70 79
134 155 20
172 195 0
171 196 0
169 193 0
173 196 0
174 197 0
175 198 0
176 199 0
150 159 30
108 100 29
99 87 23
93 85 23
101 89 24
96 89 22
103 91 25
101 87 21
90 81 21
96 91 8
85 71 21
99 97 21
88 85 25
102 94 26
97 89 25
103 100 39
106 97 26
108 104 31
95 93 25
98 92 28
116 109 27
108 106 23
103 102 39
114 109 36
111 105 41
123 119 46
120 116 48
108 105 42
112 109 36
115 110 33
131 125 47
133 128 51
127 124 42
127 123 56
113 110 47
110 109 38
124 120 54
148 142 57
126 121 55
125 120 52
133 130 41
141 136 51
146 140 58
129 123 44
136 131 48
150 146 58
139 134 56
149 140 58
146 138 60
145 138 61
152 147 62
144 138 56
145 139 51
145 140 56
145 139 60
144 140 52
153 145 60
158 150 64
148 143 52
149 143 51
154 148 64
147 140 48
154 145 64
152 147 51
154 148 52
147 141 49
151 145 56
152 146 48
164 156 60
153 148 52
157 149 66
154 149 60
157 150 66
155 149 62
153 147 39
159 152 56
154 147 53
158 150 60
161 153 69
159 148 68
165 156 72
161 154 66
160 153 70
162 154 62
157 150 61
159 151 64
153 145 65
164 156 72
155 148 53
160 153 57
159 152 70
166 159 68
165 155 70
162 153 62
165 159 70
162 153 66
159 151 64
165 154 69
155 149 51
163 155 68
159 152 66
158 151 64
165 156 65
162 155 68
159 150 61
162 155 67
154 146 60
160 152 58
159 152 62
161 152 65
159 150 60
158 150 56
164 157 69
166 157 71
164 156 66
167 159 71
159 150 63
156 146 54
156 147 57
159 151 59
155 146 58
162 153 68
161 153 65
157 148 62
153 144 60
160 151 65
158 150 58
164 153 69
160 153 67
165 157 62
165 156 74
158 151 66
162 153 64
160 152 67
164 154 74
155 147 48
158 151 63
155 145 64
155 144 57
156 146 65
159 150 67
158 148 59
163 156 69
157 148 58
161 151 70
173 195 0
173 196 0
174 197 0
175 197 0
175 198 0
173 197 0
173 197 0
174 197 0
175 198 0
174 196 0
171 195 0
175 198 0
173 197 0
176 199 0
174 197 0
173 197 0
174 197 0
174 197 0
174 198 0
171 194 0
176 199 0
175 198 0
170 194 0
177 198 0
175 197 0
173 197 0
174 198 0
172 196 0
174 198 0
175 198 0
174 198 0
176 199 0
176 199 0
173 197 0
175 198 0
171 196 0
176 198 0
173 197 0
173 197 0
176 198 0
172 197 0
173 197 0
174 197 0
173 197 0
174 198 0
173 196 0
176 199 0
174 198 0
171 195 0
174 197 0
172 197 0
177 199 0
171 195 0
171 196 0
173 196 0
172 196 0
174 197 0
173 197 0
173 197 0
172 197 0
174 198 0
174 197 0
171 195 0
172 195 0
174 198 0
175 198 0
173 197 0
173 197 0
176 199 0
173 196 0
174 197 0
173 196 0
172 195 0
174 198 0
177 199 0
174 198 0
173 197 0
171 195 0
174 198 0
173 196 0
170 194 0
175 198 0
175 198 0
171 195 0
177 199 0
171 194 0
174 198 0
174 196 0
173 197 0
168 192 0
175 198 0
174 196 0
170 194 0
169 192 0
172 196 0
169 191 0
172 196 0
173 195 0
172 196 0
166 189 0
170 193 0
167 191 0
173 196 0
168 191 0
168 191 0
174 196 0
168 192 0
170 193 0
166 189 0
162 185 0
171 195 0
171 193 0
168 191 0
166 190 0
160 183 0
169 192 0
168 192 0
156 178 0
164 187 0
163 185 0
155 178 0
161 183 0
167 190 0
169 192 0
153 175 0
148 168 0
134 157 0
128 147 0
100 116 25
67 83 36
67 86 36
68 90 62
74 90 0
87 105 25
111 128 0
115 134 0
117 135 0
131 151 0
138 160 0
141 164 0
143 166 0
162 185 0
165 187 0
169 193 0
172 196 0
172 197 0
171 195 0
173 196 0
177 199 0
174 198 0
175 198 0
171 195 0
166 191 25
61 90 92
56 89 108
58 91 102
54 86 92
57 90 105
58 91 120
56 89 120
57 90 117
56 89 108
56 90 99
57 90 108
56 89 117
57 90 105
58 92 117
57 91 120
57 90 111
59 92 114
56 89 114
56 89 117
58 92 120
56 88 122
55 87 105
59 93 111
57 91 105
57 90 114
55 88 117
58 92 114
58 93 114
58 92 125
57 90 108
58 92 105
56 88 108
59 94 128
57 90 125
58 91 117
57 89 111
59 94 117
59 93 117
58 91 111
58 90 117
60 94 122
56 88 105
57 90 92
58 91 122
58 91 117
57 90 120
58 92 114
57 90 111
57 90 111
57 91 108
56 88 111
60 95 117
56 89 109
58 91 125
58 92 114
58 91 120
56 89 105
55 87 99
57 90 105
58 91 120
57 89 117
58 91 120
58 90 117
57 90 108
58 91 125
59 92 133
57 88 106
58 91 120
56 88 103
55 86 103
56 88 108
57 90 114
56 90 117
57 89 108
52 81 93
54 86 103
57 88 108
57 88 120
54 84 85
55 84 108
53 82 88
54 85 103
58 91 121
55 86 108
50 76 90
53 82 85
52 80 105
51 78 85
50 76 94
53 81 99
50 76 100
51 79 86
46 69 74
46 67 49
162 184 28
171 194 0
172 195 0
175 197 0
172 195 0
175 198 0
174 198 0
171 194 0
173 196 0
131 126 39
113 100 28
96 89 20
90 79 31
97 82 18
108 97 19
88 76 21
98 92 14
98 91 21
86 79 11
96 84 20
82 72 13
85 80 20
98 90 20
100 94 21
91 85 18
96 90 21
102 98 30
87 81 34
104 101 28
102 96 29
109 106 34
112 105 36
117 113 32
110 102 27
121 116 45
116 111 34
116 115 48
144 138 56
120 114 32
126 122 47
117 114 30
126 123 44
134 131 39
112 108 28
122 118 51
139 136 56
130 126 41
117 111 30
135 130 51
141 135 59
133 127 48
132 128 45
128 125 47
143 138 52
140 137 59
152 145 61
144 137 49
155 149 63
157 148 70
142 137 48
142 136 52
146 140 44
137 130 40
138 133 34
147 141 45
155 147 61
148 141 58
145 139 53
158 151 61
155 149 62
151 146 60
157 152 60
154 148 53
156 149 59
149 142 53
146 139 48
151 144 51
159 152 56
159 151 64
155 149 60
160 152 62
161 152 62
160 152 64
157 152 54
151 145 48
160 152 62
160 153 58
156 149 54
161 155 60
161 153 66
163 155 61
147 140 51
158 151 54
164 156 70
158 151 53
155 147 58
157 150 60
154 147 57
155 150 56
157 150 60
156 147 51
161 152 60
159 150 61
159 151 56
156 148 65
167 158 76
161 152 64
160 154 51
160 153 58
158 149 58
163 155 65
163 154 65
158 151 49
156 146 62
165 155 69
158 150 60
156 152 56
155 147 51
162 154 72
158 148 60
164 156 74
165 155 77
159 149 61
162 152 68
160 151 60
158 149 63
166 156 71
154 143 52
158 150 58
163 155 63
155 145 66
155 145 66
154 144 62
164 154 70
161 151 65
161 153 67
159 149 66
157 147 61
166 157 69
156 148 57
160 152 65
155 145 59
155 147 61
156 146 54
163 155 68
159 150 61
154 142 65
157 146 68
154 147 64
158 149 61
153 143 61
158 150 69
164 154 64
174 197 0
173 196 0
173 196 0
169 193 0
170 194 0
173 197 0
173 197 0
170 194 0
174 197 0
174 198 0
171 195 0
173 197 0
172 196 0
170 194 0
174 197 0
172 196 0
175 198 0
175 198 0
176 198 0
174 198 0
174 198 0
175 198 0
173 196 0
174 197 0
173 197 0
174 198 0
173 197 0
173 197 0
174 197 0
173 197 0
175 198 0
174 198 0
173 197 0
173 197 0
173 196 0
170 194 0
174 198 0
172 197 0
172 197 0
174 197 0
173 197 0
173 197 0
177 199 0
174 198 0
175 198 0
174 197 0
172 196 0
176 198 0
173 197 0
174 198 0
174 198 0
172 195 0
175 198 0
175 198 0
173 197 0
174 198 0
175 198 0
171 195 0
173 197 0
171 194 0
173 197 0
175 198 0
175 198 0
171 194 0
172 197 0
171 195 0
174 198 0
173 197 0
172 197 0
172 196 0
173 196 0
173 196 0
174 197 0
174 197 0
172 195 0
171 196 0
174 198 0
172 196 0
175 198 0
173 196 0
170 194 0
174 198 0
174 198 0
177 199 0
171 194 0
172 195 0
171 195 0
172 195 0
175 198 0
168 192 0
173 195 0
169 193 0
167 191 0
164 187 0
176 198 0
167 189 0
169 192 0
170 193 0
174 196 0
171 194 0
173 195 0
175 197 0
167 190 0
169 191 0
169 193 0
167 190 0
175 197 0
171 194 0
171 194 0
166 189 0
168 190 0
174 195 0
163 186 0
155 178 0
158 181 0
159 182 0
163 185 0
164 187 0
155 177 0
155 177 0
156 179 0
157 181 0
161 182 0
143 165 0
151 174 0
151 172 0
139 160 0
127 146 0
71 85 0
95 108 0
100 115 0
74 89 0
90 105 0
101 116 0
102 120 0
112 131 0
127 147 0
143 164 0
156 179 0
148 170 0
153 176 0
153 177 0
167 190 0
169 194 0
174 197 0
172 197 0
167 192 0
173 197 0
172 196 0
176 198 0
172 195 0
172 196 0
174 198 0
109 133 67
57 90 111
56 89 95
58 91 111
58 91 120
60 94 128
59 93 120
55 88 111
57 90 111
56 89 105
58 92 122
56 89 102
55 87 102
58 91 120
56 89 92
55 88 99
57 90 117
58 90 122
58 92 120
58 92 120
57 90 108
59 93 102
57 91 117
58 92 120
59 93 117
56 89 105
58 91 108
56 88 105
60 94 122
57 91 117
55 88 111
58 91 111
58 92 122
58 92 102
59 92 120
57 91 117
58 91 114
58 92 122
57 91 120
56 89 111
60 94 122
55 87 88
57 91 99
59 92 115
55 88 105
59 92 120
57 91 108
58 92 133
57 89 120
59 92 120
60 93 108
58 91 122
56 88 108
58 91 125
55 87 108
57 90 114
56 89 105
58 92 125
58 92 125
59 93 117
56 88 105
57 90 125
58 90 120
57 90 120
56 87 99
55 87 106
57 89 112
56 88 114
59 93 130
55 87 108
55 88 105
57 90 114
56 89 122
54 85 106
57 88 128
57 89 111
57 89 109
58 91 120
58 90 129
55 85 106
57 88 115
55 86 97
57 87 118
55 86 115
54 84 96
52 81 72
54 84 95
50 76 88
52 80 97
54 83 101
51 80 97
54 83 91
51 77 86
111 132 59
168 192 0
169 191 0
172 195 0
174 197 0
172 195 0
170 194 0
169 191 0
170 192 0
171 193 0
154 165 29
117 99 40
97 86 36
102 94 27
110 98 24
89 81 14
93 85 13
98 87 15
98 89 13
101 92 6
93 84 24
87 83 21
100 95 14
78 73 17
97 85 20
99 95 27
82 82 28
97 94 30
103 99 23
95 94 19
78 73 21
91 89 35
109 107 31
105 99 28
111 109 38
114 109 39
106 104 28
117 114 39
120 114 32
108 106 36
114 107 32
130 125 41
117 113 36
110 108 37
130 124 44
119 113 20
131 125 49
137 130 53
133 128 46
136 131 47
123 119 37
139 132 47
137 132 41
136 132 55
129 124 44
139 134 51
144 139 51
146 140 51
133 128 39
144 138 43
137 130 38
157 152 59
157 151 51
142 138 47
149 143 51
146 140 42
152 146 51
151 144 53
154 148 63
151 144 58
153 146 59
154 146 59
153 147 51
149 145 57
155 148 56
150 143 53
155 149 58
153 147 49
157 149 60
158 151 56
155 149 60
152 144 54
157 149 42
156 148 60
160 152 67
155 148 62
155 149 57
156 150 51
155 149 51
155 149 53
166 158 75
161 152 60
156 148 53
157 148 62
164 156 72
155 147 66
157 151 60
165 157 68
161 153 68
155 149 54
157 149 58
162 154 76
156 148 56
158 150 60
161 153 60
164 155 64
160 153 60
164 156 68
159 149 58
167 159 68
158 149 63
155 151 53
159 151 54
162 153 68
160 153 60
160 153 51
159 150 60
155 147 58
162 154 68
161 149 67
160 152 60
150 139 57
159 151 56
157 149 62
163 153 75
156 145 62
152 144 51
159 150 61
167 157 76
159 149 67
161 151 64
155 145 53
159 149 58
161 153 65
159 149 59
154 147 58
160 150 70
162 154 65
159 149 71
168 160 79
155 146 61
158 145 63
160 152 69
160 150 66
151 142 49
165 158 72
159 147 65
164 154 70
159 150 70
166 154 71
159 149 70
162 151 67
149 137 52
162 153 67
173 197 0
172 196 0
174 197 0
173 197 0
172 196 0
172 196 0
174 197 0
172 195 0
175 198 0
173 197 0
175 198 0
171 195 0
174 198 0
175 198 0
172 196 0
174 197 0
174 196 0
171 195 0
175 198 0
172 197 0
174 197 0
173 197 0
172 196 0
175 198 0
173 197 0
173 197 0
176 199 0
176 198 0
172 197 0
176 199 0
174 197 0
172 195 0
174 197 0
175 198 0
173 197 0
173 196 0
174 197 0
172 196 0
176 199 0
174 198 0
174 197 0
171 195 0
173 197 0
174 197 0
174 197 0
175 198 0
174 197 0
172 197 0
175 198 0
173 197 0
169 193 0
174 197 0
175 198 0
173 196 0
174 197 0
173 197 0
174 197 0
176 199 0
176 199 0
173 197 0
170 194 0
173 197 0
172 196 0
173 197 0
169 193 0
173 197 0
175 198 0
170 193 0
167 193 0
171 195 0
175 197 0
169 192 0
173 196 0
171 195 0
169 194 0
175 198 0
175 198 0
170 194 0
174 196 0
172 196 0
174 197 0
174 196 0
169 193 0
172 195 0
173 196 0
169 193 0
173 195 0
175 198 0
174 197 0
171 194 0
175 198 0
176 198 0
172 195 0
161 184 0
170 193 0
169 191 0
171 194 0
174 196 0
169 192 0
171 193 0
171 195 0
168 190 0
170 193 0
171 192 0
169 191 0
168 190 0
171 192 0
167 190 0
169 191 0
170 192 0
168 189 0
173 195 0
169 191 0
161 184 0
159 180 0
166 188 0
158 179 0
162 184 0
159 183 0
154 176 0
163 186 0
161 184 0
145 168 0
149 172 0
140 163 0
118 138 0
122 140 0
104 120 0
101 115 0
111 128 0
112 128 0
101 116 0
113 131 0
93 109 0
116 135 0
126 145 0
127 147 0
149 171 0
147 169 0
158 180 0
150 173 0
159 182 0
174 198 0
174 198 0
174 197 0
175 198 0
173 196 0
171 196 0
173 197 0
174 198 0
176 198 0
170 193 0
172 196 0
159 184 44
62 94 102
56 89 95
55 87 95
58 92 117
52 83 80
56 88 108
57 90 120
56 89 114
58 91 114
56 88 102
57 90 111
56 88 114
59 93 130
56 89 102
57 90 122
57 90 105
58 91 120
57 90 108
57 90 105
59 93 125
58 92 128
55 88 95
58 92 117
57 89 111
58 92 108
56 88 108
57 90 111
56 90 105
57 91 105
61 95 135
57 90 105
56 89 99
57 90 108
56 89 111
58 91 120
55 87 102
57 90 114
59 93 120
59 92 114
55 87 114
60 94 125
53 84 92
57 90 117
58 92 120
56 89 114
56 89 105
56 89 99
56 88 102
57 90 125
53 84 95
58 92 120
59 93 114
57 90 108
55 87 95
58 91 120
56 89 109
57 91 99
58 93 128
57 89 114
56 87 112
58 91 122
55 86 99
59 93 125
55 87 112
56 89 102
55 86 111
56 87 99
56 89 117
57 91 111
57 89 108
57 89 100
58 91 114
54 84 92
53 84 105
56 87 117
55 85 110
57 88 112
56 87 106
55 87 111
54 84 97
55 85 102
53 82 92
53 82 95
54 84 93
55 85 94
54 83 100
51 78 97
48 74 76
51 79 90
51 79 90
51 78 89
50 77 75
149 171 44
163 186 0
176 198 0
174 197 0
172 194 0
169 192 0
169 191 0
169 193 0
175 197 0
169 192 0
173 197 0
140 137 25
107 90 28
114 101 35
105 98 33
88 81 26
104 90 17
105 91 18
89 79 21
108 97 20
99 90 15
85 82 17
96 89 12
87 82 18
90 86 32
103 98 26
97 92 21
101 94 22
104 98 33
100 95 22
117 113 33
99 93 29
113 108 34
118 112 38
100 95 32
112 107 30
121 116 41
121 116 44
114 108 39
115 112 35
123 118 43
123 118 41
117 114 43
134 130 38
125 122 39
135 131 48
126 119 29
130 124 36
131 126 44
127 124 37
132 126 56
147 140 48
121 117 36
140 136 48
137 132 47
134 129 47
142 136 42
146 141 53
147 141 57
135 128 39
145 139 58
145 141 51
143 139 51
150 144 56
142 134 45
138 135 36
144 137 56
133 130 44
156 149 68
146 141 49
149 142 48
152 146 47
146 139 58
154 147 62
156 150 48
156 150 60
158 151 60
151 145 51
151 143 56
152 146 54
154 147 53
160 150 60
160 154 60
157 149 60
156 149 56
158 151 62
153 144 60
153 148 57
151 145 51
155 149 42
162 155 68
158 152 57
160 153 58
163 156 64
162 151 64
156 147 54
158 148 56
158 151 60
152 143 51
161 153 62
161 153 62
163 156 62
157 150 62
154 146 53
159 151 62
163 156 61
162 153 67
155 146 50
157 150 58
154 146 53
162 154 67
161 155 61
162 154 66
157 150 53
157 150 62
164 156 70
155 147 54
156 150 58
157 148 64
170 162 79
153 144 63
162 154 66
153 145 56
160 153 67
159 151 64
158 149 62
159 149 66
159 149 64
162 154 69
161 154 54
155 145 53
152 144 53
159 148 62
151 142 54
158 148 59
156 146 62
159 149 58
163 155 67
160 151 69
147 137 51
168 157 76
160 149 64
159 151 59
156 146 54
157 148 63
152 143 61
160 150 62
154 148 54
157 149 58
157 145 54
159 149 67
166 156 80
156 148 59
161 148 64
174 197 0
174 198 0
174 198 0
172 195 0
175 198 0
171 195 0
173 197 0
172 195 0
175 198 0
173 197 0
172 197 0
167 192 0
167 192 0
172 197 0
176 199 0
172 196 0
174 197 0
171 195 0
172 196 0
175 197 0
174 198 0
172 196 0
172 194 0
174 197 0
174 197 0
174 197 0
173 197 0
174 198 0
175 198 0
173 197 0
170 194 0
173 196 0
173 196 0
176 198 0
175 198 0
174 197 0
173 196 0
173 197 0
175 198 0
172 195 0
172 197 0
173 197 0
176 198 0
173 197 0
171 196 0
177 199 0
172 195 0
171 194 0
173 197 0
174 198 0
177 199 0
170 194 0
173 197 0
173 197 0
175 198 0
173 196 0
174 198 0
171 194 0
171 195 0
175 197 0
172 195 0
177 199 0
173 197 0
172 196 0
174 197 0
174 197 0
175 198 0
174 198 0
173 197 0
174 198 0
171 195 0
173 196 0
169 192 0
171 196 0
171 195 0
171 194 0
174 196 0
172 195 0
177 199 0
174 196 0
172 193 0
173 195 0
177 199 0
172 195 0
177 198 0
170 193 0
173 195 0
173 196 0
171 193 0
171 194 0
169 192 0
172 194 0
171 194 0
167 191 0
170 193 0
166 188 0
170 194 0
176 198 0
173 197 0
169 191 0
167 189 0
172 194 0
167 189 0
169 191 0
163 185 0
162 184 0
170 193 0
172 193 0
173 196 0
170 191 0
175 197 0
170 192 0
159 181 0
164 185 0
167 190 0
149 170 0
155 175 0
156 179 0
153 175 0
160 182 0
155 178 0
155 177 0
153 174 0
152 173 0
136 156 0
121 141 0
122 140 0
109 128 0
114 132 0
89 106 0
114 130 0
110 128 0
122 140 0
135 155 0
126 145 0
135 155 0
137 158 0
153 176 0
145 167 0
150 172 0
161 184 0
163 186 0
174 197 0
172 196 0
174 198 0
170 195 0
171 193 0
172 195 0
169 194 0
172 195 0
172 197 0
172 194 0
169 192 0
174 196 0
103 128 76
55 88 80
56 89 95
54 86 95
57 89 105
57 90 111
54 86 102
54 86 88
55 88 95
56 88 102
57 91 102
56 90 102
54 86 111
57 91 111
55 88 108
59 92 114
55 88 102
57 90 105
56 89 105
57 91 122
58 91 114
56 89 114
59 92 122
58 91 114
58 91 122
58 91 122
56 90 111
58 91 105
60 94 125
58 91 111
57 90 117
55 88 105
59 92 117
60 94 122
57 90 108
60 94 125
54 86 99
56 89 95
57 90 122
57 91 108
58 91 111
57 91 108
57 90 105
57 89 117
60 94 144
57 90 111
57 91 108
56 88 102
57 91 111
56 88 111
57 90 117
57 90 111
59 93 125
57 91 108
60 95 125
53 84 88
58 91 122
58 91 117
56 88 99
55 85 95
56 89 102
58 91 105
56 89 117
54 86 99
56 88 109
57 90 111
57 90 120
58 91 111
55 86 106
56 88 103
57 90 117
58 90 109
56 89 109
57 90 120
57 89 112
53 83 80
54 84 99
57 89 131
53 82 114
57 88 94
52 82 81
56 87 103
52 79 100
52 82 80
50 77 78
53 80 83
54 82 70
49 76 73
51 78 81
51 77 90
47 71 66
115 136 52
169 192 0
172 195 0
172 195 0
171 193 0
171 192 0
172 195 0
168 191 0
167 191 0
170 192 0
172 194 0
174 196 0
157 171 10
123 112 34
109 97 24
100 89 28
95 87 12
99 90 23
103 92 16
84 75 8
97 92 4
99 91 12
100 91 18
94 88 20
91 86 14
96 90 20
99 93 20
94 90 0
105 98 21
89 85 30
104 101 16
105 97 11
115 107 35
116 108 29
117 114 30
127 123 47
111 103 34
101 96 37
104 101 34
121 115 28
126 121 47
123 119 41
122 116 41
129 124 34
125 120 37
125 119 32
110 105 32
125 120 34
132 128 34
125 121 37
139 128 45
146 139 53
128 124 48
145 137 50
140 135 51
137 132 37
135 130 52
139 134 47
142 136 47
136 131 41
144 139 48
143 138 44
142 137 44
140 133 56
144 136 53
151 146 45
149 144 57
143 136 52
140 133 53
151 143 59
147 140 56
148 142 49
152 146 56
155 148 51
158 152 53
153 147 53
155 150 58
162 155 60
153 147 42
154 149 58
158 151 66
149 143 51
154 147 58
154 148 55
156 147 59
163 153 64
161 154 58
159 154 58
149 142 45
153 147 48
158 151 58
154 147 60
148 142 48
158 150 66
153 146 51
162 155 56
158 151 60
157 149 62
154 147 53
154 146 57
156 148 60
160 151 67
160 152 62
158 150 63
162 154 66
151 143 58
161 153 61
163 155 65
159 151 63
159 151 53
153 146 58
156 148 58
162 152 64
155 146 62
153 143 54
162 154 63
153 142 54
155 148 66
151 146 45
163 156 67
168 160 72
162 151 65
157 149 56
162 154 67
165 158 69
163 155 61
162 155 69
155 147 53
161 152 67
155 144 56
158 146 61
160 152 66
165 154 71
154 145 46
155 148 45
163 152 65
168 159 76
160 153 74
158 149 57
161 152 57
163 151 69
151 141 54
165 155 73
165 155 69
155 145 53
150 140 58
167 157 72
155 146 68
160 148 68
156 145 57
161 150 61
157 150 65
157 146 63
160 149 66
160 150 63
174 198 0
173 196 0
173 196 0
172 197 0
171 195 0
175 198 0
174 198 0
171 195 0
173 197 0
175 197 0
175 198 0
175 197 0
174 197 0
170 193 0
173 197 0
172 196 0
173 197 0
174 196 0
172 196 0
172 196 0
174 197 0
173 197 0
176 199 0
175 198 0
173 197 0
171 195 0
174 197 0
173 196 0
175 198 0
174 197 0
174 197 0
169 194 0
176 198 0
171 196 0
173 196 0
174 198 0
170 194 0
173 196 0
173 197 0
176 198 0
165 189 0
175 197 0
175 198 0
173 197 0
176 198 0
171 195 0
171 195 0
172 195 0
175 197 0
174 197 0
171 195 0
172 194 0
173 196 0
170 194 0
175 197 0
176 199 0
171 194 0
170 194 0
172 195 0
175 198 0
173 196 0
172 195 0
172 196 0
172 195 0
174 197 0
173 197 0
170 194 0
172 195 0
176 198 0
172 195 0
173 197 0
171 194 0
171 193 0
173 196 0
174 197 0
172 195 0
171 194 0
174 196 0
173 197 0
174 196 0
169 192 0
175 197 0
175 198 0
171 193 0
174 195 0
174 197 0
177 199 0
172 193 0
174 196 0
174 195 0
174 196 0
170 194 0
172 194 0
175 197 0
169 190 0
174 196 0
173 194 0
177 198 0
174 196 0
171 193 0
171 193 0
167 189 0
167 188 0
171 192 0
171 193 0
164 186 0
170 191 0
169 189 0
161 182 0
165 186 0
165 186 0
162 183 0
167 189 0
166 188 0
161 183 0
164 185 0
162 184 0
156 177 0
161 181 0
146 167 0
139 160 0
144 165 0
143 164 0
151 172 0
148 169 0
119 136 0
130 149 0
112 131 0
103 122 0
113 131 0
116 136 0
109 129 0
112 130 0
95 115 0
128 148 0
131 151 0
136 158 0
147 170 0
148 170 0
163 186 0
160 183 0
173 196 0
170 195 0
171 194 0
172 196 0
175 198 0
175 198 0
171 193 0
171 194 0
174 197 0
168 191 0
174 196 0
172 197 0
168 192 0
155 179 0
52 83 80
58 92 108
57 90 111
56 89 102
56 89 108
59 92 105
55 87 99
53 85 84
57 89 102
56 88 88
56 89 102
57 91 108
56 89 102
56 89 102
59 93 122
57 90 88
59 92 120
59 93 114
57 90 108
56 90 125
60 94 130
59 92 122
58 92 117
58 91 114
60 94 128
59 93 117
59 92 111
56 89 99
57 90 102
53 85 102
56 89 108
59 92 122
55 87 108
52 82 80
57 89 114
58 92 114
58 92 108
54 86 108
59 91 125
60 94 130
56 88 102
57 90 111
57 91 114
57 90 102
58 92 128
55 87 102
56 89 105
58 91 117
58 92 111
58 92 114
56 90 108
58 91 108
55 86 95
59 93 125
56 89 105
55 87 93
59 92 135
58 92 102
57 90 120
58 92 120
57 91 130
57 90 99
57 90 112
59 93 117
56 88 103
52 82 88
55 86 99
57 89 115
55 85 105
55 87 95
55 87 115
55 87 93
58 92 117
53 84 99
55 86 109
58 90 112
55 87 111
56 87 120
54 85 103
52 80 96
55 85 106
51 80 99
55 85 114
54 84 98
56 87 103
51 78 85
53 83 93
49 74 81
52 78 84
60 83 73
156 180 36
165 187 0
168 191 0
170 192 0
172 195 0
169 191 0
169 192 0
167 188 0
169 192 0
172 196 0
174 196 0
162 183 0
166 189 0
137 141 25
119 101 33
106 93 17
106 96 18
96 88 18
105 87 21
98 82 23
93 86 28
100 93 22
98 89 12
87 78 19
103 92 25
105 95 5
117 108 17
110 101 24
94 86 18
94 89 34
98 95 18
103 99 23
106 100 5
96 91 22
112 110 28
99 98 38
117 111 29
120 114 32
108 102 12
107 103 26
123 118 33
127 121 34
109 107 29
134 124 52
123 120 34
126 122 34
128 126 36
138 131 47
138 132 48
141 135 54
129 125 40
122 120 30
131 121 28
143 136 44
134 129 36
142 135 56
143 136 36
141 137 45
137 131 53
151 145 45
152 145 44
149 143 53
149 142 45
138 132 42
138 133 41
150 145 42
153 144 62
141 137 41
143 138 41
146 140 48
153 147 54
151 144 51
156 150 53
154 148 56
152 146 51
142 137 36
151 146 57
152 144 60
150 143 48
151 142 51
158 151 65
156 150 53
152 145 56
156 146 51
151 145 56
156 149 54
157 149 60
158 150 56
152 147 42
155 145 54
160 152 56
158 148 64
154 147 51
159 151 58
159 150 58
159 151 52
157 152 58
155 147 56
158 150 56
158 151 62
158 152 64
162 154 66
154 147 45
163 153 65
157 148 48
157 150 42
155 146 56
160 151 56
153 142 65
163 155 60
155 150 48
157 149 58
160 152 63
154 145 61
155 148 54
160 151 63
156 151 51
154 145 56
158 150 64
152 144 45
159 150 56
162 154 62
157 148 63
158 150 56
160 148 58
164 156 69
167 158 70
156 150 54
155 147 56
158 149 57
166 157 71
160 152 61
157 147 66
156 148 56
152 144 61
152 142 48
163 153 67
158 148 62
156 148 58
152 145 42
155 145 58
157 147 47
157 148 67
158 150 65
158 149 59
156 146 47
162 152 71
162 153 64
159 148 65
160 149 68
159 152 67
161 151 67
156 145 51
151 142 52
164 155 65
174 197 0
172 196 0
175 198 0
173 197 0
173 195 0
174 197 0
175 198 0
173 196 0
169 193 0
171 195 0
175 198 0
174 197 0
170 194 0
174 198 0
176 199 0
174 196 0
175 198 0
175 198 0
171 196 0
174 197 0
173 196 0
176 198 0
173 197 0
174 197 0
175 198 0
176 199 0
173 197 0
173 197 0
174 197 0
174 196 0
174 197 0
173 197 0
174 197 0
174 198 0
175 198 0
172 196 0
175 198 0
171 195 0
175 198 0
172 196 0
174 197 0
173 197 0
175 198 0
172 196 0
176 198 0
175 198 0
174 198 0
173 195 0
172 196 0
172 196 0
175 198 0
175 198 0
176 198 0
171 195 0
171 195 0
174 197 0
174 197 0
173 196 0
174 197 0
174 197 0
173 195 0
172 195 0
174 197 0
173 195 0
177 198 0
171 195 0
174 198 0
172 195 0
172 195 0
176 199 0
168 191 0
174 198 0
174 198 0
177 199 0
175 197 0
174 197 0
174 197 0
177 199 0
172 194 0
173 196 0
174 195 0
173 196 0
170 193 0
175 197 0
171 194 0
173 195 0
176 198 0
177 199 0
174 196 0
173 194 0
173 195 0
171 193 0
169 190 0
172 193 0
175 198 0
171 193 0
168 190 0
170 191 0
175 196 0
181 201 0
174 196 0
174 195 0
169 190 0
164 184 0
164 184 0
160 180 0
166 186 0
166 187 0
170 191 0
171 193 0
159 180 0
164 184 0
157 177 0
158 179 0
159 180 0
161 181 0
154 175 0
155 176 0
130 151 0
143 163 0
154 174 0
148 170 0
154 174 0
142 162 0
122 141 0
132 151 0
138 156 0
117 137 0
138 156 0
129 146 0
117 136 0
137 155 0
131 151 0
138 159 0
135 156 0
137 158 0
131 153 0
157 180 0
160 185 0
158 182 0
161 184 0
174 198 0
170 194 0
170 193 0
171 195 0
173 197 0
168 192 0
171 194 0
173 196 0
171 194 0
175 198 0
168 193 0
166 189 0
172 195 0
175 198 0
125 148 57
53 85 99
53 83 76
56 89 92
55 87 95
56 88 99
53 85 80
55 88 99
57 90 105
59 93 122
57 90 105
56 88 102
57 89 120
57 90 111
58 91 120
56 89 111
54 85 117
55 87 95
57 90 95
58 91 114
59 93 135
55 87 114
58 91 111
58 91 102
57 91 102
58 91 125
59 93 128
58 92 108
58 91 122
57 90 114
55 88 88
57 90 120
56 88 99
55 88 108
55 88 95
55 87 84
57 90 102
57 91 108
54 86 108
57 91 99
58 92 122
57 90 111
56 89 99
55 88 108
60 93 133
56 90 99
56 87 105
56 88 111
57 91 99
57 90 102
58 92 117
57 91 114
56 89 117
57 89 117
54 87 99
60 93 130
56 88 102
57 89 115
56 87 114
55 87 114
54 86 95
55 85 102
57 89 120
51 83 92
55 87 112
58 91 125
54 86 85
55 87 107
53 83 93
53 83 102
54 84 114
55 86 92
55 85 99
57 90 106
55 85 106
55 87 104
54 83 103
53 82 93
53 82 87
53 83 88
50 78 84
52 80 93
51 78 81
56 86 90
53 83 77
49 75 80
48 75 69
45 67 61
47 70 69
124 144 45
164 189 0
166 188 0
171 191 0
166 190 0
170 192 0
170 193 0
168 192 0
171 192 0
172 194 0
169 191 0
170 190 0
169 192 0
170 191 0
173 197 16
124 115 36
108 96 33
102 96 22
96 86 17
106 90 25
92 84 22
93 87 16
95 89 17
98 89 13
85 81 14
93 85 7
90 86 26
93 88 12
100 94 20
93 88 24
111 106 23
93 90 25
111 103 20
94 91 24
116 109 25
121 117 40
115 110 24
111 107 25
106 100 28
115 109 32
104 100 23
115 109 36
114 108 32
128 122 38
109 104 34
118 116 25
121 113 28
129 124 41
135 129 36
130 122 34
106 105 30
125 120 41
132 125 37
125 122 25
133 128 38
136 130 42
129 122 30
133 126 44
137 132 44
139 132 45
146 140 39
137 130 48
145 138 52
152 145 56
138 134 30
146 137 59
143 139 40
146 140 48
136 132 41
147 140 47
148 141 48
145 139 45
155 146 58
146 141 50
145 140 36
148 143 53
149 143 53
153 146 56
146 141 42
153 146 53
155 148 51
154 146 64
153 146 56
155 146 58
151 145 51
155 150 42
152 145 53
162 157 53
158 151 60
155 147 51
154 147 53
159 151 62
152 145 58
160 152 62
163 154 64
154 147 51
166 157 76
148 141 45
153 144 53
161 154 60
158 148 62
156 147 64
152 145 46
150 143 45
148 139 51
155 147 54
156 148 51
154 145 53
158 148 64
157 150 62
154 145 56
161 152 58
163 156 65
159 151 58
160 151 58
155 144 56
159 152 63
159 149 62
152 143 43
158 150 51
158 148 56
154 147 54
153 145 47
158 150 58
156 147 62
162 152 57
160 151 64
159 149 61
158 149 58
153 142 47
155 145 61
152 143 54
158 148 60
157 148 61
157 148 56
164 154 74
159 149 56
159 148 58
156 147 58
152 142 54
160 151 61
164 157 63
155 146 61
153 141 51
163 154 68
169 156 74
162 152 64
152 144 46
156 149 61
153 143 65
162 152 63
155 145 60
158 147 64
152 143 49
156 145 52
152 142 61
174 197 0
171 194 0
171 195 0
176 199 0
172 196 0
173 196 0
171 194 0
173 196 0
171 194 0
175 198 0
174 197 0
175 198 0
170 195 0
174 196 0
172 196 0
176 199 0
173 197 0
172 196 0
174 197 0
172 196 0
173 196 0
173 195 0
171 196 0
174 198 0
173 197 0
169 193 0
172 196 0
176 198 0
174 198 0
172 196 0
173 197 0
173 196 0
170 194 0
173 196 0
169 194 0
172 195 0
174 197 0
172 197 0
174 198 0
173 196 0
173 197 0
172 196 0
174 198 0
173 196 0
172 196 0
171 194 0
172 195 0
170 193 0
173 196 0
174 198 0
171 195 0
171 195 0
176 199 0
175 197 0
175 198 0
170 193 0
174 198 0
173 196 0
176 198 0
176 198 0
174 197 0
174 197 0
171 195 0
173 196 0
173 195 0
178 199 0
175 197 0
174 197 0
173 196 0
177 198 0
174 197 0
172 194 0
176 197 0
179 200 0
171 194 0
176 198 0
171 194 0
177 199 0
176 198 0
174 196 0
171 193 0
170 191 0
171 193 0
168 191 0
177 198 0
173 195 0
168 190 0
173 195 0
174 195 0
173 194 0
167 188 0
175 196 0
166 188 0
175 196 0
176 198 0
174 196 0
176 198 0
171 191 0
173 193 0
172 194 0
172 192 0
167 188 0
171 192 0
166 187 0
171 191 0
173 193 0
165 185 0
167 187 0
172 194 0
173 195 0
165 185 0
166 187 0
161 182 0
157 178 0
155 176 0
160 180 0
159 180 0
159 179 0
151 172 0
152 172 0
157 178 0
140 160 0
122 142 0
128 147 0
134 152 0
121 139 0
115 135 0
133 152 0
115 133 0
124 143 0
123 144 0
134 154 0
137 156 0
135 156 0
131 152 0
143 164 0
140 160 0
160 182 0
144 166 0
166 189 0
171 196 0
175 198 0
164 188 0
174 197 0
169 193 0
164 188 0
169 193 0
170 194 0
168 192 0
171 195 0
173 196 0
176 198 0
172 195 0
175 198 0
167 190 0
167 190 25
77 102 80
54 86 80
51 81 72
54 85 95
54 86 80
56 89 102
58 93 120
58 91 114
55 88 102
56 88 114
52 82 84
57 90 114
55 87 99
57 90 111
56 89 111
55 88 120
58 91 117
57 90 114
56 88 108
58 91 122
55 88 92
56 89 99
55 88 99
58 91 105
56 89 114
55 87 105
55 87 114
55 87 99
56 88 102
55 86 108
57 90 120
59 93 114
57 91 114
57 91 102
57 90 122
58 92 102
57 90 117
59 92 133
56 88 120
57 90 114
53 85 95
59 92 122
58 90 120
59 93 125
56 89 105
55 87 105
53 84 92
57 91 114
56 88 105
56 89 105
60 93 140
58 91 117
58 91 117
52 83 92
58 91 111
57 90 114
56 88 105
59 92 133
58 91 109
57 89 125
56 88 102
55 88 92
55 86 106
54 85 86
58 91 111
53 85 88
56 88 117
56 88 106
58 91 102
55 87 115
56 87 109
56 88 102
52 82 93
54 85 99
54 84 106
55 85 103
53 83 103
54 83 97
54 82 97
51 79 74
49 77 96
52 81 84
51 78 85
51 78 94
52 79 81
49 75 54
46 70 68
74 91 52
166 187 25
165 187 0
173 196 0
165 187 0
168 192 0
170 192 0
168 189 0
164 185 0
162 186 0
161 183 0
168 190 0
171 192 0
163 185 0
169 192 0
172 191 0
161 180 7
121 107 27
105 89 26
110 96 17
106 97 23
101 86 28
113 100 23
100 88 12
99 85 4
98 88 18
90 79 14
95 84 20
88 82 11
110 101 24
103 97 23
102 92 20
104 95 26
105 100 21
95 92 16
116 111 37
107 99 18
108 103 21
115 109 30
109 104 19
115 111 29
119 110 49
116 112 36
126 123 30
109 104 36
132 126 36
126 119 39
115 107 30
122 117 44
127 123 31
127 120 33
133 127 39
135 128 44
139 132 32
138 130 37
136 131 39
124 119 37
133 130 34
143 137 45
136 125 28
127 121 45
137 130 28
137 132 47
139 134 51
142 135 42
144 139 52
149 142 45
140 135 42
149 142 56
147 141 56
147 141 32
143 137 45
140 134 42
146 141 52
148 140 48
142 137 45
151 142 48
157 149 58
157 149 56
143 137 39
149 143 43
154 148 56
159 151 48
146 138 41
148 138 48
145 138 47
152 145 51
149 143 45
155 145 63
154 149 53
153 145 54
139 133 45
153 148 48
156 147 56
149 143 49
152 146 48
161 152 58
147 139 43
154 146 53
152 144 46
159 151 64
153 146 48
154 147 51
155 147 56
154 146 56
158 151 56
154 146 48
159 151 58
153 143 52
152 144 58
152 144 59
151 146 43
160 150 56
161 151 64
160 150 60
157 149 51
153 143 53
156 148 51
156 145 56
155 146 59
162 152 62
169 160 77
158 148 51
162 149 65
159 150 64
157 151 56
158 150 62
165 155 70
157 146 64
153 142 62
155 147 56
153 143 49
158 149 61
158 147 61
160 151 56
158 149 58
160 153 65
158 147 65
160 151 59
163 154 60
154 147 58
153 140 52
163 154 62
155 144 52
155 144 61
157 147 62
161 151 60
156 145 51
162 154 62
165 153 73
155 144 56
157 145 61
155 142 64
155 142 59
153 141 56
159 149 63
156 147 59
171 195 0
171 195 0
173 197 0
173 197 0
175 196 0
174 197 0
173 197 0
172 195 0
172 196 0
174 198 0
173 197 0
172 195 0
170 195 0
173 196 0
175 197 0
174 198 0
171 194 0
172 195 0
169 192 0
175 198 0
174 197 0
175 198 0
173 197 0
175 198 0
169 193 0
173 196 0
173 197 0
171 195 0
176 199 0
175 198 0
174 197 0
171 196 0
171 195 0
175 197 0
176 198 0
176 199 0
172 194 0
175 198 0
172 196 0
171 194 0
174 196 0
174 197 0
172 195 0
174 197 0
172 195 0
174 196 0
177 199 0
172 195 0
171 194 0
172 195 0
172 196 0
174 196 0
173 196 0
174 198 0
172 195 0
172 195 0
177 199 0
172 196 0
173 196 0
172 196 0
166 190 0
175 198 0
174 196 0
176 198 0
173 196 0
180 201 0
173 195 0
173 196 0
175 197 0
175 197 0
172 193 0
176 197 0
170 192 0
176 197 0
169 190 0
173 195 0
172 193 0
174 195 0
174 195 0
175 196 0
177 199 0
174 196 0
176 197 0
175 196 0
175 197 0
174 195 0
170 192 0
175 196 0
176 197 0
171 192 0
178 198 0
173 194 0
176 196 0
169 191 0
177 197 0
171 192 0
171 191 0
177 197 0
170 190 0
167 187 0
169 188 0
170 190 0
170 191 0
172 192 0
173 193 0
171 190 0
164 185 0
170 190 0
166 186 0
161 183 0
167 187 0
159 180 0
165 184 0
162 183 0
167 187 0
150 170 0
143 163 0
148 169 0
145 165 0
148 167 0
140 161 0
139 159 0
133 154 0
140 160 0
140 161 0
123 144 0
129 147 0
126 145 0
121 140 0
129 148 0
134 153 0
132 153 0
126 144 0
137 156 0
139 161 0
140 161 0
132 155 0
148 171 0
153 175 0
165 188 0
172 196 0
167 191 0
169 192 0
170 193 0
161 185 0
169 193 0
170 195 0
171 195 0
169 193 0
173 196 0
172 194 0
169 193 0
164 188 0
161 184 0
166 191 0
163 188 0
151 174 0
52 83 84
57 89 88
53 83 80
54 87 99
56 88 95
57 90 92
54 86 95
56 88 108
55 87 92
57 90 99
56 89 92
56 89 105
55 88 111
59 92 114
53 85 102
53 85 84
58 91 108
57 89 88
55 87 95
54 87 105
56 89 92
54 86 95
57 90 114
58 91 114
55 86 95
57 89 111
55 86 84
59 92 122
55 86 111
57 90 105
56 88 108
55 87 102
60 94 130
55 87 105
57 90 120
58 90 115
57 90 108
57 90 99
55 87 108
57 90 102
54 86 95
57 90 114
53 85 95
58 91 108
58 91 125
57 91 105
57 89 111
53 85 99
57 89 114
55 88 108
57 90 114
56 89 102
56 89 93
54 86 102
52 81 89
53 83 93
56 88 105
57 88 114
56 89 115
55 87 103
54 84 95
56 88 103
55 86 120
54 85 102
53 83 88
56 88 99
56 88 114
59 91 126
56 87 106
57 90 102
55 86 111
55 85 117
53 83 102
57 88 86
54 84 106
55 84 97
54 83 107
52 81 96
55 85 111
53 81 112
52 81 77
48 75 68
51 78 78
53 81 101
51 77 87
46 67 57
149 168 36
172 195 0
165 187 0
168 190 0
169 190 0
169 189 0
163 184 0
168 191 0
163 184 0
164 184 0
169 191 0
168 190 0
173 195 0
161 184 0
168 188 0
170 189 0
173 195 0
146 149 28
108 90 26
113 96 25
99 86 16
100 89 18
95 84 18
101 89 14
105 93 22
81 75 15
97 85 5
110 100 16
94 86 11
86 80 11
98 85 3
105 97 24
111 102 22
109 106 25
109 101 27
101 91 17
104 100 23
111 107 22
107 102 28
116 108 28
109 105 25
122 118 25
121 116 30
109 103 25
117 111 17
118 110 39
115 114 21
120 116 28
130 122 34
137 132 46
133 126 28
128 124 36
113 106 14
139 131 48
128 123 40
144 138 42
126 121 34
126 121 23
140 135 36
136 129 41
136 129 39
139 130 41
141 135 46
135 126 44
128 122 28
131 123 22
141 136 54
136 129 36
134 128 37
133 127 22
153 144 49
152 145 44
148 140 64
156 151 51
142 138 42
144 139 41
151 142 45
147 141 45
155 148 56
155 148 59
146 140 42
148 142 45
145 138 48
149 141 45
144 139 34
149 140 42
157 151 58
157 150 58
149 142 45
154 148 53
153 146 51
148 142 22
151 142 46
144 137 39
159 150 64
149 141 43
156 146 56
160 152 56
144 139 42
162 153 64
163 154 64
154 146 60
164 155 60
154 147 56
159 150 62
158 146 61
157 148 61
159 149 58
151 143 58
148 140 37
155 149 48
155 146 56
154 148 53
155 148 56
153 145 58
151 143 46
156 150 58
155 143 46
152 144 49
162 153 63
156 148 54
160 149 63
161 151 65
162 154 61
158 150 60
153 144 57
153 145 48
151 140 48
152 141 49
156 146 58
163 154 69
159 148 65
159 148 57
155 146 54
149 139 44
159 147 69
157 149 52
156 143 62
154 144 56
162 150 69
159 150 58
159 146 68
149 141 46
156 147 52
153 144 54
152 139 43
154 145 56
164 154 69
150 136 49
152 144 54
148 136 52
151 143 45
155 142 61
153 142 52
149 139 46
159 145 64
159 149 65
173 196 0
174 197 0
172 196 0
173 196 0
173 197 0
172 196 0
176 198 0
171 195 0
174 197 0
171 195 0
174 198 0
172 195 0
169 192 0
171 195 0
171 194 0
171 195 0
175 198 0
171 195 0
176 198 0
173 197 0
176 198 0
171 194 0
178 199 0
174 197 0
177 199 0
174 197 0
175 198 0
174 198 0
173 196 0
170 195 0
173 195 0
175 198 0
174 198 0
172 195 0
175 198 0
173 197 0
174 197 0
176 199 0
174 196 0
172 196 0
176 199 0
175 198 0
174 198 0
175 198 0
177 199 0
173 196 0
172 194 0
171 195 0
176 198 0
176 198 0
176 199 0
174 197 0
174 196 0
173 196 0
174 196 0
176 197 0
173 196 0
174 197 0
177 199 0
175 197 0
176 198 0
172 194 0
171 194 0
177 199 0
174 197 0
176 198 0
176 197 0
172 193 0
177 199 0
173 195 0
173 194 0
175 197 0
169 192 0
175 196 0
175 197 0
174 194 0
176 196 0
174 195 0
176 197 0
172 193 0
169 191 0
174 195 0
170 191 0
172 192 0
176 197 0
176 196 0
178 199 0
169 190 0
171 192 0
176 195 0
170 190 0
170 190 0
176 196 0
168 188 0
175 195 0
172 193 0
167 187 0
169 190 0
169 189 0
166 186 0
171 192 0
165 186 0
161 181 0
167 187 0
167 187 0
169 189 0
165 186 0
168 189 0
158 178 0
168 188 0
160 180 0
159 180 0
159 180 0
160 181 0
149 170 0
150 170 0
148 168 0
144 166 0
149 168 0
132 153 0
155 176 0
134 155 0
136 156 0
135 154 0
132 150 0
143 162 0
124 142 0
130 151 0
129 149 0
134 153 0
124 145 0
136 155 0
130 152 0
137 158 0
144 163 0
141 162 0
153 176 0
150 172 0
168 191 0
167 191 0
159 182 0
169 192 0
172 195 0
170 193 0
172 194 0
167 191 0
167 191 0
164 187 0
167 191 0
172 196 0
163 187 0
164 187 0
164 187 0
162 186 0
162 187 0
157 179 0
166 189 0
103 127 62
51 82 99
55 88 84
53 84 84
55 87 105
56 89 105
52 84 88
54 86 111
55 87 92
55 87 92
53 84 80
55 87 95
55 87 92
52 83 84
56 89 108
55 88 105
55 88 108
55 88 99
56 90 99
59 92 120
56 89 99
56 88 88
58 91 111
55 87 108
55 86 108
58 93 105
57 89 108
57 90 111
54 85 95
56 89 102
55 87 114
59 93 108
56 88 102
55 87 102
57 90 105
56 89 92
55 88 102
57 89 122
57 90 99
55 87 105
57 90 105
56 89 111
57 90 108
56 88 102
54 85 92
57 90 105
58 91 111
54 85 105
55 87 92
56 88 111
56 88 95
53 84 72
59 93 108
58 91 114
56 89 111
54 86 76
56 88 102
56 88 111
59 92 117
55 86 106
57 89 123
57 89 92
55 86 96
57 89 105
56 88 95
56 88 99
52 82 108
53 83 99
53 84 81
56 88 111
55 88 92
55 86 92
54 84 106
55 85 86
54 83 100
55 86 130
53 83 106
53 83 82
55 85 103
53 82 97
50 78 89
52 79 90
47 72 78
48 73 78
52 80 78
98 117 48
164 185 0
161 182 0
168 189 0
161 184 0
167 189 0
164 185 0
167 189 0
165 187 0
164 184 0
166 188 0
169 190 0
166 187 0
169 190 0
170 189 0
170 192 0
163 183 0
163 184 0
165 186 0
131 124 32
114 101 20
105 92 25
106 94 27
105 98 28
117 106 16
106 94 28
97 86 14
104 95 14
105 96 19
87 82 11
100 92 7
91 82 14
107 97 11
86 80 20
107 96 19
82 78 16
96 90 11
98 92 31
104 93 17
114 107 24
104 101 23
121 113 22
121 114 28
114 107 32
125 122 31
115 106 29
109 106 16
117 114 17
111 107 6
120 115 28
132 127 39
126 117 32
123 120 34
121 115 30
123 118 28
126 124 19
136 129 30
147 139 45
139 132 37
122 117 46
132 125 32
142 138 39
131 123 22
136 127 53
141 132 45
144 138 36
136 127 32
144 134 48
150 141 39
136 128 44
145 137 38
131 124 32
140 134 36
148 143 53
147 139 42
145 138 56
144 134 49
151 145 58
150 144 45
144 136 36
143 138 42
143 137 36
154 146 60
143 136 36
157 149 56
143 134 32
143 133 36
147 140 39
148 140 53
149 141 53
148 141 51
158 150 58
153 147 56
147 139 45
151 144 49
149 142 36
152 144 49
147 138 46
148 139 53
159 151 56
150 142 56
147 143 42
147 139 45
145 135 33
153 146 56
160 152 64
154 143 43
155 146 56
157 145 56
154 147 45
162 154 61
156 151 48
161 154 56
155 147 51
158 150 60
149 141 51
153 143 62
158 149 56
155 146 54
158 149 61
163 152 67
160 150 61
156 149 56
160 153 58
149 141 42
153 143 63
155 143 54
160 149 58
155 145 46
161 149 59
154 147 36
160 152 58
154 143 60
164 155 72
147 140 36
158 148 51
156 148 56
153 143 53
159 151 63
146 134 53
158 149 58
156 146 49
156 145 68
156 147 61
147 138 43
154 146 45
151 139 39
155 145 56
154 142 63
159 149 59
161 148 53
152 139 61
151 143 49
160 150 66
158 150 58
158 149 63
163 154 61
158 148 62
174 197 0
171 195 0
173 197 0
175 198 0
172 195 0
172 197 0
175 198 0
174 198 0
175 198 0
173 197 0
173 197 0
169 193 0
173 195 0
173 197 0
173 196 0
174 197 0
174 198 0
172 196 0
174 197 0
174 198 0
173 196 0
174 198 0
173 197 0
175 197 0
172 196 0
174 197 0
175 198 0
174 198 0
174 197 0
174 197 0
173 196 0
167 191 0
174 197 0
175 196 0
174 197 0
175 197 0
175 198 0
174 196 0
175 198 0
172 195 0
174 196 0
170 195 0
173 196 0
173 196 0
174 196 0
172 196 0
175 198 0
172 195 0
174 196 0
173 195 0
177 199 0
173 196 0
178 200 0
166 189 0
174 197 0
174 196 0
169 193 0
178 199 0
171 195 0
175 197 0
174 196 0
178 200 0
175 197 0
174 196 0
174 196 0
169 189 0
176 197 0
178 198 0
178 198 0
174 195 0
177 199 0
173 195 0
172 193 0
172 193 0
174 194 0
177 198 0
178 197 0
177 197 0
173 195 0
174 194 0
179 198 0
171 191 0
173 195 0
175 196 0
174 193 0
167 188 0
173 193 0
171 191 0
172 193 0
168 188 0
167 188 0
175 196 0
167 186 0
170 190 0
166 186 0
171 192 0
169 189 0
171 190 0
170 189 0
163 182 0
169 189 0
173 192 0
172 192 0
163 182 0
167 187 0
167 186 0
161 180 0
164 183 0
151 171 0
154 174 0
167 187 0
154 174 0
158 177 0
155 175 0
148 168 0
137 158 0
152 171 0
158 179 0
139 160 0
136 155 0
132 152 0
151 172 0
132 150 0
129 148 0
140 161 0
126 149 0
132 152 0
138 158 0
127 146 0
138 158 0
129 150 0
134 155 0
133 152 0
138 159 0
138 160 0
150 171 0
160 181 0
160 183 0
169 191 0
171 194 0
171 194 0
165 188 0
165 188 0
170 194 0
167 191 0
167 190 0
167 190 0
160 183 0
167 190 0
172 195 0
160 182 0
171 194 0
169 192 0
170 193 0
167 191 0
171 194 0
161 183 0
157 180 36
65 91 88
55 87 105
54 85 92
55 87 95
54 86 80
51 80 84
54 87 84
55 86 105
57 91 105
54 87 76
53 85 95
54 86 95
57 90 114
57 91 108
56 88 105
52 84 84
58 92 122
55 88 92
54 86 99
55 87 95
55 87 95
55 87 99
57 90 88
56 89 117
57 90 105
58 92 130
56 88 125
55 86 108
55 86 102
56 88 111
58 92 111
53 85 117
56 89 108
55 87 95
59 92 117
53 85 88
57 91 99
56 88 95
57 90 102
58 91 117
54 85 88
58 91 117
58 92 130
56 90 105
56 88 95
55 87 99
54 86 102
57 91 120
55 87 95
56 89 102
57 90 114
57 89 122
58 90 122
55 86 99
58 90 111
55 87 99
54 85 92
57 90 102
53 84 92
57 90 108
55 86 114
55 86 92
53 83 85
55 86 100
54 84 99
54 86 102
54 85 90
50 78 88
57 90 99
52 80 97
52 81 97
55 83 93
54 84 81
50 77 100
49 76 80
54 84 93
51 79 100
55 84 96
53 82 81
52 80 80
51 78 78
52 80 79
48 74 78
73 91 80
157 175 0
161 183 0
156 175 0
170 189 0
161 182 0
160 183 0
167 187 0
168 189 0
167 188 0
163 184 0
165 189 0
158 180 0
162 183 0
160 181 0
161 181 0
168 190 0
162 181 0
161 182 0
168 189 0
163 182 0
123 109 26
113 98 30
117 100 25
113 99 29
107 96 24
108 97 20
102 92 16
100 88 21
103 94 19
93 85 18
100 89 14
90 80 6
105 97 7
95 89 20
114 107 21
109 100 25
102 95 12
108 99 18
117 110 30
106 102 12
118 113 20
117 113 32
102 94 11
123 113 16
122 112 25
107 98 13
130 123 32
126 115 26
117 112 26
127 118 16
120 111 28
123 115 35
128 123 20
116 108 25
123 117 20
121 114 22
134 126 46
123 118 25
124 118 39
134 128 42
129 126 22
135 127 44
141 133 41
129 120 36
140 134 37
140 135 32
150 144 39
146 137 56
144 137 39
153 145 54
147 138 50
139 132 39
134 126 41
137 130 32
143 135 42
142 133 45
148 142 45
146 136 40
151 143 51
141 133 36
147 140 39
153 144 42
144 138 45
151 144 51
157 148 60
153 145 42
150 143 45
151 144 48
145 139 45
147 140 36
152 142 46
150 139 51
145 138 32
156 146 60
153 147 48
152 143 43
152 143 45
152 145 48
153 146 43
144 138 39
154 146 53
150 141 56
153 144 56
152 144 45
155 148 51
157 151 45
149 142 42
144 134 45
151 142 46
153 146 43
160 152 51
151 144 45
154 147 51
156 148 53
149 143 48
160 151 52
163 154 71
155 148 48
157 147 51
161 152 58
156 147 53
149 142 53
149 137 46
157 146 51
155 146 54
159 150 57
152 142 46
158 149 44
159 150 59
149 138 40
150 142 49
157 148 67
141 132 42
156 146 61
156 147 60
159 149 62
154 145 56
149 138 51
157 150 56
148 137 49
156 145 51
148 137 36
155 144 52
158 147 72
152 143 51
161 149 67
151 141 46
163 150 70
155 145 56
161 151 59
153 144 50
150 141 49
148 136 49
153 140 53
151 138 54
156 147 48
158 146 69
154 141 61
171 195 0
174 197 0
170 195 0
172 196 0
172 196 0
171 195 0
167 190 0
171 195 0
173 197 0
173 197 0
169 193 0
171 195 0
172 196 0
173 196 0
169 192 0
174 197 0
171 195 0
174 197 0
173 196 0
168 192 0
173 196 0
174 197 0
176 199 0
169 194 0
171 193 0
174 198 0
173 195 0
173 197 0
176 198 0
168 191 0
174 196 0
170 195 0
176 199 0
174 197 0
171 195 0
173 195 0
175 198 0
175 197 0
172 194 0
175 198 0
172 194 0
176 198 0
173 196 0
172 195 0
173 197 0
172 195 0
173 196 0
174 197 0
173 197 0
174 196 0
173 195 0
175 198 0
172 194 0
175 198 0
174 197 0
173 195 0
176 198 0
177 198 0
172 194 0
172 195 0
173 195 0
172 194 0
173 195 0
170 192 0
174 196 0
174 196 0
175 195 0
172 193 0
176 196 0
176 197 0
170 191 0
177 197 0
169 190 0
176 197 0
175 195 0
172 193 0
178 196 0
175 196 0
171 192 0
178 198 0
175 195 0
174 194 0
176 195 0
176 197 0
170 190 0
174 194 0
169 190 0
164 184 0
177 196 0
172 192 0
171 192 0
164 185 0
170 191 0
167 186 0
173 193 0
174 194 0
162 181 0
171 190 0
166 186 0
163 183 0
162 182 0
165 186 0
163 182 0
161 180 0
159 178 0
162 181 0
159 178 0
159 180 0
159 177 0
170 189 0
168 189 0
154 174 0
151 171 0
153 173 0
149 168 0
145 166 0
152 171 0
150 171 0
146 167 0
158 179 0
145 165 0
146 167 0
132 152 0
149 168 0
136 155 0
139 158 0
139 159 0
135 155 0
137 156 0
144 166 0
144 165 0
144 163 0
147 168 0
137 158 0
151 172 0
163 186 0
158 180 0
168 192 0
167 191 0
160 184 0
170 193 0
166 191 0
167 190 0
168 192 0
166 190 0
170 194 0
165 189 0
166 191 0
161 185 0
166 189 0
166 190 0
165 189 0
170 194 0
171 194 0
159 182 0
156 178 0
170 194 0
167 191 0
152 175 36
52 82 92
56 88 99
55 88 99
52 82 84
54 86 80
59 93 111
55 87 99
57 89 111
59 92 114
56 89 99
58 91 105
56 89 99
54 86 108
54 85 95
56 88 99
54 85 95
57 89 114
55 87 102
54 86 99
57 90 92
53 85 92
55 89 99
55 88 95
56 89 105
55 87 111
57 89 114
53 85 95
56 89 105
57 90 117
56 89 105
55 87 102
55 88 99
56 87 111
55 87 111
55 87 102
56 88 99
58 92 111
55 88 99
57 90 111
54 86 92
54 86 99
57 91 111
56 89 102
56 88 108
56 89 111
52 81 95
57 90 105
54 86 88
55 87 111
55 87 102
55 87 108
56 88 105
55 87 95
53 84 95
54 86 102
53 83 85
56 88 108
56 88 102
56 87 102
58 90 114
54 85 99
53 84 92
51 81 72
53 83 105
56 88 103
55 86 108
53 84 106
54 85 88
55 87 105
53 82 99
53 83 88
50 79 80
52 80 81
55 87 100
54 83 72
55 87 96
49 76 85
52 81 96
49 75 62
52 79 90
47 71 78
60 79 46
124 143 36
164 186 0
160 181 0
157 176 0
159 177 0
162 184 0
169 191 0
165 185 0
162 185 0
161 180 0
159 181 0
168 190 0
161 183 0
167 187 0
165 185 0
169 189 0
161 181 0
167 187 0
167 188 0
159 180 0
166 187 0
164 180 4
116 97 24
106 91 27
111 97 28
105 92 27
112 99 26
103 89 23
106 94 8
102 90 13
103 96 19
109 101 18
108 101 6
89 77 6
107 98 9
108 99 0
92 86 21
105 94 18
113 103 3
103 92 12
96 91 12
109 101 28
124 114 10
113 107 16
113 107 1
108 104 28
113 106 31
115 111 34
123 117 22
131 123 36
115 109 23
113 110 19
118 111 37
125 119 25
119 114 25
128 121 16
124 120 19
136 128 36
132 125 39
123 115 30
133 126 34
144 136 42
134 128 22
129 122 28
144 137 44
119 114 32
134 125 30
136 129 38
138 132 34
143 134 42
138 127 31
147 141 36
144 135 32
135 127 44
148 141 57
141 136 38
134 129 39
148 140 45
150 140 48
148 141 36
149 141 45
151 144 42
146 140 45
142 134 44
143 137 36
152 144 58
142 135 28
148 139 49
146 137 53
150 142 46
148 142 45
146 141 36
150 143 42
145 138 45
141 134 36
152 142 51
149 138 49
144 137 28
147 136 46
162 155 60
145 137 48
151 143 45
146 140 39
155 143 56
156 148 58
151 144 56
163 154 68
150 141 45
151 146 51
158 148 56
159 151 56
147 138 49
150 139 45
162 154 60
157 147 58
156 145 62
156 148 51
156 147 54
152 142 42
157 148 58
157 147 56
160 151 63
156 146 54
160 150 59
155 146 49
155 141 55
158 150 60
157 148 54
150 139 46
155 145 54
160 152 63
153 144 48
154 144 53
156 147 51
156 147 51
159 148 63
157 147 47
152 141 51
156 145 53
153 141 49
155 146 53
150 139 49
150 141 53
156 145 63
158 147 58
154 145 56
158 149 58
153 145 51
150 142 46
153 142 50
155 147 49
156 146 65
154 146 51
156 143 63
156 146 61
166 155 69
154 145 64
151 141 58
153 141 63
172 196 0
171 194 0
170 194 0
170 194 0
173 196 0
170 194 0
173 196 0
175 198 0
173 197 0
170 193 0
174 198 0
170 194 0
171 196 0
175 197 0
172 195 0
170 194 0
173 197 0
173 196 0
173 196 0
172 195 0
171 194 0
169 193 0
171 193 0
173 195 0
172 196 0
174 197 0
176 199 0
175 198 0
174 197 0
171 195 0
168 190 0
167 191 0
172 196 0
173 197 0
171 195 0
177 199 0
174 197 0
170 193 0
176 198 0
171 195 0
173 196 0
176 198 0
176 198 0
174 196 0
174 197 0
172 196 0
176 198 0
174 197 0
173 196 0
175 198 0
173 195 0
176 198 0
176 197 0
173 195 0
178 199 0
177 199 0
172 193 0
177 198 0
173 196 0
174 195 0
175 195 0
176 197 0
173 193 0
175 197 0
178 198 0
174 195 0
173 194 0
180 200 0
164 185 0
181 200 0
175 195 0
173 193 0
175 195 0
176 195 0
175 195 0
174 194 0
180 199 0
171 192 0
165 185 0
174 194 0
175 196 0
174 194 0
179 199 0
175 194 0
171 191 0
172 192 0
177 195 0
169 188 0
174 192 0
171 191 0
164 183 0
162 183 0
169 188 0
167 187 0
163 182 0
165 185 0
162 181 0
169 187 0
170 190 0
161 180 0
164 183 0
160 179 0
168 187 0
162 183 0
164 183 0
164 184 0
148 167 0
150 169 0
158 177 0
151 171 0
154 174 0
158 178 0
150 168 0
147 168 0
140 159 0
153 172 0
137 158 0
149 170 0
140 162 0
150 171 0
135 156 0
144 164 0
147 167 0
134 153 0
129 150 0
150 170 0
141 163 0
146 165 0
127 147 0
143 164 0
131 152 0
138 157 0
144 164 0
128 150 0
151 172 0
157 179 0
171 194 0
173 196 0
170 193 0
168 192 0
165 189 0
166 190 0
168 192 0
169 192 0
166 189 0
165 189 0
167 190 0
161 185 0
161 184 0
162 184 0
164 187 0
165 190 0
169 191 0
168 191 0
163 186 0
165 189 0
161 185 0
158 182 0
148 170 0
128 152 51
51 81 80
53 85 102
54 86 80
53 84 92
58 92 108
56 89 105
57 90 114
55 87 105
55 87 99
55 88 99
54 86 76
56 88 117
57 90 102
55 87 95
55 88 105
57 89 114
57 90 108
56 89 88
54 85 88
54 86 99
57 90 117
55 88 111
53 85 92
55 89 92
54 85 76
53 84 88
57 89 108
54 86 95
58 91 120
53 83 80
56 87 108
55 88 102
57 89 114
56 89 99
53 85 92
52 83 88
56 87 117
57 91 108
56 89 102
55 87 108
57 90 114
51 82 80
56 89 105
55 86 84
56 88 114
53 84 92
54 85 99
56 88 105
58 89 114
57 90 114
51 82 92
56 89 108
54 86 117
57 89 120
56 88 117
55 87 88
56 89 103
56 89 108
55 86 105
56 87 109
56 88 105
55 88 108
54 85 80
56 88 99
52 81 84
56 88 106
50 78 85
51 77 81
54 84 99
52 82 86
52 81 89
54 86 95
54 83 102
51 79 84
52 81 84
55 84 107
54 85 99
50 76 81
46 71 73
48 74 69
108 128 57
157 178 0
160 183 0
164 184 0
164 184 0
156 174 0
161 183 0
158 178 0
158 177 0
156 177 0
155 174 0
168 189 0
165 187 0
169 190 0
161 181 0
151 167 0
161 181 0
153 169 0
153 173 0
160 181 0
158 179 0
157 174 0
161 182 0
158 171 24
125 110 31
113 100 19
109 97 25
106 95 33
117 105 16
115 99 19
98 84 19
95 82 7
101 90 22
99 88 20
106 93 12
114 105 11
98 89 5
102 93 10
103 92 16
105 98 11
108 100 16
101 94 26
100 94 25
117 109 34
104 98 3
109 103 11
125 120 22
121 115 25
109 104 11
114 107 1
123 114 33
117 112 23
121 113 19
131 119 28
128 121 36
124 119 28
127 120 16
123 119 25
123 116 28
129 121 32
136 127 36
130 124 16
131 125 28
132 123 22
141 135 32
136 129 28
139 132 32
132 125 32
139 131 32
146 137 39
144 137 42
142 135 23
149 139 39
134 128 28
138 131 39
142 134 39
145 139 28
132 127 19
148 141 36
145 140 39
141 134 32
144 136 23
134 126 3
141 134 28
150 142 48
137 130 32
144 136 42
144 136 42
142 134 42
146 140 32
141 133 39
142 137 32
148 141 42
145 136 40
147 138 42
152 145 45
146 136 40
153 146 56
153 145 53
148 140 51
155 148 51
149 142 48
158 150 53
150 142 51
160 152 56
151 145 51
155 145 56
146 138 42
151 141 48
157 149 58
154 145 45
155 148 43
160 152 62
151 144 36
145 135 45
140 132 37
153 144 46
159 149 64
155 147 56
157 150 51
161 154 53
150 141 49
151 143 46
155 145 44
156 144 60
158 147 65
153 146 42
156 146 60
151 142 48
152 144 48
155 145 56
155 146 60
154 145 59
153 144 58
152 143 37
148 138 49
150 143 48
152 143 46
146 136 45
157 150 56
152 143 51
157 145 57
155 146 56
142 133 40
148 137 57
148 137 51
154 143 55
153 143 58
156 147 52
154 142 56
147 135 49
155 142 57
153 141 57
153 141 51
149 139 51
159 149 63
146 134 40
155 145 49
156 148 52
147 136 42
170 196 0
172 195 0
172 195 0
173 197 0
171 195 0
169 192 0
173 197 0
174 197 0
172 196 0
173 196 0
173 196 0
171 193 0
167 191 0
172 195 0
170 193 0
173 196 0
171 195 0
172 196 0
174 197 0
171 195 0
171 194 0
176 199 0
173 196 0
172 195 0
170 192 0
175 198 0
170 193 0
174 198 0
173 196 0
170 194 0
172 195 0
175 197 0
175 198 0
173 197 0
174 197 0
173 196 0
174 198 0
172 195 0
168 192 0
174 197 0
175 197 0
175 198 0
174 197 0
177 198 0
176 197 0
176 198 0
175 196 0
173 195 0
174 196 0
177 199 0
174 197 0
168 191 0
174 196 0
175 196 0
178 199 0
176 198 0
172 194 0
168 189 0
176 197 0
175 197 0
173 194 0
173 194 0
177 197 0
170 191 0
176 195 0
178 199 0
176 196 0
172 192 0
176 197 0
177 197 0
173 193 0
174 195 0
165 185 0
174 194 0
174 195 0
170 191 0
174 194 0
173 194 0
170 189 0
168 188 0
176 195 0
171 190 0
165 185 0
176 196 0
167 187 0
170 189 0
171 191 0
166 185 0
171 191 0
169 189 0
161 181 0
166 185 0
163 183 0
160 179 0
160 180 0
161 180 0
170 189 0
164 183 0
163 182 0
158 177 0
146 164 0
161 180 0
155 176 0
170 189 0
157 176 0
161 181 0
166 184 0
154 174 0
149 169 0
152 171 0
158 177 0
151 169 0
158 178 0
156 177 0
140 160 0
148 169 0
153 174 0
145 166 0
131 150 0
156 176 0
144 165 0
135 155 0
138 159 0
144 164 0
146 167 0
138 159 0
153 174 0
140 161 0
147 167 0
137 157 0
150 170 0
142 164 0
163 184 0
152 174 0
154 176 0
164 188 0
171 194 0
172 197 0
168 191 0
165 189 0
167 190 0
153 176 0
163 187 0
165 190 0
166 189 0
167 190 0
164 187 0
170 192 0
159 183 0
167 190 0
167 191 0
165 186 0
160 182 0
165 188 0
165 188 0
160 184 0
157 179 0
159 181 0
160 183 0
171 195 0
101 126 62
54 86 84
53 85 67
55 88 95
55 87 102
53 85 84
53 84 92
56 88 99
54 86 92
56 88 108
56 88 95
53 85 102
56 89 102
54 86 88
54 87 99
54 86 84
55 87 80
55 87 88
56 88 102
55 88 102
53 85 99
56 89 120
55 88 92
52 84 80
57 90 117
52 83 80
57 90 128
55 87 108
56 89 105
56 89 95
54 85 102
55 87 95
54 86 84
53 84 76
57 89 108
54 86 95
56 89 102
55 86 105
55 87 102
58 90 114
54 85 88
56 89 102
54 84 102
55 86 102
55 87 102
53 83 88
55 88 105
53 84 99
58 91 109
56 88 105
56 89 96
54 86 92
54 86 105
53 85 80
54 86 105
56 87 112
56 87 103
55 87 105
56 87 99
53 83 92
52 82 80
56 87 107
50 78 76
51 82 92
52 80 80
54 86 93
54 85 103
56 88 99
52 81 84
55 86 106
52 81 89
52 80 75
51 80 86
49 74 76
52 80 108
48 75 78
47 73 68
52 80 81
45 71 57
108 130 51
159 180 0
157 178 0
160 181 0
156 175 0
146 166 0
153 173 0
165 186 0
157 175 0
156 177 0
166 186 0
157 175 0
157 177 0
151 170 0
155 172 0
157 175 0
163 185 0
160 178 0
153 172 0
152 171 0
164 187 0
163 182 0
158 178 0
159 175 0
166 185 0
142 149 20
112 99 34
114 97 21
109 92 16
100 91 21
97 83 22
121 107 19
109 96 21
110 100 13
99 86 4
103 91 12
115 106 2
103 95 11
106 99 13
91 82 20
116 105 11
102 92 19
101 96 28
108 100 26
109 103 13
110 102 7
110 103 17
121 114 2
113 108 20
123 115 32
127 121 17
114 108 21
112 104 25
134 128 25
130 121 30
112 104 23
135 128 28
121 114 25
126 120 36
133 126 39
129 123 32
124 118 1
122 114 34
126 120 22
135 128 36
127 121 11
126 120 30
134 128 23
140 130 36
119 114 16
121 112 32
143 133 36
130 123 25
142 135 42
139 129 39
140 133 32
151 143 53
143 134 45
138 130 45
145 139 36
148 141 39
138 130 16
142 131 43
147 140 42
144 137 42
145 138 39
147 137 45
140 133 39
139 132 36
145 139 39
152 144 45
146 138 39
151 140 36
151 141 51
141 135 36
155 147 48
148 141 45
155 146 48
146 138 49
152 144 51
146 139 36
145 138 22
154 148 53
149 138 36
155 146 53
153 144 45
155 148 56
148 139 33
156 147 62
153 144 45
147 140 39
145 136 56
152 145 51
159 150 58
151 140 42
140 133 28
147 139 40
146 140 39
149 141 51
149 141 40
148 139 45
149 140 36
162 152 62
160 152 56
151 141 51
154 143 56
153 144 53
161 154 58
149 141 39
153 144 47
150 141 42
155 145 51
160 152 58
157 148 51
154 147 46
161 148 67
156 146 46
145 134 58
148 138 51
153 142 49
149 138 44
156 144 49
150 138 48
154 142 49
153 143 50
157 147 54
155 145 46
150 139 50
157 148 54
149 139 40
149 141 37
150 139 54
155 145 58
153 142 41
156 144 58
153 143 54
150 136 47
145 132 46
148 140 51
154 144 61
151 140 54
173 197 0
173 196 0
174 196 0
173 197 0
173 196 0
172 195 0
172 195 0
174 197 0
172 197 0
168 193 0
177 199 0
171 195 0
173 197 0
173 197 0
172 196 0
174 197 0
172 196 0
174 198 0
170 194 0
175 198 0
170 193 0
175 197 0
169 193 0
170 194 0
173 197 0
173 197 0
176 199 0
172 195 0
172 195 0
169 192 0
176 199 0
172 194 0
172 195 0
172 194 0
171 193 0
168 189 0
170 194 0
173 195 0
176 198 0
169 191 0
176 198 0
174 197 0
177 199 0
176 198 0
172 194 0
173 195 0
170 192 0
173 194 0
176 197 0
175 197 0
175 197 0
170 192 0
174 196 0
172 193 0
174 196 0
175 195 0
172 194 0
178 197 0
176 196 0
175 195 0
176 197 0
176 197 0
174 194 0
173 194 0
178 198 0
174 195 0
175 196 0
171 191 0
174 194 0
171 191 0
174 194 0
170 189 0
176 195 0
172 192 0
170 190 0
175 195 0
174 193 0
174 194 0
173 192 0
165 185 0
175 193 0
170 189 0
167 187 0
168 187 0
165 186 0
169 188 0
159 179 0
168 187 0
161 181 0
163 183 0
159 178 0
161 179 0
164 184 0
165 185 0
163 184 0
153 172 0
160 180 0
170 189 0
154 173 0
159 179 0
156 175 0
151 170 0
165 185 0
158 178 0
158 176 0
159 178 0
160 179 0
145 165 0
152 170 0
159 179 0
148 168 0
149 169 0
147 168 0
145 166 0
142 163 0
151 174 0
142 163 0
143 164 0
154 175 0
146 167 0
139 159 0
140 160 0
134 154 0
127 146 0
141 162 0
150 169 0
150 170 0
139 159 0
142 163 0
148 169 0
150 171 0
148 168 0
151 173 0
150 172 0
160 182 0
165 189 0
161 185 0
169 193 0
170 191 0
167 190 0
162 184 0
163 187 0
168 192 0
163 187 0
164 187 0
158 182 0
164 188 0
169 192 0
163 187 0
167 191 0
165 188 0
167 189 0
167 191 0
162 185 0
161 185 0
151 175 0
168 190 0
166 189 0
154 177 0
165 188 0
158 180 0
80 104 57
51 81 84
51 82 84
53 85 84
52 84 67
53 84 92
56 88 99
55 86 84
55 88 111
54 86 84
50 81 67
55 88 92
54 85 88
52 84 80
56 89 95
55 87 99
55 87 105
57 90 114
55 87 105
55 87 105
55 87 99
54 86 88
56 87 105
56 89 80
55 88 102
58 90 114
53 85 102
54 86 95
55 87 92
58 90 117
55 87 105
50 80 80
55 87 95
56 88 114
54 85 92
55 87 102
53 84 95
55 87 92
55 87 95
54 86 92
53 84 108
56 88 92
55 88 95
56 89 102
55 87 105
54 87 92
55 87 105
57 89 122
54 86 88
56 88 108
52 82 99
55 87 88
54 86 95
56 88 95
53 82 102
53 83 97
56 88 112
53 84 96
51 81 77
55 86 105
54 85 76
54 83 82
54 84 93
51 80 92
50 79 72
55 85 102
52 82 81
50 79 99
53 83 108
48 76 88
51 80 81
49 77 73
49 76 60
49 75 85
51 79 77
46 72 68
46 71 68
99 118 51
157 175 0
152 170 0
155 178 0
156 176 0
153 169 0
166 187 0
148 166 0
160 179 0
155 174 0
155 174 0
155 172 0
159 177 0
162 182 0
157 177 0
157 173 0
153 171 0
157 175 0
161 178 0
161 179 0
162 178 0
159 173 0
157 177 0
157 176 0
163 184 0
164 185 0
165 183 0
142 143 33
118 101 37
96 77 13
120 102 15
114 96 11
97 82 16
108 94 14
99 87 14
119 104 12
101 87 8
103 88 4
107 99 24
97 85 11
111 103 3
114 103 3
104 94 23
113 103 12
117 109 23
124 115 17
112 106 20
101 96 7
124 117 16
121 112 16
109 104 13
118 110 16
123 115 22
121 117 25
126 120 16
121 114 28
130 123 39
120 115 22
125 117 16
134 125 32
127 119 19
112 105 17
132 124 23
132 127 16
134 126 32
136 132 25
124 116 24
131 124 22
134 126 34
137 129 16
138 130 44
126 119 39
134 125 28
124 117 25
131 122 16
136 127 36
134 125 36
133 124 32
148 141 44
132 125 28
146 137 32
150 143 42
140 135 41
149 143 28
141 132 36
140 132 42
144 134 39
148 140 28
145 140 39
149 143 39
142 134 42
142 133 34
153 145 48
142 130 39
139 131 36
151 144 48
149 138 45
139 131 45
148 141 45
149 141 36
146 139 42
154 144 56
148 138 42
150 145 28
146 140 36
144 134 42
143 133 39
150 143 39
155 146 45
148 142 36
145 136 45
140 129 39
154 145 53
155 142 54
153 147 39
152 144 39
148 139 46
153 144 51
156 146 51
155 147 51
151 140 56
154 144 53
155 145 52
153 145 44
155 144 51
154 144 51
143 135 45
158 149 60
149 140 46
154 145 56
156 144 58
158 148 58
151 142 37
155 145 51
139 130 29
155 145 61
155 145 58
157 148 58
152 142 48
146 136 51
154 143 50
158 148 58
149 138 47
153 144 49
153 142 47
149 140 39
151 138 46
150 141 49
149 136 52
150 139 52
148 134 47
157 147 61
156 143 59
151 139 47
161 153 56
147 136 47
145 136 40
155 141 60
151 142 51
151 140 61
146 136 51
148 136 49
175 197 0
171 194 0
173 196 0
175 198 0
172 197 0
168 192 0
175 198 0
171 195 0
172 196 0
177 199 0
170 194 0
173 195 0
175 198 0
169 192 0
169 193 0
169 192 0
172 196 0
167 190 0
172 196 0
172 196 0
170 193 0
167 191 0
170 195 0
172 196 0
171 194 0
173 195 0
172 195 0
170 193 0
175 197 0
174 197 0
177 199 0
171 194 0
172 195 0
172 195 0
172 195 0
173 196 0
172 194 0
170 192 0
172 194 0
174 197 0
175 197 0
171 193 0
174 196 0
170 192 0
174 196 0
173 196 0
175 196 0
171 193 0
172 194 0
178 199 0
174 194 0
173 195 0
176 198 0
174 194 0
175 196 0
175 196 0
176 197 0
173 195 0
171 191 0
178 198 0
169 189 0
175 196 0
174 195 0
173 192 0
174 195 0
176 196 0
171 192 0
173 193 0
173 193 0
173 193 0
175 195 0
168 188 0
172 192 0
174 195 0
167 186 0
163 183 0
179 198 0
169 189 0
172 191 0
165 184 0
171 189 0
160 179 0
168 187 0
169 188 0
168 188 0
165 183 0
163 183 0
157 177 0
159 179 0
158 178 0
157 177 0
163 183 0
167 186 0
161 179 0
153 172 0
156 177 0
161 180 0
154 174 0
159 178 0
147 165 0
160 180 0
164 185 0
153 172 0
157 177 0
144 162 0
159 178 0
144 164 0
151 170 0
151 172 0
145 165 0
163 185 0
152 173 0
150 170 0
144 166 0
141 162 0
143 165 0
145 165 0
156 175 0
144 165 0
150 172 0
153 173 0
152 174 0
145 166 0
146 167 0
129 149 0
135 154 0
152 172 0
146 165 0
144 165 0
143 163 0
150 171 0
152 172 0
149 171 0
163 185 0
162 185 0
166 189 0
165 188 0
159 183 0
156 180 0
159 183 0
164 186 0
167 191 0
164 185 0
165 187 0
163 187 0
161 184 0
160 184 0
158 182 0
162 184 0
160 184 0
150 173 0
169 191 0
158 182 0
160 183 0
163 187 0
155 178 0
157 179 0
157 181 0
144 167 0
150 172 0
156 180 0
153 175 0
77 103 44
53 85 80
55 87 95
49 78 62
55 87 108
55 87 84
49 79 72
53 84 95
54 86 92
51 82 72
53 84 88
56 89 95
50 80 80
52 83 76
53 85 84
54 85 84
53 84 76
53 85 88
55 87 95
55 87 105
55 87 111
52 82 99
54 85 105
53 84 92
55 88 80
53 83 88
55 87 95
55 87 108
55 87 84
56 89 92
56 89 114
54 86 95
55 86 88
56 86 102
55 86 95
51 82 99
54 85 84
56 88 99
53 83 95
55 86 95
55 86 95
52 83 95
54 85 95
54 85 102
53 83 88
55 87 99
55 86 99
55 87 92
55 87 99
56 88 102
54 86 84
56 88 114
56 87 120
55 86 112
54 84 103
51 81 81
54 85 95
55 87 99
55 87 105
53 83 103
52 81 77
54 85 99
51 81 85
53 82 88
56 88 115
50 79 85
52 81 99
52 82 84
47 73 53
50 78 99
52 80 88
51 80 85
50 79 80
49 76 73
51 77 70
80 101 58
140 159 0
149 167 0
156 174 0
146 163 0
141 156 0
149 168 0
150 170 0
153 172 0
149 168 0
152 169 0
151 166 0
146 166 0
158 177 0
150 169 0
152 170 0
169 187 0
157 174 0
154 171 0
152 167 0
149 160 0
158 177 0
162 180 0
150 168 0
149 165 0
160 176 0
160 179 0
159 176 0
152 171 0
140 142 31
115 99 26
121 102 30
97 81 20
99 86 10
104 89 8
111 100 22
97 83 21
101 88 12
119 109 11
110 103 9
103 93 12
114 101 17
104 94 1
112 101 20
104 94 1
101 92 23
115 106 18
120 109 7
109 100 19
102 95 12
113 100 16
112 101 6
122 116 11
122 113 20
124 114 23
124 121 16
120 114 16
128 121 0
128 121 30
125 118 22
114 109 19
132 126 16
118 109 22
126 122 1
135 127 32
130 123 16
141 132 33
135 129 39
135 130 28
141 134 42
137 128 32
132 124 23
138 130 42
126 120 19
132 125 22
139 134 29
139 133 28
131 125 17
145 137 32
138 128 36
137 128 36
140 135 36
141 134 28
147 139 32
134 126 28
148 139 42
146 136 42
136 129 32
152 143 48
152 144 33
146 138 39
144 137 39
145 138 28
150 140 42
143 137 36
148 142 45
148 139 39
139 133 16
146 141 39
139 132 33
146 136 43
146 140 39
149 142 36
146 139 39
152 143 48
150 139 46
152 143 53
148 136 46
157 147 56
148 141 39
149 141 45
155 147 56
156 148 51
147 139 45
144 133 39
149 140 46
150 144 42
149 139 42
151 142 42
154 144 48
144 135 43
145 133 43
160 152 54
154 144 49
146 136 39
146 138 49
151 140 48
154 144 45
155 145 49
152 142 42
151 142 51
151 142 40
142 133 45
144 134 48
148 136 39
147 139 42
152 142 51
149 138 52
152 142 48
157 148 59
146 138 33
157 147 56
152 141 48
157 148 53
154 143 51
150 140 50
150 142 46
147 136 43
149 138 43
155 145 51
161 150 59
150 139 39
142 131 40
161 152 58
159 146 63
154 146 58
154 145 56
154 143 46
156 145 57
151 141 46
160 148 61
144 132 43
155 143 62
172 195 0
174 197 0
175 197 0
172 196 0
174 197 0
170 193 0
166 190 0
173 197 0
171 196 0
171 193 0
175 197 0
173 196 0
171 195 0
171 194 0
171 195 0
176 198 0
168 192 0
168 192 0
175 198 0
172 196 0
172 195 0
173 196 0
169 192 0
169 191 0
170 193 0
169 192 0
168 192 0
170 193 0
172 196 0
172 195 0
174 196 0
170 192 0
172 195 0
173 197 0
176 198 0
173 195 0
175 197 0
175 197 0
176 199 0
174 197 0
177 198 0
173 196 0
174 196 0
172 194 0
174 197 0
174 196 0
170 192 0
176 196 0
172 193 0
174 196 0
167 189 0
176 198 0
179 199 0
179 199 0
173 193 0
175 195 0
179 199 0
178 199 0
172 193 0
181 200 0
175 196 0
172 191 0
177 197 0
175 195 0
178 197 0
176 195 0
168 189 0
167 188 0
174 193 0
170 190 0
176 196 0
171 191 0
168 188 0
174 194 0
169 189 0
164 184 0
174 192 0
168 188 0
157 176 0
162 181 0
164 183 0
152 171 0
166 185 0
154 174 0
163 181 0
164 183 0
164 184 0
166 187 0
167 186 0
167 186 0
149 169 0
163 183 0
160 178 0
155 173 0
162 181 0
162 182 0
154 173 0
158 179 0
147 166 0
156 174 0
157 175 0
166 185 0
151 172 0
152 171 0
152 172 0
146 166 0
144 164 0
152 171 0
146 166 0
151 172 0
153 173 0
160 180 0
150 170 0
147 169 0
146 168 0
148 169 0
155 176 0
153 175 0
143 164 0
157 177 0
140 161 0
149 170 0
142 162 0
139 160 0
140 160 0
154 173 0
149 169 0
136 156 0
140 160 0
144 164 0
157 175 0
150 171 0
165 187 0
169 192 0
169 191 0
172 195 0
165 189 0
166 190 0
166 188 0
158 180 0
155 177 0
161 185 0
162 185 0
168 189 0
157 179 0
153 177 0
160 182 0
162 186 0
171 193 0
160 183 0
154 176 0
165 188 0
159 182 0
148 171 0
167 188 0
162 185 0
155 177 0
160 183 0
156 179 0
155 178 0
156 177 0
152 175 0
143 164 36
81 105 76
55 87 80
56 88 99
54 86 92
52 83 76
54 85 88
51 82 80
53 85 88
55 87 111
54 85 76
53 85 84
50 80 84
52 83 80
54 86 88
55 87 88
55 88 84
54 86 102
55 87 92
53 84 92
55 87 99
56 89 102
55 87 111
55 87 99
53 84 80
53 84 84
51 82 88
57 89 105
55 86 105
57 90 95
55 88 102
54 85 105
53 85 95
56 89 102
54 86 95
54 86 88
52 84 80
57 90 108
55 88 108
53 84 99
53 84 92
54 85 92
59 92 117
51 81 72
55 87 108
56 88 99
55 87 111
55 88 111
53 83 92
56 88 84
52 82 89
53 84 102
52 82 76
56 88 112
53 84 93
54 85 108
53 84 92
53 85 95
53 83 102
54 84 103
53 84 73
50 79 95
53 83 96
53 83 102
48 76 72
52 82 93
52 81 88
49 77 76
51 79 92
50 78 68
49 75 63
49 74 82
51 79 92
47 71 70
68 87 51
144 163 25
145 161 0
134 152 0
144 161 0
149 170 0
156 175 0
149 167 0
146 162 0
152 171 0
153 169 0
157 174 0
147 160 0
156 172 0
153 168 0
152 170 0
158 178 0
148 163 0
161 175 0
154 173 0
145 162 0
145 159 0
155 172 0
152 167 0
157 174 0
151 167 0
160 179 0
154 171 0
157 172 0
158 178 0
154 166 0
140 145 34
118 101 25
114 98 26
104 90 10
106 92 8
103 94 23
98 89 7
104 91 2
109 95 14
105 90 9
101 93 7
107 97 19
108 98 13
105 100 1
110 98 12
110 104 0
97 90 5
111 99 19
103 93 16
127 120 11
115 107 5
130 119 23
113 105 23
120 109 17
111 103 12
126 119 19
110 100 21
127 119 23
122 113 23
118 112 19
117 107 16
122 113 16
123 114 18
124 115 16
131 122 16
123 116 0
128 119 35
132 125 23
125 118 22
129 121 28
138 131 22
131 123 22
137 130 41
139 131 32
134 129 22
133 126 30
135 129 28
128 123 19
140 135 28
140 135 22
142 135 39
143 134 45
138 133 32
136 127 28
135 127 36
141 131 16
139 134 36
143 134 28
148 136 42
149 142 32
135 126 28
137 128 36
142 134 36
140 133 22
150 138 48
143 136 39
146 137 32
155 147 42
151 144 36
147 140 36
153 146 39
145 138 33
148 139 28
143 135 28
152 141 49
149 138 42
145 138 39
144 135 39
152 143 42
152 142 40
143 130 40
156 149 51
156 148 56
153 144 39
159 151 54
143 133 33
149 142 39
155 146 49
154 143 48
146 138 40
149 138 48
158 149 51
156 149 51
150 143 42
147 134 28
157 150 39
158 149 58
153 142 51
149 138 36
161 152 61
153 145 51
151 141 49
152 141 49
146 136 43
158 148 57
154 144 46
144 133 47
158 147 57
146 138 40
152 141 52
153 142 47
150 143 51
155 144 55
147 135 46
140 133 36
157 148 51
154 146 44
152 144 46
144 130 40
153 143 31
152 141 44
147 137 52
151 136 51
155 146 56
154 142 59
153 144 53
155 147 56
152 139 47
150 139 53
143 129 51
142 130 42
149 138 52
149 137 44
175 198 0
173 196 0
174 197 0
174 198 0
175 197 0
174 197 0
171 195 0
176 198 0
173 194 0
176 199 0
168 192 0
172 196 0
168 192 0
169 192 0
166 190 0
170 193 0
171 194 0
168 192 0
172 196 0
168 190 0
171 195 0
170 194 0
171 196 0
174 197 0
172 195 0
168 191 0
168 191 0
173 196 0
172 195 0
173 196 0
173 196 0
171 195 0
176 197 0
171 194 0
171 195 0
174 196 0
172 194 0
175 196 0
171 194 0
170 192 0
172 193 0
178 198 0
176 197 0
174 196 0
174 195 0
173 194 0
175 195 0
173 196 0
173 194 0
177 198 0
172 192 0
175 196 0
174 193 0
169 190 0
175 196 0
175 195 0
175 195 0
177 198 0
171 192 0
172 192 0
178 199 0
171 192 0
171 192 0
177 197 0
176 195 0
176 196 0
168 189 0
166 187 0
164 185 0
168 189 0
172 192 0
168 188 0
171 192 0
170 190 0
172 191 0
170 190 0
168 188 0
167 186 0
164 184 0
162 181 0
156 175 0
157 176 0
155 174 0
160 180 0
162 183 0
153 172 0
157 179 0
158 176 0
159 179 0
155 175 0
161 181 0
161 181 0
160 180 0
153 173 0
154 173 0
159 179 0
156 176 0
153 173 0
160 179 0
160 180 0
148 168 0
157 176 0
157 175 0
152 171 0
154 173 0
152 172 0
158 179 0
131 153 0
141 163 0
160 181 0
155 176 0
147 167 0
163 184 0
139 160 0
150 171 0
154 174 0
151 173 0
138 159 0
146 167 0
152 172 0
148 169 0
136 155 0
157 177 0
155 176 0
160 180 0
154 173 0
146 166 0
162 182 0
147 167 0
149 171 0
159 180 0
165 188 0
163 186 0
174 197 0
172 194 0
169 192 0
157 180 0
160 184 0
161 184 0
163 186 0
162 186 0
161 183 0
163 186 0
166 189 0
152 175 0
164 186 0
156 179 0
156 178 0
148 171 0
161 183 0
162 185 0
160 182 0
153 177 0
158 180 0
161 185 0
141 164 0
166 188 0
159 181 0
146 170 0
154 176 0
153 176 0
143 167 0
153 176 0
142 165 0
104 125 67
52 83 62
51 82 57
50 81 72
59 92 117
51 80 76
54 85 99
52 83 105
52 82 84
51 81 80
51 83 62
55 86 95
55 87 105
54 85 95
54 87 84
55 87 102
54 86 84
55 87 105
55 87 108
57 90 99
57 89 108
54 86 102
53 85 95
53 84 88
55 87 95
56 88 108
53 84 76
52 82 88
55 87 88
56 89 102
50 80 84
54 85 84
57 90 84
56 88 111
49 79 72
55 87 92
52 82 88
54 86 102
54 87 92
55 86 108
54 86 105
54 85 95
50 80 88
55 85 111
55 86 105
55 87 111
53 83 88
57 89 114
51 81 92
54 86 95
53 83 85
51 81 84
54 84 99
54 85 95
53 82 90
50 78 80
51 79 89
51 80 67
55 85 103
52 82 73
50 79 76
53 84 80
54 85 92
46 72 72
53 82 81
49 76 74
48 74 82
48 75 84
48 74 67
52 80 77
48 76 58
67 86 57
143 161 36
149 165 0
147 163 0
136 152 0
132 150 0
137 156 0
151 170 0
139 156 0
146 164 0
146 162 0
142 159 0
153 170 0
157 176 0
141 156 0
152 170 0
149 164 0
158 176 0
151 168 0
142 155 0
145 160 0
148 165 0
141 152 0
159 179 0
153 169 0
147 162 0
161 177 0
152 168 0
149 162 0
153 167 0
157 171 0
157 175 0
147 158 0
132 130 23
127 112 36
106 90 22
108 94 21
109 95 26
107 92 14
105 93 27
93 78 23
100 86 6
108 93 3
113 101 15
112 104 7
113 97 8
109 98 4
109 96 7
109 98 18
107 101 0
116 102 11
111 99 19
104 95 23
114 105 7
106 96 11
117 108 7
122 114 18
123 112 16
114 105 4
122 114 28
114 104 20
118 111 28
134 124 24
129 119 28
126 119 16
124 117 22
127 120 16
133 123 22
132 125 22
127 122 16
131 127 32
138 130 22
129 117 32
131 122 34
136 126 16
128 122 25
133 125 39
136 130 22
136 127 32
133 124 28
129 121 1
132 128 28
133 126 16
140 130 22
132 126 25
138 133 16
147 138 45
144 132 45
138 131 32
147 139 32
148 140 39
144 136 36
136 127 28
144 137 36
138 130 36
140 132 33
141 133 37
141 129 36
147 137 40
147 137 28
146 137 32
145 138 33
149 140 33
150 138 39
151 141 36
150 142 43
152 143 42
149 142 40
146 138 45
150 140 40
144 136 33
145 138 28
149 139 45
147 140 39
152 144 39
142 132 32
149 141 32
162 153 65
153 144 34
148 136 39
151 142 43
150 139 45
147 139 36
152 140 51
151 141 39
154 145 51
144 135 33
151 140 48
150 143 45
150 139 46
153 146 49
152 139 46
148 140 42
153 142 58
152 143 51
158 147 52
146 136 46
148 138 44
146 132 41
159 149 57
148 139 25
150 140 47
145 137 45
150 140 46
153 145 39
156 148 58
145 135 46
152 141 36
151 142 57
153 141 54
146 137 40
143 132 38
153 142 44
153 142 56
154 144 51
159 147 63
155 145 51
152 140 55
152 141 57
157 147 49
147 136 48
155 147 49
145 131 44
145 134 46
155 144 50
172 195 0
174 197 0
170 193 0
173 197 0
171 195 0
171 194 0
173 197 0
174 198 0
173 196 0
172 195 0
171 195 0
174 197 0
173 196 0
171 195 0
172 195 0
171 195 0
168 190 0
173 195 0
174 198 0
174 197 0
173 195 0
168 192 0
166 191 0
172 196 0
171 194 0
169 192 0
171 194 0
164 188 0
171 194 0
170 193 0
170 193 0
167 190 0
173 196 0
165 188 0
172 196 0
174 196 0
173 196 0
172 193 0
172 194 0
176 198 0
170 195 0
173 194 0
174 196 0
174 196 0
176 198 0
169 191 0
174 194 0
170 192 0
172 192 0
176 197 0
174 196 0
174 195 0
171 193 0
176 197 0
174 195 0
173 193 0
177 198 0
172 193 0
177 197 0
174 195 0
172 192 0
179 197 0
172 191 0
173 193 0
164 183 0
174 194 0
169 188 0
169 191 0
171 192 0
169 189 0
169 189 0
169 188 0
166 186 0
168 187 0
171 190 0
162 181 0
164 184 0
165 186 0
166 185 0
167 186 0
160 181 0
162 181 0
160 180 0
166 186 0
163 182 0
166 188 0
159 179 0
165 183 0
157 176 0
161 180 0
163 182 0
162 181 0
156 177 0
155 174 0
159 178 0
158 176 0
160 179 0
164 182 0
159 177 0
158 176 0
160 179 0
157 176 0
148 166 0
146 166 0
151 171 0
153 171 0
155 174 0
153 174 0
149 172 0
144 165 0
147 169 0
144 165 0
144 165 0
154 175 0
154 174 0
145 165 0
149 171 0
159 180 0
150 170 0
150 169 0
142 163 0
137 156 0
147 167 0
150 171 0
137 157 0
136 156 0
148 168 0
141 161 0
152 171 0
162 183 0
168 190 0
166 188 0
167 189 0
162 184 0
158 180 0
157 179 0
168 191 0
170 193 0
157 180 0
168 192 0
168 190 0
166 188 0
155 179 0
149 172 0
163 185 0
165 186 0
157 180 0
158 180 0
156 179 0
146 167 0
156 177 0
151 174 0
160 183 0
153 175 0
160 183 0
147 170 0
158 182 0
149 172 0
146 169 0
154 177 0
148 171 0
151 174 0
151 173 0
144 166 0
152 174 25
83 107 51
54 85 102
51 81 72
52 82 88
49 78 72
55 87 102
55 87 92
51 82 88
51 81 92
51 83 92
50 79 84
52 84 76
55 87 105
48 78 80
56 89 105
55 87 99
54 86 99
53 83 84
56 88 111
53 86 72
57 90 111
52 82 80
51 81 88
51 81 88
53 85 72
57 89 114
54 86 95
55 86 95
53 83 92
51 81 99
53 84 95
55 87 95
54 86 95
58 90 114
54 85 102
49 79 84
52 83 95
54 86 105
53 85 84
55 87 95
55 87 92
54 85 99
54 86 84
53 85 88
51 82 92
52 82 95
51 80 84
53 84 114
53 84 95
51 81 99
52 82 73
55 86 105
55 86 102
56 87 105
50 80 88
49 77 76
50 78 81
51 80 89
49 77 80
52 82 76
53 82 93
52 81 95
55 85 103
51 79 84
51 80 76
48 75 73
45 70 72
49 76 64
48 74 68
89 105 58
119 136 0
138 157 0
136 155 0
146 163 0
122 137 0
136 152 0
146 162 0
153 171 0
136 152 0
141 158 0
142 157 0
155 173 0
146 163 0
133 144 0
138 155 0
149 167 0
150 166 0
145 163 0
136 153 0
148 159 0
152 166 0
151 169 0
152 167 0
148 164 0
149 163 0
154 168 0
149 163 0
151 166 0
152 169 0
157 170 0
158 169 0
160 175 0
148 163 0
158 176 0
140 143 29
124 104 26
112 100 14
115 100 22
105 90 23
102 88 0
105 93 10
104 94 4
119 103 9
103 90 7
106 88 12
104 93 8
117 105 1
108 101 13
105 92 3
127 115 11
113 104 11
110 100 1
124 114 7
117 104 8
113 104 1
107 96 11
112 103 0
113 104 16
118 107 3
120 112 24
131 120 11
114 109 1
131 120 5
121 114 3
120 111 25
115 105 6
123 116 19
130 121 32
130 125 0
127 120 16
126 117 0
139 134 28
132 125 17
130 122 28
123 112 16
141 134 28
138 132 22
127 118 32
131 119 23
137 129 23
137 130 35
136 126 32
137 128 32
139 131 28
136 128 28
129 121 23
139 131 28
135 128 28
140 132 36
139 132 32
137 128 23
137 129 22
130 119 25
136 127 24
144 134 28
142 132 42
149 143 33
145 137 28
144 136 28
141 131 28
149 143 33
146 137 37
150 141 40
152 144 45
142 133 28
140 133 25
145 139 36
150 142 39
144 136 28
153 145 39
143 138 7
156 148 48
145 135 28
133 125 32
145 138 36
156 146 45
154 146 42
148 138 44
149 137 44
147 139 39
142 133 28
156 144 54
148 140 36
155 147 45
151 141 43
144 134 49
149 139 53
152 141 56
162 151 58
156 149 53
159 149 62
146 137 39
157 147 57
151 139 43
150 141 42
148 139 43
154 142 61
156 144 49
147 138 49
155 143 49
149 141 51
155 145 44
155 145 56
148 139 54
158 149 55
160 151 61
144 132 40
147 136 41
157 144 58
159 149 51
154 146 46
154 147 56
154 143 39
153 144 45
146 134 43
150 136 49
149 138 44
148 136 53
147 136 40
159 148 56
149 138 46
149 137 46
136 124 39
153 142 63
144 132 45
175 198 0
173 195 0
169 192 0
171 195 0
171 193 0
171 194 0
175 198 0
174 197 0
173 197 0
172 196 0
172 195 0
172 196 0
172 196 0
168 191 0
171 194 0
171 194 0
166 191 0
172 197 0
172 195 0
173 195 0
171 195 0
169 193 0
173 196 0
166 189 0
171 194 0
170 194 0
168 191 0
167 190 0
170 194 0
173 195 0
171 193 0
171 193 0
168 192 0
168 192 0
169 193 0
174 197 0
174 197 0
172 195 0
176 198 0
171 193 0
165 187 0
173 195 0
175 197 0
176 197 0
171 192 0
175 196 0
176 199 0
172 194 0
168 189 0
173 194 0
173 194 0
174 194 0
169 189 0
177 197 0
174 195 0
172 193 0
171 191 0
177 196 0
168 187 0
177 197 0
172 191 0
175 196 0
176 196 0
168 188 0
173 193 0
173 192 0
168 188 0
165 185 0
171 191 0
172 192 0
168 187 0
166 185 0
170 190 0
159 180 0
168 187 0
166 185 0
165 185 0
165 184 0
161 182 0
164 183 0
166 184 0
165 183 0
167 186 0
164 183 0
156 175 0
157 176 0
164 183 0
158 178 0
164 183 0
157 176 0
153 173 0
152 172 0
158 178 0
162 182 0
160 180 0
151 170 0
163 182 0
157 177 0
153 171 0
158 178 0
152 171 0
163 183 0
155 175 0
158 179 0
144 165 0
158 179 0
145 166 0
141 163 0
153 174 0
149 171 0
136 158 0
147 169 0
145 165 0
162 183 0
143 163 0
150 170 0
153 175 0
153 174 0
144 164 0
153 173 0
144 165 0
131 152 0
140 160 0
150 170 0
131 151 0
145 165 0
152 173 0
158 179 0
165 186 0
168 190 0
166 187 0
167 189 0
164 186 0
163 184 0
158 182 0
165 187 0
165 187 0
159 181 0
159 181 0
162 183 0
154 176 0
156 177 0
158 179 0
159 182 0
152 173 0
161 183 0
141 164 0
144 167 0
147 169 0
162 184 0
142 164 0
156 180 0
154 176 0
152 174 0
151 173 0
147 168 0
150 173 0
139 160 0
149 172 0
137 157 0
148 170 0
146 167 0
135 157 0
146 168 0
152 174 0
144 166 25
77 101 51
47 75 57
51 82 80
55 87 99
50 78 76
54 85 88
50 80 84
53 84 88
52 83 88
52 83 88
54 86 92
51 82 57
50 81 72
54 85 102
52 82 92
56 87 102
55 87 95
54 86 80
57 90 92
55 88 84
52 82 88
51 82 80
53 84 92
52 83 80
52 83 84
53 85 95
51 82 88
53 83 92
53 84 80
55 88 105
56 88 99
53 84 88
56 88 117
56 88 108
56 88 92
52 82 95
55 86 114
53 84 105
55 87 99
54 86 102
52 82 99
53 84 80
54 86 92
53 85 95
54 85 111
50 78 88
52 81 92
53 84 95
53 83 99
53 84 67
54 85 92
53 83 89
53 83 93
50 80 84
51 79 76
50 79 72
55 86 102
52 81 89
53 82 84
44 70 62
51 81 92
49 77 80
48 75 85
49 76 84
47 74 57
48 76 72
46 70 77
89 109 36
120 136 25
146 165 0
143 162 0
138 156 0
141 157 0
127 142 0
147 162 0
140 153 0
141 154 0
131 147 0
132 150 0
139 152 0
142 155 0
144 160 0
145 159 0
141 158 0
148 162 0
142 155 0
150 165 0
147 165 0
157 173 0
150 166 0
142 158 0
141 155 0
151 166 0
154 165 0
146 161 0
141 152 0
153 166 0
145 161 0
138 153 0
143 155 0
152 165 0
136 147 0
151 164 0
158 171 0
147 149 33
120 104 27
113 100 35
113 99 30
105 90 29
104 90 14
106 91 25
118 105 13
120 105 18
109 93 11
114 103 2
110 101 9
117 105 23
99 87 14
108 97 7
114 101 13
114 105 17
115 100 7
110 99 11
111 101 6
117 108 9
122 116 3
107 101 5
120 107 12
126 117 28
118 107 16
115 108 16
122 112 20
118 108 19
116 109 7
123 112 10
114 107 0
131 123 21
135 126 32
123 116 7
131 121 3
132 123 22
140 132 16
135 127 22
129 121 16
122 113 16
128 121 16
138 129 40
116 109 16
140 131 32
142 130 39
141 132 32
131 122 16
125 118 16
131 122 16
130 123 23
132 125 32
137 125 17
146 137 32
142 131 36
148 140 42
143 135 43
147 141 22
138 132 16
138 129 24
140 131 22
144 138 28
145 136 32
135 124 22
142 133 28
145 136 39
148 140 33
150 142 39
143 137 32
143 136 29
151 144 42
146 138 39
147 138 40
154 147 48
143 133 33
135 129 24
141 133 36
153 147 39
148 140 43
142 133 23
150 138 41
148 137 39
147 137 18
145 136 42
142 133 32
150 140 45
148 138 44
153 143 36
148 140 36
139 128 22
151 139 37
144 135 32
155 147 52
150 140 45
147 139 36
151 141 47
150 138 42
150 141 40
144 132 41
155 147 41
150 142 46
142 132 42
148 137 37
149 137 43
149 136 44
146 134 34
146 138 37
146 138 49
148 133 41
152 141 48
150 141 49
145 133 43
149 134 59
141 131 36
151 137 52
141 133 28
148 140 48
146 136 45
149 137 41
163 148 64
153 143 44
153 141 51
148 135 41
154 143 52
150 135 56
148 138 48
153 142 58
155 144 61
145 132 54
151 140 55
172 196 0
171 194 0
174 197 0
172 195 0
174 198 0
169 192 0
170 195 0
170 192 0
175 197 0
173 197 0
175 198 0
172 195 0
172 195 0
171 195 0
170 194 0
174 196 0
170 193 0
169 193 0
172 195 0
170 193 0
168 191 0
171 194 0
173 195 0
174 197 0
171 194 0
169 193 0
171 194 0
168 192 0
171 195 0
174 198 0
171 195 0
174 197 0
167 191 0
173 195 0
174 197 0
170 194 0
174 197 0
170 194 0
169 191 0
173 196 0
171 195 0
166 188 0
173 194 0
174 195 0
172 193 0
174 196 0
176 198 0
179 200 0
176 195 0
174 195 0
170 191 0
175 195 0
172 193 0
172 193 0
173 193 0
172 192 0
174 194 0
167 188 0
171 192 0
176 196 0
176 196 0
168 188 0
163 183 0
175 195 0
175 193 0
161 179 0
171 190 0
167 187 0
170 190 0
171 190 0
172 190 0
169 188 0
171 191 0
168 189 0
167 186 0
159 179 0
161 181 0
164 183 0
157 176 0
166 185 0
166 186 0
164 183 0
165 185 0
157 177 0
162 179 0
157 176 0
157 177 0
162 181 0
152 171 0
163 182 0
162 181 0
163 181 0
162 182 0
158 178 0
156 175 0
162 181 0
157 178 0
158 178 0
160 181 0
154 172 0
163 183 0
157 178 0
150 173 0
157 178 0
149 170 0
150 171 0
147 169 0
153 174 0
145 166 0
147 168 0
149 171 0
137 155 0
152 172 0
153 173 0
145 166 0
161 183 0
152 174 0
143 164 0
145 166 0
151 171 0
146 165 0
157 177 0
144 164 0
134 155 0
143 166 0
150 169 0
142 162 0
163 184 0
156 177 0
169 190 0
155 178 0
160 183 0
165 188 0
155 178 0
155 178 0
154 176 0
153 174 0
160 181 0
162 185 0
165 187 0
148 171 0
160 182 0
156 177 0
157 179 0
158 179 0
151 172 0
142 164 0
151 173 0
155 177 0
154 174 0
157 179 0
152 174 0
156 178 0
153 174 0
157 178 0
150 172 0
141 163 0
141 163 0
146 168 0
151 173 0
148 169 0
156 177 0
152 174 0
139 161 0
136 156 0
139 161 0
142 164 0
106 127 57
48 78 57
50 80 76
49 79 57
51 80 76
52 83 80
48 78 57
52 83 80
50 80 76
52 84 76
57 89 99
54 85 72
51 82 88
51 82 80
50 80 72
54 85 95
54 86 102
51 81 72
53 84 80
53 84 105
54 85 84
54 85 92
48 77 72
56 88 99
52 83 88
56 88 105
55 86 99
52 83 88
53 85 80
53 85 95
56 89 108
51 81 84
54 86 84
53 84 88
52 83 95
57 89 111
52 82 80
50 78 76
52 83 88
54 86 96
53 85 92
51 82 80
52 82 99
55 86 120
51 82 72
51 80 80
54 84 92
56 87 99
50 79 88
51 81 102
53 82 93
50 79 88
48 75 76
55 86 99
53 84 102
51 80 92
54 84 92
52 81 90
47 73 77
50 77 76
52 82 84
45 71 62
43 67 63
49 76 64
46 71 67
86 101 51
127 142 0
120 132 0
137 153 0
135 154 0
143 159 0
131 147 0
136 153 0
139 155 0
140 156 0
139 153 0
131 143 0
135 149 0
122 135 0
143 154 0
124 138 0
144 159 0
138 153 0
141 154 0
138 150 0
143 155 0
142 160 0
146 161 0
137 147 0
151 165 0
141 156 0
155 171 0
138 154 0
145 156 0
146 158 0
148 161 0
139 155 0
141 155 0
153 166 0
143 155 0
141 152 0
142 153 0
147 158 0
140 152 0
133 139 3
121 106 34
107 94 25
116 97 20
116 94 20
110 94 12
113 101 4
101 85 9
104 89 19
110 97 14
98 90 4
104 94 7
102 89 3
117 108 13
108 98 0
101 92 8
116 104 7
122 112 1
111 97 3
125 117 16
110 101 3
116 105 1
112 102 19
111 100 17
116 105 7
122 112 20
123 110 20
111 100 1
121 114 11
121 112 0
117 110 11
127 118 0
117 108 16
121 112 23
132 120 16
120 107 8
133 126 16
133 127 11
128 120 16
133 124 0
142 131 33
130 121 16
136 129 0
134 126 28
137 128 28
139 134 0
142 133 43
132 127 28
136 129 28
137 128 23
137 126 22
143 134 34
134 126 32
139 129 28
129 122 16
142 134 28
135 127 39
144 137 39
142 133 22
145 134 42
146 135 24
138 129 32
142 131 32
145 135 42
139 129 30
147 141 22
147 139 45
148 139 42
140 130 32
136 126 28
149 139 33
145 139 32
142 132 32
158 151 53
147 141 36
142 131 39
145 135 33
137 129 32
152 142 47
151 143 40
147 135 33
147 137 37
150 142 48
153 144 46
160 149 64
151 141 43
144 134 39
146 135 42
150 142 39
144 132 45
147 137 33
147 137 33
136 122 32
150 139 51
152 142 39
146 137 32
152 141 51
147 137 40
148 138 44
145 132 49
149 137 49
147 134 49
156 143 45
150 138 42
144 132 40
148 135 44
144 133 37
154 145 43
145 135 37
144 132 39
151 142 48
147 138 46
149 141 51
143 131 45
150 140 49
141 128 40
145 137 43
149 138 45
152 140 46
152 143 53
148 137 45
155 143 65
150 140 42
148 136 46
151 141 51
147 138 43
153 140 48
143 131 39
147 135 54
173 197 0
174 197 0
173 195 0
172 195 0
173 196 0
174 198 0
173 196 0
169 192 0
170 193 0
171 194 0
168 192 0
173 196 0
168 191 0
170 193 0
164 189 0
170 193 0
174 197 0
175 198 0
169 193 0
173 196 0
171 193 0
172 195 0
169 193 0
172 195 0
170 194 0
170 193 0
169 192 0
163 186 0
174 197 0
170 192 0
171 195 0
168 192 0
172 194 0
171 194 0
165 187 0
171 194 0
174 196 0
170 193 0
168 192 0
175 197 0
171 194 0
168 191 0
172 194 0
168 190 0
172 193 0
172 194 0
173 196 0
177 198 0
178 199 0
181 201 0
172 193 0
175 196 0
171 192 0
177 197 0
173 194 0
174 194 0
172 192 0
173 193 0
173 194 0
169 189 0
173 193 0
171 192 0
176 196 0
175 195 0
170 190 0
170 190 0
171 192 0
162 183 0
173 192 0
170 190 0
174 194 0
166 184 0
168 188 0
165 184 0
171 189 0
159 177 0
162 181 0
169 187 0
157 177 0
165 184 0
165 185 0
165 185 0
164 184 0
164 184 0
163 183 0
160 179 0
160 179 0
165 185 0
156 176 0
160 178 0
152 171 0
159 179 0
161 182 0
159 179 0
162 181 0
169 188 0
155 174 0
152 172 0
157 178 0
154 174 0
152 173 0
164 185 0
153 174 0
146 167 0
166 189 0
160 180 0
152 173 0
156 176 0
153 174 0
154 174 0
151 172 0
153 175 0
159 179 0
146 166 0
141 160 0
147 167 0
141 162 0
152 173 0
156 177 0
153 171 0
140 159 0
153 173 0
154 174 0
155 174 0
141 160 0
148 169 0
156 177 0
163 184 0
164 185 0
155 177 0
164 185 0
157 178 0
146 168 0
159 180 0
167 188 0
154 175 0
158 179 0
158 181 0
159 181 0
151 173 0
147 168 0
165 186 0
167 188 0
156 178 0
163 185 0
153 174 0
149 170 0
152 173 0
150 172 0
160 182 0
151 173 0
146 168 0
144 166 0
142 164 0
139 160 0
154 175 0
149 170 0
149 171 0
159 181 0
140 161 0
149 170 0
142 163 0
137 157 0
139 159 0
131 150 0
134 156 0
130 152 0
142 163 0
114 135 25
49 78 67
50 80 76
49 79 76
51 82 62
49 79 72
48 77 88
53 84 88
54 85 95
50 80 76
53 85 80
51 81 88
52 83 88
53 83 80
51 82 76
52 82 88
49 78 72
50 80 76
52 83 80
52 82 72
54 85 92
56 88 88
55 87 88
50 81 67
53 85 99
53 84 80
50 80 72
53 84 99
55 87 99
55 88 88
55 87 111
54 85 88
47 76 72
52 82 88
53 85 80
47 75 76
50 80 99
52 83 99
53 84 99
55 86 105
53 83 89
51 82 76
52 82 88
51 81 76
44 71 62
54 85 102
53 83 92
54 84 80
50 80 72
51 79 102
54 86 84
53 83 92
48 75 80
47 75 80
49 77 63
48 75 67
47 75 72
52 81 92
51 79 81
45 70 67
41 66 25
46 70 77
46 68 52
99 112 25
120 135 0
121 136 0
128 146 0
124 139 0
133 150 0
130 143 0
118 134 0
124 141 0
133 150 0
137 151 0
134 147 0
136 151 0
132 147 0
135 147 0
122 134 0
143 160 0
141 155 0
145 157 0
142 158 0
139 154 0
142 157 0
128 142 0
125 134 0
134 145 0
132 145 0
142 151 0
138 148 0
145 156 0
138 148 0
137 149 0
144 155 0
148 160 0
146 155 0
140 146 0
143 153 0
137 147 0
144 154 0
143 151 0
148 159 0
136 142 0
146 155 0
124 116 10
114 95 25
118 99 19
99 82 7
119 102 2
111 98 17
111 96 17
122 111 11
95 81 11
105 91 6
113 96 8
105 93 10
113 98 7
111 96 12
119 107 7
116 100 3
104 92 12
108 99 8
109 96 14
114 107 7
112 101 5
113 104 6
119 107 24
125 114 3
120 112 7
122 111 10
136 127 1
121 114 4
114 105 7
118 104 3
125 116 18
126 115 18
128 119 22
137 130 0
133 126 32
127 118 3
135 125 7
128 117 22
120 109 17
124 114 0
126 115 16
130 120 28
134 128 16
134 125 16
131 119 24
123 110 16
136 127 23
134 125 22
128 118 16
136 128 32
140 131 23
139 132 28
140 133 23
139 129 28
135 125 36
137 127 28
140 130 28
142 133 33
145 137 33
136 127 36
136 127 28
143 134 29
140 130 17
141 135 32
140 133 28
146 138 42
133 124 33
142 134 23
135 126 22
141 133 37
145 134 39
147 141 28
144 136 36
144 132 32
143 135 40
144 134 39
141 131 36
145 134 34
144 136 36
145 137 39
141 134 28
153 145 41
150 141 51
152 141 45
141 133 43
152 141 48
146 135 37
150 139 45
137 129 33
148 141 36
152 142 43
148 137 40
140 131 28
147 138 40
149 139 46
152 141 40
145 133 43
144 135 32
143 127 44
150 142 39
142 131 39
151 143 29
149 138 46
151 142 48
150 142 49
153 141 43
152 142 51
158 147 51
151 137 43
149 138 44
154 143 56
150 137 53
153 142 49
148 134 54
149 136 50
145 133 38
150 143 45
146 134 38
145 132 46
147 136 47
151 138 37
142 130 39
147 135 47
149 137 44
149 134 47
146 131 41
152 139 45
176 198 0
174 196 0
175 197 0
172 194 0
172 195 0
171 194 0
171 194 0
173 197 0
170 195 0
165 190 0
171 194 0
173 197 0
174 196 0
168 191 0
173 196 0
172 195 0
173 196 0
177 199 0
175 197 0
172 195 0
167 189 0
175 198 0
169 192 0
168 191 0
166 189 0
176 198 0
171 194 0
174 197 0
169 190 0
173 196 0
168 192 0
172 195 0
173 197 0
170 193 0
170 191 0
173 195 0
172 193 0
168 191 0
171 194 0
169 192 0
166 190 0
167 189 0
166 190 0
172 194 0
173 195 0
169 192 0
171 194 0
175 197 0
170 193 0
173 195 0
169 191 0
174 196 0
173 194 0
172 192 0
170 190 0
173 193 0
174 195 0
174 194 0
174 194 0
169 189 0
168 190 0
168 188 0
174 194 0
170 190 0
172 192 0
165 185 0
170 191 0
172 191 0
172 191 0
164 182 0
163 182 0
169 189 0
161 180 0
157 178 0
170 188 0
169 187 0
172 192 0
169 187 0
164 183 0
162 180 0
163 183 0
157 175 0
161 179 0
169 189 0
160 179 0
164 183 0
164 186 0
158 177 0
161 182 0
159 179 0
150 170 0
159 180 0
156 177 0
159 178 0
160 182 0
161 183 0
160 180 0
157 178 0
166 187 0
148 169 0
158 180 0
151 171 0
150 170 0
152 173 0
153 174 0
159 181 0
160 181 0
145 166 0
156 177 0
153 174 0
159 180 0
149 170 0
136 156 0
152 173 0
145 166 0
144 164 0
145 165 0
150 172 0
160 180 0
144 163 0
147 167 0
165 184 0
147 166 0
147 168 0
151 171 0
163 183 0
168 189 0
162 183 0
161 182 0
158 178 0
162 183 0
153 174 0
148 168 0
158 178 0
161 184 0
150 172 0
151 172 0
147 169 0
154 175 0
154 176 0
162 183 0
151 172 0
145 167 0
146 166 0
161 183 0
150 171 0
148 169 0
155 176 0
165 187 0
150 171 0
152 173 0
157 178 0
154 175 0
148 169 0
146 167 0
146 168 0
153 175 0
149 168 0
142 162 0
141 162 0
149 169 0
143 163 0
151 172 0
137 158 0
137 156 0
121 141 0
141 161 0
141 161 0
122 140 0
113 131 25
79 102 84
48 78 72
50 80 67
49 78 72
50 80 92
53 84 92
51 81 84
51 82 80
52 84 80
51 80 95
55 85 108
50 80 67
53 84 105
48 77 67
53 84 92
54 87 95
54 85 84
49 78 80
51 82 76
54 85 88
51 80 80
50 80 88
55 87 99
52 83 99
53 84 84
56 88 102
53 84 102
54 85 102
54 85 105
55 86 92
54 85 88
51 82 84
52 82 88
54 85 84
55 87 102
50 79 76
53 84 88
49 78 84
54 86 95
50 78 88
50 79 95
52 82 84
49 76 67
46 73 80
53 83 84
54 85 99
52 82 89
53 82 84
50 78 84
47 75 67
50 79 80
46 73 67
47 74 84
51 80 84
45 71 67
50 78 95
49 76 81
48 74 77
49 77 67
74 92 58
116 131 25
112 125 0
130 143 0
105 120 0
118 132 0
127 142 0
119 138 0
137 150 0
119 132 0
127 140 0
121 137 0
129 140 0
136 153 0
107 122 0
136 150 0
147 161 0
137 151 0
135 150 0
116 128 0
134 147 0
131 138 0
129 141 0
125 132 0
140 152 0
138 147 0
128 136 0
132 139 0
147 159 0
141 158 0
137 149 0
127 137 0
143 152 0
140 146 0
147 155 0
118 125 0
140 147 0
134 143 0
149 159 0
138 143 0
149 159 0
156 168 0
147 152 0
155 166 0
144 155 0
122 115 15
120 105 16
109 86 12
102 87 8
121 109 24
107 91 11
99 87 11
108 91 12
113 98 7
132 116 13
124 105 16
106 95 1
108 94 14
113 103 7
107 96 4
112 96 8
116 106 3
120 109 0
121 107 12
127 110 8
109 101 2
118 107 17
113 99 3
124 112 8
123 116 0
117 104 5
123 116 3
132 126 0
123 113 16
122 115 11
126 116 17
134 128 16
125 114 3
125 114 12
127 119 17
133 125 0
134 121 16
129 121 3
130 121 16
131 121 0
128 117 22
129 124 0
127 117 0
125 117 0
131 120 1
136 126 28
142 134 28
134 122 24
141 133 28
126 115 16
136 129 22
134 126 36
137 128 29
128 119 28
143 133 17
139 128 23
147 140 23
138 130 22
143 138 28
142 134 29
141 131 23
147 138 39
147 138 40
139 128 33
145 138 16
144 134 37
138 129 0
142 135 28
145 134 32
146 135 43
150 139 37
144 133 22
134 125 22
148 139 36
137 128 22
142 134 33
142 133 33
147 134 41
150 142 40
150 141 36
145 133 29
148 137 33
147 134 33
153 145 40
144 136 36
147 139 43
146 136 39
143 131 43
146 138 43
151 139 44
142 129 28
149 137 34
151 141 48
145 130 44
146 136 45
142 129 40
151 141 49
147 135 37
145 136 32
146 134 48
147 133 46
141 133 30
156 145 45
148 137 44
145 137 42
159 147 50
149 140 33
144 134 45
142 133 29
154 143 46
142 132 28
145 130 38
143 129 40
152 144 30
150 137 49
145 130 46
136 122 33
143 133 39
146 134 46
147 137 40
143 130 48
151 137 52
147 137 39
147 137 51
155 141 57
149 135 42
170 195 0
172 196 0
173 196 0
174 196 0
171 195 0
174 197 0
177 199 0
173 197 0
173 196 0
170 193 0
168 191 0
173 197 0
172 194 0
173 195 0
171 193 0
173 196 0
170 192 0
171 195 0
173 196 0
172 195 0
168 192 0
171 194 0
172 195 0
175 198 0
164 187 0
167 190 0
166 190 0
166 190 0
174 196 0
170 192 0
164 189 0
167 190 0
168 193 0
168 191 0
173 196 0
175 198 0
167 189 0
172 194 0
173 195 0
166 189 0
169 192 0
168 191 0
167 191 0
164 185 0
169 191 0
167 190 0
167 190 0
164 187 0
165 187 0
172 194 0
174 194 0
173 195 0
171 192 0
177 197 0
166 189 0
175 195 0
171 192 0
176 196 0
174 194 0
173 194 0
171 191 0
173 193 0
170 191 0
171 190 0
173 193 0
169 190 0
174 193 0
173 192 0
172 193 0
169 188 0
169 191 0
161 181 0
167 186 0
160 181 0
171 191 0
161 181 0
165 184 0
161 180 0
169 190 0
160 179 0
170 190 0
162 183 0
164 183 0
169 187 0
160 178 0
161 181 0
167 187 0
166 185 0
167 186 0
156 177 0
166 187 0
160 181 0
154 175 0
149 171 0
160 181 0
153 175 0
150 171 0
151 173 0
158 178 0
163 184 0
142 163 0
152 174 0
157 178 0
163 184 0
147 168 0
151 172 0
145 165 0
145 166 0
160 180 0
154 176 0
154 175 0
156 176 0
138 158 0
151 171 0
142 161 0
151 172 0
140 161 0
137 155 0
150 169 0
153 174 0
154 174 0
157 178 0
159 179 0
157 177 0
155 175 0
153 173 0
157 178 0
156 177 0
159 179 0
145 166 0
155 177 0
163 184 0
159 180 0
148 169 0
155 175 0
153 174 0
149 170 0
153 176 0
147 168 0
165 187 0
157 178 0
157 178 0
151 172 0
142 164 0
162 184 0
147 169 0
144 164 0
150 171 0
148 169 0
147 168 0
153 174 0
155 177 0
149 170 0
153 174 0
145 166 0
150 171 0
144 167 0
136 156 0
131 152 0
137 158 0
126 147 0
131 151 0
136 156 0
131 150 0
135 155 0
127 147 0
122 143 0
132 152 0
108 129 0
137 158 0
134 153 0
95 116 44
54 82 67
46 74 51
48 77 62
50 80 51
50 79 84
47 75 80
55 87 72
54 85 92
49 78 62
53 83 76
49 79 36
53 83 84
50 80 80
52 83 72
53 84 72
51 81 92
48 77 80
52 82 88
55 87 92
49 78 62
46 74 62
50 80 67
52 82 84
52 83 76
51 81 84
53 85 76
55 86 102
46 75 62
52 84 67
54 84 99
51 82 57
53 84 88
54 85 111
51 81 76
53 84 84
51 81 102
55 86 95
56 87 92
50 80 67
48 76 84
49 78 88
50 80 95
51 81 92
48 75 88
47 76 67
48 76 84
51 81 67
47 74 67
51 80 68
48 75 76
49 76 72
50 80 85
51 80 86
51 80 81
44 70 62
42 65 58
100 114 44
110 125 0
121 134 0
109 123 0
96 111 0
127 143 0
125 138 0
113 126 0
116 130 0
121 138 0
129 144 0
137 151 0
129 141 0
134 148 0
128 141 0
134 149 0
123 135 0
134 145 0
124 139 0
143 153 0
115 126 0
145 159 0
129 142 0
133 144 0
137 149 0
122 129 0
149 162 0
131 143 0
132 142 0
138 148 0
133 146 0
126 128 0
137 151 0
116 124 0
138 149 0
134 144 0
143 144 0
136 148 0
120 120 0
131 134 0
142 150 0
137 140 0
136 142 0
132 140 0
147 152 0
137 144 0
134 138 0
119 115 3
127 107 25
116 98 21
119 101 31
108 89 22
109 89 10
103 86 9
114 100 18
115 100 10
106 89 8
108 93 7
117 104 8
117 105 7
110 100 8
104 88 8
113 102 5
110 100 5
123 108 14
109 101 3
103 92 17
118 106 13
119 110 0
118 108 8
134 125 1
131 117 18
113 101 0
111 98 16
119 112 3
140 126 22
120 113 3
135 128 0
128 118 3
117 107 1
129 119 1
120 112 0
122 111 18
125 118 1
121 116 16
129 121 3
122 113 0
129 119 17
139 132 16
128 118 7
132 123 16
129 121 28
140 132 7
132 122 3
127 118 16
129 117 16
139 133 3
133 124 1
138 127 3
134 127 17
133 126 0
138 131 17
143 133 28
133 125 28
142 136 29
137 127 16
133 127 16
133 122 28
140 129 28
129 122 0
148 137 37
141 135 39
139 130 28
146 138 43
143 135 28
139 130 16
137 127 16
146 139 36
145 136 36
137 127 23
143 132 37
150 141 40
145 135 37
146 137 37
134 123 22
147 137 37
147 137 28
152 143 46
146 137 48
145 136 28
147 135 42
145 137 24
145 137 32
156 146 49
141 130 36
143 131 23
142 132 37
137 126 18
146 138 39
151 142 51
150 142 36
152 139 41
148 139 32
146 139 24
144 127 39
145 132 48
150 138 46
154 141 53
151 143 51
149 141 43
157 147 58
147 136 34
150 137 50
147 137 36
140 127 37
148 139 44
149 139 49
154 143 44
151 138 43
150 139 44
150 140 47
152 142 49
148 137 51
153 140 57
148 136 47
147 135 39
151 136 45
148 133 38
145 133 44
148 136 48
143 133 35
143 131 22
173 196 0
171 194 0
170 194 0
175 198 0
172 196 0
175 198 0
169 194 0
171 195 0
171 193 0
173 196 0
173 196 0
174 196 0
170 194 0
173 195 0
171 195 0
172 195 0
167 189 0
174 197 0
170 192 0
174 196 0
169 191 0
175 198 0
173 196 0
174 198 0
171 193 0
170 194 0
168 190 0
168 190 0
169 191 0
173 197 0
173 196 0
169 193 0
168 192 0
160 184 0
175 198 0
171 193 0
167 191 0
158 181 0
170 193 0
168 191 0
170 194 0
170 193 0
165 188 0
168 191 0
172 194 0
172 194 0
162 184 0
170 192 0
165 189 0
171 193 0
168 191 0
168 191 0
165 187 0
171 192 0
167 189 0
168 190 0
165 186 0
170 191 0
170 191 0
178 199 0
164 186 0
166 187 0
168 189 0
170 190 0
161 181 0
175 196 0
168 188 0
164 183 0
170 189 0
175 195 0
167 188 0
161 182 0
159 177 0
170 190 0
159 179 0
165 187 0
161 180 0
160 178 0
170 190 0
166 187 0
168 189 0
162 182 0
167 188 0
170 189 0
164 185 0
163 184 0
155 176 0
156 178 0
161 183 0
159 180 0
167 189 0
161 182 0
150 171 0
159 181 0
166 186 0
172 193 0
160 182 0
158 179 0
164 186 0
149 169 0
154 175 0
150 170 0
158 177 0
136 156 0
157 177 0
152 172 0
152 172 0
150 172 0
157 177 0
144 164 0
151 170 0
161 180 0
153 173 0
148 169 0
144 165 0
148 167 0
148 167 0
156 176 0
146 165 0
145 165 0
149 168 0
149 169 0
160 179 0
157 178 0
160 181 0
170 189 0
156 176 0
155 175 0
158 178 0
155 175 0
166 185 0
147 167 0
161 181 0
142 162 0
152 173 0
141 162 0
149 170 0
147 168 0
147 168 0
160 181 0
154 174 0
151 171 0
159 179 0
148 168 0
154 175 0
153 174 0
141 163 0
140 161 0
149 170 0
127 148 0
151 171 0
142 163 0
149 170 0
142 163 0
142 162 0
133 153 0
138 159 0
146 167 0
144 165 0
138 159 0
131 151 0
134 152 0
133 153 0
130 150 0
132 152 0
130 150 0
124 144 0
122 141 0
125 145 0
97 115 0
111 130 0
125 143 0
106 126 25
70 91 25
48 76 62
48 77 62
52 83 88
50 79 76
49 79 84
49 78 72
47 75 67
47 76 62
52 83 88
52 82 92
51 81 76
50 79 92
49 79 84
55 86 84
51 81 67
50 80 95
54 85 92
50 80 80
51 81 76
51 82 76
52 82 102
49 80 67
52 83 88
51 82 84
52 83 80
51 81 92
51 81 80
51 82 88
53 84 102
51 82 95
51 81 80
50 79 68
51 82 84
47 75 68
55 86 99
51 81 84
52 82 81
48 77 62
48 77 67
49 77 77
51 79 58
50 79 72
52 82 99
47 74 80
49 78 72
46 73 67
47 75 62
49 77 99
45 70 57
42 66 51
50 77 69
44 67 72
55 77 28
110 123 44
91 101 0
113 125 0
104 119 0
113 125 0
115 128 0
109 120 0
126 141 0
118 127 0
112 126 0
119 131 0
133 150 0
104 120 0
110 125 0
132 143 0
130 143 0
123 136 0
130 147 0
128 142 0
118 128 0
119 128 0
124 135 0
137 150 0
127 138 0
130 143 0
125 141 0
121 129 0
128 139 0
129 138 0
140 152 0
124 135 0
135 145 0
124 133 0
136 146 0
121 128 0
136 145 0
128 138 0
139 150 0
144 147 0
129 137 0
144 153 0
130 136 0
127 131 0
131 134 0
140 149 0
125 131 0
135 140 0
144 153 0
130 135 0
137 137 0
127 109 20
102 84 8
100 82 3
92 75 18
99 83 13
105 93 26
109 93 18
108 92 10
121 108 18
118 107 8
111 91 11
122 108 5
115 100 16
108 96 0
116 105 7
107 96 4
113 101 0
116 106 7
117 105 3
120 111 3
107 99 0
121 110 7
121 111 16
113 101 4
126 115 5
132 125 2
113 100 7
122 114 3
130 120 8
124 113 16
114 101 7
130 121 9
114 104 16
126 118 7
131 123 0
136 126 8
131 123 4
129 121 13
137 129 22
132 124 7
133 121 22
129 119 22
136 129 17
135 127 16
131 122 7
140 131 32
134 123 24
140 130 7
138 129 3
144 134 24
140 133 28
135 124 22
138 129 28
144 133 28
140 130 29
136 123 24
141 132 23
135 123 24
139 129 28
140 128 25
137 126 16
133 122 24
138 130 22
136 128 24
140 129 36
143 133 24
143 132 32
137 126 18
140 129 16
146 135 30
141 132 32
134 121 16
142 131 29
147 137 36
146 135 32
141 131 19
134 123 28
147 136 39
142 133 37
138 129 40
141 130 29
140 128 29
143 132 37
149 139 49
140 130 33
144 132 49
144 130 46
146 136 44
142 131 32
145 134 41
150 140 46
142 132 29
143 131 33
140 130 29
144 131 40
143 134 42
146 136 29
150 141 42
153 141 36
148 138 41
145 134 33
148 138 45
149 137 47
148 139 46
151 142 32
141 130 32
145 135 43
149 134 41
145 133 34
151 139 49
150 139 43
142 130 33
148 137 46
143 127 35
147 135 47
144 135 33
148 137 48
148 134 47
147 135 49
151 141 53
144 130 54
143 131 30
151 141 49
173 196 0
171 195 0
171 195 0
171 195 0
170 193 0
170 194 0
176 199 0
172 195 0
173 196 0
171 194 0
174 197 0
175 197 0
170 192 0
173 196 0
174 197 0
173 196 0
174 197 0
173 195 0
175 198 0
171 195 0
171 194 0
170 194 0
169 193 0
174 196 0
169 191 0
172 194 0
170 193 0
170 194 0
165 189 0
170 193 0
166 189 0
173 195 0
173 197 0
170 194 0
172 195 0
169 190 0
163 186 0
171 194 0
162 186 0
171 194 0
171 193 0
174 197 0
172 195 0
169 193 0
165 188 0
162 184 0
171 194 0
161 184 0
168 190 0
170 193 0
163 186 0
170 192 0
172 194 0
167 191 0
167 190 0
175 196 0
168 190 0
171 193 0
166 187 0
173 194 0
167 187 0
167 189 0
165 188 0
165 186 0
176 197 0
170 192 0
170 191 0
168 188 0
173 194 0
167 188 0
169 191 0
167 189 0
166 187 0
163 185 0
172 193 0
171 192 0
165 185 0
168 188 0
160 182 0
154 176 0
167 189 0
164 185 0
164 185 0
158 181 0
160 182 0
164 185 0
168 189 0
160 182 0
154 174 0
155 176 0
160 181 0
169 191 0
159 179 0
149 170 0
158 178 0
156 175 0
157 178 0
152 171 0
166 186 0
142 163 0
153 174 0
157 178 0
148 168 0
156 177 0
160 181 0
151 170 0
154 174 0
152 173 0
154 174 0
147 169 0
147 167 0
153 174 0
163 182 0
151 172 0
149 169 0
134 153 0
155 175 0
149 169 0
150 170 0
151 169 0
164 184 0
167 187 0
157 176 0
169 190 0
157 176 0
163 183 0
169 189 0
155 175 0
160 182 0
155 177 0
151 172 0
154 175 0
157 176 0
153 175 0
157 176 0
154 175 0
157 179 0
146 166 0
161 183 0
147 168 0
153 174 0
160 181 0
143 164 0
147 168 0
150 171 0
144 165 0
141 162 0
133 155 0
152 173 0
143 165 0
146 168 0
136 157 0
142 162 0
145 165 0
121 142 0
152 174 0
130 149 0
136 156 0
135 154 0
133 151 0
120 140 0
129 150 0
115 137 0
118 138 0
126 146 0
123 140 0
112 132 0
119 137 0
123 141 0
117 138 0
111 129 0
129 147 0
110 126 0
114 132 0
93 111 0
58 84 67
52 83 76
51 81 88
48 77 80
50 80 76
50 79 84
49 78 80
45 72 57
50 80 72
55 88 95
48 77 67
51 81 84
53 85 80
53 83 80
53 83 108
52 82 84
51 82 76
52 81 88
51 81 72
50 79 92
51 80 84
47 74 72
54 85 99
51 80 76
49 79 72
48 76 80
49 77 62
53 84 95
51 80 95
47 75 76
48 77 76
48 78 62
51 80 81
51 80 62
45 72 84
51 80 84
49 78 76
45 72 51
51 79 84
44 72 57
44 71 62
50 80 72
50 79 76
46 73 84
44 69 67
51 79 76
50 78 80
48 74 74
43 69 67
53 73 44
73 89 36
108 120 0
97 108 0
108 118 0
101 115 0
106 117 0
108 120 0
111 124 0
91 103 0
94 102 0
108 124 0
111 123 0
132 145 0
128 141 0
118 130 0
131 145 0
123 134 0
118 131 0
129 145 0
117 123 0
141 155 0
121 136 0
137 149 0
127 142 0
110 120 0
138 150 0
129 144 0
129 141 0
124 134 0
131 143 0
122 133 0
122 131 0
131 143 0
118 126 0
130 138 0
128 136 0
139 147 0
141 151 0
134 138 0
128 134 0
123 128 0
130 139 0
138 145 0
142 151 0
142 150 0
131 135 0
131 132 0
140 142 0
135 141 0
137 138 0
146 152 0
121 127 0
136 135 0
123 112 11
118 98 26
119 98 25
120 99 17
116 95 24
121 106 15
95 78 12
113 96 17
112 92 10
112 99 3
113 97 8
109 100 0
98 88 14
118 108 15
116 103 3
96 83 0
112 99 4
111 99 14
110 96 10
103 95 16
121 108 8
119 106 4
112 104 8
128 118 10
136 126 7
120 112 0
127 112 10
124 113 1
119 106 11
127 118 3
115 98 7
108 101 1
128 117 3
131 120 7
117 107 3
124 110 17
126 119 3
122 109 16
130 122 16
123 114 3
127 116 28
139 130 32
131 123 16
131 122 16
132 124 23
133 125 0
129 119 0
136 128 8
139 128 25
141 128 33
147 137 32
141 131 28
127 117 24
134 125 16
139 128 23
130 120 17
134 125 16
136 125 16
140 131 16
141 131 36
139 132 17
136 127 32
140 129 32
143 136 23
141 133 23
141 132 28
148 139 33
141 128 28
138 128 28
143 133 28
139 127 26
142 130 28
142 133 32
142 130 40
133 120 16
145 135 28
150 141 42
139 129 24
143 134 24
142 133 36
145 134 25
151 141 34
142 131 33
150 141 46
137 128 16
147 138 34
148 137 34
146 136 37
140 128 23
151 139 41
141 132 23
147 136 42
151 139 41
143 129 30
141 129 39
147 139 22
146 137 32
137 125 22
153 143 47
156 146 53
151 140 44
151 139 41
151 138 46
154 144 36
153 139 54
147 133 37
151 139 48
156 143 49
137 123 30
141 126 34
144 131 51
138 123 9
143 132 33
150 139 49
146 134 46
145 134 37
142 128 37
147 134 37
138 127 32
153 141 52
149 134 45
153 141 46
173 195 0
170 194 0
169 191 0
172 195 0
173 195 0
173 197 0
175 197 0
172 194 0
171 194 0
174 198 0
173 195 0
170 192 0
171 195 0
168 191 0
172 194 0
173 196 0
166 188 0
164 187 0
171 194 0
170 194 0
171 193 0
173 196 0
173 195 0
169 193 0
172 193 0
170 193 0
168 192 0
171 195 0
172 195 0
165 186 0
173 196 0
169 193 0
163 186 0
168 191 0
172 194 0
171 193 0
175 196 0
167 189 0
171 192 0
170 193 0
169 192 0
170 192 0
170 192 0
170 191 0
173 194 0
172 195 0
168 191 0
169 191 0
167 190 0
169 191 0
163 185 0
165 189 0
164 187 0
167 189 0
163 184 0
159 181 0
156 180 0
166 187 0
166 189 0
165 188 0
167 190 0
166 188 0
166 186 0
163 185 0
171 194 0
167 189 0
162 183 0
168 191 0
168 190 0
165 187 0
165 187 0
171 192 0
170 191 0
170 192 0
163 185 0
169 191 0
165 189 0
168 190 0
169 189 0
165 186 0
161 183 0
151 173 0
169 190 0
164 185 0
156 179 0
166 187 0
166 188 0
161 184 0
163 183 0
162 184 0
154 176 0
152 174 0
165 186 0
162 183 0
151 172 0
143 164 0
158 178 0
154 173 0
160 181 0
154 174 0
147 168 0
150 170 0
158 178 0
163 183 0
148 168 0
145 165 0
154 175 0
149 169 0
155 175 0
147 169 0
148 167 0
150 169 0
149 168 0
156 177 0
159 180 0
163 182 0
148 166 0
155 174 0
146 165 0
153 172 0
166 185 0
161 180 0
158 178 0
159 178 0
162 182 0
168 187 0
139 159 0
153 172 0
148 169 0
152 172 0
148 168 0
156 176 0
153 174 0
151 172 0
146 167 0
158 177 0
150 172 0
161 180 0
137 159 0
145 165 0
156 177 0
154 174 0
149 170 0
158 179 0
142 163 0
159 179 0
145 166 0
142 162 0
142 164 0
139 160 0
139 161 0
147 168 0
137 158 0
149 170 0
146 165 0
148 168 0
135 156 0
142 163 0
132 151 0
136 155 0
139 159 0
123 144 0
128 146 0
131 148 0
120 139 0
136 156 0
119 138 0
124 144 0
118 136 0
110 128 0
114 132 0
104 121 0
121 141 0
101 117 0
102 120 0
94 112 25
89 107 0
60 82 67
46 74 67
49 77 76
47 76 57
50 78 62
46 74 67
45 73 67
48 77 72
51 81 80
53 83 95
49 78 80
52 81 92
48 77 62
47 75 76
50 80 76
51 81 80
52 83 76
53 83 84
49 78 72
49 79 76
46 74 76
51 81 99
50 80 67
51 81 72
48 76 76
48 78 76
50 79 88
49 78 84
44 70 57
51 80 84
49 77 76
47 74 62
47 73 72
46 74 72
48 76 76
49 78 76
47 74 84
54 85 102
49 77 80
44 70 72
50 80 77
49 78 67
44 70 72
44 71 58
42 66 67
67 88 76
66 85 51
93 102 0
91 104 0
95 109 0
93 102 0
78 90 0
92 105 0
103 116 0
96 110 0
117 128 0
103 116 0
112 123 0
92 101 0
110 122 0
124 137 0
118 133 0
104 110 0
100 112 0
133 149 0
97 108 0
106 119 0
104 116 0
115 124 0
120 131 0
125 136 0
125 136 0
122 133 0
122 137 0
136 149 0
123 135 0
118 127 0
136 149 0
118 130 0
120 128 0
124 133 0
127 136 0
118 121 0
129 135 0
131 140 0
121 126 0
124 128 0
124 131 0
132 138 0
118 123 0
132 138 0
118 124 0
122 125 0
136 145 0
109 113 0
138 142 0
126 125 0
138 141 0
123 123 0
128 128 0
139 142 0
128 125 0
117 116 23
118 106 19
117 98 12
113 93 12
100 83 17
120 100 18
117 100 26
116 97 8
111 94 11
103 83 7
118 96 16
109 95 3
106 92 10
105 89 9
118 100 8
109 96 6
106 91 8
113 97 13
126 114 3
128 118 7
116 105 3
109 95 5
109 96 1
121 111 3
126 114 3
118 107 3
128 115 10
126 114 7
113 102 1
126 110 5
120 109 0
122 111 4
117 108 1
126 113 4
128 112 16
119 110 3
124 110 17
128 118 3
121 112 12
134 123 16
126 117 16
127 121 17
132 122 17
125 117 3
124 113 23
136 125 16
129 121 16
137 126 7
133 125 17
145 134 16
131 118 23
135 122 28
146 136 36
138 125 19
121 112 4
129 120 28
134 118 23
143 131 36
135 127 28
131 118 33
150 139 32
139 127 28
138 127 7
135 125 24
149 138 43
151 140 39
136 123 25
147 136 29
145 133 36
133 124 22
142 131 29
141 132 40
145 134 29
144 136 16
137 124 28
137 129 22
145 136 40
136 125 28
146 135 48
138 128 28
146 136 46
145 135 37
144 134 23
144 136 36
141 129 17
151 138 48
146 132 30
151 142 44
141 132 32
146 134 40
148 140 39
147 134 43
144 130 35
149 139 51
139 126 41
154 143 46
149 137 44
144 132 43
152 141 43
138 124 36
140 127 37
152 142 49
155 142 45
150 138 44
143 130 42
139 128 19
141 130 33
145 136 33
145 131 49
144 129 43
152 138 57
141 123 38
151 142 37
143 129 41
136 125 37
144 132 34
149 135 56
144 132 40
149 135 45
145 128 57
146 132 54
174 196 0
173 196 0
173 197 0
176 199 0
172 195 0
171 194 0
169 191 0
172 194 0
174 196 0
174 198 0
174 198 0
171 195 0
174 197 0
175 197 0
173 195 0
171 193 0
167 191 0
171 193 0
173 196 0
171 194 0
172 196 0
172 194 0
174 197 0
175 197 0
173 195 0
174 195 0
171 194 0
174 196 0
171 195 0
174 197 0
169 192 0
176 197 0
175 197 0
173 195 0
169 191 0
172 194 0
167 189 0
171 193 0
173 195 0
171 193 0
170 193 0
168 191 0
172 194 0
167 189 0
176 198 0
173 194 0
173 196 0
172 194 0
173 195 0
167 190 0
174 196 0
171 194 0
161 184 0
169 191 0
166 190 0
169 192 0
167 190 0
167 190 0
162 184 0
168 191 0
167 187 0
162 184 0
172 194 0
169 193 0
168 188 0
163 185 0
169 191 0
169 191 0
163 184 0
153 176 0
170 192 0
158 180 0
167 190 0
162 184 0
164 185 0
166 189 0
170 191 0
166 187 0
161 182 0
159 180 0
163 185 0
164 186 0
164 185 0
164 186 0
158 181 0
163 184 0
165 187 0
159 179 0
167 189 0
164 185 0
165 187 0
159 182 0
167 188 0
160 182 0
162 183 0
159 180 0
164 184 0
151 171 0
163 184 0
159 178 0
157 177 0
151 171 0
165 185 0
147 166 0
153 173 0
155 175 0
164 185 0
147 166 0
153 173 0
154 174 0
160 179 0
146 166 0
152 172 0
147 167 0
146 165 0
157 178 0
152 172 0
159 178 0
162 182 0
165 185 0
165 185 0
160 180 0
160 182 0
161 180 0
152 172 0
148 168 0
156 174 0
156 177 0
148 168 0
150 170 0
156 177 0
154 176 0
162 183 0
148 168 0
156 177 0
138 158 0
142 163 0
153 175 0
147 167 0
142 163 0
142 162 0
141 162 0
146 167 0
141 163 0
150 168 0
146 167 0
131 153 0
149 170 0
150 170 0
130 150 0
137 158 0
149 169 0
141 161 0
144 165 0
138 158 0
139 159 0
132 152 0
136 157 0
135 154 0
127 146 0
145 164 0
127 145 0
116 136 0
123 142 0
121 141 0
114 135 0
116 136 0
131 149 0
121 139 0
118 136 0
102 120 0
111 128 0
106 123 0
106 123 0
119 136 0
107 124 0
95 111 0
113 130 0
104 121 36
54 76 62
43 69 44
44 72 36
45 71 67
48 76 67
49 79 76
46 74 62
48 76 72
49 78 72
48 77 62
52 83 76
47 75 51
49 77 88
49 78 92
48 77 67
52 83 88
46 74 57
48 78 72
50 78 95
48 78 62
51 81 92
51 82 62
52 83 92
50 80 72
49 77 72
47 75 84
48 75 76
51 80 84
47 75 72
47 72 76
48 76 57
46 73 72
50 79 88
47 74 72
48 75 92
45 72 80
50 79 67
46 73 72
46 74 51
40 64 25
41 64 62
37 57 51
68 81 25
81 93 0
68 80 0
86 99 0
100 111 0
103 114 0
70 78 0
95 104 0
96 106 0
115 128 0
108 121 0
95 107 0
121 130 0
84 94 0
110 120 0
109 121 0
104 113 0
103 112 0
111 119 0
117 133 0
118 130 0
117 131 0
119 133 0
108 120 0
111 121 0
126 139 0
135 149 0
127 139 0
132 140 0
143 155 0
123 135 0
136 149 0
131 142 0
127 140 0
127 137 0
120 131 0
135 146 0
122 134 0
123 131 0
133 141 0
123 131 0
134 142 0
122 129 0
124 134 0
126 132 0
121 127 0
103 107 0
135 142 0
125 129 0
124 129 0
123 128 0
122 123 0
128 127 0
121 126 0
120 119 0
119 118 0
116 117 0
130 132 0
143 146 0
129 125 0
114 101 18
118 96 26
102 84 10
109 85 18
106 90 12
110 88 8
102 83 13
113 97 9
113 95 9
107 93 10
105 93 12
116 99 9
117 100 11
102 90 2
112 95 10
118 104 10
118 102 7
124 111 3
120 103 1
114 97 0
123 110 8
115 101 5
118 105 3
126 113 7
124 113 1
132 123 1
129 117 3
120 110 7
129 116 3
117 104 1
134 126 1
119 106 8
132 119 16
112 103 0
128 119 16
129 119 0
132 123 4
126 111 5
128 118 3
130 119 7
135 125 1
129 118 7
132 122 3
132 124 3
130 120 0
137 125 24
134 122 18
138 127 18
138 125 23
129 120 16
138 129 32
132 120 17
127 114 7
134 126 28
137 125 18
139 127 28
137 124 7
141 133 36
137 126 3
148 139 33
127 117 18
139 132 23
144 132 36
136 129 17
142 134 32
141 133 28
142 130 33
142 129 28
142 133 1
128 115 9
134 122 23
149 139 37
141 130 34
143 135 33
143 132 37
145 133 36
139 129 24
147 137 26
142 131 29
140 127 37
135 122 40
138 123 29
136 123 19
143 132 32
147 138 30
139 126 23
145 134 28
145 133 25
141 130 33
143 133 29
143 133 32
141 128 33
157 145 54
143 129 30
143 130 38
141 127 24
144 135 32
140 126 37
144 129 51
144 134 39
139 123 36
137 122 40
141 127 30
143 133 43
149 137 45
147 138 43
142 132 29
151 140 45
148 139 32
144 130 35
144 130 46
146 132 41
147 136 49
144 129 38
147 135 40
149 134 38
137 124 44
149 136 52
145 133 34
176 198 0
170 194 0
177 199 0
168 192 0
170 194 0
171 194 0
172 196 0
171 194 0
175 197 0
170 192 0
175 198 0
176 199 0
172 195 0
175 198 0
175 196 0
170 193 0
173 195 0
170 192 0
170 193 0
172 196 0
173 195 0
171 194 0
172 194 0
173 196 0
171 195 0
166 189 0
174 196 0
171 194 0
172 194 0
172 194 0
172 196 0
168 191 0
169 192 0
171 194 0
169 192 0
169 191 0
165 185 0
174 196 0
169 191 0
162 184 0
174 196 0
171 193 0
172 194 0
172 195 0
168 190 0
176 198 0
167 189 0
166 189 0
170 193 0
166 188 0
169 190 0
169 190 0
167 189 0
170 193 0
167 188 0
166 188 0
156 178 0
169 192 0
166 188 0
169 190 0
171 193 0
162 184 0
154 176 0
162 184 0
168 189 0
169 191 0
173 195 0
164 186 0
165 186 0
170 192 0
157 179 0
171 192 0
162 184 0
166 187 0
164 184 0
155 177 0
170 192 0
164 186 0
162 185 0
157 179 0
161 181 0
159 180 0
163 185 0
157 177 0
151 172 0
169 190 0
165 186 0
168 189 0
154 175 0
167 188 0
154 175 0
163 184 0
163 184 0
157 178 0
160 181 0
167 189 0
160 181 0
159 180 0
144 165 0
152 172 0
156 177 0
162 182 0
148 170 0
153 173 0
147 167 0
145 166 0
156 177 0
142 163 0
157 177 0
147 166 0
153 173 0
147 167 0
153 173 0
152 172 0
154 174 0
155 175 0
157 176 0
156 177 0
161 180 0
154 174 0
149 170 0
170 190 0
160 178 0
156 176 0
150 171 0
148 167 0
156 177 0
159 179 0
144 163 0
153 173 0
148 169 0
156 175 0
147 167 0
150 170 0
142 162 0
132 152 0
140 161 0
149 171 0
151 171 0
143 163 0
136 157 0
139 159 0
142 163 0
145 166 0
134 154 0
150 170 0
149 169 0
144 165 0
146 167 0
142 163 0
146 167 0
150 171 0
144 165 0
125 146 0
129 150 0
146 166 0
143 163 0
129 147 0
121 141 0
139 159 0
127 146 0
137 155 0
138 158 0
124 144 0
134 151 0
120 140 0
112 131 0
125 144 0
106 123 0
91 110 0
113 133 0
96 113 0
104 121 0
103 121 0
100 117 0
101 117 0
104 119 0
102 120 0
90 103 0
94 108 0
94 110 0
71 90 51
48 70 62
42 69 57
47 75 67
46 73 51
44 72 67
47 76 62
45 73 57
47 76 76
43 68 67
45 74 44
47 76 62
52 82 92
45 73 67
49 78 67
49 77 84
47 75 88
46 73 81
49 78 80
51 81 72
48 76 84
45 71 63
47 74 80
47 76 57
51 80 76
44 71 67
45 71 62
45 71 44
44 70 57
46 72 76
49 77 80
45 71 62
40 64 36
41 65 51
43 69 76
42 65 72
38 61 62
66 82 36
81 90 0
82 89 0
86 97 0
79 90 0
70 80 0
81 90 0
92 105 0
91 99 0
89 101 0
100 109 0
100 111 0
99 108 0
94 107 0
123 135 0
78 90 0
110 120 0
117 129 0
108 119 0
113 128 0
108 119 0
130 143 0
111 121 0
122 135 0
118 132 0
107 121 0
123 135 0
103 115 0
121 130 0
120 133 0
116 125 0
121 134 0
120 128 0
132 144 0
120 131 0
135 148 0
128 134 0
125 135 0
124 132 0
120 131 0
140 149 0
137 144 0
123 129 0
119 125 0
118 126 0
122 125 0
130 137 0
125 131 0
124 126 0
125 127 0
138 148 0
126 129 0
129 138 0
127 130 0
129 132 0
126 126 0
128 130 0
117 115 0
126 124 0
122 123 0
120 119 0
118 114 0
126 126 0
120 119 0
122 118 16
111 94 10
102 84 18
108 91 19
106 90 11
116 98 13
107 92 8
116 97 5
103 85 12
112 93 3
117 101 14
109 92 17
113 97 7
120 105 4
124 107 10
114 99 8
115 102 10
111 92 9
116 103 3
128 112 11
121 105 6
122 106 8
120 111 16
119 105 3
111 102 3
123 106 15
121 107 12
121 110 3
122 109 1
119 106 4
125 114 7
120 109 0
119 105 12
124 114 11
127 114 17
119 104 7
121 105 16
137 126 3
124 113 16
113 101 3
143 132 24
130 121 5
131 119 16
126 115 8
140 130 3
129 117 17
132 118 4
137 124 24
125 114 5
130 117 16
135 124 29
132 123 4
136 127 24
130 117 17
132 121 18
128 120 28
146 135 23
134 121 16
135 120 28
137 124 32
137 126 3
136 126 39
140 130 28
142 132 32
140 131 16
137 126 26
142 130 33
135 123 5
139 127 33
143 133 28
145 134 23
137 124 11
146 136 36
143 130 29
143 129 31
143 129 29
131 119 29
147 140 36
144 136 28
128 116 28
142 133 32
136 122 29
146 131 36
143 129 32
146 136 29
145 134 33
145 134 41
151 142 49
146 133 37
150 137 28
141 130 36
147 131 42
149 135 47
149 136 33
144 132 42
157 143 52
140 129 24
147 137 38
152 141 40
151 140 46
140 131 36
149 139 40
151 138 49
151 138 44
140 125 40
152 138 49
151 138 51
136 122 33
153 143 42
149 132 46
142 128 40
149 132 41
146 133 50
147 134 47
147 132 44
148 132 46
141 126 41
148 137 49
175 198 0
172 195 0
171 195 0
175 197 0
170 193 0
173 197 0
174 197 0
173 195 0
167 191 0
173 196 0
172 195 0
172 195 0
172 194 0
178 199 0
174 196 0
171 193 0
175 197 0
173 196 0
171 193 0
169 191 0
176 198 0
170 193 0
174 197 0
174 196 0
172 195 0
167 190 0
173 196 0
173 196 0
171 194 0
173 196 0
171 192 0
170 191 0
166 187 0
167 189 0
162 185 0
168 191 0
171 193 0
173 196 0
165 187 0
164 186 0
165 189 0
170 192 0
173 194 0
168 191 0
171 193 0
164 186 0
174 195 0
163 185 0
171 193 0
162 185 0
168 190 0
162 185 0
168 191 0
167 187 0
163 183 0
166 188 0
174 196 0
167 189 0
162 184 0
164 186 0
169 190 0
159 181 0
171 192 0
166 187 0
168 189 0
157 181 0
164 185 0
170 191 0
169 191 0
165 187 0
164 184 0
164 184 0
165 186 0
161 183 0
165 186 0
161 183 0
165 185 0
166 186 0
162 183 0
157 178 0
158 181 0
168 189 0
164 185 0
161 182 0
156 176 0
162 183 0
168 191 0
159 181 0
160 181 0
172 192 0
151 171 0
151 171 0
161 179 0
154 175 0
157 178 0
166 186 0
153 173 0
156 176 0
161 180 0
154 173 0
155 175 0
159 178 0
146 167 0
142 162 0
151 171 0
139 157 0
162 183 0
161 180 0
158 178 0
153 172 0
158 177 0
160 179 0
161 181 0
150 170 0
159 179 0
156 175 0
169 187 0
160 180 0
152 171 0
154 173 0
151 172 0
154 172 0
147 167 0
152 172 0
152 172 0
145 166 0
145 165 0
156 176 0
155 173 0
147 167 0
151 172 0
151 170 0
145 166 0
156 176 0
155 177 0
153 174 0
150 170 0
161 180 0
149 169 0
153 175 0
145 164 0
155 176 0
155 174 0
158 179 0
145 165 0
144 165 0
145 166 0
139 160 0
146 165 0
135 156 0
137 158 0
135 154 0
136 158 0
144 164 0
125 145 0
134 154 0
132 152 0
133 153 0
150 171 0
135 155 0
135 154 0
125 145 0
125 146 0
116 136 0
112 130 0
122 142 0
122 140 0
110 128 0
112 129 0
117 135 0
112 130 0
111 128 0
114 131 0
113 129 0
95 113 0
97 113 0
86 103 0
95 111 0
85 99 0
87 103 0
98 112 0
75 90 0
83 98 0
80 97 51
39 63 25
36 59 0
41 66 57
44 71 36
44 71 62
48 77 76
43 70 57
46 73 44
47 75 72
45 72 67
47 75 67
42 68 51
49 78 72
47 75 67
40 65 44
44 69 76
48 76 84
45 71 76
46 74 62
44 69 67
44 70 67
44 69 44
40 64 62
44 71 57
47 74 67
40 65 44
41 66 51
44 69 77
44 71 57
44 69 51
44 63 45
57 75 44
53 66 25
49 57 0
76 87 0
81 91 0
71 82 0
63 72 0
73 84 0
95 106 0
96 109 0
85 93 0
87 96 0
94 104 0
107 118 0
104 116 0
106 118 0
89 102 0
98 109 0
112 124 0
103 114 0
96 105 0
119 129 0
109 122 0
83 94 0
97 106 0
108 115 0
115 130 0
107 122 0
118 128 0
121 131 0
124 135 0
122 134 0
109 117 0
113 124 0
127 139 0
129 140 0
114 124 0
123 134 0
112 121 0
135 145 0
127 139 0
127 136 0
117 126 0
127 132 0
112 120 0
118 127 0
129 140 0
121 126 0
122 127 0
124 133 0
129 138 0
123 131 0
120 124 0
132 140 0
125 132 0
114 117 0
121 126 0
115 115 0
126 129 0
108 105 0
111 110 0
126 126 0
124 123 0
133 133 0
116 109 0
117 117 0
113 109 0
132 131 0
118 118 0
115 109 17
108 83 13
103 84 10
114 92 21
114 100 16
118 98 16
113 97 10
115 100 1
120 102 8
108 90 7
109 93 18
112 97 7
102 86 7
105 90 4
113 96 9
118 101 1
116 98 7
120 103 5
118 104 4
121 106 10
120 105 11
119 107 0
126 113 10
125 111 12
122 110 7
116 99 1
124 112 6
122 111 3
127 112 0
126 112 1
117 103 9
117 101 8
128 111 11
132 123 16
129 120 0
127 115 8
129 118 2
127 117 3
132 122 0
132 121 16
136 127 3
133 122 2
131 116 3
138 127 10
133 122 16
135 123 22
135 125 17
132 118 0
123 112 10
132 118 24
134 123 23
136 126 28
130 119 16
145 136 28
131 115 9
143 131 23
136 125 1
138 126 18
135 123 29
142 129 18
133 119 32
139 130 23
138 129 16
136 126 23
134 123 16
135 123 19
140 129 25
138 128 25
145 134 33
145 134 28
143 134 24
148 133 40
141 129 40
142 131 28
141 129 31
137 123 25
141 128 33
135 121 23
150 136 41
146 136 36
141 127 47
144 132 29
132 122 28
144 132 34
135 124 16
141 129 39
151 140 46
142 130 25
135 121 24
151 138 33
144 132 46
142 129 35
140 123 25
140 124 46
143 133 34
144 132 41
145 134 36
144 131 38
143 131 37
144 134 36
148 135 41
144 131 34
142 130 45
150 137 42
147 135 28
146 132 43
143 129 46
139 129 28
136 124 34
153 144 46
145 133 44
145 135 39
140 125 37
149 139 43
139 123 42
138 123 46
174 197 0
175 198 0
174 196 0
175 197 0
175 198 0
174 197 0
175 198 0
173 196 0
170 193 0
176 196 0
175 198 0
171 191 0
172 195 0
170 193 0
171 194 0
174 198 0
167 190 0
173 196 0
171 193 0
171 194 0
176 197 0
172 194 0
165 189 0
171 193 0
174 197 0
166 189 0
173 196 0
172 195 0
170 193 0
173 196 0
171 193 0
171 194 0
170 193 0
168 190 0
168 189 0
170 193 0
168 190 0
171 192 0
167 188 0
172 196 0
171 192 0
171 192 0
169 192 0
173 195 0
166 188 0
174 195 0
170 192 0
169 191 0
166 189 0
171 192 0
170 192 0
169 191 0
175 197 0
164 186 0
169 190 0
173 195 0
169 190 0
175 195 0
170 192 0
167 189 0
168 189 0
171 193 0
167 188 0
164 185 0
169 191 0
171 191 0
171 193 0
166 187 0
163 184 0
167 188 0
165 187 0
158 179 0
166 187 0
173 195 0
161 181 0
166 188 0
160 181 0
155 175 0
161 181 0
166 187 0
160 181 0
159 180 0
164 186 0
157 178 0
156 177 0
161 184 0
156 177 0
160 180 0
166 186 0
166 186 0
156 176 0
157 178 0
162 182 0
162 182 0
163 183 0
160 181 0
162 181 0
159 178 0
152 173 0
163 181 0
149 169 0
158 179 0
153 173 0
152 172 0
157 178 0
148 168 0
162 182 0
161 182 0
164 184 0
161 181 0
158 178 0
152 172 0
151 170 0
162 180 0
163 183 0
163 180 0
155 176 0
155 174 0
142 161 0
152 171 0
166 185 0
146 166 0
155 175 0
149 169 0
164 184 0
156 176 0
153 173 0
155 176 0
131 150 0
133 154 0
148 170 0
164 185 0
133 154 0
152 171 0
152 174 0
155 174 0
142 162 0
150 171 0
148 169 0
148 169 0
139 160 0
150 170 0
145 166 0
139 159 0
133 153 0
147 166 0
158 178 0
135 154 0
139 159 0
143 163 0
145 166 0
133 152 0
141 161 0
141 162 0
132 153 0
129 148 0
138 158 0
135 153 0
125 143 0
133 153 0
114 134 0
129 149 0
127 147 0
126 144 0
102 122 0
110 128 0
132 150 0
119 137 0
100 116 0
121 137 0
115 133 0
90 108 0
113 130 0
95 109 0
106 123 0
104 121 0
102 118 0
116 133 0
94 106 0
85 101 0
101 116 0
104 119 0
90 102 0
76 88 0
83 97 0
78 91 0
52 64 25
49 66 44
37 60 44
46 67 44
38 62 36
45 72 67
43 69 62
42 68 44
45 72 62
40 64 44
44 70 67
40 64 51
46 74 67
40 65 51
43 69 62
42 69 57
44 70 51
44 71 67
42 67 51
49 78 62
42 68 36
42 66 51
42 68 52
41 65 51
39 61 36
42 65 67
52 66 36
41 57 25
63 69 0
66 74 0
61 68 0
59 67 0
80 87 0
67 75 0
65 76 0
84 97 0
72 80 0
79 92 0
69 78 0
98 108 0
85 95 0
91 104 0
97 109 0
112 123 0
96 108 0
92 101 0
109 121 0
95 106 0
128 141 0
115 126 0
105 116 0
105 114 0
102 113 0
117 129 0
116 127 0
122 135 0
121 133 0
117 120 0
132 146 0
124 133 0
109 118 0
104 112 0
106 117 0
111 120 0
110 118 0
131 147 0
129 140 0
126 136 0
110 121 0
120 127 0
104 114 0
126 134 0
112 118 0
122 130 0
114 116 0
120 127 0
117 120 0
127 134 0
120 123 0
113 118 0
124 131 0
124 130 0
108 115 0
122 129 0
118 121 0
118 120 0
116 118 0
133 132 0
119 123 0
125 125 0
121 120 0
116 117 0
115 111 0
110 107 0
117 111 0
118 115 0
102 95 0
99 87 0
118 115 0
120 112 3
111 99 7
101 79 11
116 96 21
110 91 9
108 91 9
107 86 7
112 93 11
98 75 10
104 92 11
113 93 8
114 96 12
111 98 3
117 100 11
121 107 3
116 99 9
119 103 4
113 98 2
109 96 8
118 102 8
122 105 5
123 108 8
122 109 1
125 110 8
125 107 5
116 102 8
125 109 8
127 113 4
113 101 5
120 109 7
122 108 7
134 126 7
129 118 4
127 110 22
129 119 1
120 110 3
124 110 10
132 120 7
119 105 1
121 110 7
127 116 16
131 117 7
126 115 3
130 118 16
135 120 16
138 130 16
133 121 8
135 123 23
137 126 28
135 121 18
127 115 2
145 130 25
139 132 16
140 126 19
135 124 18
128 113 24
135 123 29
139 129 18
136 123 33
132 118 30
140 132 28
139 129 29
150 136 38
145 132 29
143 131 29
141 132 3
140 127 24
146 135 30
136 121 29
138 125 23
140 126 10
135 124 28
141 129 30
137 126 24
142 129 39
140 128 24
139 128 36
146 135 28
147 133 41
147 135 36
154 140 38
138 124 11
136 124 26
145 133 25
133 119 16
149 139 42
142 129 37
139 125 34
137 125 16
135 121 19
139 125 26
150 139 41
140 127 36
146 133 29
150 134 41
142 130 34
141 128 25
135 123 36
140 125 37
143 132 33
145 130 36
148 138 43
135 120 24
144 132 33
134 120 31
138 125 38
129 115 33
137 121 24
153 140 46
144 133 40
143 128 41
153 138 53
145 131 43
142 126 40
147 132 49
171 194 0
172 195 0
171 195 0
173 196 0
175 198 0
175 197 0
171 195 0
174 197 0
176 198 0
171 194 0
174 197 0
175 198 0
174 197 0
172 195 0
176 197 0
175 197 0
173 195 0
174 196 0
174 196 0
175 198 0
167 190 0
171 193 0
172 193 0
171 194 0
168 191 0
173 197 0
174 196 0
173 195 0
172 195 0
173 195 0
173 194 0
172 194 0
174 196 0
173 196 0
173 195 0
169 191 0
169 192 0
175 197 0
174 195 0
178 198 0
168 190 0
170 191 0
168 192 0
172 193 0
177 198 0
167 189 0
171 192 0
164 186 0
170 192 0
166 188 0
170 191 0
166 189 0
174 195 0
168 191 0
165 186 0
167 189 0
162 185 0
167 189 0
172 194 0
170 191 0
170 191 0
163 185 0
167 189 0
158 179 0
171 193 0
170 191 0
164 187 0
165 188 0
166 186 0
159 181 0
166 185 0
158 180 0
168 188 0
161 182 0
165 187 0
161 182 0
169 190 0
156 176 0
169 190 0
170 192 0
158 179 0
161 182 0
158 178 0
170 191 0
146 168 0
160 181 0
164 184 0
161 182 0
160 181 0
154 175 0
151 171 0
163 184 0
164 184 0
165 185 0
169 189 0
164 184 0
150 170 0
162 183 0
150 170 0
163 183 0
166 185 0
159 179 0
155 175 0
154 173 0
160 180 0
161 181 0
147 166 0
160 179 0
143 162 0
152 172 0
153 172 0
166 184 0
154 173 0
161 180 0
147 167 0
161 180 0
152 173 0
161 181 0
152 171 0
161 180 0
164 185 0
150 170 0
158 178 0
148 169 0
151 172 0
141 162 0
153 173 0
160 180 0
151 170 0
161 181 0
152 173 0
143 164 0
150 170 0
151 171 0
152 172 0
146 166 0
137 157 0
144 164 0
145 165 0
148 168 0
149 169 0
139 160 0
133 155 0
150 169 0
157 177 0
142 162 0
142 161 0
131 151 0
143 164 0
143 163 0
136 157 0
127 147 0
149 169 0
144 163 0
130 151 0
124 145 0
148 169 0
134 153 0
128 148 0
127 147 0
118 136 0
117 135 0
121 140 0
111 130 0
109 127 0
130 149 0
131 149 0
115 134 0
119 139 0
136 154 0
112 129 0
120 138 0
103 119 0
97 113 0
121 136 0
92 107 0
89 104 0
112 128 0
88 103 0
88 103 0
73 90 0
83 97 0
94 108 0
64 77 0
83 95 0
70 81 0
68 79 0
58 70 0
57 68 0
61 72 0
61 74 25
42 55 0
55 68 25
32 52 51
30 50 25
40 64 36
36 59 44
34 57 25
40 63 51
46 73 62
40 64 62
40 64 44
38 62 44
41 66 57
42 60 36
41 58 44
49 71 51
74 89 57
38 52 44
45 57 25
64 70 0
54 60 0
67 78 0
62 69 0
69 76 0
63 74 0
62 72 0
70 81 0
78 88 0
81 90 0
83 94 0
96 107 0
100 110 0
83 94 0
76 86 0
104 116 0
96 106 0
107 120 0
85 93 0
108 120 0
106 117 0
91 101 0
99 111 0
107 119 0
95 107 0
114 127 0
126 137 0
114 125 0
111 120 0
122 132 0
110 120 0
101 111 0
113 123 0
120 131 0
130 142 0
110 119 0
128 141 0
120 130 0
115 125 0
132 143 0
114 122 0
109 118 0
120 130 0
106 118 0
118 128 0
139 151 0
107 118 0
113 119 0
113 122 0
126 130 0
118 127 0
121 127 0
122 125 0
128 133 0
121 126 0
121 129 0
116 121 0
115 123 0
126 129 0
119 125 0
126 129 0
131 136 0
133 136 0
133 137 0
127 126 0
113 112 0
118 118 0
113 115 0
107 104 0
113 113 0
107 105 0
111 111 0
101 99 0
118 112 0
115 113 0
111 105 0
102 97 0
111 104 0
99 83 8
119 100 31
110 91 9
107 84 8
113 95 17
108 88 7
113 96 18
107 86 10
102 88 10
110 92 9
113 100 8
104 87 4
120 102 9
111 94 9
119 100 11
117 102 3
114 94 9
127 111 5
115 97 11
119 103 2
122 112 5
116 103 10
113 99 1
127 112 13
128 116 7
115 102 3
124 108 7
121 107 2
122 107 8
132 123 7
126 107 8
132 123 2
127 115 0
122 105 1
135 120 24
125 112 3
132 119 7
128 119 0
122 108 3
125 112 8
129 113 26
142 130 24
129 119 10
131 122 3
138 126 16
126 112 6
135 124 16
120 104 16
138 126 24
137 123 19
127 110 19
134 121 17
129 118 3
134 122 24
128 118 1
130 118 3
133 121 10
133 119 17
133 122 1
133 120 25
146 133 49
136 124 24
125 113 6
134 123 28
135 124 24
138 129 18
142 129 18
125 114 7
140 130 32
132 119 24
140 131 36
135 119 3
145 134 29
130 118 23
139 125 18
140 126 33
135 120 21
148 135 32
149 141 33
140 128 34
144 129 30
141 129 28
145 133 34
139 126 37
138 123 28
148 136 42
143 130 38
147 134 51
141 129 23
145 133 41
141 132 29
139 132 23
146 134 40
139 127 45
146 129 44
143 128 39
150 137 51
140 127 41
145 130 32
144 129 43
136 122 37
149 138 41
143 128 29
143 126 41
143 128 45
147 131 35
149 133 51
139 123 33
142 127 54
142 126 39
145 128 47
144 130 42
173 196 0
176 198 0
172 195 0
172 195 0
170 193 0
173 196 0
174 197 0
173 195 0
173 196 0
176 197 0
174 197 0
176 198 0
170 194 0
173 194 0
169 192 0
173 196 0
174 197 0
174 197 0
172 194 0
175 196 0
167 190 0
177 199 0
174 197 0
172 194 0
170 192 0
173 195 0
170 193 0
170 193 0
174 196 0
170 192 0
174 196 0
175 196 0
172 195 0
173 194 0
175 196 0
163 187 0
170 193 0
168 191 0
171 193 0
171 193 0
174 196 0
172 194 0
169 193 0
170 193 0
168 189 0
166 188 0
172 194 0
168 188 0
171 193 0
161 183 0
167 190 0
164 186 0
172 194 0
171 193 0
165 188 0
169 191 0
169 191 0
168 190 0
171 192 0
170 191 0
171 193 0
159 179 0
162 184 0
171 192 0
168 189 0
162 183 0
164 185 0
158 178 0
173 194 0
172 193 0
167 188 0
171 192 0
170 191 0
170 191 0
155 175 0
166 188 0
160 182 0
167 188 0
162 182 0
169 189 0
167 189 0
164 186 0
160 181 0
166 188 0
165 185 0
164 184 0
156 177 0
163 183 0
159 179 0
161 181 0
168 188 0
157 178 0
161 179 0
170 190 0
160 179 0
164 185 0
168 188 0
158 178 0
164 183 0
163 182 0
171 190 0
151 170 0
159 178 0
154 175 0
154 171 0
153 171 0
163 183 0
149 169 0
154 173 0
158 178 0
159 180 0
155 173 0
157 178 0
153 173 0
153 172 0
148 168 0
148 167 0
154 173 0
149 167 0
148 167 0
158 176 0
152 172 0
159 180 0
153 172 0
152 172 0
155 175 0
146 165 0
162 182 0
143 162 0
157 176 0
138 158 0
132 153 0
144 164 0
156 176 0
151 171 0
153 173 0
149 170 0
147 166 0
145 165 0
149 170 0
149 171 0
153 174 0
150 170 0
149 169 0
134 154 0
142 163 0
145 165 0
148 168 0
143 163 0
144 164 0
139 158 0
143 163 0
122 142 0
137 157 0
116 135 0
130 150 0
141 159 0
124 142 0
121 142 0
133 151 0
117 136 0
121 141 0
132 152 0
131 148 0
131 150 0
112 130 0
108 124 0
121 138 0
108 127 0
120 137 0
117 134 0
113 130 0
107 122 0
83 98 0
84 101 0
103 118 0
114 131 0
93 110 0
104 118 0
100 115 0
91 106 0
92 107 0
93 106 0
71 86 0
91 104 0
83 94 0
82 94 0
73 84 0
63 74 0
51 62 0
65 77 0
56 69 0
61 73 0
58 67 0
63 72 0
50 61 0
30 37 0
42 53 0
46 54 0
54 65 25
31 42 25
67 75 0
64 73 0
29 39 0
51 59 0
46 55 0
57 66 0
54 61 0
64 72 0
59 70 0
69 78 0
76 84 0
65 71 0
60 69 0
53 61 0
65 71 0
76 86 0
66 76 0
73 85 0
88 99 0
76 87 0
93 103 0
84 94 0
91 102 0
88 97 0
98 110 0
73 81 0
97 105 0
98 110 0
85 96 0
112 124 0
107 120 0
110 121 0
92 103 0
108 119 0
96 107 0
114 124 0
103 115 0
126 137 0
125 135 0
124 140 0
93 107 0
122 132 0
122 132 0
115 126 0
117 126 0
110 124 0
118 130 0
122 131 0
117 127 0
125 137 0
120 129 0
120 126 0
132 142 0
131 142 0
108 112 0
126 137 0
123 132 0
131 141 0
110 116 0
114 118 0
122 133 0
125 133 0
117 124 0
117 122 0
128 133 0
119 126 0
133 139 0
117 120 0
108 112 0
129 136 0
113 115 0
120 122 0
125 127 0
115 117 0
125 121 0
123 125 0
110 110 0
101 100 0
124 121 0
108 107 0
111 105 0
113 107 0
117 112 0
103 94 0
97 84 0
107 105 0
97 92 0
111 105 0
120 111 7
100 79 3
117 97 19
113 91 20
117 94 11
102 79 4
108 87 13
112 90 11
104 87 11
104 86 8
118 102 8
107 90 5
119 101 5
121 103 11
114 98 8
109 91 10
113 95 13
117 103 8
110 91 8
100 88 7
117 97 11
113 100 3
115 104 0
114 100 4
124 111 1
124 110 8
129 118 8
132 117 8
121 104 3
126 113 3
131 117 12
113 102 1
119 104 8
131 118 1
125 112 2
135 122 12
129 112 18
132 122 16
134 122 19
122 110 7
138 125 18
128 115 11
125 111 18
127 115 23
128 116 16
135 123 16
135 119 19
126 114 7
128 119 16
134 120 17
133 120 4
133 122 16
129 115 24
130 117 25
140 125 20
134 122 26
136 125 24
134 120 16
132 120 8
130 120 23
129 118 24
141 128 29
130 118 16
138 126 28
140 125 20
136 124 17
139 124 30
136 126 10
132 118 28
135 123 18
140 128 28
133 121 17
143 133 25
143 128 45
138 124 44
132 121 24
143 130 33
141 127 24
132 121 16
139 129 33
141 131 28
141 128 34
141 128 28
139 128 37
131 118 25
149 136 52
130 116 25
142 129 32
136 123 19
141 126 37
138 125 36
142 126 25
138 125 26
146 133 23
146 132 46
145 130 35
139 127 45
147 134 41
147 135 34
139 126 33
143 134 37
144 129 38
141 127 40
144 129 43
142 126 44
137 125 30
144 127 35
136 122 39
134 117 37
138 120 37
146 134 33
173 196 0
170 192 0
174 196 0
172 196 0
172 195 0
173 196 0
166 190 0
177 199 0
175 197 0
177 199 0
170 193 0
174 195 0
172 195 0
175 197 0
168 189 0
173 195 0
171 193 0
174 197 0
174 196 0
175 198 0
175 198 0
169 192 0
173 195 0
175 194 0
176 198 0
172 193 0
171 193 0
162 185 0
171 192 0
171 194 0
176 198 0
171 192 0
176 199 0
168 190 0
170 191 0
171 193 0
172 193 0
168 190 0
174 195 0
170 192 0
172 193 0
173 196 0
173 195 0
172 194 0
174 197 0
171 193 0
171 193 0
170 191 0
175 196 0
164 186 0
174 196 0
170 193 0
160 182 0
166 186 0
164 184 0
174 196 0
175 195 0
165 187 0
173 194 0
167 188 0
164 185 0
171 193 0
167 188 0
162 182 0
158 177 0
168 190 0
167 188 0
165 187 0
170 192 0
170 191 0
164 185 0
165 186 0
166 187 0
163 182 0
172 192 0
163 182 0
173 195 0
167 188 0
169 190 0
168 187 0
159 179 0
154 175 0
167 188 0
166 187 0
167 187 0
165 186 0
165 185 0
160 179 0
164 184 0
169 187 0
164 185 0
163 183 0
160 179 0
163 183 0
162 180 0
152 172 0
158 178 0
168 187 0
161 180 0
149 168 0
156 176 0
156 176 0
151 171 0
147 167 0
159 180 0
155 173 0
161 180 0
155 174 0
151 170 0
161 181 0
147 167 0
158 178 0
154 174 0
150 169 0
150 169 0
149 168 0
149 169 0
161 180 0
148 168 0
160 180 0
136 156 0
152 171 0
158 177 0
135 153 0
152 172 0
150 168 0
161 180 0
154 174 0
153 172 0
153 173 0
149 168 0
149 168 0
143 163 0
150 169 0
145 164 0
164 184 0
148 169 0
149 168 0
145 165 0
150 170 0
148 169 0
132 152 0
141 161 0
133 153 0
140 159 0
154 175 0
129 149 0
143 162 0
150 171 0
133 154 0
136 156 0
135 154 0
136 156 0
120 140 0
152 173 0
133 154 0
139 159 0
124 142 0
133 153 0
135 153 0
118 138 0
122 141 0
125 142 0
127 146 0
116 135 0
126 143 0
104 122 0
109 127 0
126 144 0
123 141 0
107 125 0
111 128 0
102 121 0
112 129 0
90 107 0
73 89 0
95 112 0
111 129 0
111 125 0
97 113 0
94 109 0
100 115 0
104 119 0
73 86 0
86 100 0
93 106 0
78 92 0
99 113 0
98 111 0
72 84 0
70 81 0
92 105 0
73 82 0
88 100 0
55 66 0
60 70 0
48 57 0
43 56 0
53 65 0
71 81 0
53 63 0
56 65 0
56 67 0
69 78 0
59 68 0
53 63 0
39 47 0
76 86 0
67 75 0
60 69 0
80 86 0
71 80 0
74 85 0
56 67 0
84 92 0
96 106 0
77 88 0
74 81 0
72 81 0
88 99 0
78 87 0
76 91 0
80 91 0
103 117 0
108 118 0
98 109 0
84 95 0
90 99 0
101 113 0
82 95 0
95 108 0
112 121 0
93 102 0
112 125 0
117 131 0
97 110 0
105 118 0
103 111 0
98 110 0
120 133 0
114 124 0
108 118 0
116 131 0
120 133 0
117 130 0
123 133 0
111 122 0
126 142 0
117 130 0
132 142 0
120 131 0
109 116 0
115 123 0
117 128 0
122 131 0
119 128 0
120 130 0
101 103 0
132 141 0
120 130 0
116 123 0
104 114 0
124 130 0
108 118 0
118 120 0
119 127 0
114 122 0
119 126 0
109 118 0
117 124 0
112 118 0
121 125 0
114 115 0
110 113 0
122 122 0
113 116 0
92 95 0
122 122 0
123 127 0
115 116 0
121 124 0
90 81 0
114 112 0
117 113 0
112 109 0
105 105 0
119 116 0
104 97 0
115 107 0
108 97 0
108 102 0
87 80 0
123 108 5
105 85 19
115 92 14
108 91 3
114 94 9
114 92 13
114 93 14
120 104 7
108 88 8
125 108 8
116 98 8
102 85 12
110 95 11
115 90 7
114 96 8
119 102 8
115 99 3
119 104 8
123 106 5
116 102 4
123 104 6
125 111 10
123 109 8
123 105 10
118 96 7
115 100 7
127 111 8
130 114 9
132 119 16
115 99 7
122 107 4
123 113 4
122 109 16
126 113 8
125 108 5
128 118 7
127 113 10
132 121 11
116 101 7
129 119 18
122 112 4
133 122 7
134 120 8
133 115 18
127 113 2
126 116 24
137 124 18
132 119 1
131 120 22
127 116 22
139 124 18
131 117 3
140 127 21
138 126 23
134 121 19
138 125 34
133 119 16
131 116 24
133 117 25
132 116 11
132 118 28
137 126 33
138 127 28
135 121 25
143 126 32
129 114 20
137 124 29
134 123 25
142 128 36
140 129 18
136 122 37
145 128 34
144 131 29
135 117 37
140 127 33
133 118 26
141 127 23
133 122 23
137 125 16
143 132 33
134 116 33
142 127 33
139 126 24
141 128 27
135 118 29
143 128 26
145 129 46
144 131 33
142 128 36
145 133 40
138 121 33
144 126 38
143 131 43
140 123 49
148 134 43
144 131 43
149 134 46
140 127 31
141 125 40
146 133 41
133 120 40
142 130 39
142 124 43
144 129 50
142 127 39
129 114 33
150 135 48
138 122 38
172 196 0
175 198 0
175 197 0
173 196 0
172 196 0
174 196 0
173 195 0
178 200 0
170 193 0
175 197 0
171 194 0
173 195 0
177 198 0
173 195 0
174 196 0
171 192 0
173 196 0
170 193 0
172 194 0
172 195 0
170 193 0
176 197 0
174 196 0
178 198 0
173 194 0
176 197 0
173 196 0
170 193 0
167 189 0
175 197 0
175 198 0
170 192 0
169 191 0
171 194 0
174 196 0
174 194 0
172 194 0
177 199 0
175 197 0
166 189 0
171 192 0
171 192 0
174 195 0
170 192 0
174 195 0
176 196 0
171 193 0
175 196 0
170 192 0
170 191 0
170 192 0
161 182 0
170 191 0
168 189 0
176 197 0
166 188 0
164 185 0
169 190 0
165 185 0
162 182 0
166 187 0
172 192 0
162 183 0
162 183 0
168 188 0
165 186 0
166 188 0
164 184 0
162 183 0
165 187 0
160 179 0
171 191 0
162 184 0
164 184 0
173 194 0
163 185 0
165 183 0
163 183 0
160 181 0
165 185 0
173 194 0
150 169 0
164 184 0
162 183 0
160 180 0
165 186 0
164 182 0
164 185 0
162 183 0
159 179 0
157 176 0
161 182 0
166 186 0
166 186 0
167 187 0
161 181 0
156 175 0
165 185 0
161 181 0
156 174 0
165 185 0
159 179 0
154 173 0
151 169 0
149 170 0
159 178 0
160 177 0
154 173 0
155 173 0
149 168 0
153 171 0
148 168 0
150 168 0
169 188 0
151 170 0
147 166 0
153 172 0
150 171 0
154 173 0
161 181 0
152 171 0
150 169 0
148 167 0
154 175 0
146 166 0
155 175 0
153 172 0
149 170 0
161 180 0
151 170 0
148 168 0
149 170 0
143 163 0
131 152 0
149 168 0
152 171 0
150 170 0
144 164 0
150 171 0
146 166 0
139 159 0
145 164 0
139 159 0
142 163 0
139 158 0
138 157 0
143 163 0
147 168 0
144 165 0
150 170 0
141 162 0
133 153 0
134 154 0
140 160 0
127 147 0
118 139 0
132 151 0
131 150 0
130 149 0
124 142 0
136 154 0
120 138 0
121 139 0
106 124 0
129 149 0
117 136 0
125 144 0
119 136 0
117 135 0
112 130 0
108 126 0
118 136 0
113 130 0
109 126 0
119 135 0
111 127 0
104 121 0
115 132 0
122 138 0
81 97 0
66 81 0
109 125 0
95 108 0
90 104 0
84 99 0
80 94 0
81 96 0
79 92 0
80 92 0
77 91 0
89 101 0
81 93 0
81 93 0
78 91 0
82 96 0
64 78 0
71 83 0
89 101 0
68 79 0
89 101 0
58 71 0
55 64 0
72 82 0
75 86 0
51 61 0
58 69 0
57 68 0
53 64 0
64 76 0
80 93 0
83 96 0
81 93 0
73 85 0
87 98 0
76 86 0
66 76 0
88 98 0
84 90 0
70 82 0
80 90 0
100 111 0
82 95 0
96 106 0
100 114 0
93 106 0
84 92 0
111 123 0
83 93 0
96 105 0
103 116 0
99 111 0
106 118 0
101 112 0
111 121 0
121 133 0
128 141 0
96 110 0
107 121 0
116 126 0
99 111 0
120 131 0
121 134 0
111 126 0
134 147 0
120 133 0
118 132 0
126 141 0
104 116 0
127 140 0
117 129 0
115 126 0
116 122 0
124 133 0
124 136 0
120 130 0
122 131 0
130 143 0
114 126 0
110 120 0
124 131 0
120 127 0
134 145 0
125 131 0
115 124 0
124 129 0
129 137 0
134 137 0
113 122 0
100 106 0
126 131 0
118 122 0
106 107 0
127 130 0
125 133 0
116 116 0
113 111 0
103 105 0
111 111 0
125 129 0
116 119 0
110 106 0
101 100 0
109 103 0
104 101 0
118 116 0
123 123 0
114 114 0
98 88 0
125 123 0
103 94 0
97 90 0
86 77 0
113 109 0
108 100 7
117 102 18
104 81 20
110 88 9
96 77 6
102 85 7
109 86 8
106 86 3
111 98 9
104 86 5
119 101 10
121 102 4
115 99 8
128 107 12
112 97 2
114 98 3
120 102 8
112 96 9
125 108 13
125 109 9
123 108 12
122 106 3
124 108 11
122 105 12
125 111 3
119 104 10
118 103 4
131 117 14
121 105 16
136 120 8
120 106 8
121 105 5
129 116 0
129 117 7
124 107 13
122 108 8
130 118 9
125 112 3
132 120 4
130 115 8
139 124 13
133 119 18
134 120 16
127 113 19
131 118 24
135 123 16
131 117 24
134 118 16
136 121 23
129 113 7
125 110 19
137 122 18
122 108 7
139 125 19
123 109 4
128 113 18
131 121 16
133 121 18
130 120 23
129 115 16
137 127 22
135 122 3
138 124 19
131 121 18
134 122 24
142 131 32
138 127 24
142 127 20
137 124 23
141 128 38
134 120 25
134 124 24
132 116 18
144 133 43
139 123 35
138 121 41
138 126 24
140 126 29
136 124 28
147 131 30
137 127 25
145 132 41
141 126 26
138 122 38
137 127 28
138 125 37
140 123 40
137 124 29
135 122 44
138 123 32
144 131 38
140 126 44
143 127 40
136 119 41
144 127 39
132 117 34
146 132 43
145 132 47
154 140 55
132 115 22
146 133 33
146 131 43
145 132 37
142 129 43
143 125 48
135 120 34
140 120 47
173 197 0
175 198 0
176 198 0
168 192 0
169 193 0
174 196 0
174 196 0
172 195 0
172 195 0
171 194 0
176 198 0
169 192 0
174 196 0
171 194 0
171 192 0
171 194 0
174 196 0
169 192 0
176 198 0
174 195 0
168 191 0
177 199 0
169 191 0
172 194 0
174 195 0
168 191 0
168 191 0
176 197 0
174 196 0
170 192 0
173 195 0
172 194 0
170 190 0
176 197 0
175 196 0
165 188 0
175 196 0
176 198 0
171 192 0
171 192 0
172 192 0
176 197 0
170 190 0
169 191 0
166 188 0
171 192 0
166 188 0
168 188 0
170 191 0
172 193 0
167 189 0
173 194 0
172 193 0
174 196 0
168 189 0
170 191 0
172 193 0
173 192 0
172 193 0
166 187 0
168 189 0
167 188 0
172 192 0
171 190 0
171 192 0
162 184 0
169 190 0
161 181 0
167 186 0
166 186 0
166 187 0
168 189 0
169 190 0
168 188 0
164 186 0
167 187 0
161 181 0
165 184 0
163 184 0
168 189 0
167 187 0
163 183 0
170 191 0
167 187 0
165 184 0
161 182 0
173 192 0
165 186 0
167 186 0
166 184 0
165 184 0
158 179 0
155 175 0
157 176 0
155 174 0
156 174 0
155 175 0
158 177 0
165 183 0
158 179 0
155 175 0
155 176 0
156 176 0
165 184 0
157 177 0
162 180 0
151 170 0
148 168 0
159 179 0
150 170 0
152 172 0
157 177 0
163 182 0
153 173 0
154 173 0
158 177 0
157 176 0
149 168 0
156 176 0
163 183 0
154 173 0
156 176 0
150 171 0
158 178 0
145 165 0
152 172 0
148 167 0
153 174 0
154 173 0
153 173 0
151 172 0
160 180 0
142 161 0
150 171 0
147 167 0
149 168 0
150 171 0
148 169 0
146 167 0
140 161 0
141 161 0
161 182 0
150 169 0
127 148 0
143 164 0
148 169 0
142 162 0
120 140 0
137 158 0
133 153 0
139 160 0
134 154 0
129 149 0
132 152 0
134 153 0
135 154 0
138 157 0
132 152 0
124 144 0
128 148 0
131 150 0
133 153 0
126 146 0
101 122 0
133 153 0
125 146 0
114 131 0
115 134 0
128 146 0
102 120 0
114 133 0
112 131 0
119 137 0
114 129 0
107 126 0
126 144 0
103 120 0
114 132 0
93 109 0
109 124 0
101 117 0
103 118 0
83 98 0
99 115 0
103 117 0
89 103 0
85 101 0
77 92 0
69 84 0
84 98 0
81 94 0
82 97 0
80 93 0
81 91 0
98 112 0
80 94 0
79 91 0
77 88 0
86 98 0
71 82 0
72 83 0
75 89 0
88 99 0
76 88 0
82 95 0
78 89 0
94 104 0
53 64 0
75 88 0
68 79 0
89 100 0
79 92 0
93 105 0
83 96 0
78 88 0
83 94 0
82 92 0
96 109 0
96 107 0
83 99 0
109 121 0
71 82 0
88 101 0
92 106 0
108 122 0
98 110 0
88 96 0
108 119 0
97 112 0
101 112 0
117 131 0
106 115 0
107 120 0
97 109 0
118 129 0
109 121 0
111 123 0
128 141 0
120 132 0
104 118 0
118 131 0
109 119 0
125 133 0
113 125 0
123 136 0
104 116 0
128 140 0
113 123 0
120 132 0
141 154 0
117 129 0
115 127 0
124 137 0
116 125 0
119 128 0
115 122 0
122 133 0
119 129 0
117 127 0
118 126 0
126 135 0
106 115 0
125 135 0
132 141 0
117 125 0
119 131 0
138 149 0
108 115 0
132 139 0
112 116 0
118 123 0
112 114 0
111 116 0
138 148 0
117 115 0
130 135 0
108 113 0
101 97 0
120 115 0
116 116 0
114 113 0
107 105 0
117 116 0
111 111 0
109 105 0
106 102 0
121 118 0
106 100 0
113 105 0
99 91 0
105 97 0
108 98 0
107 101 0
111 99 0
100 89 0
108 92 0
109 92 0
97 76 8
101 84 11
97 77 0
104 83 8
122 101 13
107 85 12
123 104 16
111 91 11
107 86 5
118 100 1
124 103 10
118 100 3
124 108 12
120 104 11
103 82 13
117 96 9
116 103 4
115 103 8
117 101 3
118 101 8
120 107 8
134 118 7
124 110 3
124 102 11
116 104 3
128 110 8
122 105 9
122 106 10
128 115 4
126 114 4
122 111 16
129 118 16
127 113 19
119 102 18
127 110 18
125 114 10
134 119 21
117 105 18
128 111 18
134 123 8
132 118 16
125 110 5
128 115 16
134 123 24
138 122 4
141 124 19
137 121 26
139 126 17
133 122 22
133 121 7
125 110 8
138 125 24
137 124 25
132 116 26
128 114 3
129 117 18
134 119 23
126 113 7
130 116 29
141 124 20
141 126 28
142 127 32
134 120 11
141 125 3
136 124 33
144 132 28
140 123 31
130 116 4
140 126 23
138 123 26
148 135 38
133 121 19
134 121 27
137 125 28
137 123 25
145 131 24
146 134 32
144 129 33
131 114 22
132 119 21
141 129 34
137 120 26
147 132 49
132 119 34
133 117 20
146 133 18
142 123 29
136 121 29
131 116 9
136 120 31
134 117 24
141 127 32
134 118 42
145 130 39
132 115 25
140 126 25
137 120 29
140 126 39
139 121 47
135 118 28
140 126 40
149 131 49
146 129 49
170 194 0
178 199 0
169 194 0
174 197 0
169 192 0
175 197 0
169 192 0
173 195 0
171 194 0
170 193 0
172 195 0
176 198 0
173 196 0
174 196 0
175 197 0
175 197 0
174 196 0
177 199 0
174 196 0
171 194 0
171 193 0
175 197 0
174 196 0
171 192 0
175 196 0
170 191 0
170 192 0
177 198 0
174 197 0
178 199 0
172 195 0
171 193 0
174 196 0
172 195 0
172 192 0
166 187 0
177 197 0
174 195 0
170 190 0
169 190 0
172 194 0
173 194 0
173 194 0
176 197 0
175 195 0
167 189 0
171 192 0
170 190 0
175 196 0
164 185 0
175 196 0
169 190 0
170 190 0
165 186 0
166 188 0
173 194 0
172 193 0
173 193 0
172 192 0
171 191 0
170 191 0
170 191 0
164 184 0
171 191 0
172 192 0
163 182 0
167 187 0
165 185 0
165 185 0
169 189 0
165 187 0
171 191 0
164 184 0
167 187 0
172 193 0
163 184 0
157 178 0
162 182 0
164 183 0
158 178 0
159 178 0
166 186 0
167 187 0
165 184 0
170 190 0
153 173 0
164 184 0
161 181 0
163 182 0
155 174 0
154 175 0
160 181 0
167 188 0
154 173 0
157 176 0
159 179 0
159 179 0
162 183 0
145 164 0
160 179 0
160 178 0
161 179 0
149 168 0
151 170 0
157 177 0
150 169 0
153 173 0
160 180 0
146 166 0
144 162 0
149 168 0
152 172 0
160 180 0
144 163 0
156 177 0
166 185 0
149 168 0
142 160 0
163 182 0
157 175 0
149 168 0
152 171 0
144 163 0
154 174 0
152 173 0
147 166 0
155 176 0
138 158 0
142 161 0
151 171 0
156 175 0
143 164 0
156 176 0
147 167 0
147 169 0
146 165 0
148 169 0
152 172 0
146 166 0
151 171 0
153 173 0
136 156 0
140 161 0
135 155 0
141 159 0
130 151 0
133 153 0
143 164 0
139 161 0
138 157 0
143 165 0
131 151 0
132 153 0
144 165 0
142 161 0
129 149 0
129 148 0
116 134 0
131 152 0
126 145 0
133 152 0
114 133 0
130 150 0
105 125 0
134 154 0
119 140 0
122 141 0
117 134 0
111 129 0
119 136 0
114 132 0
105 123 0
126 145 0
85 104 0
108 124 0
107 124 0
120 136 0
104 121 0
127 143 0
116 133 0
95 111 0
96 113 0
120 137 0
84 99 0
105 119 0
94 110 0
109 124 0
87 102 0
98 114 0
100 114 0
88 101 0
82 96 0
93 107 0
81 96 0
83 98 0
79 91 0
72 86 0
86 100 0
78 92 0
96 108 0
92 105 0
73 85 0
69 80 0
70 83 0
64 79 0
86 97 0
64 74 0
94 110 0
78 92 0
88 101 0
94 107 0
88 102 0
101 114 0
85 94 0
78 90 0
77 92 0
74 88 0
103 116 0
93 106 0
86 96 0
98 107 0
103 114 0
99 112 0
94 107 0
106 119 0
100 108 0
97 111 0
114 127 0
109 119 0
113 125 0
110 120 0
129 143 0
103 113 0
116 128 0
124 140 0
111 124 0
109 121 0
105 118 0
109 122 0
109 124 0
114 124 0
104 118 0
105 118 0
117 128 0
121 137 0
132 146 0
114 120 0
105 114 0
121 135 0
120 133 0
130 143 0
123 135 0
123 132 0
113 123 0
110 118 0
115 124 0
113 120 0
120 133 0
130 142 0
130 140 0
127 139 0
133 143 0
127 135 0
135 143 0
135 142 0
130 143 0
124 130 0
123 129 0
124 126 0
141 149 0
119 132 0
113 111 0
116 123 0
100 103 0
111 109 0
134 138 0
108 111 0
101 103 0
129 133 0
130 134 0
103 101 0
115 112 0
117 116 0
109 105 0
114 108 0
126 125 0
108 103 0
117 115 0
116 111 0
108 104 0
120 111 0
107 102 0
91 81 0
109 101 0
103 95 0
120 113 0
96 78 0
97 81 0
102 86 0
100 82 19
111 87 13
107 84 11
111 83 11
104 82 10
104 79 11
112 90 17
106 85 12
109 87 15
114 96 10
111 90 7
103 83 11
124 100 15
119 98 8
111 96 7
110 92 11
119 99 8
121 105 1
112 95 7
129 112 8
118 101 0
118 103 3
119 105 3
126 110 9
125 110 16
120 106 10
123 105 19
121 104 3
125 114 4
118 99 4
133 120 8
123 107 3
133 119 6
125 111 11
124 111 11
126 108 8
117 100 8
138 122 18
130 112 16
124 109 19
129 111 16
122 105 7
134 119 10
136 120 24
130 113 23
130 116 7
130 114 25
133 120 29
139 124 24
134 118 30
133 118 8
134 116 21
143 126 28
135 122 7
133 118 18
147 133 27
133 117 10
135 118 23
140 127 32
132 117 33
132 117 33
142 127 37
137 124 30
142 130 34
133 119 18
134 119 13
126 110 19
138 120 11
130 115 34
144 131 41
135 121 24
143 128 46
140 126 29
145 129 33
141 127 28
143 130 34
142 128 27
138 125 30
137 126 28
144 130 28
135 124 18
142 129 40
130 117 18
134 119 34
138 124 30
142 127 40
143 128 19
140 123 32
149 134 46
136 115 32
147 136 39
131 117 29
143 127 29
134 117 28
142 126 37
137 120 34
135 119 31
136 120 39
132 114 27
150 134 57
145 135 27
174 197 0
171 195 0
172 196 0
172 196 0
174 197 0
173 196 0
170 192 0
173 195 0
172 195 0
176 198 0
173 196 0
167 190 0
173 195 0
173 194 0
170 192 0
171 194 0
175 197 0
174 198 0
171 193 0
175 196 0
168 190 0
173 194 0
174 196 0
170 192 0
178 198 0
177 199 0
167 190 0
173 195 0
171 194 0
175 197 0
176 197 0
173 195 0
174 195 0
174 196 0
175 197 0
172 192 0
175 196 0
173 194 0
175 195 0
171 192 0
171 193 0
173 193 0
174 194 0
174 195 0
165 187 0
174 195 0
168 190 0
168 189 0
166 187 0
178 199 0
170 192 0
166 188 0
170 190 0
173 194 0
173 193 0
169 190 0
172 195 0
170 192 0
171 192 0
165 185 0
161 183 0
169 190 0
167 187 0
164 184 0
172 193 0
170 189 0
173 193 0
168 188 0
169 189 0
168 189 0
163 183 0
169 189 0
162 182 0
167 186 0
169 189 0
171 191 0
160 180 0
155 176 0
156 176 0
168 189 0
164 184 0
170 190 0
163 184 0
168 188 0
165 185 0
167 186 0
162 181 0
158 178 0
159 178 0
159 180 0
150 168 0
159 178 0
155 174 0
169 188 0
171 190 0
163 181 0
160 180 0
164 183 0
157 176 0
163 181 0
151 170 0
155 175 0
155 173 0
166 186 0
147 166 0
156 176 0
161 179 0
153 173 0
154 173 0
160 180 0
152 173 0
156 176 0
156 176 0
149 167 0
156 176 0
161 180 0
154 174 0
143 163 0
137 157 0
148 168 0
158 177 0
139 160 0
153 173 0
141 161 0
154 174 0
162 183 0
146 165 0
151 171 0
149 170 0
142 162 0
146 166 0
147 167 0
148 168 0
158 179 0
144 164 0
140 160 0
140 162 0
145 167 0
146 167 0
143 163 0
138 159 0
143 163 0
141 162 0
158 177 0
151 172 0
132 152 0
139 157 0
160 180 0
151 172 0
149 169 0
134 156 0
142 163 0
146 166 0
126 145 0
137 157 0
117 137 0
133 151 0
133 152 0
125 144 0
120 141 0
138 159 0
132 151 0
132 153 0
119 138 0
127 146 0
116 135 0
124 142 0
130 149 0
123 142 0
122 139 0
119 137 0
120 139 0
122 141 0
121 140 0
124 142 0
128 146 0
82 99 0
114 131 0
88 106 0
115 133 0
106 124 0
99 117 0
100 116 0
100 114 0
119 136 0
89 104 0
105 121 0
91 105 0
94 110 0
100 115 0
85 98 0
91 105 0
101 114 0
101 115 0
101 115 0
81 95 0
89 103 0
81 96 0
82 97 0
88 102 0
95 107 0
85 102 0
94 106 0
80 93 0
76 88 0
94 108 0
80 93 0
82 96 0
78 93 0
97 111 0
86 98 0
87 102 0
101 115 0
100 113 0
91 105 0
97 108 0
92 104 0
97 110 0
92 106 0
86 101 0
88 103 0
98 111 0
87 99 0
103 115 0
81 96 0
101 112 0
101 115 0
106 122 0
127 144 0
104 115 0
109 120 0
101 114 0
104 117 0
111 123 0
95 107 0
118 130 0
101 113 0
121 134 0
122 137 0
132 147 0
112 124 0
113 127 0
115 126 0
88 100 0
120 133 0
123 135 0
115 127 0
131 143 0
106 120 0
129 141 0
131 139 0
127 140 0
122 133 0
116 123 0
119 131 0
133 147 0
117 124 0
127 139 0
124 134 0
128 136 0
105 113 0
124 137 0
108 116 0
124 129 0
129 138 0
123 130 0
135 146 0
130 137 0
115 117 0
120 125 0
137 146 0
125 133 0
121 127 0
125 128 0
121 126 0
121 124 0
122 129 0
121 126 0
124 123 0
126 130 0
116 116 0
107 109 0
124 122 0
104 108 0
117 118 0
114 113 0
108 102 0
124 122 0
114 105 0
107 98 0
120 118 0
104 98 0
121 116 0
105 95 0
111 102 0
95 83 0
102 90 0
94 81 0
95 79 0
104 92 0
101 89 0
94 78 3
91 71 4
97 74 12
104 79 8
111 86 11
112 95 4
112 93 7
108 85 8
112 88 13
112 91 15
104 83 8
115 98 19
116 99 11
109 91 11
114 90 14
126 112 16
124 102 13
118 100 4
112 93 10
121 101 8
121 103 7
119 99 8
115 98 10
124 106 12
121 104 3
122 102 5
128 112 15
137 122 14
125 106 5
120 99 17
133 118 24
124 108 11
120 105 7
119 106 3
126 112 4
122 108 8
136 123 24
134 120 23
129 114 8
132 115 16
132 121 3
126 110 18
140 125 8
132 116 20
131 116 8
130 113 9
130 112 8
132 118 19
132 115 18
131 117 28
133 118 23
134 117 19
133 119 10
135 120 30
134 120 19
138 125 24
132 115 29
150 134 44
132 115 5
135 122 16
132 118 22
135 117 29
121 107 16
139 127 25
132 117 25
143 126 38
135 121 34
134 121 29
125 108 28
138 121 31
143 128 37
130 111 18
136 120 34
144 130 36
143 127 39
144 126 36
146 129 42
141 129 44
136 117 26
129 110 38
139 119 32
141 125 43
131 114 21
131 116 31
145 128 33
129 110 28
136 118 24
141 122 45
144 125 41
135 116 42
135 119 26
145 127 49
128 106 30
131 111 21
153 138 49
144 137 29
151 155 28
163 176 0
170 187 0
175 198 0
173 196 0
173 196 0
173 196 0
173 197 0
171 194 0
173 197 0
174 197 0
173 196 0
173 195 0
170 193 0
174 197 0
173 195 0
175 196 0
175 196 0
176 198 0
172 194 0
168 190 0
170 193 0
167 188 0
176 198 0
172 193 0
172 193 0
171 194 0
169 190 0
174 195 0
170 191 0
175 196 0
172 194 0
173 194 0
177 198 0
169 191 0
174 194 0
175 196 0
170 192 0
168 189 0
175 196 0
167 189 0
166 187 0
171 191 0
170 193 0
173 195 0
175 196 0
168 189 0
171 193 0
175 195 0
172 192 0
172 194 0
166 188 0
169 190 0
172 193 0
167 188 0
170 191 0
177 198 0
172 193 0
172 194 0
175 195 0
168 189 0
167 187 0
169 189 0
164 185 0
169 189 0
160 181 0
165 186 0
167 187 0
162 183 0
168 188 0
167 187 0
164 184 0
158 177 0
168 188 0
167 186 0
167 186 0
171 191 0
165 186 0
165 184 0
168 187 0
165 185 0
169 190 0
163 183 0
159 179 0
162 182 0
168 187 0
151 172 0
163 183 0
163 183 0
165 186 0
157 177 0
167 186 0
164 184 0
158 178 0
169 188 0
160 179 0
156 176 0
162 181 0
157 177 0
155 174 0
160 180 0
164 184 0
153 172 0
153 173 0
162 183 0
159 178 0
160 180 0
145 163 0
155 173 0
156 175 0
147 165 0
155 174 0
156 175 0
164 183 0
160 180 0
152 170 0
156 177 0
156 174 0
156 177 0
148 167 0
141 162 0
158 179 0
142 163 0
156 177 0
156 176 0
158 177 0
140 159 0
149 168 0
152 172 0
159 180 0
148 167 0
147 166 0
147 167 0
142 162 0
150 171 0
142 162 0
141 163 0
129 149 0
134 154 0
158 179 0
148 169 0
152 172 0
149 169 0
139 160 0
132 153 0
131 152 0
133 154 0
127 148 0
147 168 0
132 154 0
140 161 0
141 161 0
139 160 0
135 156 0
142 163 0
132 152 0
126 148 0
145 166 0
145 166 0
139 160 0
129 146 0
135 155 0
112 131 0
136 156 0
135 154 0
129 149 0
121 140 0
125 145 0
114 134 0
119 138 0
123 142 0
135 154 0
115 133 0
117 135 0
126 147 0
115 134 0
123 141 0
120 138 0
112 129 0
115 135 0
104 121 0
108 126 0
97 114 0
97 113 0
105 123 0
90 105 0
113 128 0
78 94 0
109 124 0
95 112 0
90 106 0
107 122 0
103 118 0
86 103 0
94 109 0
82 98 0
87 101 0
87 99 0
94 110 0
86 100 0
101 116 0
94 107 0
97 110 0
87 102 0
76 90 0
71 84 0
90 104 0
89 105 0
87 101 0
74 88 0
85 100 0
79 91 0
83 95 0
94 105 0
97 110 0
92 106 0
92 106 0
90 106 0
110 124 0
67 75 0
111 126 0
108 120 0
91 103 0
102 118 0
95 105 0
101 114 0
111 125 0
98 112 0
119 133 0
85 96 0
104 116 0
122 135 0
106 121 0
114 127 0
120 133 0
113 126 0
94 106 0
116 128 0
118 131 0
106 121 0
126 137 0
123 138 0
108 121 0
116 129 0
96 108 0
109 122 0
119 134 0
128 138 0
112 125 0
121 132 0
121 132 0
119 131 0
113 122 0
120 131 0
136 148 0
120 132 0
120 134 0
133 143 0
130 141 0
125 135 0
119 129 0
126 133 0
120 128 0
129 138 0
123 129 0
121 128 0
136 150 0
121 130 0
110 120 0
133 145 0
129 137 0
119 128 0
124 129 0
116 123 0
124 132 0
133 138 0
125 131 0
115 122 0
119 125 0
124 132 0
135 134 0
123 122 0
121 126 0
125 127 0
114 115 0
114 116 0
136 136 0
111 105 0
116 114 0
111 112 0
108 106 0
131 132 0
119 117 0
117 112 0
114 113 0
127 127 0
99 91 0
102 97 0
114 104 0
96 88 0
103 97 0
108 100 0
92 78 0
103 93 0
95 84 0
99 86 0
90 78 0
92 74 3
98 76 14
106 86 10
111 87 15
114 96 5
109 82 6
112 94 13
116 92 7
118 100 16
113 95 8
117 101 14
113 93 9
121 101 5
110 92 8
123 104 7
112 94 9
116 95 11
121 103 15
121 103 11
120 104 11
119 104 10
123 104 12
120 101 10
119 105 3
124 105 5
111 90 16
119 104 1
128 113 11
124 108 4
127 110 20
126 111 8
122 106 17
129 114 23
132 112 11
120 104 4
128 114 4
127 112 22
128 111 18
121 106 8
142 126 26
134 121 17
128 107 17
134 116 11
133 121 23
126 112 16
131 118 16
130 114 18
126 112 24
127 113 24
131 117 25
128 110 29
144 129 28
133 118 9
139 123 33
141 126 26
128 109 18
135 120 24
134 115 24
134 117 13
136 124 17
131 117 23
128 116 30
133 117 29
131 112 24
140 125 25
139 123 24
131 119 33
128 109 17
137 122 30
142 127 26
140 125 30
139 126 33
131 116 31
132 117 19
146 131 31
128 110 22
137 121 44
137 119 35
144 126 41
143 128 37
132 111 38
143 126 27
137 121 26
139 125 35
140 124 26
135 116 38
140 128 29
134 117 33
135 115 26
148 136 34
158 158 35
166 179 19
169 188 16
169 190 0
170 189 0
167 187 0
175 198 0
173 196 0
174 197 0
174 198 0
172 195 0
171 195 0
173 196 0
174 197 0
176 199 0
174 196 0
174 195 0
177 199 0
175 196 0
171 194 0
176 198 0
172 195 0
172 195 0
177 199 0
176 198 0
173 195 0
174 196 0
173 195 0
175 197 0
169 190 0
172 194 0
175 196 0
172 194 0
172 193 0
170 191 0
173 195 0
174 196 0
171 193 0
175 195 0
174 196 0
172 193 0
176 198 0
176 197 0
176 197 0
176 197 0
173 194 0
170 190 0
172 192 0
166 186 0
176 197 0
179 199 0
170 191 0
172 194 0
171 192 0
174 194 0
172 193 0
171 191 0
169 189 0
165 185 0
178 198 0
170 190 0
174 196 0
172 192 0
171 191 0
172 192 0
170 190 0
166 184 0
173 193 0
165 186 0
167 187 0
173 193 0
172 190 0
162 181 0
162 182 0
169 189 0
172 191 0
179 198 0
166 187 0
168 189 0
164 185 0
166 183 0
170 191 0
168 188 0
171 191 0
175 194 0
169 189 0
156 175 0
170 189 0
158 178 0
154 175 0
171 190 0
162 181 0
154 174 0
163 182 0
151 170 0
158 178 0
162 181 0
161 181 0
159 180 0
163 183 0
156 175 0
165 183 0
157 178 0
153 173 0
161 180 0
155 174 0
165 184 0
158 178 0
145 165 0
154 172 0
157 177 0
166 185 0
148 168 0
151 171 0
154 174 0
147 166 0
158 178 0
155 174 0
149 168 0
148 168 0
153 172 0
153 173 0
157 177 0
164 184 0
150 171 0
151 171 0
149 168 0
154 174 0
153 175 0
151 171 0
145 166 0
148 168 0
148 169 0
142 161 0
142 162 0
148 168 0
161 182 0
149 169 0
143 162 0
150 170 0
165 185 0
146 165 0
139 159 0
146 167 0
153 173 0
148 168 0
149 169 0
150 171 0
142 162 0
147 167 0
141 163 0
134 154 0
122 143 0
141 162 0
128 149 0
148 170 0
143 162 0
136 156 0
137 158 0
149 169 0
142 160 0
117 136 0
143 164 0
145 165 0
136 155 0
144 164 0
124 142 0
129 149 0
131 151 0
120 140 0
135 153 0
139 158 0
113 132 0
111 130 0
124 144 0
119 137 0
117 136 0
96 112 0
116 135 0
115 132 0
118 134 0
111 128 0
121 139 0
101 119 0
100 117 0
103 120 0
109 125 0
113 130 0
123 139 0
114 131 0
121 138 0
83 97 0
106 121 0
98 115 0
96 113 0
107 124 0
98 113 0
94 110 0
93 107 0
99 113 0
119 134 0
101 116 0
88 100 0
111 126 0
78 93 0
95 111 0
80 94 0
103 120 0
105 119 0
82 98 0
116 133 0
108 122 0
88 101 0
107 122 0
89 104 0
92 101 0
106 119 0
84 99 0
89 102 0
115 128 0
106 119 0
109 122 0
97 112 0
93 102 0
128 144 0
96 111 0
109 125 0
96 107 0
108 123 0
87 100 0
109 121 0
97 110 0
117 132 0
99 114 0
108 119 0
108 121 0
113 127 0
106 118 0
102 115 0
105 119 0
111 126 0
106 121 0
113 126 0
102 115 0
118 131 0
117 132 0
116 132 0
115 129 0
113 126 0
135 149 0
112 125 0
119 133 0
119 129 0
127 141 0
116 131 0
99 113 0
130 141 0
120 133 0
130 140 0
121 132 0
127 139 0
115 121 0
124 134 0
129 140 0
138 149 0
131 144 0
141 153 0
118 127 0
136 148 0
123 135 0
113 121 0
128 136 0
120 127 0
128 140 0
134 142 0
123 133 0
123 127 0
116 120 0
129 135 0
109 113 0
119 125 0
121 128 0
119 123 0
124 123 0
119 125 0
113 113 0
125 131 0
118 120 0
135 135 0
112 115 0
107 104 0
118 123 0
124 119 0
113 113 0
113 113 0
119 120 0
129 128 0
107 102 0
117 111 0
112 109 0
101 97 0
118 114 0
98 92 0
99 90 0
118 113 0
103 91 0
112 107 0
92 82 0
105 97 0
99 88 0
100 90 0
98 85 0
85 65 0
102 85 7
96 70 9
103 75 11
107 86 14
116 92 17
109 87 5
111 81 12
120 99 12
119 99 10
111 93 7
113 92 11
119 98 16
116 95 14
118 98 5
111 86 11
114 96 3
119 102 18
125 107 11
125 102 8
116 96 12
131 114 19
117 99 9
122 104 7
116 95 14
125 111 11
133 121 0
120 100 13
127 109 16
132 117 22
109 91 8
125 109 16
124 105 19
131 114 11
121 106 10
128 111 19
136 119 17
133 115 19
132 115 18
122 107 4
126 107 14
136 120 20
113 97 4
126 108 15
131 112 15
132 114 5
125 109 28
127 113 23
140 124 31
134 116 30
126 106 5
137 118 26
133 115 24
132 117 13
132 119 12
131 114 16
132 118 18
129 110 22
134 118 33
131 112 18
135 119 26
132 116 1
130 115 11
147 128 32
137 119 33
132 114 11
133 117 10
126 106 33
122 104 11
143 127 38
139 121 31
137 122 29
141 126 21
139 121 28
141 124 47
130 113 28
134 116 24
139 123 35
140 127 46
138 122 39
136 121 35
146 126 38
137 122 31
143 129 41
148 139 38
158 163 34
162 174 16
166 183 0
165 183 0
164 182 0
173 194 0
167 184 0
172 190 0
172 191 0
176 198 0
173 196 0
173 197 0
173 196 0
175 198 0
174 197 0
171 195 0
174 197 0
173 196 0
173 196 0
173 197 0
175 198 0
174 196 0
172 194 0
176 199 0
176 198 0
178 199 0
174 196 0
174 195 0
177 198 0
173 194 0
175 196 0
172 194 0
179 200 0
174 195 0
166 188 0
174 196 0
176 197 0
173 194 0
173 194 0
177 197 0
177 198 0
175 196 0
178 197 0
174 194 0
170 191 0
169 191 0
170 191 0
177 197 0
174 194 0
170 191 0
174 194 0
174 194 0
175 196 0
176 195 0
171 192 0
171 191 0
168 187 0
172 193 0
176 196 0
171 191 0
175 196 0
170 190 0
173 193 0
175 195 0
170 190 0
173 191 0
171 191 0
169 190 0
166 185 0
177 195 0
170 191 0
162 182 0
169 190 0
176 197 0
171 190 0
166 187 0
166 186 0
168 188 0
174 194 0
169 192 0
175 194 0
172 192 0
170 190 0
168 189 0
162 182 0
171 191 0
169 188 0
164 185 0
162 181 0
161 181 0
169 189 0
158 177 0
161 182 0
162 181 0
158 178 0
165 185 0
169 189 0
167 186 0
159 177 0
156 176 0
161 180 0
158 177 0
150 167 0
162 181 0
150 169 0
146 165 0
158 178 0
159 179 0
161 182 0
153 173 0
154 173 0
141 161 0
160 181 0
156 175 0
158 179 0
160 178 0
156 174 0
156 175 0
150 169 0
157 178 0
159 179 0
161 182 0
160 179 0
157 177 0
154 174 0
160 180 0
157 177 0
152 171 0
156 176 0
145 167 0
153 175 0
145 166 0
150 171 0
148 168 0
145 166 0
154 175 0
157 177 0
148 170 0
150 170 0
150 169 0
155 175 0
136 156 0
153 174 0
155 175 0
145 167 0
133 154 0
148 170 0
147 167 0
141 162 0
145 166 0
142 163 0
138 159 0
143 163 0
149 169 0
151 171 0
129 150 0
130 150 0
139 159 0
138 157 0
127 149 0
137 158 0
146 168 0
132 152 0
128 148 0
143 164 0
140 161 0
132 151 0
134 154 0
126 146 0
135 155 0
126 146 0
121 141 0
119 142 0
134 154 0
118 135 0
130 148 0
113 131 0
120 139 0
132 153 0
124 141 0
117 135 0
113 132 0
97 117 0
139 157 0
126 145 0
129 147 0
131 150 0
122 141 0
110 128 0
114 131 0
113 131 0
114 132 0
112 128 0
126 145 0
114 132 0
101 118 0
97 114 0
110 127 0
103 119 0
100 116 0
106 121 0
101 118 0
96 111 0
100 116 0
115 132 0
112 127 0
98 115 0
103 117 0
97 115 0
90 104 0
99 115 0
99 114 0
114 128 0
93 106 0
101 115 0
113 129 0
89 101 0
108 125 0
98 113 0
91 106 0
88 103 0
99 114 0
113 127 0
99 114 0
101 116 0
102 117 0
99 111 0
99 110 0
104 120 0
129 142 0
116 133 0
91 106 0
99 115 0
80 96 0
107 123 0
118 130 0
122 139 0
117 133 0
115 130 0
110 125 0
123 138 0
119 132 0
108 122 0
115 129 0
118 133 0
125 139 0
116 129 0
104 117 0
106 121 0
127 142 0
113 123 0
118 129 0
132 144 0
128 141 0
119 133 0
117 130 0
122 135 0
136 154 0
135 148 0
125 135 0
133 146 0
119 133 0
147 159 0
129 141 0
122 134 0
130 144 0
111 116 0
142 154 0
127 139 0
130 143 0
132 143 0
130 142 0
122 132 0
114 123 0
125 131 0
133 140 0
137 149 0
127 136 0
128 138 0
120 124 0
133 140 0
113 118 0
119 127 0
123 130 0
131 139 0
118 122 0
103 104 0
125 130 0
128 134 0
120 121 0
125 132 0
125 129 0
109 109 0
121 128 0
120 121 0
121 123 0
125 123 0
123 120 0
128 130 0
124 129 0
102 98 0
126 126 0
118 116 0
124 124 0
125 127 0
111 105 0
108 100 0
102 96 0
120 113 0
107 101 0
105 94 0
107 99 0
101 90 0
107 98 0
103 91 0
103 91 0
94 77 0
96 88 0
83 63 0
87 70 7
88 66 8
110 95 10
98 73 8
101 74 9
106 85 10
115 93 13
112 90 8
122 104 10
116 90 15
119 95 16
125 103 13
124 101 20
118 98 8
125 108 7
126 105 13
118 96 10
120 101 8
124 103 6
116 99 7
112 92 7
123 103 8
131 114 24
141 121 35
131 112 11
131 112 20
119 102 8
121 102 4
133 116 9
125 104 20
126 109 11
126 107 17
124 106 14
131 112 17
123 107 17
141 124 24
140 125 24
124 106 11
124 104 17
127 106 27
135 118 22
136 118 29
134 116 18
134 120 18
131 117 18
126 108 18
125 107 12
138 122 21
125 110 16
134 118 33
128 114 16
132 115 19
126 108 19
131 116 19
140 125 22
133 118 25
129 111 23
142 128 41
136 117 23
140 123 24
136 120 21
133 118 13
135 118 26
126 108 32
135 116 25
129 112 21
137 122 40
136 120 37
139 119 20
140 123 30
125 104 24
132 114 22
143 126 38
127 107 26
138 120 42
148 127 54
137 126 24
145 139 29
160 171 10
168 182 16
169 188 0
171 186 0
164 184 0
171 191 0
164 182 0
174 193 0
169 186 0
170 188 0
166 185 0
171 189 0
170 194 0
173 195 0
175 198 0
174 196 0
176 199 0
176 198 0
174 197 0
172 195 0
173 196 0
173 196 0
174 197 0
170 193 0
176 197 0
175 198 0
173 195 0
170 193 0
174 196 0
177 198 0
174 196 0
174 195 0
172 195 0
173 195 0
174 196 0
172 193 0
169 191 0
177 197 0
169 191 0
173 195 0
175 196 0
171 192 0
171 193 0
178 198 0
177 198 0
173 194 0
172 194 0
174 195 0
178 198 0
170 188 0
177 197 0
174 195 0
175 196 0
174 194 0
174 195 0
169 189 0
178 197 0
177 198 0
175 196 0
172 192 0
172 192 0
170 190 0
169 189 0
166 186 0
173 193 0
170 190 0
167 188 0
167 187 0
171 191 0
171 192 0
169 189 0
173 193 0
171 192 0
174 194 0
168 188 0
172 191 0
170 190 0
172 192 0
169 189 0
169 188 0
170 190 0
168 188 0
160 180 0
168 187 0
168 188 0
165 185 0
167 186 0
170 190 0
175 194 0
153 172 0
157 176 0
170 190 0
159 179 0
161 179 0
164 183 0
163 185 0
158 177 0
156 177 0
166 186 0
159 177 0
163 183 0
156 174 0
159 179 0
170 189 0
159 179 0
158 177 0
164 183 0
162 181 0
159 179 0
166 187 0
157 176 0
159 177 0
151 172 0
157 176 0
160 181 0
166 185 0
156 176 0
160 179 0
160 180 0
140 160 0
159 179 0
165 184 0
149 168 0
155 175 0
149 170 0
153 173 0
146 165 0
145 165 0
156 174 0
141 161 0
136 157 0
152 171 0
154 175 0
150 171 0
159 180 0
150 170 0
158 178 0
159 178 0
160 179 0
147 168 0
149 169 0
147 168 0
151 172 0
155 176 0
140 160 0
155 175 0
149 169 0
134 152 0
140 159 0
139 158 0
142 163 0
145 166 0
154 175 0
151 172 0
133 154 0
145 167 0
156 178 0
152 172 0
149 170 0
146 166 0
146 169 0
145 165 0
140 162 0
128 147 0
146 167 0
130 151 0
132 151 0
124 144 0
127 147 0
120 138 0
140 161 0
123 144 0
122 143 0
134 155 0
128 150 0
129 147 0
129 147 0
122 141 0
138 156 0
129 149 0
122 142 0
136 156 0
129 148 0
127 145 0
115 135 0
129 148 0
105 123 0
118 138 0
129 148 0
115 134 0
133 152 0
124 143 0
115 134 0
109 128 0
115 134 0
115 132 0
106 123 0
115 132 0
104 122 0
89 106 0
101 118 0
101 119 0
96 113 0
113 130 0
118 135 0
122 142 0
107 126 0
93 107 0
96 112 0
98 113 0
100 116 0
112 129 0
96 114 0
95 111 0
96 112 0
109 127 0
102 120 0
104 118 0
99 118 0
114 129 0
109 127 0
114 130 0
102 117 0
111 128 0
99 114 0
100 116 0
132 148 0
112 129 0
103 117 0
101 114 0
97 111 0
107 122 0
101 116 0
107 123 0
108 125 0
117 130 0
118 132 0
99 111 0
128 143 0
123 137 0
126 142 0
107 119 0
120 137 0
91 105 0
118 134 0
116 126 0
117 132 0
111 128 0
135 150 0
109 125 0
118 133 0
117 132 0
132 145 0
113 124 0
131 146 0
112 126 0
136 151 0
127 140 0
122 134 0
112 124 0
125 138 0
105 118 0
125 137 0
141 155 0
125 141 0
119 129 0
117 130 0
123 135 0
139 153 0
128 140 0
136 149 0
124 133 0
130 145 0
120 132 0
119 132 0
121 133 0
126 144 0
130 140 0
124 131 0
117 129 0
138 148 0
130 143 0
121 131 0
126 136 0
124 131 0
121 126 0
122 129 0
122 129 0
136 138 0
114 118 0
124 134 0
121 131 0
111 113 0
126 129 0
113 119 0
117 118 0
117 122 0
131 132 0
123 127 0
137 140 0
110 110 0
114 114 0
122 122 0
120 116 0
125 127 0
114 108 0
120 120 0
110 108 0
118 113 0
117 112 0
122 118 0
106 101 0
126 123 0
111 106 0
125 116 0
106 97 0
107 97 0
105 96 0
106 96 0
100 88 0
111 101 0
107 96 0
98 80 0
103 86 0
96 78 0
91 76 0
99 85 0
104 84 4
105 83 9
116 92 15
107 81 9
115 90 13
115 91 12
111 88 16
108 86 8
119 95 11
117 97 7
114 90 11
122 101 13
106 84 12
121 99 16
118 97 9
114 92 11
111 92 13
130 110 10
120 102 16
123 105 3
130 110 21
121 101 10
129 111 20
132 110 18
129 112 21
129 114 16
124 106 16
116 93 17
125 104 25
123 108 20
132 116 5
128 113 22
129 111 11
125 111 23
126 108 5
132 116 11
130 114 9
130 111 19
131 111 18
126 111 28
135 119 26
128 111 16
142 126 34
133 116 29
132 115 19
134 119 8
131 113 30
136 120 19
134 117 25
130 111 21
138 122 27
132 115 19
136 120 21
135 118 29
126 105 10
125 107 39
138 119 31
135 120 30
133 113 21
138 117 36
132 116 38
138 122 31
140 125 41
135 117 30
132 111 39
128 106 22
135 115 29
130 114 21
146 144 20
155 158 20
167 179 1
166 181 0
163 177 0
168 183 0
167 186 0
165 180 0
167 184 0
163 180 0
165 180 0
166 187 0
167 186 0
167 186 0
166 182 0
164 183 0
167 186 0
170 194 0
175 197 0
172 195 0
174 196 0
173 196 0
170 194 0
175 197 0
174 196 0
171 195 0
170 194 0
168 191 0
174 196 0
174 196 0
175 198 0
171 195 0
175 198 0
174 197 0
174 196 0
177 198 0
171 194 0
173 195 0
174 196 0
176 198 0
174 195 0
169 190 0
175 197 0
175 196 0
170 190 0
174 195 0
177 197 0
175 196 0
167 188 0
172 193 0
177 198 0
176 196 0
175 196 0
175 195 0
173 194 0
169 191 0
170 191 0
173 193 0
170 191 0
173 194 0
166 186 0
168 189 0
175 195 0
167 188 0
178 198 0
174 195 0
171 191 0
171 190 0
169 190 0
161 181 0
169 190 0
176 196 0
171 191 0
171 192 0
175 195 0
174 193 0
166 186 0
169 189 0
173 193 0
172 193 0
174 194 0
173 193 0
167 186 0
174 192 0
172 191 0
174 193 0
165 185 0
170 189 0
171 191 0
165 184 0
170 189 0
169 187 0
171 191 0
166 185 0
160 179 0
163 182 0
162 181 0
164 184 0
162 180 0
167 186 0
156 176 0
163 182 0
167 186 0
165 183 0
145 165 0
166 183 0
160 179 0
163 183 0
164 183 0
161 181 0
160 179 0
164 184 0
157 177 0
146 165 0
161 180 0
152 171 0
154 174 0
163 182 0
155 174 0
144 163 0
161 180 0
164 185 0
155 174 0
155 175 0
155 175 0
151 169 0
137 156 0
148 167 0
152 169 0
157 177 0
153 173 0
156 176 0
147 168 0
141 162 0
154 175 0
145 165 0
153 174 0
164 185 0
149 169 0
153 174 0
148 169 0
150 171 0
150 172 0
150 171 0
151 172 0
145 165 0
129 148 0
155 176 0
154 175 0
154 174 0
147 168 0
138 159 0
151 173 0
141 161 0
147 167 0
140 161 0
142 162 0
150 171 0
135 155 0
141 161 0
147 170 0
137 158 0
137 156 0
140 162 0
146 165 0
142 162 0
127 148 0
136 156 0
132 152 0
130 151 0
133 153 0
139 160 0
128 148 0
128 148 0
132 154 0
122 142 0
140 161 0
126 147 0
138 157 0
124 145 0
128 149 0
124 145 0
128 148 0
128 149 0
134 153 0
122 140 0
130 149 0
147 167 0
118 138 0
114 132 0
134 153 0
120 140 0
112 130 0
111 129 0
129 149 0
129 147 0
131 149 0
124 142 0
129 148 0
112 130 0
119 137 0
103 121 0
119 137 0
124 143 0
113 130 0
116 135 0
109 127 0
119 138 0
119 138 0
87 104 0
108 125 0
93 111 0
110 126 0
101 117 0
105 123 0
105 121 0
109 124 0
117 134 0
103 118 0
93 107 0
100 117 0
97 112 0
111 125 0
108 124 0
105 121 0
108 124 0
110 124 0
118 134 0
112 128 0
104 118 0
108 124 0
110 128 0
104 118 0
105 120 0
114 131 0
114 131 0
111 124 0
117 133 0
114 129 0
116 132 0
117 132 0
112 128 0
123 140 0
100 117 0
112 126 0
107 118 0
118 134 0
123 139 0
93 107 0
110 124 0
130 145 0
106 116 0
115 128 0
103 116 0
111 123 0
110 121 0
121 137 0
120 135 0
120 134 0
138 154 0
116 131 0
126 140 0
126 142 0
124 137 0
110 125 0
125 138 0
130 143 0
128 142 0
123 136 0
132 145 0
133 148 0
119 133 0
136 146 0
128 143 0
124 134 0
126 137 0
122 131 0
123 132 0
140 150 0
129 141 0
127 138 0
123 133 0
120 132 0
117 129 0
129 137 0
120 130 0
125 137 0
130 138 0
129 134 0
135 150 0
139 149 0
119 129 0
121 128 0
132 146 0
133 143 0
108 114 0
116 118 0
117 121 0
136 136 0
132 137 0
117 121 0
115 119 0
118 122 0
132 135 0
129 131 0
115 116 0
117 122 0
123 125 0
124 124 0
110 110 0
124 124 0
127 128 0
125 123 0
112 109 0
123 118 0
128 126 0
99 96 0
126 124 0
113 107 0
117 110 0
120 116 0
116 107 0
119 112 0
111 101 0
117 111 0
126 121 0
108 100 0
104 93 0
102 87 0
105 97 0
100 86 0
102 87 0
95 82 0
91 74 0
103 89 0
111 97 0
94 75 8
107 88 12
114 89 11
115 93 12
121 99 26
112 91 10
110 85 9
114 91 11
120 93 12
113 92 8
116 92 10
122 100 20
122 102 19
118 96 14
123 106 19
125 105 13
119 94 9
119 100 8
121 99 13
120 96 22
117 95 13
133 114 13
119 100 8
124 107 8
116 93 8
120 101 25
123 104 13
130 113 22
119 99 10
129 112 17
131 111 27
126 104 21
129 114 29
129 111 12
125 106 26
131 114 8
117 99 12
138 119 15
125 104 12
127 110 21
136 120 25
127 105 18
133 117 19
128 115 32
137 120 24
135 116 29
134 116 20
135 117 29
132 116 21
126 106 33
136 120 29
138 120 38
138 119 29
122 105 25
137 118 31
131 112 28
135 117 31
135 116 45
137 123 32
151 148 24
152 157 22
158 167 0
161 173 0
162 174 0
164 180 0
164 176 0
169 184 0
166 180 0
163 175 0
161 176 0
170 190 0
167 181 0
166 184 0
162 179 0
168 185 0
167 184 0
171 187 0
167 185 0
171 189 0
170 189 0
163 182 0
174 197 0
173 195 0
172 197 0
174 196 0
176 198 0
175 197 0
167 190 0
176 198 0
175 197 0
173 194 0
169 193 0
177 199 0
172 194 0
172 194 0
175 198 0
173 195 0
170 193 0
175 197 0
174 196 0
177 199 0
176 198 0
176 198 0
176 198 0
171 193 0
176 197 0
171 194 0
177 199 0
177 198 0
175 196 0
173 193 0
174 195 0
169 191 0
173 195 0
170 191 0
177 198 0
175 196 0
173 194 0
177 197 0
170 190 0
175 196 0
168 189 0
177 197 0
176 196 0
173 194 0
162 183 0
175 195 0
167 187 0
174 194 0
172 193 0
169 188 0
171 191 0
174 194 0
176 195 0
173 192 0
169 189 0
164 185 0
168 189 0
172 191 0
168 186 0
168 189 0
173 192 0
170 191 0
168 187 0
168 188 0
167 187 0
175 195 0
161 180 0
164 184 0
172 192 0
171 191 0
170 190 0
167 188 0
167 185 0
159 180 0
162 181 0
163 182 0
160 180 0
160 179 0
163 184 0
167 186 0
158 178 0
157 175 0
165 185 0
163 184 0
164 183 0
160 180 0
162 182 0
163 182 0
165 184 0
162 180 0
170 190 0
161 180 0
166 186 0
161 181 0
168 187 0
158 178 0
159 179 0
163 182 0
150 169 0
166 186 0
165 184 0
150 169 0
165 184 0
151 170 0
151 169 0
156 176 0
146 166 0
142 162 0
155 173 0
158 179 0
143 162 0
155 174 0
154 173 0
163 183 0
155 176 0
146 166 0
156 178 0
158 178 0
147 168 0
158 179 0
155 175 0
145 166 0
142 162 0
150 171 0
143 164 0
151 172 0
159 180 0
151 173 0
153 173 0
150 172 0
137 157 0
145 165 0
134 154 0
143 164 0
142 163 0
143 163 0
148 169 0
140 159 0
138 160 0
141 162 0
140 161 0
156 177 0
140 161 0
149 171 0
140 160 0
138 158 0
142 163 0
138 158 0
144 166 0
142 162 0
128 148 0
156 177 0
141 162 0
128 149 0
136 157 0
141 163 0
141 160 0
130 150 0
134 155 0
120 139 0
133 151 0
138 158 0
133 151 0
123 145 0
127 145 0
128 148 0
139 158 0
127 147 0
142 161 0
121 139 0
126 147 0
120 139 0
126 147 0
122 142 0
119 140 0
130 151 0
134 152 0
114 132 0
119 138 0
133 153 0
132 151 0
116 133 0
118 135 0
125 144 0
116 133 0
126 145 0
111 130 0
110 126 0
123 141 0
127 145 0
116 132 0
97 115 0
121 139 0
96 114 0
104 121 0
116 133 0
103 118 0
119 136 0
105 120 0
120 137 0
112 128 0
110 128 0
110 128 0
105 120 0
112 126 0
86 102 0
130 148 0
112 126 0
105 120 0
110 126 0
107 123 0
116 134 0
125 140 0
87 104 0
100 117 0
118 135 0
116 131 0
120 136 0
109 122 0
107 119 0
113 128 0
109 124 0
120 137 0
114 130 0
123 137 0
113 126 0
113 127 0
116 131 0
118 135 0
130 146 0
102 116 0
117 130 0
122 138 0
113 126 0
112 128 0
121 136 0
115 129 0
129 140 0
131 144 0
120 133 0
135 151 0
127 138 0
124 139 0
117 131 0
120 133 0
114 129 0
125 139 0
134 150 0
120 136 0
126 138 0
128 146 0
118 130 0
118 132 0
128 145 0
111 122 0
137 151 0
122 134 0
118 130 0
127 137 0
139 152 0
148 162 0
141 153 0
116 126 0
127 143 0
138 150 0
132 141 0
126 139 0
126 134 0
130 140 0
125 137 0
128 138 0
121 131 0
132 142 0
120 128 0
122 131 0
123 131 0
123 128 0
131 141 0
133 142 0
147 158 0
143 152 0
107 109 0
132 138 0
131 138 0
127 137 0
129 137 0
132 139 0
126 127 0
139 145 0
130 134 0
125 127 0
116 119 0
112 118 0
126 128 0
145 150 0
128 127 0
128 130 0
127 126 0
105 100 0
136 134 0
120 110 0
121 117 0
102 96 0
127 119 0
111 106 0
114 108 0
118 111 0
113 104 0
122 115 0
116 107 0
111 100 0
117 108 0
111 100 0
117 107 0
109 95 0
107 93 0
132 125 0
104 98 0
99 85 0
102 85 0
114 99 0
110 100 0
113 98 0
103 89 0
96 75 3
104 86 10
121 99 6
105 81 9
104 78 7
120 97 18
127 105 14
124 100 19
120 92 11
108 83 17
122 100 21
126 100 10
119 97 11
113 94 12
126 107 15
118 94 12
126 106 13
126 105 16
128 112 24
122 100 11
121 100 7
120 102 16
126 109 7
114 93 19
122 106 16
128 106 20
131 111 30
126 104 30
132 114 30
114 97 3
124 100 12
118 97 18
129 111 25
127 109 26
130 107 22
133 113 26
136 116 29
132 114 34
131 112 15
134 115 28
130 111 17
119 100 25
134 113 35
131 111 20
135 114 31
135 115 38
134 113 32
135 116 30
136 121 21
150 149 25
155 157 14
156 158 29
154 165 1
167 179 0
162 171 0
163 175 0
161 173 0
161 174 0
166 183 0
166 181 0
168 182 0
162 175 0
158 174 0
163 179 0
163 175 0
161 175 0
167 182 0
166 183 0
167 184 0
171 190 0
165 182 0
165 180 0
165 180 0
166 181 0
163 179 0
170 187 0
174 197 0
174 197 0
171 195 0
175 198 0
174 197 0
174 196 0
177 199 0
177 198 0
170 193 0
174 197 0
172 195 0
172 195 0
177 199 0
173 196 0
173 197 0
177 198 0
172 195 0
177 198 0
172 195 0
171 194 0
173 195 0
175 197 0
169 191 0
174 196 0
174 195 0
175 197 0
178 199 0
175 196 0
175 195 0
171 193 0
173 194 0
175 196 0
178 198 0
179 199 0
174 194 0
179 199 0
171 191 0
172 193 0
173 193 0
178 198 0
179 198 0
176 195 0
166 186 0
168 188 0
172 192 0
176 196 0
175 196 0
168 187 0
174 193 0
171 190 0
170 190 0
176 195 0
165 185 0
173 192 0
177 195 0
169 188 0
173 193 0
173 194 0
164 183 0
167 186 0
169 188 0
169 189 0
170 189 0
165 185 0
159 180 0
158 178 0
164 183 0
165 184 0
161 181 0
161 180 0
166 186 0
163 183 0
168 187 0
165 185 0
160 179 0
168 187 0
162 180 0
162 180 0
165 183 0
155 175 0
171 191 0
160 177 0
169 188 0
160 179 0
163 182 0
166 186 0
165 185 0
165 184 0
160 180 0
167 188 0
157 176 0
161 180 0
159 178 0
156 175 0
154 173 0
161 180 0
166 186 0
157 177 0
154 172 0
159 179 0
163 183 0
168 188 0
152 172 0
160 179 0
152 172 0
159 179 0
141 161 0
152 172 0
151 171 0
158 178 0
163 182 0
155 175 0
155 175 0
159 179 0
160 180 0
167 188 0
151 171 0
157 176 0
150 171 0
154 175 0
157 177 0
147 169 0
151 171 0
152 173 0
155 174 0
145 167 0
152 174 0
157 178 0
147 169 0
144 166 0
153 173 0
152 172 0
154 174 0
145 168 0
141 162 0
154 175 0
164 186 0
136 156 0
144 166 0
141 162 0
141 161 0
143 164 0
134 155 0
136 156 0
136 158 0
147 169 0
139 161 0
141 161 0
144 165 0
127 148 0
150 171 0
141 161 0
146 168 0
133 155 0
141 161 0
146 167 0
129 150 0
141 162 0
131 152 0
132 154 0
143 165 0
142 163 0
124 144 0
140 160 0
125 146 0
129 151 0
137 157 0
122 143 0
124 144 0
123 142 0
124 144 0
121 141 0
126 147 0
141 162 0
131 151 0
136 155 0
139 160 0
122 139 0
112 132 0
123 142 0
117 135 0
102 119 0
125 144 0
111 128 0
108 124 0
105 123 0
118 137 0
123 142 0
108 127 0
129 147 0
105 120 0
113 130 0
119 137 0
110 127 0
121 140 0
110 126 0
113 133 0
118 137 0
109 126 0
118 134 0
137 155 0
113 129 0
125 141 0
111 129 0
100 116 0
113 130 0
103 120 0
83 99 0
117 135 0
113 131 0
121 139 0
124 142 0
119 135 0
124 141 0
105 120 0
123 141 0
109 127 0
127 145 0
101 117 0
115 131 0
123 141 0
104 120 0
131 148 0
108 123 0
115 129 0
121 140 0
105 121 0
102 115 0
124 141 0
117 131 0
112 128 0
114 132 0
111 124 0
117 134 0
130 147 0
112 130 0
130 144 0
130 146 0
130 147 0
106 118 0
127 141 0
126 141 0
119 133 0
133 146 0
126 144 0
116 129 0
135 151 0
125 135 0
118 134 0
117 133 0
117 131 0
129 144 0
124 138 0
113 121 0
134 151 0
136 149 0
128 143 0
136 148 0
121 133 0
134 149 0
121 131 0
114 124 0
129 143 0
128 143 0
141 153 0
125 134 0
130 142 0
130 136 0
133 144 0
138 151 0
128 142 0
129 137 0
139 149 0
125 134 0
137 149 0
153 165 0
136 141 0
110 114 0
140 150 0
132 136 0
130 140 0
121 128 0
132 142 0
138 147 0
133 141 0
120 125 0
124 130 0
145 150 0
116 119 0
124 131 0
134 143 0
116 112 0
124 125 0
124 125 0
116 117 0
131 134 0
120 120 0
129 128 0
124 122 0
116 116 0
125 125 0
123 119 0
124 127 0
111 105 0
119 115 0
127 121 0
113 108 0
120 116 0
110 99 0
130 125 0
115 110 0
118 112 0
117 112 0
113 102 0
111 102 0
112 103 0
123 118 0
108 96 0
102 88 0
112 97 0
117 106 0
107 95 0
105 91 0
112 98 0
104 87 0
113 102 0
114 98 0
108 98 0
105 90 0
112 101 0
111 96 7
103 83 4
120 103 8
110 88 8
119 92 18
125 106 16
122 100 13
117 94 20
116 94 17
109 91 18
110 85 13
124 98 14
114 91 13
122 103 8
122 103 21
124 104 12
127 108 21
131 110 12
122 97 21
124 104 21
124 107 11
118 95 22
125 100 14
125 103 13
127 105 16
133 113 29
124 105 15
138 122 22
117 94 20
131 112 22
126 106 15
135 113 38
131 112 27
139 124 28
140 133 20
138 127 19
142 135 19
144 141 18
145 147 17
155 160 16
158 163 0
158 166 0
162 173 0
154 165 0
160 169 0
163 176 0
158 169 0
163 173 0
160 170 0
164 177 0
166 181 0
165 176 0
158 169 0
160 171 0
160 167 0
157 170 0
153 166 0
165 182 0
168 180 0
159 170 0
163 177 0
170 189 0
162 175 0
166 181 0
163 177 0
165 182 0
169 186 0
172 193 0
169 188 0
169 190 0
175 198 0
173 195 0
173 197 0
174 195 0
175 196 0
176 199 0
174 197 0
175 198 0
174 196 0
174 196 0
178 200 0
169 192 0
169 192 0
175 197 0
175 197 0
170 193 0
170 193 0
171 193 0
173 196 0
174 195 0
174 197 0
175 196 0
178 199 0
176 197 0
172 194 0
177 198 0
176 197 0
174 196 0
175 196 0
176 197 0
175 196 0
174 195 0
177 197 0
171 193 0
173 194 0
176 196 0
171 191 0
173 194 0
177 197 0
175 196 0
179 198 0
168 188 0
173 194 0
177 196 0
166 186 0
170 189 0
168 188 0
171 193 0
169 189 0
174 194 0
173 194 0
166 187 0
173 193 0
170 191 0
174 194 0
170 190 0
168 186 0
171 191 0
173 191 0
176 195 0
170 190 0
168 188 0
164 183 0
172 191 0
170 189 0
173 192 0
170 190 0
151 172 0
160 177 0
170 190 0
166 187 0
168 186 0
157 177 0
169 188 0
163 182 0
162 181 0
167 187 0
155 175 0
158 175 0
163 182 0
156 176 0
154 174 0
165 185 0
153 171 0
157 177 0
157 176 0
163 182 0
156 175 0
162 180 0
161 181 0
151 169 0
158 178 0
157 174 0
157 174 0
157 176 0
166 185 0
168 186 0
164 184 0
151 170 0
165 186 0
143 163 0
153 173 0
164 184 0
148 167 0
154 173 0
163 184 0
165 185 0
165 186 0
156 175 0
153 173 0
153 173 0
143 163 0
150 172 0
150 170 0
158 178 0
155 175 0
154 174 0
160 180 0
149 170 0
149 171 0
156 177 0
140 160 0
141 162 0
147 169 0
156 175 0
142 163 0
144 165 0
158 179 0
160 181 0
147 167 0
153 174 0
152 174 0
141 162 0
153 175 0
151 171 0
143 163 0
133 154 0
151 173 0
146 168 0
149 169 0
146 167 0
146 168 0
153 175 0
133 152 0
144 166 0
141 163 0
132 154 0
151 172 0
145 166 0
141 162 0
142 163 0
139 159 0
149 171 0
142 163 0
144 166 0
141 162 0
139 159 0
139 161 0
139 160 0
124 143 0
139 160 0
137 159 0
132 150 0
131 151 0
146 166 0
116 135 0
139 158 0
133 154 0
126 144 0
145 165 0
135 154 0
129 149 0
120 138 0
128 148 0
120 141 0
133 154 0
117 137 0
126 145 0
133 152 0
126 145 0
142 161 0
111 132 0
137 156 0
115 134 0
119 140 0
119 136 0
117 135 0
122 138 0
119 136 0
129 149 0
100 118 0
105 123 0
127 143 0
99 118 0
127 144 0
110 129 0
101 121 0
124 141 0
105 121 0
127 147 0
114 129 0
119 137 0
126 145 0
113 130 0
125 141 0
112 130 0
111 128 0
89 105 0
124 141 0
119 135 0
101 117 0
123 141 0
117 134 0
109 125 0
123 142 0
130 148 0
110 125 0
118 138 0
109 124 0
119 137 0
126 140 0
111 128 0
112 130 0
120 137 0
128 144 0
129 146 0
122 137 0
119 138 0
122 141 0
107 121 0
110 124 0
117 135 0
118 133 0
128 143 0
120 135 0
138 155 0
105 120 0
133 149 0
138 157 0
120 133 0
122 137 0
109 128 0
118 135 0
126 142 0
126 142 0
132 145 0
129 141 0
135 152 0
122 134 0
132 149 0
125 138 0
143 160 0
126 140 0
116 127 0
125 141 0
124 138 0
139 152 0
134 150 0
131 145 0
121 136 0
127 142 0
141 152 0
136 148 0
145 160 0
126 139 0
127 141 0
114 124 0
137 151 0
126 138 0
129 141 0
136 147 0
125 132 0
125 134 0
135 146 0
130 138 0
138 145 0
143 152 0
123 132 0
127 134 0
140 151 0
130 141 0
137 145 0
128 136 0
135 143 0
130 132 0
120 127 0
143 152 0
129 133 0
127 137 0
118 124 0
131 140 0
133 141 0
137 142 0
133 134 0
127 132 0
131 136 0
125 130 0
127 132 0
129 133 0
124 123 0
136 133 0
136 134 0
114 106 0
115 111 0
128 124 0
128 122 0
131 123 0
125 118 0
115 109 0
118 112 0
116 109 0
110 105 0
110 102 0
125 117 0
129 122 0
110 101 0
109 99 0
114 100 0
119 112 0
124 117 0
124 115 0
111 105 0
106 91 0
108 94 0
113 102 0
108 98 0
112 97 0
105 90 0
123 112 0
117 105 0
113 99 0
117 110 0
109 96 0
134 129 0
117 104 0
134 127 0
113 100 0
123 120 0
124 110 7
120 106 7
129 116 3
130 122 17
134 124 7
137 128 7
134 122 19
134 126 7
126 114 22
129 116 5
131 120 16
134 121 19
124 115 10
133 119 8
134 125 10
130 118 16
129 118 10
142 137 17
145 141 8
141 134 22
137 129 13
146 144 16
156 156 16
152 156 0
160 163 0
150 156 0
152 155 0
159 168 0
153 157 0
155 163 0
151 157 0
156 161 0
158 166 0
147 151 0
162 170 0
168 180 0
159 166 0
159 165 0
159 165 0
160 169 0
161 175 0
163 173 0
161 175 0
160 171 0
163 174 0
163 174 0
167 178 0
159 169 0
166 179 0
163 175 0
159 170 0
164 175 0
165 179 0
165 179 0
164 176 0
162 174 0
167 185 0
162 170 0
166 182 0
164 178 0
166 184 0
167 186 0
175 197 0
171 195 0
172 194 0
176 198 0
174 196 0
174 197 0
173 195 0
170 192 0
176 198 0
173 196 0
172 194 0
174 197 0
173 196 0
174 196 0
174 198 0
177 199 0
176 198 0
176 199 0
172 193 0
171 193 0
175 197 0
172 193 0
174 196 0
176 196 0
175 195 0
170 191 0
174 195 0
176 197 0
170 190 0
176 197 0
175 195 0
176 198 0
176 196 0
175 196 0
172 193 0
171 191 0
173 193 0
172 192 0
175 194 0
174 195 0
170 192 0
173 192 0
169 189 0
170 190 0
179 198 0
176 196 0
171 192 0
169 188 0
175 196 0
170 189 0
173 193 0
176 196 0
172 192 0
166 186 0
169 190 0
174 194 0
171 191 0
162 182 0
171 190 0
168 188 0
168 187 0
173 192 0
175 194 0
164 183 0
162 182 0
165 184 0
174 194 0
168 187 0
162 181 0
159 178 0
159 180 0
164 184 0
171 192 0
169 188 0
164 184 0
166 186 0
166 186 0
159 178 0
166 186 0
170 189 0
165 184 0
166 186 0
160 179 0
163 184 0
154 174 0
157 177 0
164 183 0
169 187 0
161 181 0
155 174 0
165 184 0
160 179 0
158 179 0
171 189 0
167 187 0
158 178 0
159 180 0
150 171 0
151 170 0
161 181 0
155 175 0
148 168 0
159 179 0
167 187 0
151 171 0
157 178 0
164 184 0
164 183 0
158 178 0
155 176 0
152 173 0
150 170 0
154 176 0
158 177 0
151 171 0
165 186 0
161 181 0
142 162 0
154 175 0
146 168 0
150 172 0
155 175 0
144 166 0
159 181 0
149 171 0
146 166 0
144 166 0
159 180 0
161 182 0
144 165 0
147 169 0
144 166 0
146 167 0
142 164 0
145 168 0
139 161 0
146 166 0
157 179 0
145 167 0
143 163 0
150 171 0
153 174 0
150 172 0
158 178 0
139 160 0
155 176 0
133 154 0
138 160 0
133 152 0
131 152 0
155 177 0
144 164 0
130 149 0
139 160 0
138 158 0
140 161 0
146 168 0
135 156 0
136 156 0
135 154 0
123 143 0
142 164 0
135 156 0
135 155 0
144 164 0
145 165 0
122 142 0
145 166 0
140 161 0
131 151 0
133 154 0
128 147 0
136 157 0
129 150 0
138 157 0
109 125 0
124 143 0
109 128 0
125 144 0
137 158 0
128 148 0
125 145 0
124 143 0
136 153 0
126 145 0
108 127 0
123 142 0
127 144 0
124 140 0
111 128 0
117 136 0
130 148 0
126 144 0
119 139 0
127 147 0
133 152 0
129 148 0
113 130 0
109 127 0
118 135 0
114 132 0
135 153 0
120 138 0
119 137 0
129 149 0
116 133 0
118 136 0
120 137 0
109 126 0
98 114 0
119 137 0
128 144 0
116 131 0
128 146 0
114 131 0
121 141 0
127 146 0
110 127 0
128 145 0
103 118 0
129 146 0
133 151 0
120 137 0
140 156 0
136 152 0
122 137 0
132 146 0
110 128 0
128 146 0
120 133 0
125 140 0
133 148 0
124 141 0
136 150 0
108 121 0
125 142 0
129 145 0
121 137 0
123 140 0
131 148 0
135 150 0
117 135 0
137 152 0
115 130 0
130 146 0
115 130 0
125 140 0
137 153 0
135 150 0
132 148 0
115 129 0
126 142 0
132 144 0
141 153 0
126 141 0
121 137 0
142 160 0
131 140 0
132 145 0
119 136 0
133 145 0
141 152 0
123 134 0
121 133 0
131 140 0
119 131 0
123 136 0
138 149 0
132 145 0
130 139 0
124 132 0
121 133 0
135 142 0
142 157 0
119 128 0
128 137 0
131 142 0
134 145 0
135 146 0
129 138 0
128 139 0
118 127 0
130 137 0
120 123 0
127 134 0
138 147 0
140 148 0
133 133 0
118 123 0
136 142 0
132 137 0
122 127 0
145 145 0
131 138 0
134 142 0
135 136 0
139 145 0
142 142 0
127 133 0
121 123 0
126 127 0
121 122 0
128 132 0
121 121 0
121 120 0
126 126 0
127 124 0
128 128 0
124 124 0
111 104 0
114 112 0
128 125 0
122 119 0
113 106 0
116 109 0
123 117 0
115 112 0
121 111 0
118 107 0
119 113 0
111 103 0
122 113 0
131 123 0
112 98 0
104 97 0
121 114 0
123 116 0
106 90 0
121 115 0
121 108 0
111 102 0
125 114 0
131 125 0
128 114 0
125 114 0
118 107 0
108 90 0
125 117 0
129 124 0
125 117 0
131 126 0
127 116 0
130 123 0
130 123 0
127 118 0
131 125 0
142 138 0
127 119 0
127 120 0
138 132 0
144 144 0
144 141 0
140 134 0
137 132 0
143 142 0
147 146 0
144 144 0
147 145 0
155 157 0
147 151 0
135 134 0
150 147 0
156 159 0
148 145 0
150 154 0
152 157 0
145 148 0
156 163 0
155 159 0
147 150 0
153 156 0
145 150 0
154 159 0
163 175 0
158 172 0
155 163 0
151 156 0
160 170 0
160 170 0
158 166 0
159 172 0
160 170 0
165 174 0
166 181 0
155 164 0
166 180 0
164 176 0
161 175 0
166 181 0
167 181 0
156 164 0
166 178 0
165 181 0
167 182 0
164 180 0
163 177 0
168 185 0
162 175 0
166 183 0
169 185 0
176 197 0
175 197 0
169 194 0
172 194 0
172 195 0
173 195 0
176 198 0
175 197 0
175 198 0
175 197 0
173 195 0
179 200 0
175 197 0
175 197 0
176 198 0
171 193 0
172 194 0
172 194 0
175 196 0
177 198 0
178 198 0
176 198 0
174 194 0
170 192 0
166 187 0
177 197 0
172 192 0
175 196 0
172 194 0
166 188 0
174 194 0
174 195 0
173 193 0
175 196 0
171 192 0
176 196 0
171 192 0
175 195 0
172 192 0
176 195 0
177 197 0
173 193 0
174 194 0
171 190 0
174 193 0
173 192 0
177 196 0
164 184 0
177 196 0
167 189 0
170 190 0
173 192 0
168 188 0
170 189 0
172 191 0
169 189 0
167 187 0
169 188 0
173 193 0
169 188 0
160 180 0
161 181 0
169 188 0
164 182 0
168 189 0
164 183 0
165 185 0
164 184 0
168 186 0
164 184 0
161 180 0
168 188 0
167 186 0
167 186 0
166 186 0
171 190 0
163 181 0
158 179 0
162 182 0
163 182 0
167 186 0
154 173 0
166 186 0
166 187 0
159 179 0
167 188 0
168 188 0
162 182 0
160 180 0
162 181 0
165 185 0
155 175 0
167 185 0
156 175 0
157 177 0
161 180 0
149 169 0
159 178 0
157 177 0
157 177 0
169 189 0
155 174 0
156 177 0
169 188 0
157 177 0
160 179 0
148 169 0
171 191 0
153 175 0
157 177 0
155 174 0
154 174 0
147 168 0
166 187 0
160 182 0
149 170 0
150 171 0
154 176 0
157 178 0
144 165 0
142 164 0
154 176 0
148 168 0
151 173 0
149 170 0
161 183 0
146 167 0
137 159 0
157 178 0
149 169 0
150 171 0
150 171 0
148 169 0
158 180 0
153 174 0
137 157 0
148 169 0
139 159 0
143 164 0
150 171 0
143 164 0
145 167 0
146 169 0
142 163 0
153 174 0
138 160 0
148 169 0
145 167 0
132 153 0
153 173 0
139 160 0
143 165 0
153 176 0
148 170 0
145 166 0
132 151 0
141 162 0
145 165 0
142 164 0
109 129 0
132 152 0
133 151 0
146 167 0
139 159 0
144 166 0
125 143 0
139 161 0
124 143 0
130 150 0
133 152 0
145 165 0
134 153 0
135 155 0
124 146 0
112 133 0
117 136 0
119 138 0
127 147 0
124 143 0
132 151 0
126 149 0
128 146 0
126 146 0
131 151 0
112 131 0
130 150 0
108 129 0
133 151 0
128 147 0
127 144 0
129 150 0
121 141 0
118 137 0
110 128 0
115 134 0
134 153 0
125 144 0
110 127 0
122 140 0
136 157 0
127 146 0
126 144 0
118 135 0
118 134 0
111 128 0
130 150 0
119 136 0
128 142 0
126 145 0
131 149 0
122 139 0
110 130 0
122 141 0
123 143 0
134 150 0
134 151 0
117 133 0
124 141 0
144 161 0
131 151 0
133 151 0
121 137 0
120 138 0
129 146 0
126 143 0
123 138 0
124 140 0
102 118 0
113 129 0
115 130 0
117 135 0
111 127 0
136 152 0
121 140 0
132 149 0
121 139 0
132 147 0
135 149 0
131 147 0
132 151 0
116 127 0
143 158 0
138 153 0
134 150 0
124 135 0
122 138 0
140 155 0
134 151 0
125 139 0
147 164 0
132 147 0
125 138 0
126 140 0
129 142 0
136 153 0
136 149 0
132 144 0
127 143 0
127 142 0
136 147 0
122 139 0
140 154 0
136 149 0
130 142 0
126 142 0
131 145 0
136 149 0
131 140 0
137 152 0
130 144 0
133 146 0
132 146 0
129 140 0
150 162 0
130 137 0
136 144 0
125 135 0
134 142 0
129 136 0
126 136 0
140 151 0
140 147 0
124 130 0
129 141 0
145 153 0
129 140 0
135 143 0
116 126 0
134 140 0
125 130 0
128 131 0
140 145 0
132 138 0
139 147 0
136 139 0
129 135 0
131 139 0
125 126 0
142 147 0
143 151 0
127 129 0
124 124 0
127 132 0
125 130 0
135 138 0
140 146 0
136 137 0
131 133 0
118 115 0
125 122 0
138 139 0
132 131 0
127 126 0
117 112 0
131 130 0
142 140 0
135 129 0
125 117 0
122 113 0
123 118 0
131 126 0
113 109 0
130 127 0
125 116 0
124 114 0
121 112 0
131 123 0
114 100 0
121 114 0
125 112 0
118 106 0
127 119 0
113 101 0
119 105 0
127 121 0
128 122 0
131 128 0
119 106 0
124 114 0
136 129 0
124 117 0
126 118 0
121 114 0
126 121 0
134 128 0
131 123 0
134 125 0
123 116 0
135 128 0
135 128 0
138 134 0
134 128 0
142 140 0
146 146 0
150 150 0
138 134 0
144 141 0
149 148 0
146 145 0
149 151 0
143 137 0
156 157 0
135 132 0
141 144 0
158 164 0
148 149 0
151 156 0
157 161 0
157 161 0
153 155 0
160 168 0
162 169 0
157 163 0
153 161 0
162 168 0
166 177 0
154 159 0
163 173 0
158 169 0
166 179 0
168 180 0
163 178 0
159 167 0
160 170 0
161 172 0
165 175 0
160 174 0
160 170 0
161 175 0
168 183 0
162 175 0
155 168 0
164 180 0
162 178 0
160 173 0
165 178 0
165 180 0
159 171 0
166 181 0
166 184 0
175 198 0
176 198 0
176 198 0
177 198 0
173 196 0
174 196 0
175 198 0
175 197 0
176 198 0
173 194 0
172 195 0
175 197 0
174 194 0
170 193 0
174 195 0
171 193 0
177 198 0
175 196 0
178 199 0
174 195 0
177 199 0
174 196 0
176 197 0
178 198 0
177 197 0
176 197 0
178 199 0
169 190 0
174 196 0
174 196 0
180 200 0
174 194 0
168 189 0
179 200 0
172 193 0
173 194 0
178 198 0
176 197 0
178 197 0
178 198 0
178 197 0
175 195 0
172 192 0
174 195 0
177 196 0
175 195 0
170 190 0
170 191 0
174 194 0
173 193 0
172 190 0
174 193 0
168 188 0
170 189 0
170 190 0
170 189 0
175 194 0
173 193 0
171 191 0
174 193 0
170 189 0
170 188 0
175 195 0
164 184 0
167 187 0
165 185 0
169 188 0
166 185 0
162 182 0
168 188 0
165 183 0
160 178 0
171 190 0
160 180 0
165 183 0
169 189 0
172 191 0
166 185 0
166 187 0
168 188 0
162 183 0
167 188 0
158 179 0
165 185 0
161 180 0
161 181 0
167 186 0
167 187 0
171 190 0
151 170 0
164 186 0
160 181 0
165 185 0
160 180 0
160 180 0
154 173 0
161 180 0
151 171 0
156 176 0
153 173 0
162 183 0
155 176 0
167 187 0
160 180 0
152 172 0
155 176 0
154 174 0
150 172 0
151 172 0
149 169 0
155 176 0
159 181 0
160 180 0
164 186 0
152 174 0
153 174 0
158 179 0
156 177 0
151 173 0
156 176 0
147 167 0
155 176 0
166 187 0
154 176 0
143 165 0
144 165 0
151 172 0
142 164 0
154 176 0
128 150 0
152 174 0
142 163 0
150 170 0
162 184 0
148 170 0
147 169 0
143 164 0
137 158 0
140 162 0
150 170 0
144 164 0
148 169 0
144 164 0
146 168 0
140 160 0
141 163 0
138 158 0
149 169 0
133 154 0
150 171 0
148 169 0
139 160 0
133 155 0
141 163 0
132 154 0
128 149 0
126 147 0
151 173 0
139 160 0
122 142 0
140 161 0
130 152 0
143 164 0
139 160 0
135 153 0
156 176 0
128 146 0
139 161 0
120 141 0
131 151 0
136 158 0
122 140 0
129 148 0
139 157 0
142 160 0
119 139 0
131 151 0
127 148 0
125 147 0
134 155 0
135 154 0
130 150 0
127 148 0
137 155 0
112 130 0
129 149 0
133 154 0
128 145 0
115 134 0
124 144 0
117 137 0
115 134 0
119 137 0
120 139 0
130 151 0
128 148 0
131 150 0
129 145 0
108 126 0
118 137 0
126 143 0
125 145 0
111 130 0
126 147 0
118 135 0
139 158 0
109 126 0
118 136 0
115 133 0
100 116 0
136 152 0
108 125 0
128 144 0
123 142 0
134 152 0
126 145 0
104 120 0
119 134 0
104 121 0
129 146 0
106 121 0
123 139 0
126 143 0
96 109 0
123 140 0
124 139 0
112 127 0
126 143 0
126 141 0
120 138 0
116 133 0
118 134 0
122 140 0
128 146 0
127 145 0
131 148 0
132 148 0
116 130 0
132 149 0
117 131 0
127 142 0
125 141 0
127 141 0
138 156 0
131 144 0
126 141 0
125 143 0
129 144 0
137 155 0
123 136 0
125 140 0
123 139 0
115 129 0
136 150 0
126 138 0
130 145 0
120 130 0
136 149 0
124 138 0
138 154 0
134 147 0
147 163 0
130 142 0
136 149 0
137 151 0
133 144 0
123 134 0
139 153 0
137 149 0
128 143 0
146 159 0
135 153 0
138 151 0
127 138 0
139 154 0
139 146 0
147 158 0
148 165 0
143 151 0
145 154 0
137 145 0
142 152 0
136 147 0
129 133 0
138 150 0
135 145 0
142 152 0
142 152 0
121 130 0
139 148 0
132 139 0
128 138 0
132 140 0
138 148 0
132 141 0
143 151 0
135 141 0
123 133 0
117 121 0
127 131 0
139 144 0
128 129 0
130 135 0
133 137 0
137 138 0
134 136 0
126 126 0
120 114 0
133 128 0
131 134 0
131 134 0
122 122 0
133 133 0
114 107 0
121 116 0
134 133 0
141 139 0
131 129 0
115 110 0
123 115 0
136 135 0
130 126 0
133 125 0
135 131 0
123 120 0
127 115 0
128 121 0
136 132 0
123 113 0
117 106 0
132 123 0
126 120 0
124 117 0
137 132 0
122 110 0
121 110 0
127 122 0
125 116 0
125 116 0
122 114 0
124 116 0
123 118 0
132 127 0
126 117 0
117 107 0
134 130 0
132 128 0
135 129 0
130 122 0
136 133 0
134 130 0
146 144 0
144 141 0
134 126 0
138 137 0
151 150 0
148 150 0
147 145 0
138 135 0
151 151 0
142 138 0
145 144 0
149 151 0
152 158 0
139 140 0
151 153 0
150 154 0
152 154 0
149 154 0
148 149 0
157 164 0
154 162 0
156 166 0
161 170 0
157 164 0
158 164 0
166 176 0
152 160 0
155 164 0
152 157 0
156 164 0
161 172 0
167 179 0
153 160 0
164 177 0
161 175 0
160 173 0
165 175 0
157 164 0
165 180 0
160 173 0
163 177 0
163 177 0
165 180 0
169 184 0
165 178 0
161 172 0
167 180 0
167 183 0
168 182 0
171 194 0
172 194 0
172 196 0
173 196 0
175 197 0
176 198 0
176 197 0
174 197 0
174 194 0
169 191 0
169 192 0
176 198 0
170 192 0
172 193 0
169 191 0
173 194 0
174 196 0
177 197 0
176 197 0
175 196 0
179 199 0
171 192 0
177 197 0
176 197 0
175 195 0
175 196 0
177 197 0
176 196 0
167 189 0
172 193 0
173 194 0
171 192 0
164 185 0
174 193 0
174 195 0
174 196 0
171 191 0
175 195 0
173 194 0
170 191 0
174 193 0
171 192 0
175 195 0
174 195 0
168 190 0
171 191 0
168 188 0
176 194 0
175 193 0
176 195 0
168 189 0
171 190 0
174 193 0
170 190 0
174 193 0
172 193 0
173 192 0
169 189 0
167 188 0
173 193 0
165 185 0
169 188 0
171 191 0
166 186 0
171 189 0
160 179 0
170 190 0
163 182 0
163 181 0
162 182 0
168 188 0
169 188 0
173 193 0
164 183 0
159 178 0
162 182 0
160 181 0
163 183 0
167 187 0
172 192 0
168 187 0
167 185 0
168 187 0
167 185 0
170 190 0
168 187 0
155 175 0
167 186 0
167 186 0
164 184 0
160 181 0
165 185 0
160 179 0
166 187 0
159 178 0
152 170 0
159 178 0
163 183 0
169 187 0
154 175 0
164 185 0
155 174 0
165 185 0
149 171 0
153 171 0
163 184 0
163 184 0
151 171 0
158 181 0
154 174 0
158 180 0
150 171 0
141 162 0
162 183 0
157 179 0
144 166 0
144 165 0
149 171 0
149 169 0
146 167 0
155 176 0
147 169 0
152 173 0
156 176 0
158 179 0
166 187 0
152 173 0
149 171 0
147 168 0
142 165 0
139 161 0
148 169 0
150 171 0
141 161 0
139 159 0
156 178 0
153 175 0
141 161 0
142 163 0
152 173 0
152 174 0
148 171 0
136 158 0
156 177 0
153 175 0
151 172 0
137 157 0
142 164 0
146 168 0
140 161 0
154 177 0
140 161 0
146 168 0
144 166 0
144 165 0
147 168 0
131 153 0
142 163 0
143 164 0
136 158 0
149 170 0
152 173 0
132 153 0
153 174 0
145 166 0
139 160 0
136 157 0
138 159 0
151 171 0
128 148 0
123 141 0
134 153 0
125 146 0
110 129 0
128 148 0
127 147 0
128 147 0
136 157 0
131 152 0
133 153 0
135 153 0
130 151 0
132 151 0
124 142 0
120 139 0
119 138 0
135 154 0
133 152 0
136 156 0
124 143 0
123 140 0
124 143 0
135 154 0
108 125 0
123 143 0
110 129 0
130 150 0
112 128 0
122 140 0
122 143 0
131 151 0
105 123 0
121 139 0
126 144 0
130 147 0
126 145 0
123 141 0
138 158 0
141 159 0
112 129 0
142 162 0
128 147 0
125 143 0
111 130 0
122 142 0
124 141 0
126 143 0
123 140 0
114 132 0
126 142 0
121 139 0
118 134 0
125 139 0
129 143 0
139 157 0
124 144 0
129 146 0
129 144 0
117 133 0
122 135 0
139 156 0
112 130 0
136 152 0
129 145 0
150 167 0
130 146 0
126 144 0
133 150 0
124 140 0
119 134 0
122 139 0
121 137 0
131 148 0
130 146 0
139 155 0
134 146 0
132 148 0
127 141 0
131 146 0
138 156 0
141 154 0
126 138 0
132 151 0
128 148 0
143 161 0
141 159 0
111 126 0
143 159 0
134 151 0
142 154 0
124 135 0
134 147 0
145 159 0
146 160 0
139 155 0
117 128 0
135 151 0
139 152 0
135 148 0
143 157 0
131 146 0
149 163 0
125 135 0
142 152 0
141 151 0
132 140 0
129 140 0
138 151 0
144 155 0
126 137 0
128 140 0
141 154 0
130 137 0
144 153 0
137 143 0
130 138 0
112 119 0
137 147 0
129 137 0
151 166 0
146 156 0
134 139 0
143 152 0
137 146 0
144 148 0
124 132 0
123 126 0
125 129 0
141 146 0
120 120 0
127 130 0
131 137 0
139 142 0
128 129 0
128 130 0
124 125 0
125 129 0
128 127 0
131 130 0
137 140 0
133 138 0
134 134 0
126 122 0
129 132 0
137 134 0
124 125 0
136 135 0
132 135 0
132 131 0
131 129 0
141 145 0
126 124 0
133 131 0
127 125 0
129 127 0
127 118 0
127 121 0
124 116 0
125 119 0
142 140 0
129 125 0
129 118 0
123 118 0
125 119 0
121 110 0
122 115 0
126 122 0
135 131 0
120 109 0
137 134 0
140 140 0
120 112 0
136 133 0
145 142 0
136 134 0
126 119 0
127 118 0
138 136 0
127 123 0
134 128 0
128 118 0
134 130 0
128 122 0
135 130 0
142 140 0
132 127 0
141 141 0
140 139 0
147 146 0
146 144 0
148 146 0
153 155 0
139 137 0
150 154 0
151 152 0
149 147 0
154 160 0
148 150 0
164 172 0
156 163 0
140 139 0
146 148 0
158 164 0
154 157 0
156 159 0
157 162 0
152 159 0
156 163 0
155 161 0
155 159 0
165 174 0
160 165 0
158 164 0
162 173 0
156 162 0
161 171 0
160 170 0
158 168 0
160 171 0
159 165 0
154 159 0
163 175 0
168 181 0
164 177 0
157 168 0
166 182 0
165 178 0
167 182 0
167 180 0
159 172 0
176 198 0
167 190 0
175 196 0
175 197 0
173 196 0
179 200 0
171 193 0
172 194 0
176 197 0
179 199 0
173 195 0
177 198 0
176 198 0
177 198 0
176 197 0
170 192 0
174 195 0
175 196 0
177 198 0
174 195 0
170 190 0
169 191 0
174 195 0
168 189 0
177 197 0
170 192 0
175 195 0
177 196 0
175 196 0
171 192 0
176 197 0
171 191 0
174 194 0
174 194 0
176 196 0
178 198 0
174 194 0
170 190 0
172 191 0
169 189 0
173 192 0
174 193 0
176 196 0
172 192 0
177 196 0
169 189 0
169 189 0
172 193 0
172 192 0
174 193 0
169 189 0
176 195 0
169 189 0
177 196 0
170 190 0
171 191 0
173 193 0
170 190 0
165 184 0
172 192 0
166 185 0
170 189 0
175 193 0
168 187 0
165 185 0
170 189 0
174 193 0
161 182 0
169 189 0
174 193 0
167 187 0
166 187 0
165 185 0
164 184 0
172 190 0
172 192 0
162 181 0
172 192 0
166 186 0
162 182 0
164 184 0
169 190 0
159 179 0
167 187 0
166 186 0
167 186 0
152 172 0
161 180 0
159 176 0
162 181 0
173 193 0
163 184 0
164 184 0
161 180 0
157 178 0
158 181 0
163 184 0
153 172 0
151 172 0
159 179 0
158 177 0
164 183 0
160 182 0
164 185 0
153 174 0
147 168 0
157 178 0
159 180 0
154 176 0
154 175 0
155 175 0
156 177 0
152 173 0
157 176 0
150 169 0
146 167 0
164 187 0
160 181 0
154 174 0
152 172 0
158 179 0
152 175 0
151 172 0
144 165 0
157 179 0
141 163 0
153 175 0
150 171 0
165 187 0
140 161 0
148 171 0
146 167 0
159 180 0
148 171 0
152 173 0
148 171 0
156 177 0
151 172 0
148 169 0
148 170 0
145 167 0
142 162 0
156 178 0
151 172 0
149 171 0
144 166 0
151 171 0
146 167 0
141 162 0
133 155 0
137 159 0
146 166 0
150 172 0
132 152 0
149 172 0
146 166 0
145 165 0
140 160 0
137 159 0
152 175 0
142 162 0
147 167 0
147 167 0
152 172 0
141 161 0
148 168 0
138 159 0
137 157 0
141 162 0
121 141 0
132 153 0
131 151 0
133 155 0
143 164 0
117 137 0
132 152 0
142 162 0
123 144 0
122 142 0
143 164 0
130 148 0
129 147 0
128 147 0
121 141 0
134 154 0
125 144 0
139 158 0
122 141 0
132 150 0
99 118 0
129 147 0
122 140 0
131 151 0
124 143 0
130 149 0
135 156 0
132 151 0
133 154 0
134 151 0
124 144 0
122 141 0
129 149 0
130 150 0
122 139 0
126 145 0
133 153 0
128 147 0
122 141 0
133 149 0
132 152 0
142 160 0
134 154 0
118 135 0
130 148 0
115 134 0
108 126 0
124 141 0
124 142 0
137 157 0
123 141 0
120 137 0
114 130 0
135 152 0
127 144 0
128 147 0
125 140 0
139 157 0
127 145 0
124 143 0
111 129 0
127 145 0
125 142 0
132 146 0
119 137 0
122 139 0
141 156 0
127 144 0
122 141 0
136 152 0
141 160 0
126 142 0
134 153 0
130 149 0
132 146 0
136 149 0
139 156 0
126 144 0
137 155 0
125 144 0
144 161 0
114 129 0
142 159 0
138 153 0
144 160 0
123 140 0
126 142 0
141 156 0
132 146 0
132 147 0
152 169 0
127 143 0
153 169 0
136 155 0
127 140 0
132 141 0
139 150 0
143 155 0
144 157 0
139 153 0
136 148 0
134 146 0
125 136 0
131 147 0
135 149 0
131 143 0
125 140 0
135 149 0
143 157 0
135 147 0
137 148 0
142 156 0
114 122 0
140 153 0
137 152 0
137 146 0
128 137 0
138 149 0
143 152 0
143 152 0
124 132 0
132 138 0
142 155 0
130 132 0
128 135 0
140 147 0
145 153 0
134 143 0
131 137 0
133 143 0
128 134 0
131 140 0
141 147 0
137 147 0
138 140 0
137 138 0
138 144 0
134 141 0
131 131 0
127 130 0
134 139 0
135 137 0
133 134 0
133 132 0
140 142 0
127 122 0
139 145 0
130 128 0
126 124 0
135 131 0
121 116 0
128 127 0
132 132 0
134 130 0
127 122 0
133 130 0
134 132 0
123 118 0
140 136 0
114 103 0
127 123 0
135 128 0
111 104 0
125 121 0
135 135 0
125 123 0
128 125 0
122 109 0
128 124 0
129 121 0
137 133 0
133 125 0
124 115 0
143 142 0
118 108 0
144 139 0
124 117 0
134 130 0
127 121 0
141 140 0
143 143 0
135 131 0
142 137 0
126 120 0
138 135 0
132 124 0
140 136 0
149 150 0
139 136 0
146 147 0
138 134 0
147 149 0
149 149 0
139 137 0
143 144 0
154 157 0
146 146 0
148 150 0
156 159 0
150 148 0
156 163 0
159 162 0
151 156 0
155 159 0
157 163 0
152 158 0
149 151 0
156 162 0
157 159 0
159 168 0
156 162 0
149 153 0
161 172 0
157 165 0
156 165 0
159 168 0
157 165 0
166 177 0
163 176 0
163 171 0
158 164 0
158 166 0
167 179 0
159 172 0
164 178 0
168 179 0
162 176 0
158 171 0
163 175 0
163 176 0
158 170 0
176 197 0
170 193 0
175 198 0
176 198 0
173 195 0
172 193 0
174 195 0
178 199 0
175 197 0
174 196 0
176 198 0
177 198 0
171 191 0
175 196 0
171 193 0
176 199 0
174 195 0
175 196 0
174 195 0
173 194 0
175 196 0
172 194 0
175 196 0
173 194 0
173 194 0
176 197 0
173 194 0
167 189 0
174 194 0
173 194 0
175 194 0
175 195 0
172 193 0
167 188 0
176 195 0
176 195 0
176 195 0
170 190 0
172 194 0
173 192 0
178 198 0
166 188 0
170 190 0
174 194 0
167 188 0
165 186 0
164 185 0
167 187 0
174 193 0
166 186 0
167 185 0
166 186 0
176 196 0
162 182 0
162 182 0
171 190 0
170 190 0
170 190 0
167 188 0
170 189 0
170 191 0
170 190 0
170 189 0
161 180 0
162 180 0
167 186 0
170 189 0
172 192 0
164 183 0
160 179 0
169 190 0
151 170 0
161 181 0
166 186 0
173 193 0
173 193 0
167 188 0
168 188 0
171 191 0
171 192 0
161 180 0
161 181 0
164 184 0
165 185 0
166 186 0
162 182 0
156 176 0
159 179 0
165 185 0
170 189 0
162 184 0
169 189 0
167 187 0
158 177 0
156 176 0
151 169 0
159 179 0
163 184 0
165 185 0
156 177 0
154 175 0
148 169 0
157 177 0
158 177 0
157 177 0
158 178 0
157 178 0
154 175 0
154 176 0
153 174 0
149 170 0
159 181 0
154 176 0
152 173 0
159 181 0
160 181 0
152 175 0
158 180 0
141 163 0
146 168 0
156 179 0
148 170 0
154 176 0
149 170 0
140 161 0
146 169 0
153 174 0
157 176 0
150 171 0
153 175 0
160 182 0
156 179 0
150 172 0
157 178 0
147 167 0
149 170 0
143 164 0
150 171 0
142 162 0
135 156 0
149 170 0
137 159 0
146 168 0
155 175 0
152 173 0
151 173 0
132 153 0
143 165 0
141 163 0
140 162 0
149 172 0
143 163 0
139 160 0
149 169 0
140 161 0
142 163 0
144 165 0
139 160 0
152 172 0
145 167 0
136 157 0
137 156 0
147 169 0
154 175 0
144 165 0
147 168 0
141 160 0
141 161 0
139 159 0
137 159 0
135 157 0
136 158 0
133 154 0
145 166 0
143 162 0
135 155 0
130 150 0
122 142 0
129 151 0
125 142 0
131 153 0
133 153 0
140 159 0
127 147 0
127 147 0
128 149 0
125 146 0
136 156 0
124 142 0
146 165 0
128 148 0
135 156 0
130 150 0
144 163 0
128 147 0
127 145 0
131 150 0
113 132 0
130 149 0
127 146 0
99 119 0
123 141 0
128 146 0
120 138 0
130 149 0
121 140 0
133 151 0
112 131 0
115 132 0
124 141 0
133 151 0
119 136 0
137 155 0
122 137 0
139 156 0
148 165 0
122 138 0
143 161 0
125 143 0
131 145 0
127 143 0
129 149 0
143 161 0
141 160 0
121 137 0
140 161 0
117 133 0
126 142 0
130 148 0
129 146 0
130 148 0
121 136 0
118 134 0
140 156 0
133 148 0
127 147 0
119 138 0
143 159 0
131 147 0
129 146 0
143 160 0
138 153 0
127 146 0
130 146 0
142 159 0
120 139 0
137 153 0
134 151 0
124 140 0
136 147 0
127 140 0
146 166 0
140 159 0
141 156 0
133 152 0
137 154 0
141 157 0
125 140 0
126 139 0
144 159 0
131 147 0
135 151 0
140 149 0
136 148 0
126 138 0
132 149 0
139 154 0
141 154 0
136 146 0
132 148 0
145 159 0
121 131 0
137 149 0
146 163 0
143 158 0
142 151 0
117 126 0
144 159 0
137 151 0
125 134 0
141 155 0
135 144 0
129 140 0
127 137 0
132 147 0
137 147 0
127 135 0
152 164 0
131 139 0
123 129 0
125 135 0
142 148 0
117 124 0
130 138 0
141 147 0
144 153 0
132 140 0
130 134 0
135 147 0
138 145 0
132 138 0
145 152 0
135 136 0
122 128 0
146 149 0
133 136 0
143 146 0
127 127 0
128 128 0
140 140 0
132 128 0
137 142 0
131 138 0
128 127 0
133 137 0
135 141 0
124 126 0
124 122 0
123 123 0
128 125 0
124 123 0
130 130 0
127 129 0
133 133 0
134 130 0
136 136 0
116 113 0
136 134 0
129 126 0
119 114 0
136 131 0
141 141 0
137 136 0
135 130 0
130 126 0
144 140 0
137 134 0
140 134 0
126 116 0
130 125 0
128 120 0
144 140 0
139 136 0
131 129 0
140 138 0
137 135 0
142 138 0
134 131 0
137 132 0
133 127 0
131 124 0
146 147 0
137 133 0
149 148 0
147 150 0
139 132 0
150 153 0
134 127 0
146 145 0
152 154 0
144 144 0
146 150 0
146 146 0
132 127 0
150 153 0
142 140 0
148 151 0
154 158 0
149 151 0
145 146 0
150 151 0
143 144 0
161 162 0
145 147 0
159 166 0
149 152 0
151 152 0
151 155 0
160 167 0
157 165 0
159 168 0
157 166 0
162 170 0
163 173 0
148 151 0
155 162 0
158 164 0
158 171 0
159 170 0
154 162 0
162 174 0
161 171 0
163 174 0
169 184 0
160 170 0
162 171 0
160 173 0
157 167 0
167 180 0
159 170 0
174 196 0
177 199 0
176 197 0
176 198 0
176 197 0
173 194 0
173 196 0
177 197 0
176 197 0
174 194 0
175 196 0
174 195 0
174 195 0
171 192 0
175 196 0
171 192 0
174 194 0
177 197 0
176 198 0
176 197 0
176 196 0
174 193 0
177 198 0
174 196 0
174 193 0
179 199 0
174 195 0
173 192 0
171 191 0
178 197 0
175 196 0
176 195 0
176 196 0
170 190 0
173 192 0
173 192 0
170 190 0
175 195 0
166 186 0
174 193 0
169 189 0
174 193 0
174 194 0
162 182 0
171 190 0
175 195 0
171 191 0
175 195 0
174 195 0
166 185 0
175 194 0
171 190 0
173 193 0
170 189 0
173 192 0
171 190 0
176 194 0
171 191 0
174 194 0
169 188 0
167 185 0
168 188 0
173 193 0
166 186 0
165 185 0
175 193 0
166 186 0
169 189 0
171 191 0
163 183 0
171 190 0
163 183 0
164 184 0
175 195 0
165 186 0
169 189 0
171 191 0
156 175 0
160 181 0
170 188 0
164 184 0
171 190 0
156 175 0
164 186 0
167 187 0
161 180 0
162 182 0
165 186 0
168 187 0
158 179 0
159 179 0
163 182 0
161 181 0
163 182 0
166 185 0
164 186 0
158 179 0
165 186 0
157 177 0
166 188 0
161 180 0
148 168 0
156 178 0
155 177 0
150 171 0
161 182 0
154 174 0
157 178 0
162 184 0
156 177 0
164 185 0
160 182 0
143 164 0
157 178 0
156 177 0
160 181 0
144 166 0
151 172 0
146 167 0
153 175 0
147 169 0
154 174 0
145 167 0
166 188 0
156 178 0
151 172 0
160 182 0
160 181 0
151 173 0
150 172 0
150 170 0
159 181 0
147 169 0
148 169 0
156 177 0
140 161 0
155 175 0
145 166 0
154 177 0
153 173 0
150 172 0
145 167 0
139 161 0
152 174 0
155 177 0
142 164 0
152 173 0
128 150 0
144 164 0
153 175 0
147 168 0
148 170 0
146 167 0
153 175 0
141 164 0
152 174 0
150 172 0
145 165 0
142 163 0
139 160 0
144 165 0
139 159 0
138 160 0
142 163 0
138 160 0
149 169 0
128 147 0
126 147 0
132 152 0
146 166 0
129 150 0
126 146 0
128 147 0
141 162 0
152 174 0
130 150 0
135 156 0
123 144 0
147 168 0
138 159 0
123 144 0
137 157 0
136 156 0
132 152 0
124 143 0
142 164 0
132 153 0
141 160 0
135 155 0
138 160 0
132 150 0
140 162 0
135 153 0
128 148 0
127 149 0
138 156 0
124 141 0
135 155 0
141 161 0
136 153 0
114 132 0
121 140 0
119 138 0
136 156 0
130 147 0
143 163 0
130 149 0
141 161 0
106 123 0
123 143 0
119 138 0
125 143 0
124 140 0
134 150 0
133 152 0
114 134 0
133 151 0
135 154 0
125 146 0
126 142 0
130 149 0
136 153 0
120 138 0
146 163 0
141 158 0
127 144 0
114 130 0
135 153 0
124 139 0
126 142 0
138 156 0
130 149 0
136 151 0
132 146 0
123 139 0
133 150 0
124 140 0
118 138 0
124 141 0
126 144 0
131 147 0
146 166 0
134 152 0
144 159 0
131 146 0
134 153 0
140 158 0
123 140 0
138 156 0
134 153 0
134 150 0
138 155 0
135 150 0
143 159 0
122 135 0
138 154 0
126 139 0
143 158 0
142 158 0
144 160 0
144 158 0
142 154 0
150 166 0
141 153 0
147 160 0
134 146 0
121 133 0
135 148 0
131 145 0
120 135 0
135 146 0
135 148 0
138 153 0
135 148 0
140 152 0
137 151 0
139 154 0
134 146 0
145 160 0
130 146 0
138 151 0
128 141 0
131 147 0
137 146 0
136 150 0
144 158 0
139 149 0
140 150 0
136 148 0
142 155 0
140 150 0
142 149 0
124 131 0
134 146 0
137 148 0
142 153 0
138 152 0
136 147 0
128 133 0
146 156 0
137 141 0
132 143 0
128 134 0
142 149 0
139 142 0
131 138 0
129 129 0
127 133 0
131 135 0
132 134 0
138 142 0
133 133 0
123 122 0
139 140 0
123 122 0
141 144 0
126 126 0
142 147 0
126 127 0
140 142 0
145 146 0
133 133 0
133 130 0
134 134 0
140 143 0
132 130 0
133 136 0
144 142 0
131 125 0
146 146 0
126 123 0
134 129 0
126 119 0
140 138 0
131 127 0
120 110 0
137 134 0
144 142 0
138 138 0
139 139 0
138 133 0
126 121 0
143 142 0
138 137 0
136 132 0
136 135 0
140 137 0
138 131 0
145 144 0
143 140 0
148 147 0
139 135 0
140 137 0
146 146 0
131 127 0
132 124 0
137 134 0
142 145 0
141 134 0
140 135 0
129 123 0
145 145 0
143 147 0
152 157 0
153 156 0
153 155 0
152 151 0
146 143 0
147 150 0
153 155 0
147 149 0
150 151 0
158 162 0
149 152 0
155 160 0
156 161 0
154 160 0
152 155 0
154 161 0
151 152 0
146 150 0
159 165 0
156 164 0
157 165 0
154 160 0
157 165 0
154 157 0
161 169 0
159 167 0
166 179 0
162 173 0
161 172 0
156 166 0
159 171 0
158 167 0
161 169 0
158 166 0
158 166 0
163 178 0
164 177 0
176 197 0
173 194 0
175 196 0
176 197 0
170 193 0
174 196 0
174 195 0
174 195 0
170 193 0
172 194 0
172 194 0
174 194 0
176 197 0
176 198 0
175 195 0
177 198 0
174 195 0
177 197 0
176 197 0
174 195 0
174 195 0
175 196 0
177 197 0
173 194 0
172 192 0
173 194 0
176 197 0
170 191 0
177 197 0
178 197 0
176 197 0
174 194 0
171 190 0
172 192 0
173 193 0
170 192 0
169 188 0
164 185 0
170 190 0
171 191 0
171 192 0
175 195 0
173 193 0
173 193 0
173 193 0
172 191 0
172 193 0
177 196 0
176 196 0
172 191 0
170 189 0
170 190 0
173 192 0
176 194 0
172 191 0
171 191 0
173 193 0
173 193 0
164 183 0
171 192 0
170 189 0
174 193 0
169 188 0
170 191 0
167 187 0
170 190 0
158 177 0
172 190 0
164 185 0
166 186 0
165 185 0
167 187 0
161 180 0
155 173 0
168 188 0
148 168 0
156 175 0
168 188 0
167 186 0
154 174 0
161 180 0
155 175 0
157 177 0
164 185 0
159 179 0
170 190 0
161 183 0
159 179 0
167 187 0
161 181 0
162 181 0
165 184 0
165 186 0
155 174 0
155 176 0
153 173 0
168 188 0
163 185 0
163 185 0
151 172 0
154 176 0
160 181 0
152 174 0
163 183 0
153 174 0
160 181 0
167 188 0
164 184 0
162 184 0
153 176 0
167 188 0
162 183 0
152 174 0
160 180 0
148 168 0
155 175 0
151 173 0
154 175 0
158 178 0
168 189 0
153 175 0
160 183 0
155 176 0
147 169 0
162 185 0
147 168 0
138 159 0
157 179 0
141 164 0
155 177 0
147 168 0
144 166 0
140 162 0
140 163 0
155 175 0
148 169 0
153 174 0
147 169 0
141 164 0
150 172 0
144 165 0
132 155 0
150 172 0
138 159 0
157 179 0
156 178 0
142 162 0
153 174 0
145 167 0
141 161 0
145 167 0
145 166 0
134 154 0
149 170 0
143 163 0
152 173 0
147 169 0
139 162 0
146 167 0
129 151 0
140 162 0
129 151 0
146 167 0
150 171 0
147 170 0
144 165 0
157 176 0
137 158 0
134 155 0
133 152 0
126 147 0
139 158 0
132 152 0
142 165 0
138 159 0
123 143 0
115 135 0
146 167 0
133 154 0
137 158 0
122 142 0
141 163 0
131 152 0
139 159 0
148 169 0
116 134 0
131 151 0
121 141 0
128 146 0
137 157 0
124 143 0
132 150 0
125 145 0
135 156 0
136 154 0
141 163 0
119 140 0
137 157 0
129 148 0
128 146 0
127 147 0
134 153 0
136 153 0
125 144 0
107 126 0
137 156 0
131 148 0
139 159 0
120 140 0
144 164 0
132 152 0
135 155 0
127 148 0
137 155 0
137 156 0
114 131 0
116 135 0
143 163 0
127 143 0
121 139 0
133 152 0
132 152 0
124 143 0
138 158 0
118 136 0
145 162 0
139 156 0
136 156 0
129 145 0
127 144 0
137 156 0
142 160 0
134 152 0
125 143 0
122 139 0
137 155 0
132 148 0
136 154 0
129 148 0
147 165 0
131 147 0
136 152 0
143 163 0
143 161 0
130 147 0
129 144 0
140 156 0
117 133 0
133 148 0
139 154 0
139 151 0
127 143 0
130 148 0
144 159 0
146 163 0
131 149 0
142 159 0
139 154 0
129 142 0
139 154 0
143 158 0
125 140 0
140 152 0
131 143 0
140 157 0
126 137 0
130 144 0
143 160 0
138 149 0
130 141 0
143 157 0
121 133 0
138 153 0
133 145 0
146 158 0
138 151 0
139 150 0
138 153 0
129 142 0
139 150 0
137 150 0
141 155 0
126 136 0
137 147 0
135 146 0
141 149 0
143 153 0
139 152 0
140 150 0
140 148 0
145 156 0
139 148 0
137 147 0
141 148 0
139 148 0
133 145 0
136 145 0
150 160 0
139 145 0
136 144 0
133 141 0
133 141 0
128 131 0
128 131 0
131 140 0
135 135 0
136 145 0
140 145 0
136 142 0
140 145 0
134 136 0
130 133 0
134 138 0
146 152 0
135 133 0
131 138 0
136 138 0
141 145 0
138 140 0
128 129 0
136 139 0
116 114 0
128 124 0
125 124 0
140 139 0
129 131 0
140 139 0
133 134 0
123 125 0
127 125 0
141 140 0
127 125 0
138 139 0
138 134 0
134 128 0
140 139 0
135 131 0
136 130 0
138 138 0
139 136 0
136 132 0
142 143 0
125 122 0
136 132 0
128 121 0
148 152 0
147 147 0
142 141 0
134 131 0
133 129 0
139 136 0
136 131 0
132 126 0
138 133 0
135 133 0
148 148 0
140 137 0
137 132 0
141 135 0
143 141 0
159 165 0
153 159 0
139 134 0
145 144 0
148 152 0
160 161 0
147 150 0
144 145 0
150 153 0
145 146 0
153 158 0
160 166 0
145 150 0
149 150 0
155 163 0
159 166 0
155 161 0
145 147 0
158 163 0
153 162 0
146 146 0
156 162 0
158 166 0
151 157 0
154 161 0
161 171 0
160 167 0
156 166 0
159 164 0
155 161 0
156 161 0
160 168 0
163 177 0
155 164 0
161 172 0
162 172 0
163 176 0
161 171 0
162 171 0
166 178 0
176 198 0
171 194 0
174 196 0
173 196 0
176 196 0
174 196 0
175 197 0
175 196 0
170 191 0
170 191 0
175 196 0
176 197 0
173 194 0
176 197 0
173 193 0
166 188 0
177 197 0
177 197 0
178 198 0
173 194 0
176 196 0
174 195 0
174 194 0
176 197 0
176 195 0
176 196 0
173 194 0
175 195 0
175 195 0
174 195 0
176 196 0
174 194 0
174 193 0
174 194 0
179 198 0
175 195 0
180 199 0
175 195 0
173 193 0
173 194 0
176 196 0
167 187 0
164 184 0
167 187 0
173 192 0
170 190 0
177 197 0
175 196 0
167 186 0
174 192 0
174 194 0
168 187 0
169 189 0
166 187 0
166 187 0
172 193 0
172 193 0
171 191 0
167 187 0
167 186 0
173 193 0
169 188 0
169 190 0
167 187 0
165 185 0
170 190 0
167 187 0
159 179 0
170 192 0
164 185 0
169 189 0
168 188 0
158 179 0
167 187 0
167 186 0
162 182 0
168 189 0
165 186 0
161 180 0
169 191 0
165 186 0
169 189 0
161 180 0
160 180 0
171 192 0
158 179 0
163 183 0
168 188 0
160 182 0
157 178 0
162 181 0
157 178 0
164 184 0
141 164 0
156 176 0
161 184 0
155 177 0
162 184 0
168 190 0
158 178 0
154 175 0
151 172 0
166 189 0
152 174 0
164 185 0
158 179 0
154 175 0
158 179 0
164 185 0
159 179 0
159 181 0
152 174 0
149 170 0
154 177 0
153 174 0
153 175 0
155 176 0
159 180 0
153 174 0
154 175 0
138 158 0
150 170 0
149 171 0
154 174 0
154 176 0
147 168 0
157 178 0
154 174 0
146 169 0
154 177 0
153 176 0
149 170 0
144 166 0
156 179 0
161 183 0
146 167 0
154 175 0
154 176 0
144 166 0
138 160 0
152 176 0
144 166 0
135 156 0
151 172 0
150 170 0
131 153 0
150 171 0
138 159 0
150 172 0
147 168 0
142 165 0
139 161 0
155 177 0
142 165 0
144 165 0
147 168 0
139 160 0
133 154 0
134 156 0
149 170 0
144 166 0
138 158 0
147 169 0
146 168 0
137 158 0
139 162 0
149 170 0
139 159 0
132 152 0
149 170 0
130 149 0
137 159 0
139 159 0
148 168 0
138 158 0
155 175 0
136 157 0
151 172 0
141 161 0
140 161 0
141 162 0
131 150 0
144 165 0
138 158 0
136 157 0
133 150 0
137 157 0
129 150 0
123 144 0
124 143 0
141 162 0
131 148 0
126 146 0
125 144 0
128 147 0
134 155 0
138 159 0
144 166 0
121 139 0
113 131 0
128 146 0
129 150 0
136 155 0
119 137 0
137 155 0
133 153 0
136 154 0
131 150 0
135 152 0
145 165 0
128 144 0
129 147 0
131 150 0
131 150 0
141 161 0
135 156 0
131 148 0
137 153 0
128 144 0
139 158 0
149 170 0
131 149 0
131 148 0
146 165 0
130 147 0
112 131 0
139 157 0
128 146 0
130 149 0
125 143 0
139 155 0
132 151 0
134 154 0
134 152 0
140 159 0
145 164 0
127 144 0
125 141 0
150 170 0
130 145 0
145 166 0
145 165 0
132 149 0
141 158 0
142 158 0
136 150 0
133 148 0
136 153 0
129 147 0
145 162 0
138 154 0
122 137 0
131 146 0
134 151 0
145 162 0
148 168 0
121 133 0
138 154 0
139 153 0
133 146 0
133 147 0
150 165 0
150 164 0
124 138 0
132 148 0
128 144 0
146 165 0
128 143 0
140 153 0
148 162 0
137 155 0
148 164 0
134 150 0
143 155 0
128 142 0
134 147 0
138 153 0
133 148 0
146 160 0
141 152 0
139 154 0
144 157 0
145 153 0
149 165 0
144 154 0
142 151 0
131 139 0
144 160 0
143 155 0
135 146 0
150 163 0
139 152 0
133 143 0
148 162 0
130 139 0
141 155 0
131 142 0
149 162 0
125 133 0
139 147 0
135 142 0
138 146 0
139 147 0
145 157 0
139 148 0
129 135 0
121 123 0
135 144 0
134 136 0
143 148 0
145 149 0
138 148 0
128 130 0
134 142 0
132 135 0
141 145 0
139 145 0
136 136 0
139 144 0
133 137 0
133 135 0
135 135 0
139 143 0
139 143 0
133 139 0
139 139 0
135 133 0
149 153 0
145 148 0
132 131 0
144 147 0
142 141 0
134 133 0
132 136 0
139 139 0
142 146 0
139 142 0
137 136 0
141 140 0
138 139 0
141 138 0
132 130 0
141 137 0
133 134 0
145 146 0
145 142 0
141 136 0
134 128 0
139 140 0
145 143 0
137 132 0
136 132 0
142 137 0
147 147 0
139 137 0
133 127 0
148 151 0
140 138 0
136 134 0
145 145 0
146 151 0
149 149 0
151 155 0
142 144 0
149 149 0
149 147 0
148 151 0
147 148 0
157 159 0
153 153 0
154 162 0
158 161 0
146 145 0
150 152 0
156 159 0
149 153 0
159 163 0
154 164 0
158 165 0
152 154 0
156 161 0
157 163 0
151 154 0
151 157 0
156 161 0
152 155 0
156 164 0
157 162 0
155 161 0
151 154 0
161 171 0
156 166 0
156 162 0
158 166 0
158 169 0
154 163 0
164 179 0
153 162 0
159 169 0
159 169 0
169 192 0
172 194 0
173 195 0
175 197 0
174 196 0
175 196 0
177 198 0
173 195 0
170 191 0
175 196 0
173 194 0
174 195 0
177 198 0
172 194 0
177 198 0
175 196 0
177 197 0
172 193 0
177 198 0
176 197 0
179 200 0
175 197 0
173 192 0
173 195 0
173 193 0
177 197 0
177 197 0
172 193 0
170 189 0
175 196 0
171 192 0
173 194 0
168 190 0
176 195 0
174 193 0
171 192 0
173 193 0
174 195 0
172 192 0
174 193 0
164 185 0
169 188 0
177 196 0
168 189 0
175 196 0
173 194 0
172 191 0
172 191 0
169 189 0
173 193 0
161 181 0
168 189 0
168 188 0
164 184 0
168 189 0
169 189 0
173 193 0
170 191 0
166 187 0
171 191 0
169 191 0
166 186 0
169 189 0
170 190 0
165 185 0
161 181 0
169 188 0
174 194 0
166 186 0
173 192 0
161 181 0
174 192 0
173 193 0
169 189 0
170 190 0
169 190 0
169 189 0
165 185 0
153 173 0
166 186 0
170 191 0
166 186 0
155 176 0
166 186 0
165 185 0
161 183 0
151 172 0
159 181 0
160 181 0
158 178 0
160 181 0
157 178 0
160 181 0
165 183 0
168 188 0
156 177 0
157 180 0
159 180 0
160 181 0
156 175 0
158 178 0
146 167 0
153 175 0
156 177 0
155 177 0
164 182 0
154 176 0
157 179 0
162 183 0
147 170 0
159 180 0
157 179 0
153 175 0
143 165 0
152 172 0
155 177 0
151 173 0
158 180 0
160 181 0
150 172 0
151 172 0
146 167 0
149 170 0
151 173 0
159 179 0
158 180 0
151 171 0
157 179 0
152 174 0
156 179 0
148 170 0
154 176 0
159 182 0
158 180 0
149 170 0
145 165 0
148 170 0
151 172 0
146 169 0
147 167 0
150 171 0
151 173 0
140 162 0
143 165 0
143 164 0
151 173 0
136 158 0
142 165 0
138 160 0
153 174 0
137 160 0
151 172 0
159 180 0
131 152 0
148 169 0
138 159 0
157 177 0
142 163 0
155 176 0
139 161 0
150 172 0
142 163 0
126 147 0
150 172 0
134 156 0
141 160 0
148 167 0
138 159 0
139 159 0
145 167 0
149 170 0
124 144 0
136 156 0
146 166 0
141 163 0
147 169 0
141 162 0
141 163 0
132 152 0
139 157 0
115 135 0
130 150 0
143 163 0
126 145 0
135 156 0
148 169 0
138 158 0
137 158 0
131 151 0
135 156 0
128 148 0
141 161 0
128 147 0
136 151 0
142 161 0
136 157 0
134 155 0
133 154 0
137 159 0
142 162 0
128 147 0
141 160 0
141 160 0
121 141 0
138 156 0
135 153 0
142 160 0
121 139 0
136 154 0
130 150 0
124 142 0
140 161 0
135 155 0
143 162 0
125 146 0
128 145 0
129 145 0
119 135 0
122 142 0
133 152 0
137 154 0
136 156 0
137 157 0
127 146 0
119 134 0
137 159 0
112 128 0
136 153 0
144 163 0
129 146 0
138 155 0
118 134 0
124 142 0
131 149 0
127 147 0
137 158 0
144 161 0
133 149 0
143 163 0
133 147 0
127 144 0
136 153 0
142 160 0
145 166 0
139 158 0
139 156 0
129 147 0
133 151 0
134 150 0
137 157 0
137 154 0
126 140 0
134 148 0
140 157 0
140 158 0
133 149 0
141 158 0
140 158 0
151 168 0
147 163 0
138 155 0
139 155 0
145 160 0
140 156 0
138 155 0
142 158 0
136 148 0
133 149 0
145 159 0
139 154 0
143 160 0
143 156 0
146 162 0
145 159 0
138 153 0
139 154 0
143 159 0
130 143 0
134 147 0
144 157 0
149 163 0
144 159 0
137 151 0
141 157 0
139 153 0
148 163 0
145 158 0
141 154 0
136 146 0
136 147 0
145 159 0
134 144 0
145 154 0
138 150 0
143 153 0
137 147 0
147 156 0
147 156 0
138 148 0
136 147 0
123 132 0
139 148 0
147 159 0
134 136 0
141 147 0
150 162 0
131 134 0
130 140 0
142 148 0
132 138 0
142 143 0
151 155 0
139 148 0
127 132 0
136 143 0
135 142 0
132 135 0
150 157 0
149 157 0
133 135 0
139 143 0
139 144 0
141 145 0
146 147 0
147 150 0
138 137 0
138 139 0
142 144 0
133 137 0
147 150 0
134 135 0
132 134 0
143 144 0
142 138 0
139 142 0
147 151 0
141 142 0
143 143 0
145 145 0
141 148 0
135 134 0
139 136 0
124 119 0
140 142 0
142 141 0
138 133 0
143 143 0
141 141 0
135 132 0
141 138 0
138 136 0
131 127 0
139 136 0
137 135 0
143 145 0
136 136 0
140 141 0
143 138 0
136 135 0
144 142 0
138 133 0
147 150 0
153 158 0
143 140 0
144 147 0
153 154 0
146 147 0
147 147 0
148 151 0
145 146 0
148 151 0
153 156 0
147 147 0
150 156 0
156 161 0
156 160 0
155 158 0
155 159 0
146 145 0
157 163 0
160 168 0
157 163 0
158 165 0
151 159 0
151 155 0
158 166 0
159 168 0
154 159 0
157 168 0
159 170 0
162 173 0
160 171 0
158 165 0
162 176 0
153 162 0
162 174 0
159 167 0
162 171 0
164 173 0
155 165 0
176 198 0
177 198 0
176 197 0
171 193 0
176 198 0
174 197 0
172 195 0
175 197 0
175 197 0
176 198 0
169 191 0
176 197 0
171 192 0
172 193 0
171 192 0
175 196 0
178 199 0
174 194 0
179 199 0
175 196 0
174 193 0
173 194 0
169 191 0
170 190 0
179 200 0
170 190 0
176 196 0
171 191 0
176 196 0
172 194 0
171 192 0
172 194 0
178 198 0
175 195 0
174 194 0
174 194 0
172 192 0
174 194 0
175 195 0
174 194 0
174 195 0
168 190 0
168 188 0
172 192 0
168 188 0
175 195 0
172 191 0
165 184 0
171 191 0
175 195 0
167 188 0
160 178 0
168 188 0
161 182 0
171 192 0
170 190 0
171 190 0
171 191 0
170 191 0
171 190 0
166 186 0
171 190 0
165 185 0
165 187 0
164 185 0
169 190 0
164 184 0
165 186 0
169 188 0
168 188 0
174 194 0
175 195 0
165 184 0
164 184 0
163 182 0
172 192 0
164 184 0
164 184 0
165 186 0
164 183 0
169 189 0
163 184 0
168 189 0
154 176 0
169 190 0
155 175 0
161 180 0
155 176 0
160 181 0
166 186 0
153 174 0
151 173 0
157 178 0
156 178 0
160 182 0
166 187 0
166 186 0
163 184 0
156 177 0
157 179 0
161 183 0
154 176 0
162 183 0
153 175 0
154 177 0
151 174 0
167 189 0
155 177 0
156 177 0
152 175 0
158 181 0
160 181 0
150 172 0
148 170 0
154 176 0
155 178 0
146 166 0
158 180 0
153 176 0
147 170 0
157 178 0
155 177 0
152 174 0
152 174 0
162 185 0
151 174 0
161 182 0
153 175 0
152 175 0
151 173 0
151 173 0
147 168 0
149 170 0
151 174 0
138 159 0
152 175 0
150 171 0
134 155 0
143 165 0
148 171 0
148 169 0
156 179 0
151 173 0
127 149 0
157 179 0
153 174 0
146 168 0
150 172 0
147 170 0
137 159 0
150 172 0
146 169 0
137 159 0
148 170 0
142 164 0
136 157 0
149 170 0
141 162 0
144 165 0
133 155 0
137 157 0
137 160 0
150 171 0
140 161 0
151 173 0
148 168 0
145 165 0
147 168 0
139 161 0
131 153 0
144 165 0
132 152 0
142 163 0
134 154 0
142 163 0
131 154 0
134 156 0
137 158 0
131 151 0
157 179 0
145 163 0
139 159 0
139 161 0
135 155 0
135 158 0
134 151 0
132 153 0
127 147 0
148 168 0
136 155 0
145 165 0
119 141 0
146 168 0
136 154 0
126 145 0
135 154 0
137 157 0
131 151 0
119 137 0
138 158 0
129 149 0
137 155 0
124 144 0
126 144 0
141 158 0
134 155 0
121 142 0
126 142 0
132 152 0
113 134 0
143 161 0
122 141 0
131 149 0
135 154 0
138 158 0
130 148 0
128 148 0
138 157 0
136 156 0
137 156 0
122 141 0
134 150 0
136 152 0
136 156 0
126 142 0
129 148 0
151 170 0
150 169 0
146 166 0
147 166 0
123 140 0
144 162 0
135 156 0
132 146 0
137 154 0
146 165 0
131 148 0
135 155 0
144 161 0
130 147 0
136 149 0
139 157 0
132 148 0
146 166 0
140 157 0
143 160 0
126 142 0
148 166 0
129 144 0
137 156 0
139 158 0
146 165 0
134 149 0
120 135 0
146 163 0
133 147 0
138 155 0
133 146 0
136 153 0
138 156 0
150 166 0
128 142 0
149 166 0
142 158 0
147 164 0
133 147 0
135 150 0
144 162 0
145 160 0
148 163 0
134 150 0
143 157 0
149 163 0
139 154 0
136 151 0
152 170 0
144 158 0
139 158 0
140 151 0
138 152 0
138 152 0
146 160 0
136 144 0
147 161 0
131 143 0
132 142 0
138 148 0
144 155 0
134 144 0
138 149 0
138 147 0
134 141 0
145 157 0
140 152 0
140 151 0
142 156 0
140 144 0
137 147 0
147 159 0
135 147 0
139 149 0
140 144 0
144 156 0
144 154 0
135 144 0
126 133 0
134 141 0
142 153 0
143 150 0
132 139 0
140 149 0
144 150 0
143 150 0
129 133 0
135 140 0
146 151 0
143 149 0
144 149 0
143 148 0
131 135 0
152 158 0
142 148 0
148 156 0
147 153 0
132 134 0
139 145 0
142 144 0
131 134 0
139 140 0
142 146 0
137 137 0
148 152 0
139 134 0
123 119 0
137 136 0
136 138 0
143 147 0
143 143 0
145 146 0
135 136 0
146 145 0
133 127 0
133 134 0
132 126 0
128 121 0
138 136 0
140 140 0
143 145 0
137 136 0
141 139 0
139 138 0
139 136 0
143 146 0
147 147 0
142 144 0
138 134 0
142 138 0
145 148 0
144 143 0
146 147 0
148 148 0
144 147 0
149 153 0
149 150 0
138 140 0
148 151 0
152 152 0
144 144 0
143 145 0
149 152 0
158 163 0
153 154 0
145 145 0
160 167 0
154 155 0
149 152 0
149 153 0
143 143 0
156 164 0
137 139 0
148 155 0
151 156 0
153 159 0
154 157 0
161 170 0
146 149 0
151 159 0
163 174 0
160 171 0
158 169 0
159 170 0
161 168 0
157 165 0
153 162 0
165 175 0
164 173 0
161 171 0
163 175 0
158 168 0
162 170 0
177 198 0
176 197 0
170 192 0
173 194 0
173 193 0
171 193 0
175 197 0
176 197 0
177 197 0
175 197 0
171 193 0
176 197 0
176 198 0
178 198 0
173 193 0
180 200 0
177 198 0
178 199 0
177 198 0
174 195 0
170 190 0
169 190 0
173 193 0
174 194 0
165 186 0
171 191 0
171 192 0
172 192 0
172 193 0
178 198 0
174 195 0
179 199 0
169 190 0
178 197 0
176 197 0
171 190 0
173 192 0
170 191 0
163 182 0
168 189 0
177 196 0
174 194 0
172 192 0
165 186 0
174 194 0
169 189 0
171 192 0
174 194 0
166 187 0
173 194 0
169 189 0
172 192 0
170 189 0
171 191 0
167 187 0
174 194 0
173 193 0
169 190 0
165 185 0
173 193 0
173 193 0
166 187 0
172 192 0
161 182 0
173 194 0
162 182 0
160 180 0
172 193 0
159 179 0
172 191 0
163 185 0
161 181 0
169 188 0
167 189 0
159 179 0
163 183 0
167 189 0
161 182 0
156 176 0
168 189 0
168 188 0
163 185 0
160 181 0
156 177 0
157 177 0
164 185 0
152 173 0
167 188 0
162 182 0
149 169 0
163 184 0
163 184 0
154 174 0
163 184 0
163 183 0
164 186 0
166 186 0
161 183 0
152 174 0
161 182 0
146 167 0
163 185 0
155 177 0
156 176 0
151 174 0
160 182 0
164 185 0
155 175 0
151 174 0
150 173 0
161 183 0
146 169 0
152 175 0
154 176 0
159 181 0
144 166 0
154 177 0
144 164 0
161 182 0
151 174 0
152 174 0
157 178 0
144 165 0
151 174 0
155 176 0
159 182 0
161 183 0
149 171 0
146 167 0
142 165 0
151 174 0
154 176 0
146 168 0
141 164 0
144 166 0
155 178 0
150 173 0
139 160 0
158 179 0
155 177 0
148 169 0
156 178 0
147 170 0
151 172 0
150 172 0
145 167 0
145 167 0
143 165 0
156 178 0
149 169 0
147 170 0
139 162 0
147 168 0
140 162 0
136 158 0
146 167 0
145 166 0
142 161 0
146 167 0
134 155 0
140 161 0
136 157 0
137 157 0
145 168 0
145 166 0
146 167 0
144 167 0
135 157 0
127 147 0
136 156 0
143 163 0
143 163 0
139 159 0
148 170 0
137 158 0
137 158 0
134 155 0
137 157 0
133 154 0
129 151 0
138 157 0
144 165 0
140 161 0
137 156 0
137 158 0
134 154 0
147 168 0
145 164 0
132 152 0
140 161 0
133 152 0
141 161 0
149 171 0
133 155 0
136 156 0
136 154 0
139 160 0
136 156 0
135 156 0
129 149 0
126 148 0
138 158 0
121 141 0
142 161 0
131 150 0
137 159 0
134 151 0
126 144 0
136 153 0
128 149 0
123 144 0
139 158 0
147 169 0
146 166 0
137 157 0
139 158 0
145 166 0
138 157 0
128 144 0
122 142 0
138 158 0
131 150 0
123 138 0
127 145 0
134 153 0
138 158 0
140 161 0
142 160 0
131 148 0
135 155 0
128 145 0
134 152 0
138 156 0
138 157 0
126 145 0
139 156 0
135 151 0
144 159 0
126 144 0
130 142 0
139 157 0
146 163 0
145 164 0
133 149 0
144 162 0
132 148 0
141 162 0
149 167 0
126 141 0
140 159 0
145 163 0
135 151 0
142 161 0
138 157 0
134 150 0
138 158 0
137 156 0
132 149 0
145 164 0
145 158 0
127 141 0
146 160 0
145 160 0
143 160 0
129 143 0
125 140 0
150 168 0
131 148 0
133 150 0
140 156 0
140 158 0
137 149 0
139 155 0
141 154 0
137 152 0
131 139 0
147 164 0
138 153 0
143 155 0
139 155 0
141 158 0
144 164 0
148 163 0
136 149 0
144 158 0
135 147 0
147 161 0
139 152 0
147 163 0
140 150 0
137 146 0
139 153 0
152 165 0
143 153 0
136 148 0
140 149 0
138 149 0
145 151 0
144 154 0
137 146 0
151 165 0
144 153 0
133 140 0
138 146 0
133 139 0
146 154 0
149 158 0
149 161 0
150 160 0
153 162 0
140 149 0
150 156 0
145 152 0
138 141 0
145 152 0
141 152 0
146 154 0
144 152 0
146 158 0
140 144 0
141 147 0
141 142 0
135 136 0
135 137 0
146 149 0
151 158 0
140 147 0
141 143 0
136 138 0
132 132 0
140 140 0
146 149 0
149 154 0
143 145 0
127 125 0
136 140 0
145 147 0
127 127 0
128 125 0
152 158 0
140 145 0
145 150 0
142 144 0
139 143 0
146 147 0
149 151 0
128 127 0
144 146 0
144 146 0
144 139 0
150 151 0
139 140 0
143 147 0
145 143 0
145 145 0
143 143 0
138 140 0
140 141 0
136 137 0
146 146 0
149 151 0
153 157 0
137 134 0
142 139 0
154 157 0
135 134 0
147 145 0
152 154 0
149 153 0
150 154 0
150 152 0
154 159 0
145 145 0
144 148 0
152 156 0
154 158 0
153 155 0
150 150 0
151 157 0
154 155 0
159 164 0
149 146 0
151 151 0
150 153 0
153 158 0
155 163 0
157 163 0
163 174 0
161 171 0
155 162 0
159 163 0
157 164 0
158 168 0
162 174 0
156 166 0
152 158 0
157 164 0
164 176 0
164 175 0
164 178 0
174 195 0
176 197 0
175 197 0
167 188 0
175 197 0
172 194 0
171 193 0
174 195 0
172 194 0
174 196 0
174 196 0
175 196 0
177 197 0
177 197 0
178 198 0
175 196 0
173 193 0
175 195 0
178 198 0
175 195 0
171 192 0
172 192 0
174 195 0
167 189 0
170 192 0
175 196 0
176 196 0
174 195 0
172 193 0
171 191 0
173 194 0
170 189 0
170 190 0
176 195 0
176 195 0
165 185 0
165 186 0
171 191 0
180 200 0
176 196 0
170 191 0
170 187 0
171 191 0
173 193 0
169 189 0
175 196 0
171 191 0
167 187 0
166 188 0
169 189 0
177 197 0
171 192 0
167 189 0
171 190 0
172 192 0
169 189 0
168 189 0
167 188 0
169 189 0
171 190 0
160 179 0
172 193 0
170 189 0
162 182 0
172 193 0
166 186 0
167 188 0
161 182 0
163 184 0
170 190 0
170 191 0
168 189 0
172 192 0
165 186 0
161 182 0
164 185 0
165 185 0
158 179 0
159 179 0
160 181 0
165 184 0
159 182 0
169 190 0
164 185 0
153 173 0
164 186 0
168 189 0
166 188 0
163 184 0
154 173 0
158 178 0
166 188 0
153 173 0
164 185 0
153 172 0
155 177 0
166 188 0
154 175 0
163 184 0
160 183 0
158 179 0
151 172 0
158 181 0
155 176 0
163 185 0
149 171 0
154 176 0
162 184 0
158 178 0
160 182 0
149 169 0
155 177 0
146 167 0
144 164 0
150 172 0
144 165 0
150 174 0
146 169 0
159 179 0
148 170 0
148 170 0
149 171 0
148 169 0
159 180 0
145 167 0
153 175 0
136 158 0
150 173 0
139 162 0
150 174 0
161 183 0
151 173 0
146 169 0
168 191 0
154 176 0
159 180 0
145 167 0
144 165 0
162 184 0
149 170 0
157 179 0
152 172 0
156 176 0
151 171 0
146 169 0
143 164 0
158 180 0
158 178 0
146 166 0
155 177 0
138 158 0
148 169 0
145 166 0
143 166 0
137 158 0
148 168 0
146 168 0
141 162 0
123 144 0
136 157 0
138 160 0
154 175 0
130 150 0
154 175 0
142 163 0
145 164 0
139 160 0
135 156 0
144 166 0
133 155 0
136 158 0
139 161 0
139 160 0
132 154 0
127 148 0
146 166 0
146 165 0
143 164 0
142 164 0
145 166 0
134 155 0
137 157 0
154 176 0
139 160 0
139 159 0
134 155 0
140 160 0
136 155 0
126 146 0
145 167 0
140 160 0
140 161 0
131 151 0
125 144 0
120 139 0
128 149 0
136 158 0
138 157 0
143 161 0
153 173 0
135 155 0
147 166 0
128 149 0
152 173 0
122 142 0
124 145 0
133 149 0
136 153 0
135 154 0
125 142 0
125 145 0
140 160 0
123 141 0
146 164 0
136 154 0
148 168 0
131 150 0
132 149 0
141 160 0
131 151 0
127 148 0
131 149 0
141 159 0
133 152 0
126 143 0
118 134 0
135 154 0
141 159 0
132 152 0
153 172 0
128 144 0
132 149 0
122 140 0
141 159 0
135 153 0
139 157 0
130 151 0
129 150 0
148 164 0
128 145 0
151 169 0
143 159 0
135 154 0
138 156 0
122 142 0
135 153 0
123 141 0
126 142 0
131 148 0
127 146 0
144 163 0
151 168 0
142 160 0
133 150 0
149 167 0
137 152 0
142 158 0
135 154 0
132 147 0
136 155 0
146 163 0
135 153 0
143 162 0
142 157 0
155 172 0
136 150 0
146 163 0
143 158 0
141 157 0
144 160 0
148 166 0
155 172 0
149 165 0
133 146 0
152 167 0
132 142 0
145 160 0
146 162 0
144 161 0
146 164 0
142 157 0
143 157 0
137 152 0
135 147 0
145 158 0
135 148 0
144 157 0
141 155 0
141 157 0
146 160 0
154 168 0
139 153 0
138 148 0
139 150 0
126 139 0
151 165 0
124 133 0
148 160 0
155 169 0
142 155 0
143 155 0
143 155 0
145 157 0
139 148 0
140 152 0
137 147 0
150 159 0
143 151 0
143 151 0
142 156 0
136 147 0
153 164 0
134 144 0
145 151 0
151 160 0
149 156 0
140 147 0
146 149 0
141 148 0
146 152 0
144 152 0
139 144 0
146 155 0
131 137 0
149 152 0
136 140 0
146 154 0
133 139 0
144 152 0
156 162 0
146 152 0
143 145 0
141 144 0
140 143 0
142 143 0
149 151 0
144 146 0
141 140 0
142 142 0
149 154 0
144 149 0
150 153 0
138 139 0
138 142 0
139 136 0
149 151 0
155 161 0
147 148 0
134 133 0
144 142 0
144 146 0
149 151 0
142 146 0
149 152 0
151 156 0
143 144 0
143 145 0
143 139 0
157 162 0
155 161 0
149 150 0
149 151 0
154 163 0
151 154 0
157 163 0
141 134 0
141 144 0
154 158 0
147 149 0
154 159 0
148 151 0
150 149 0
157 164 0
150 150 0
152 156 0
149 150 0
148 154 0
161 171 0
151 153 0
157 164 0
150 152 0
154 162 0
153 158 0
157 166 0
160 167 0
158 168 0
158 166 0
156 161 0
157 164 0
159 163 0
164 173 0
154 158 0
155 163 0
159 169 0
161 170 0
162 169 0
164 172 0
156 164 0
168 180 0
157 167 0
173 195 0
172 194 0
175 196 0
175 197 0
170 192 0
169 191 0
172 192 0
174 196 0
172 194 0
175 197 0
173 193 0
175 197 0
178 199 0
175 197 0
174 195 0
175 195 0
176 198 0
176 196 0
181 201 0
177 197 0
174 195 0
174 195 0
170 191 0
171 193 0
169 189 0
169 190 0
171 192 0
174 195 0
173 193 0
164 185 0
173 194 0
174 194 0
174 194 0
175 195 0
171 191 0
173 194 0
172 192 0
172 192 0
167 189 0
171 192 0
173 193 0
173 192 0
174 194 0
170 191 0
172 192 0
172 192 0
168 188 0
166 186 0
174 195 0
168 188 0
174 195 0
161 181 0
165 186 0
173 193 0
170 191 0
174 194 0
168 189 0
168 189 0
165 186 0
174 193 0
158 178 0
169 189 0
171 191 0
158 177 0
169 190 0
167 187 0
172 192 0
171 190 0
175 195 0
170 189 0
168 188 0
162 181 0
165 185 0
167 187 0
168 189 0
168 188 0
161 182 0
160 181 0
167 188 0
167 188 0
154 176 0
164 185 0
161 182 0
163 184 0
166 189 0
164 186 0
154 176 0
166 187 0
159 182 0
164 186 0
155 178 0
148 170 0
154 176 0
151 171 0
162 183 0
159 180 0
158 181 0
159 178 0
166 188 0
163 184 0
166 188 0
145 166 0
149 170 0
156 177 0
163 183 0
167 187 0
154 176 0
159 182 0
153 176 0
147 169 0
160 182 0
164 188 0
160 183 0
153 174 0
158 179 0
148 172 0
158 180 0
161 183 0
152 174 0
151 173 0
157 180 0
159 180 0
147 170 0
146 167 0
150 172 0
151 173 0
145 168 0
160 183 0
137 157 0
157 179 0
138 159 0
146 168 0
149 170 0
160 181 0
154 176 0
154 176 0
144 166 0
151 173 0
151 173 0
137 160 0
151 174 0
142 163 0
144 166 0
150 172 0
143 165 0
147 171 0
146 168 0
146 167 0
145 166 0
146 170 0
149 171 0
146 168 0
146 167 0
142 164 0
159 180 0
148 169 0
151 172 0
151 172 0
153 176 0
143 165 0
131 152 0
150 170 0
129 150 0
147 170 0
150 172 0
146 168 0
135 156 0
146 167 0
149 169 0
145 168 0
148 170 0
135 156 0
148 170 0
136 156 0
151 171 0
145 165 0
136 157 0
140 161 0
146 169 0
139 159 0
143 166 0
149 169 0
149 171 0
127 148 0
140 161 0
144 163 0
145 167 0
140 160 0
142 162 0
133 153 0
147 167 0
138 160 0
140 161 0
141 162 0
142 164 0
141 163 0
142 163 0
140 161 0
136 155 0
137 159 0
133 152 0
124 144 0
133 155 0
138 157 0
138 159 0
124 145 0
130 150 0
140 160 0
139 159 0
128 146 0
144 162 0
125 144 0
133 152 0
142 159 0
144 166 0
139 159 0
139 157 0
140 161 0
143 163 0
118 138 0
142 160 0
144 167 0
148 169 0
129 148 0
141 161 0
143 161 0
127 144 0
134 153 0
143 165 0
137 154 0
142 160 0
137 155 0
124 139 0
144 163 0
140 157 0
134 152 0
137 156 0
142 161 0
151 170 0
147 165 0
149 169 0
134 153 0
137 156 0
134 151 0
138 158 0
135 152 0
137 152 0
145 162 0
142 162 0
144 166 0
148 168 0
140 158 0
134 151 0
145 163 0
140 156 0
140 157 0
150 171 0
144 162 0
140 156 0
138 157 0
132 147 0
149 164 0
141 155 0
142 157 0
136 152 0
147 161 0
139 156 0
131 146 0
142 156 0
144 159 0
144 158 0
145 165 0
139 155 0
134 147 0
136 149 0
146 162 0
141 157 0
142 159 0
141 152 0
135 150 0
136 153 0
134 149 0
142 160 0
127 140 0
146 165 0
145 160 0
145 159 0
145 163 0
142 157 0
152 169 0
134 142 0
147 160 0
142 156 0
147 161 0
159 175 0
139 150 0
151 162 0
139 148 0
131 140 0
145 159 0
147 161 0
140 154 0
149 159 0
154 164 0
138 150 0
153 166 0
147 158 0
148 157 0
134 142 0
143 153 0
136 142 0
146 157 0
139 147 0
150 161 0
149 157 0
139 143 0
145 152 0
139 147 0
147 154 0
136 148 0
138 141 0
142 146 0
144 149 0
142 148 0
141 143 0
152 162 0
140 148 0
147 152 0
144 148 0
145 154 0
148 153 0
144 152 0
142 145 0
144 151 0
143 149 0
140 144 0
139 139 0
143 148 0
152 151 0
152 158 0
135 133 0
144 147 0
143 147 0
149 150 0
153 156 0
143 143 0
144 148 0
148 151 0
139 141 0
140 141 0
146 149 0
146 147 0
148 148 0
142 140 0
139 138 0
152 157 0
140 144 0
130 132 0
143 143 0
151 154 0
147 150 0
149 154 0
143 143 0
147 152 0
147 150 0
151 154 0
150 152 0
144 149 0
141 141 0
142 144 0
149 151 0
151 155 0
155 160 0
151 153 0
150 152 0
149 152 0
153 149 0
153 157 0
146 148 0
154 161 0
151 157 0
160 167 0
148 153 0
158 164 0
161 171 0
151 156 0
162 171 0
154 157 0
164 174 0
161 170 0
159 165 0
150 151 0
152 156 0
153 158 0
160 166 0
157 165 0
154 159 0
164 175 0
155 162 0
158 167 0
175 196 0
171 193 0
169 191 0
177 198 0
169 191 0
176 198 0
177 197 0
178 198 0
177 198 0
175 195 0
173 195 0
175 196 0
172 193 0
173 195 0
171 191 0
178 198 0
177 198 0
174 195 0
174 195 0
173 193 0
172 191 0
176 196 0
175 196 0
173 194 0
172 192 0
176 195 0
176 197 0
176 197 0
167 186 0
181 200 0
175 195 0
175 196 0
174 195 0
178 198 0
164 184 0
175 195 0
172 192 0
167 189 0
172 193 0
173 194 0
172 192 0
173 193 0
173 192 0
170 191 0
174 194 0
174 194 0
164 186 0
171 191 0
171 191 0
169 189 0
164 186 0
173 194 0
171 190 0
171 192 0
170 191 0
174 195 0
169 189 0
173 194 0
173 193 0
167 188 0
164 185 0
159 178 0
164 184 0
163 182 0
164 184 0
170 192 0
169 189 0
165 185 0
164 183 0
168 188 0
169 189 0
154 176 0
164 184 0
167 189 0
157 178 0
170 191 0
167 188 0
163 185 0
162 183 0
163 184 0
155 175 0
166 187 0
164 185 0
159 180 0
158 180 0
163 185 0
162 183 0
167 188 0
160 181 0
154 176 0
159 180 0
163 186 0
153 174 0
163 184 0
157 178 0
160 182 0
167 189 0
164 186 0
158 180 0
153 175 0
148 170 0
154 176 0
163 184 0
160 182 0
159 181 0
154 177 0
167 189 0
149 170 0
156 178 0
161 183 0
143 164 0
151 174 0
151 173 0
150 173 0
149 171 0
154 176 0
158 180 0
154 175 0
144 165 0
153 174 0
157 180 0
158 180 0
152 174 0
147 169 0
154 176 0
142 164 0
154 176 0
152 174 0
149 171 0
155 177 0
166 187 0
152 173 0
149 171 0
149 171 0
153 174 0
149 170 0
141 162 0
154 174 0
152 175 0
149 171 0
145 167 0
149 172 0
144 164 0
152 174 0
144 166 0
145 167 0
145 167 0
148 170 0
157 179 0
131 152 0
148 169 0
157 178 0
145 167 0
140 162 0
154 175 0
148 169 0
135 157 0
152 175 0
151 173 0
146 166 0
139 159 0
142 164 0
145 167 0
148 169 0
132 154 0
148 168 0
147 170 0
144 165 0
134 156 0
142 164 0
134 153 0
147 168 0
150 171 0
146 168 0
138 159 0
144 168 0
130 152 0
147 166 0
134 157 0
142 163 0
135 155 0
138 159 0
142 162 0
134 152 0
127 150 0
136 158 0
143 163 0
142 163 0
145 165 0
134 155 0
140 161 0
148 168 0
136 155 0
137 155 0
130 149 0
134 156 0
126 148 0
141 161 0
140 161 0
126 146 0
137 159 0
132 151 0
136 154 0
138 158 0
139 157 0
150 170 0
145 163 0
134 156 0
136 158 0
148 170 0
134 154 0
133 153 0
125 144 0
145 165 0
141 162 0
143 161 0
123 141 0
141 160 0
139 159 0
138 158 0
139 158 0
116 136 0
142 159 0
136 156 0
148 166 0
133 154 0
133 151 0
143 161 0
145 164 0
145 162 0
128 145 0
141 160 0
131 149 0
137 158 0
136 154 0
148 167 0
139 157 0
134 154 0
133 151 0
138 159 0
151 171 0
138 159 0
133 151 0
137 156 0
135 153 0
145 167 0
137 157 0
146 164 0
148 166 0
143 164 0
146 164 0
137 157 0
130 146 0
146 164 0
138 157 0
129 140 0
140 157 0
145 164 0
149 165 0
133 146 0
150 168 0
152 170 0
136 154 0
126 141 0
133 151 0
151 167 0
147 165 0
142 158 0
137 154 0
139 151 0
138 155 0
140 155 0
142 159 0
151 168 0
149 166 0
135 151 0
146 163 0
145 161 0
137 151 0
130 142 0
144 160 0
141 154 0
142 160 0
147 163 0
151 164 0
144 158 0
146 157 0
149 161 0
150 162 0
144 158 0
144 156 0
156 170 0
146 159 0
132 144 0
142 158 0
145 156 0
144 153 0
147 163 0
137 148 0
153 165 0
139 150 0
138 150 0
143 154 0
144 160 0
139 154 0
137 152 0
153 166 0
140 149 0
129 133 0
137 148 0
145 157 0
152 162 0
147 159 0
139 147 0
155 166 0
136 143 0
139 149 0
143 154 0
145 153 0
145 156 0
144 146 0
146 156 0
144 149 0
146 153 0
140 146 0
140 144 0
158 167 0
151 161 0
143 147 0
145 151 0
141 145 0
139 141 0
132 130 0
143 152 0
137 142 0
152 156 0
157 164 0
149 155 0
140 145 0
149 155 0
136 134 0
140 142 0
149 155 0
131 134 0
149 155 0
147 146 0
143 146 0
156 164 0
138 141 0
137 138 0
150 153 0
145 146 0
146 150 0
145 143 0
150 155 0
148 152 0
138 140 0
142 141 0
152 158 0
144 143 0
149 154 0
149 154 0
149 152 0
147 152 0
148 150 0
148 151 0
137 134 0
148 149 0
147 147 0
149 153 0
148 150 0
150 153 0
148 151 0
147 152 0
159 166 0
146 145 0
159 165 0
144 143 0
156 161 0
152 156 0
147 154 0
159 164 0
155 162 0
157 165 0
152 157 0
147 148 0
152 158 0
162 168 0
163 171 0
157 161 0
152 155 0
153 159 0
161 167 0
155 161 0
159 167 0
154 158 0
159 167 0
158 166 0
159 169 0
158 166 0
172 194 0
177 197 0
176 197 0
173 194 0
176 197 0
174 195 0
174 195 0
173 194 0
172 195 0
173 194 0
172 193 0
175 196 0
178 199 0
177 197 0
174 195 0
176 197 0
176 196 0
174 194 0
176 197 0
169 189 0
170 192 0
171 193 0
171 191 0
168 189 0
174 194 0
162 183 0
171 192 0
173 194 0
172 193 0
174 195 0
176 196 0
170 192 0
175 196 0
173 194 0
173 193 0
170 191 0
175 195 0
176 197 0
179 198 0
172 193 0
171 191 0
166 186 0
171 190 0
173 193 0
168 188 0
171 192 0
173 194 0
168 188 0
164 184 0
170 190 0
173 194 0
168 189 0
166 185 0
171 192 0
167 189 0
166 188 0
168 188 0
170 191 0
166 186 0
163 184 0
172 192 0
171 190 0
166 187 0
169 189 0
168 188 0
162 183 0
165 185 0
170 191 0
166 187 0
177 198 0
169 191 0
164 186 0
171 191 0
159 181 0
162 183 0
163 184 0
160 182 0
159 181 0
164 185 0
166 187 0
164 184 0
162 185 0
156 177 0
154 174 0
155 176 0
161 183 0
157 179 0
150 172 0
158 180 0
160 181 0
153 176 0
164 185 0
167 187 0
154 175 0
143 163 0
155 177 0
161 182 0
159 180 0
155 176 0
147 168 0
156 179 0
148 170 0
156 178 0
157 180 0
146 168 0
157 177 0
157 178 0
148 170 0
162 183 0
159 182 0
158 181 0
155 177 0
153 175 0
167 189 0
150 172 0
152 174 0
160 181 0
149 170 0
159 180 0
163 184 0
157 180 0
152 176 0
145 167 0
162 185 0
152 174 0
152 174 0
152 176 0
148 170 0
152 175 0
158 182 0
160 184 0
154 175 0
153 175 0
158 179 0
147 169 0
159 182 0
151 173 0
148 170 0
145 167 0
152 173 0
152 175 0
144 166 0
146 169 0
149 169 0
158 180 0
158 180 0
155 177 0
143 166 0
151 172 0
142 164 0
145 167 0
153 175 0
154 176 0
154 176 0
142 163 0
146 167 0
147 168 0
143 164 0
151 174 0
144 166 0
140 160 0
138 160 0
149 171 0
163 185 0
149 170 0
134 153 0
140 160 0
133 153 0
146 167 0
147 168 0
156 178 0
150 171 0
147 166 0
142 164 0
142 162 0
135 155 0
141 163 0
160 182 0
146 167 0
143 164 0
144 164 0
130 151 0
151 171 0
143 163 0
141 161 0
144 166 0
141 162 0
142 162 0
144 164 0
137 158 0
145 165 0
149 168 0
147 167 0
135 156 0
151 172 0
152 172 0
143 165 0
139 159 0
148 169 0
131 152 0
139 157 0
139 158 0
150 171 0
139 160 0
145 164 0
146 167 0
136 155 0
145 165 0
130 150 0
144 165 0
145 166 0
143 163 0
136 155 0
145 163 0
125 146 0
141 162 0
135 153 0
151 172 0
144 164 0
137 155 0
137 155 0
142 160 0
156 176 0
149 171 0
141 163 0
132 150 0
131 150 0
127 148 0
134 151 0
140 161 0
137 154 0
143 161 0
146 165 0
146 163 0
144 165 0
146 164 0
128 148 0
132 149 0
135 151 0
137 155 0
149 165 0
153 171 0
130 148 0
138 157 0
148 164 0
143 164 0
151 170 0
146 164 0
140 159 0
145 162 0
144 165 0
138 156 0
140 157 0
140 159 0
147 164 0
140 158 0
141 157 0
148 168 0
148 164 0
144 159 0
133 147 0
136 154 0
149 165 0
145 160 0
147 169 0
145 161 0
149 167 0
127 144 0
139 156 0
141 157 0
142 159 0
142 159 0
133 150 0
138 156 0
146 165 0
137 151 0
146 164 0
145 160 0
142 154 0
136 148 0
143 158 0
149 165 0
141 157 0
143 157 0
134 147 0
150 167 0
150 166 0
140 154 0
134 151 0
140 155 0
129 139 0
154 170 0
143 157 0
142 152 0
152 163 0
150 161 0
147 161 0
141 151 0
136 150 0
143 158 0
144 155 0
138 150 0
152 165 0
145 157 0
151 161 0
147 160 0
140 155 0
138 147 0
146 155 0
135 142 0
138 149 0
141 153 0
137 144 0
132 140 0
135 144 0
132 143 0
141 145 0
136 145 0
146 153 0
131 139 0
148 150 0
140 147 0
140 147 0
142 151 0
149 155 0
143 149 0
146 155 0
147 155 0
138 144 0
143 148 0
138 142 0
141 145 0
145 151 0
151 161 0
133 139 0
150 156 0
143 144 0
140 148 0
142 151 0
150 156 0
136 139 0
149 150 0
142 148 0
144 147 0
146 152 0
142 148 0
142 150 0
141 146 0
144 147 0
148 152 0
144 146 0
146 150 0
147 153 0
146 145 0
146 149 0
152 159 0
144 144 0
147 150 0
144 147 0
141 145 0
141 141 0
144 150 0
152 158 0
153 162 0
153 156 0
155 162 0
143 146 0
149 153 0
148 157 0
154 159 0
160 171 0
146 151 0
139 140 0
159 165 0
155 156 0
153 161 0
151 157 0
152 159 0
147 151 0
145 149 0
159 165 0
147 151 0
160 168 0
146 152 0
142 148 0
155 160 0
154 158 0
161 170 0
149 152 0
163 172 0
153 158 0
156 158 0
161 169 0
159 166 0
151 157 0
153 162 0
163 171 0
159 169 0
149 157 0
161 170 0
175 197 0
176 196 0
172 195 0
177 198 0
176 198 0
174 195 0
174 194 0
175 196 0
172 193 0
173 194 0
176 196 0
171 192 0
174 195 0
169 190 0
174 196 0
173 195 0
176 197 0
168 188 0
168 189 0
174 194 0
173 194 0
177 198 0
174 195 0
177 198 0
166 185 0
172 193 0
166 187 0
169 190 0
174 195 0
170 191 0
173 193 0
177 197 0
175 196 0
173 193 0
166 187 0
175 195 0
168 188 0
176 198 0
175 195 0
171 191 0
169 190 0
170 190 0
171 192 0
176 197 0
166 187 0
175 194 0
169 189 0
172 192 0
167 188 0
173 193 0
168 188 0
165 185 0
171 191 0
169 191 0
169 189 0
171 193 0
165 185 0
164 185 0
168 188 0
161 181 0
169 190 0
161 182 0
163 183 0
162 183 0
167 188 0
165 185 0
159 179 0
159 179 0
166 185 0
174 195 0
169 191 0
166 187 0
159 180 0
164 186 0
156 178 0
170 192 0
167 189 0
159 181 0
165 186 0
161 182 0
164 186 0
164 184 0
152 172 0
158 180 0
162 183 0
159 181 0
159 181 0
156 176 0
164 185 0
165 187 0
161 183 0
150 170 0
155 176 0
161 183 0
160 182 0
161 183 0
161 182 0
149 171 0
160 182 0
170 192 0
160 182 0
160 181 0
154 175 0
156 179 0
149 171 0
171 192 0
153 175 0
159 181 0
168 190 0
150 172 0
151 173 0
160 183 0
165 189 0
156 178 0
146 169 0
165 188 0
156 180 0
159 183 0
145 168 0
158 179 0
157 179 0
143 165 0
158 179 0
151 173 0
148 171 0
160 182 0
153 174 0
148 170 0
150 173 0
156 179 0
147 171 0
154 176 0
149 170 0
142 164 0
153 175 0
151 173 0
155 177 0
155 177 0
149 171 0
148 171 0
154 177 0
145 167 0
155 178 0
155 177 0
150 171 0
157 179 0
150 172 0
152 175 0
146 167 0
140 161 0
144 167 0
151 172 0
146 169 0
154 175 0
142 165 0
142 164 0
145 166 0
157 179 0
136 158 0
157 177 0
145 165 0
142 164 0
153 174 0
144 166 0
144 166 0
148 166 0
139 159 0
135 156 0
153 175 0
144 165 0
133 156 0
152 173 0
142 161 0
140 160 0
134 157 0
142 162 0
149 171 0
144 164 0
142 164 0
156 176 0
151 170 0
139 159 0
148 169 0
136 159 0
153 175 0
144 164 0
133 155 0
140 160 0
150 171 0
142 161 0
140 162 0
137 159 0
149 168 0
132 153 0
128 150 0
141 161 0
142 164 0
140 159 0
138 159 0
145 166 0
137 157 0
140 160 0
135 154 0
138 157 0
143 163 0
136 155 0
141 160 0
138 158 0
138 160 0
135 156 0
142 163 0
139 158 0
139 159 0
141 159 0
145 166 0
141 160 0
157 178 0
140 160 0
140 161 0
135 155 0
144 165 0
139 156 0
137 156 0
154 175 0
139 157 0
140 159 0
124 142 0
131 149 0
142 164 0
135 153 0
138 156 0
145 166 0
145 167 0
142 162 0
135 155 0
145 161 0
146 168 0
154 174 0
127 146 0
132 149 0
141 161 0
146 162 0
141 160 0
145 164 0
145 164 0
138 159 0
141 159 0
135 152 0
140 160 0
146 165 0
139 156 0
143 160 0
143 160 0
133 152 0
143 163 0
136 155 0
145 165 0
141 159 0
142 160 0
145 163 0
144 163 0
144 162 0
146 166 0
140 157 0
150 169 0
150 168 0
145 162 0
145 162 0
137 152 0
142 157 0
142 161 0
141 155 0
150 166 0
138 153 0
136 153 0
138 152 0
147 162 0
139 158 0
147 163 0
139 155 0
137 150 0
145 161 0
145 163 0
138 149 0
148 164 0
146 165 0
146 160 0
142 157 0
134 146 0
150 167 0
144 159 0
144 157 0
146 161 0
143 155 0
143 156 0
146 160 0
142 157 0
152 165 0
138 147 0
138 148 0
140 154 0
161 176 0
145 156 0
137 149 0
146 159 0
142 153 0
137 150 0
145 158 0
145 161 0
148 164 0
150 163 0
139 151 0
153 167 0
153 166 0
151 163 0
148 158 0
151 164 0
149 158 0
142 153 0
137 147 0
150 160 0
147 160 0
142 147 0
141 146 0
142 149 0
147 154 0
133 140 0
145 153 0
144 152 0
156 165 0
146 156 0
147 154 0
143 148 0
146 152 0
145 155 0
152 161 0
129 135 0
136 137 0
150 156 0
150 159 0
148 154 0
149 154 0
134 138 0
147 156 0
147 150 0
148 153 0
147 154 0
146 149 0
145 147 0
148 154 0
148 151 0
153 160 0
143 148 0
150 156 0
138 140 0
155 165 0
157 164 0
146 147 0
147 152 0
148 151 0
144 145 0
151 156 0
154 156 0
151 155 0
143 144 0
142 145 0
145 147 0
147 151 0
156 158 0
146 148 0
151 153 0
152 158 0
154 160 0
150 154 0
148 152 0
153 157 0
149 152 0
158 164 0
155 161 0
143 148 0
152 156 0
148 146 0
152 159 0
152 156 0
157 163 0
156 166 0
154 158 0
154 158 0
161 167 0
153 163 0
156 160 0
149 154 0
154 158 0
165 177 0
158 165 0
162 171 0
158 167 0
156 163 0
159 168 0
163 175 0
169 190 0
171 191 0
170 191 0
174 194 0
176 198 0
174 194 0
173 193 0
179 200 0
174 196 0
166 186 0
173 194 0
170 191 0
175 196 0
176 197 0
175 196 0
171 192 0
171 193 0
171 193 0
175 196 0
173 194 0
171 192 0
176 197 0
176 196 0
171 192 0
168 189 0
166 186 0
171 191 0
176 196 0
176 196 0
174 194 0
176 197 0
173 194 0
175 195 0
173 194 0
169 189 0
167 187 0
167 188 0
172 193 0
170 191 0
168 188 0
173 192 0
169 190 0
172 193 0
171 192 0
173 193 0
174 195 0
172 192 0
168 188 0
167 187 0
169 190 0
160 180 0
168 190 0
173 192 0
165 187 0
166 188 0
169 191 0
165 186 0
161 181 0
163 184 0
171 192 0
167 189 0
174 193 0
168 188 0
168 189 0
165 188 0
164 184 0
167 188 0
170 190 0
171 192 0
169 191 0
163 185 0
164 185 0
164 184 0
157 177 0
154 176 0
172 193 0
166 187 0
165 185 0
170 193 0
161 181 0
165 186 0
165 186 0
163 185 0
159 181 0
163 185 0
163 185 0
161 184 0
159 179 0
165 187 0
157 179 0
169 190 0
155 177 0
163 184 0
161 183 0
159 182 0
163 184 0
157 180 0
156 178 0
156 177 0
141 163 0
154 176 0
161 183 0
150 171 0
163 185 0
151 172 0
160 182 0
142 165 0
154 176 0
168 190 0
152 174 0
156 177 0
163 185 0
146 169 0
145 166 0
159 181 0
146 167 0
161 183 0
159 179 0
154 175 0
159 182 0
149 171 0
157 179 0
163 184 0
149 171 0
154 177 0
160 181 0
145 168 0
148 171 0
147 170 0
147 167 0
158 180 0
152 174 0
153 176 0
148 171 0
153 174 0
153 176 0
152 175 0
152 174 0
150 172 0
143 165 0
140 162 0
155 177 0
145 168 0
151 173 0
145 168 0
145 165 0
152 174 0
149 171 0
150 171 0
147 168 0
147 169 0
138 161 0
161 183 0
153 175 0
153 176 0
161 183 0
157 178 0
145 168 0
150 173 0
163 186 0
151 171 0
142 164 0
147 166 0
134 155 0
144 167 0
146 168 0
150 171 0
141 161 0
150 172 0
136 157 0
127 148 0
149 171 0
151 173 0
137 157 0
139 161 0
141 164 0
151 174 0
137 160 0
142 165 0
140 161 0
138 161 0
143 163 0
139 160 0
149 169 0
142 162 0
139 160 0
142 161 0
129 150 0
141 161 0
151 173 0
131 152 0
145 167 0
145 165 0
142 161 0
149 168 0
148 167 0
137 157 0
132 152 0
130 150 0
122 142 0
137 157 0
132 153 0
137 155 0
129 149 0
143 161 0
146 166 0
130 149 0
133 151 0
140 159 0
139 157 0
147 169 0
140 162 0
137 160 0
139 158 0
141 160 0
139 158 0
127 148 0
140 162 0
141 161 0
131 149 0
149 170 0
140 161 0
140 160 0
142 162 0
136 156 0
146 167 0
140 158 0
146 168 0
140 162 0
146 165 0
147 168 0
137 154 0
146 163 0
146 164 0
140 159 0
144 165 0
134 153 0
144 164 0
140 159 0
133 151 0
137 158 0
147 167 0
148 169 0
143 161 0
146 165 0
139 158 0
141 161 0
139 159 0
143 161 0
147 165 0
147 165 0
131 147 0
145 166 0
136 156 0
134 150 0
140 158 0
138 157 0
144 160 0
154 170 0
142 161 0
148 168 0
148 165 0
148 165 0
128 144 0
142 160 0
139 154 0
141 157 0
151 170 0
139 154 0
148 163 0
146 159 0
141 158 0
145 162 0
149 168 0
139 153 0
152 169 0
153 168 0
140 157 0
142 158 0
144 158 0
137 154 0
137 153 0
146 159 0
153 171 0
145 159 0
145 164 0
135 151 0
140 151 0
143 157 0
136 150 0
145 158 0
146 162 0
141 156 0
148 163 0
147 163 0
129 141 0
141 150 0
153 166 0
145 160 0
149 162 0
156 166 0
153 170 0
140 153 0
138 149 0
144 159 0
143 156 0
145 157 0
154 170 0
144 154 0
145 153 0
139 147 0
145 159 0
143 156 0
142 156 0
146 153 0
128 138 0
144 152 0
150 162 0
132 143 0
148 157 0
152 163 0
153 161 0
145 155 0
152 163 0
153 164 0
141 153 0
144 151 0
145 154 0
145 151 0
145 155 0
142 148 0
137 144 0
153 159 0
150 157 0
149 160 0
132 134 0
159 167 0
149 155 0
149 156 0
146 152 0
146 149 0
154 159 0
160 171 0
150 156 0
153 164 0
143 147 0
139 146 0
151 161 0
148 157 0
147 151 0
154 163 0
153 158 0
151 158 0
148 153 0
148 149 0
151 155 0
144 147 0
157 164 0
145 149 0
139 140 0
154 161 0
146 150 0
142 146 0
146 148 0
151 154 0
153 158 0
153 158 0
161 167 0
152 152 0
150 155 0
150 157 0
154 159 0
147 151 0
155 158 0
153 157 0
144 142 0
145 148 0
149 152 0
154 159 0
153 159 0
149 152 0
152 158 0
155 160 0
145 148 0
159 165 0
159 165 0
156 164 0
153 159 0
163 174 0
156 165 0
149 154 0
150 156 0
156 165 0
157 161 0
159 166 0
161 171 0
155 160 0
159 165 0
157 165 0
154 162 0
174 196 0
176 196 0
170 192 0
168 188 0
171 195 0
170 192 0
174 196 0
173 194 0
176 197 0
175 196 0
176 197 0
172 194 0
170 191 0
172 193 0
171 193 0
173 194 0
176 197 0
173 193 0
174 195 0
173 194 0
175 197 0
175 194 0
177 198 0
173 194 0
169 189 0
179 199 0
175 196 0
172 191 0
171 191 0
169 190 0
176 195 0
168 189 0
171 190 0
173 194 0
175 196 0
172 192 0
174 194 0
174 194 0
173 193 0
172 192 0
169 190 0
172 191 0
171 194 0
170 191 0
161 182 0
168 190 0
164 183 0
167 189 0
175 197 0
172 194 0
168 189 0
164 184 0
169 190 0
165 186 0
161 183 0
171 193 0
165 186 0
170 191 0
172 192 0
172 193 0
169 190 0
169 189 0
169 189 0
161 181 0
166 189 0
165 186 0
163 185 0
174 196 0
157 179 0
157 179 0
161 182 0
171 193 0
163 184 0
167 188 0
157 177 0
165 187 0
166 188 0
170 190 0
170 192 0
163 185 0
158 180 0
158 179 0
161 183 0
162 184 0
159 181 0
150 171 0
162 184 0
152 173 0
159 181 0
156 178 0
162 182 0
165 187 0
151 171 0
159 182 0
169 191 0
159 181 0
157 178 0
161 182 0
164 186 0
159 180 0
162 184 0
155 176 0
163 186 0
151 173 0
157 179 0
167 190 0
153 176 0
156 178 0
163 184 0
164 188 0
155 176 0
159 182 0
161 182 0
160 183 0
153 174 0
150 173 0
148 171 0
151 174 0
158 179 0
146 169 0
162 185 0
151 174 0
150 173 0
154 179 0
156 177 0
154 175 0
156 178 0
145 166 0
154 176 0
161 183 0
158 181 0
154 176 0
147 166 0
146 169 0
149 172 0
150 172 0
152 175 0
151 173 0
154 177 0
144 165 0
153 175 0
154 174 0
148 170 0
134 156 0
146 169 0
143 163 0
153 173 0
157 180 0
155 178 0
145 166 0
150 172 0
154 177 0
147 170 0
154 176 0
148 170 0
146 168 0
140 162 0
154 176 0
144 165 0
148 170 0
141 162 0
146 166 0
130 154 0
149 172 0
148 170 0
146 169 0
151 172 0
138 160 0
141 163 0
154 177 0
139 160 0
145 167 0
136 157 0
134 157 0
145 167 0
142 160 0
151 174 0
149 171 0
136 156 0
144 167 0
142 162 0
149 172 0
153 172 0
147 169 0
146 169 0
139 160 0
147 168 0
129 150 0
153 173 0
130 150 0
134 155 0
147 168 0
154 175 0
148 166 0
156 179 0
144 166 0
142 160 0
135 154 0
133 154 0
135 156 0
132 152 0
140 162 0
152 172 0
141 163 0
149 169 0
133 154 0
136 156 0
143 164 0
138 161 0
140 159 0
140 158 0
136 157 0
136 158 0
148 169 0
149 170 0
137 158 0
141 161 0
133 156 0
145 165 0
143 164 0
145 162 0
131 152 0
143 162 0
145 164 0
142 161 0
144 162 0
152 172 0
129 149 0
138 160 0
140 159 0
141 163 0
142 163 0
134 152 0
139 157 0
130 148 0
155 177 0
140 160 0
138 155 0
149 167 0
136 153 0
140 157 0
140 157 0
146 165 0
139 158 0
149 168 0
142 163 0
152 170 0
141 162 0
136 153 0
142 159 0
147 166 0
146 167 0
150 172 0
143 162 0
143 161 0
146 163 0
152 170 0
146 168 0
141 162 0
136 154 0
151 169 0
146 164 0
139 158 0
144 161 0
147 164 0
148 163 0
143 162 0
142 159 0
138 156 0
147 165 0
145 166 0
134 151 0
130 146 0
134 151 0
138 156 0
144 162 0
147 164 0
148 167 0
143 163 0
156 177 0
129 147 0
144 157 0
153 170 0
143 157 0
143 156 0
146 160 0
148 167 0
139 150 0
152 166 0
153 167 0
142 155 0
158 174 0
137 149 0
151 166 0
152 167 0
145 161 0
149 161 0
151 167 0
137 147 0
154 171 0
154 166 0
134 143 0
136 147 0
143 153 0
152 165 0
136 148 0
159 174 0
147 162 0
145 158 0
148 163 0
151 164 0
148 160 0
151 164 0
147 158 0
151 162 0
160 174 0
159 173 0
148 160 0
142 154 0
139 148 0
142 151 0
146 154 0
149 158 0
140 148 0
157 171 0
149 160 0
150 162 0
142 150 0
153 163 0
147 157 0
148 156 0
134 137 0
147 154 0
142 156 0
157 170 0
150 159 0
140 144 0
152 163 0
142 145 0
145 153 0
149 154 0
145 150 0
146 151 0
147 156 0
137 141 0
150 154 0
140 140 0
154 164 0
156 169 0
143 152 0
144 153 0
155 161 0
152 156 0
142 148 0
153 157 0
154 158 0
153 160 0
149 152 0
148 156 0
148 153 0
144 146 0
157 164 0
150 151 0
143 146 0
146 149 0
152 158 0
154 162 0
155 162 0
143 146 0
153 158 0
158 163 0
155 163 0
150 158 0
150 156 0
144 148 0
144 145 0
156 164 0
156 163 0
150 152 0
155 163 0
146 150 0
146 153 0
156 167 0
157 168 0
155 163 0
148 151 0
146 149 0
151 159 0
151 154 0
153 159 0
156 161 0
162 173 0
155 160 0
160 169 0
160 168 0
159 168 0
157 163 0
158 165 0
160 169 0
157 164 0
168 191 0
171 192 0
177 198 0
171 193 0
174 196 0
173 194 0
172 193 0
178 198 0
176 197 0
174 195 0
172 193 0
172 193 0
178 198 0
168 189 0
164 185 0
169 189 0
173 194 0
173 195 0
170 191 0
174 195 0
167 187 0
175 195 0
171 192 0
175 196 0
166 185 0
175 196 0
172 192 0
175 196 0
165 186 0
171 193 0
173 192 0
171 191 0
170 191 0
171 192 0
174 193 0
172 192 0
171 192 0
172 193 0
178 198 0
162 183 0
173 194 0
166 188 0
165 187 0
161 181 0
172 193 0
170 191 0
174 193 0
171 192 0
173 193 0
166 186 0
168 188 0
165 185 0
166 186 0
165 187 0
161 182 0
163 183 0
162 183 0
167 187 0
167 189 0
169 190 0
163 182 0
160 180 0
161 183 0
162 183 0
155 177 0
161 183 0
161 183 0
158 180 0
162 182 0
172 192 0
161 183 0
162 183 0
162 183 0
162 183 0
158 179 0
155 176 0
160 183 0
165 187 0
164 185 0
169 190 0
165 187 0
161 183 0
157 178 0
162 184 0
155 177 0
152 173 0
155 176 0
162 183 0
160 183 0
154 177 0
150 172 0
163 184 0
155 177 0
161 182 0
150 172 0
158 179 0
165 189 0
160 181 0
164 186 0
156 179 0
159 182 0
153 176 0
149 172 0
149 171 0
158 180 0
159 180 0
155 177 0
156 178 0
168 190 0
159 182 0
163 186 0
158 180 0
164 185 0
142 163 0
148 170 0
148 170 0
149 172 0
164 187 0
144 167 0
153 175 0
160 182 0
159 180 0
146 166 0
146 168 0
151 172 0
161 183 0
157 180 0
150 171 0
164 185 0
143 164 0
143 165 0
145 167 0
152 175 0
146 167 0
134 156 0
150 172 0
160 183 0
150 172 0
154 175 0
148 169 0
138 159 0
141 164 0
143 167 0
156 176 0
155 178 0
160 181 0
146 168 0
154 175 0
147 170 0
160 183 0
136 157 0
145 168 0
151 173 0
157 179 0
150 172 0
151 173 0
160 181 0
157 179 0
153 174 0
159 181 0
160 181 0
158 179 0
144 165 0
153 175 0
144 165 0
149 171 0
136 157 0
146 168 0
137 157 0
146 168 0
154 176 0
151 171 0
152 172 0
150 173 0
150 171 0
138 160 0
152 174 0
145 167 0
144 166 0
137 157 0
154 173 0
142 164 0
149 169 0
152 172 0
150 170 0
135 157 0
140 161 0
150 171 0
137 158 0
147 169 0
143 165 0
151 174 0
137 157 0
156 177 0
150 170 0
148 169 0
130 151 0
137 153 0
134 155 0
151 172 0
136 158 0
128 147 0
147 170 0
147 167 0
148 168 0
153 176 0
145 165 0
143 164 0
146 168 0
142 163 0
139 161 0
137 158 0
144 164 0
139 159 0
135 155 0
136 156 0
142 162 0
142 161 0
161 180 0
137 156 0
129 148 0
145 168 0
158 177 0
148 170 0
148 170 0
140 161 0
151 170 0
129 151 0
140 160 0
132 151 0
138 157 0
138 157 0
139 159 0
134 156 0
136 156 0
152 172 0
152 173 0
129 146 0
150 171 0
141 155 0
146 167 0
140 156 0
149 168 0
144 160 0
137 158 0
148 167 0
138 156 0
153 172 0
147 167 0
148 168 0
139 158 0
148 168 0
145 165 0
145 166 0
148 166 0
126 144 0
145 165 0
148 167 0
132 150 0
138 154 0
153 169 0
151 169 0
149 166 0
143 163 0
129 147 0
138 157 0
139 157 0
139 157 0
134 151 0
147 166 0
139 154 0
144 161 0
153 170 0
145 162 0
143 160 0
153 167 0
154 172 0
139 157 0
150 168 0
152 169 0
156 175 0
145 161 0
155 172 0
144 161 0
149 160 0
149 163 0
142 157 0
149 164 0
145 162 0
141 158 0
160 177 0
152 167 0
142 157 0
157 172 0
151 165 0
150 167 0
149 163 0
153 164 0
147 164 0
142 153 0
154 167 0
151 166 0
152 169 0
160 173 0
139 147 0
150 164 0
141 152 0
144 159 0
153 165 0
139 152 0
136 146 0
144 155 0
151 165 0
137 149 0
148 156 0
154 166 0
147 158 0
149 160 0
143 158 0
155 164 0
140 149 0
140 150 0
152 166 0
146 156 0
146 156 0
141 150 0
148 151 0
150 162 0
150 160 0
151 162 0
155 166 0
148 157 0
151 161 0
140 145 0
148 157 0
134 142 0
151 161 0
145 150 0
143 152 0
148 151 0
145 154 0
156 165 0
148 160 0
155 162 0
145 152 0
146 153 0
147 154 0
156 162 0
152 157 0
153 162 0
157 168 0
160 170 0
152 159 0
152 160 0
150 157 0
151 156 0
159 166 0
154 160 0
147 152 0
140 147 0
148 155 0
152 159 0
150 152 0
152 158 0
155 163 0
153 162 0
153 159 0
147 152 0
157 164 0
146 146 0
147 153 0
151 157 0
155 164 0
152 159 0
147 152 0
155 161 0
157 166 0
151 158 0
158 161 0
152 158 0
148 154 0
157 165 0
148 150 0
158 167 0
162 172 0
156 163 0
154 158 0
169 179 0
152 161 0
159 165 0
154 161 0
161 171 0
157 166 0
154 160 0
154 160 0
162 172 0
155 163 0
157 165 0
159 170 0
154 163 0
174 196 0
174 195 0
175 195 0
176 198 0
173 193 0
169 192 0
170 192 0
174 194 0
171 192 0
173 193 0
176 197 0
172 193 0
175 196 0
168 190 0
177 198 0
172 192 0
170 191 0
176 196 0
171 193 0
176 196 0
173 195 0
173 195 0
173 193 0
175 195 0
170 189 0
170 190 0
176 196 0
169 190 0
174 194 0
164 186 0
173 194 0
173 194 0
172 192 0
175 195 0
170 191 0
174 195 0
172 194 0
174 194 0
171 193 0
171 192 0
167 188 0
167 188 0
165 185 0
173 194 0
172 192 0
171 191 0
170 191 0
167 189 0
171 192 0
163 184 0
165 186 0
168 189 0
168 188 0
173 194 0
163 185 0
164 185 0
174 195 0
159 179 0
175 196 0
170 191 0
165 186 0
163 185 0
165 187 0
165 186 0
166 186 0
169 189 0
161 180 0
151 171 0
162 183 0
160 181 0
162 183 0
159 181 0
158 181 0
158 181 0
156 177 0
166 187 0
161 182 0
158 179 0
158 179 0
169 190 0
164 186 0
158 179 0
162 184 0
153 176 0
168 189 0
160 182 0
160 182 0
152 174 0
161 182 0
161 183 0
170 192 0
165 187 0
160 184 0
159 181 0
164 184 0
168 190 0
157 180 0
156 178 0
149 171 0
158 179 0
158 179 0
161 183 0
164 186 0
156 178 0
159 181 0
152 174 0
160 182 0
168 190 0
155 177 0
163 185 0
149 171 0
142 164 0
166 187 0
160 182 0
160 182 0
155 178 0
161 182 0
157 180 0
146 168 0
142 163 0
150 173 0
162 184 0
152 174 0
155 177 0
158 181 0
156 180 0
162 184 0
161 184 0
153 174 0
156 177 0
151 172 0
146 167 0
147 169 0
147 169 0
152 175 0
149 173 0
152 173 0
157 178 0
153 175 0
139 161 0
156 181 0
158 181 0
149 171 0
140 162 0
154 177 0
150 173 0
157 179 0
144 166 0
151 172 0
142 164 0
152 175 0
153 174 0
145 167 0
147 168 0
152 174 0
147 170 0
150 174 0
149 171 0
144 165 0
154 177 0
148 170 0
145 167 0
157 180 0
143 164 0
150 173 0
143 165 0
148 169 0
150 171 0
140 159 0
136 156 0
147 167 0
146 167 0
129 150 0
145 169 0
150 173 0
134 154 0
147 170 0
154 177 0
142 164 0
139 161 0
150 171 0
145 167 0
143 164 0
153 175 0
147 168 0
140 160 0
152 172 0
138 160 0
153 174 0
137 158 0
132 154 0
145 167 0
139 160 0
148 167 0
131 152 0
148 169 0
137 159 0
142 162 0
145 165 0
141 161 0
135 155 0
144 165 0
147 167 0
136 157 0
132 149 0
143 164 0
152 174 0
151 172 0
148 167 0
139 160 0
130 149 0
135 156 0
141 162 0
152 172 0
152 172 0
145 167 0
142 164 0
148 167 0
149 168 0
142 162 0
148 169 0
132 152 0
143 165 0
139 156 0
154 177 0
149 170 0
144 161 0
137 154 0
145 166 0
133 153 0
155 176 0
152 170 0
144 162 0
146 167 0
140 158 0
154 175 0
149 169 0
144 163 0
134 153 0
156 174 0
145 164 0
135 153 0
135 149 0
139 157 0
149 170 0
142 160 0
143 162 0
135 154 0
146 165 0
138 157 0
143 161 0
153 173 0
145 165 0
145 162 0
138 155 0
148 168 0
150 170 0
149 166 0
151 170 0
139 158 0
136 153 0
158 179 0
131 147 0
162 177 0
153 172 0
142 158 0
159 176 0
138 154 0
143 158 0
139 153 0
140 155 0
143 159 0
147 166 0
150 166 0
143 157 0
145 163 0
129 145 0
144 159 0
148 166 0
148 166 0
142 155 0
158 177 0
144 160 0
137 150 0
137 150 0
134 147 0
145 164 0
135 151 0
140 154 0
141 154 0
151 166 0
143 161 0
146 165 0
142 158 0
145 162 0
151 166 0
150 168 0
151 162 0
152 165 0
148 162 0
150 161 0
134 148 0
146 156 0
133 145 0
146 159 0
146 159 0
158 174 0
153 169 0
151 162 0
155 172 0
151 164 0
145 157 0
142 154 0
151 167 0
148 159 0
144 153 0
145 158 0
151 164 0
148 161 0
148 158 0
157 169 0
150 162 0
154 165 0
153 164 0
144 157 0
153 166 0
148 153 0
145 156 0
155 166 0
147 160 0
145 153 0
138 148 0
140 150 0
142 147 0
152 162 0
147 159 0
139 148 0
154 162 0
152 162 0
144 155 0
144 153 0
150 161 0
151 161 0
147 155 0
144 152 0
147 156 0
148 155 0
147 153 0
153 161 0
151 156 0
136 142 0
149 157 0
143 146 0
149 155 0
152 157 0
153 161 0
153 162 0
145 152 0
146 151 0
150 160 0
146 157 0
150 156 0
146 147 0
159 168 0
149 154 0
155 159 0
145 151 0
156 163 0
145 146 0
155 164 0
140 143 0
156 166 0
162 173 0
160 169 0
153 158 0
150 149 0
157 163 0
156 163 0
159 166 0
157 167 0
137 142 0
149 152 0
153 157 0
158 166 0
157 167 0
154 159 0
152 162 0
150 152 0
156 164 0
163 173 0
162 172 0
157 167 0
150 154 0
154 164 0
159 170 0
163 173 0
162 172 0
155 166 0
153 161 0
152 160 0
173 194 0
175 196 0
175 196 0
174 196 0
173 194 0
170 191 0
173 195 0
175 197 0
170 192 0
171 190 0
177 197 0
176 197 0
170 191 0
171 192 0
177 199 0
170 191 0
169 192 0
173 194 0
169 189 0
176 197 0
172 192 0
176 197 0
170 191 0
169 190 0
170 192 0
178 199 0
167 187 0
172 192 0
167 188 0
167 188 0
171 193 0
166 186 0
168 188 0
169 189 0
174 195 0
167 188 0
166 186 0
170 191 0
166 187 0
171 193 0
172 194 0
174 195 0
169 190 0
176 197 0
174 195 0
167 186 0
168 191 0
157 178 0
168 188 0
172 195 0
164 185 0
166 187 0
163 184 0
161 183 0
164 185 0
166 186 0
169 191 0
156 178 0
159 178 0
162 182 0
162 183 0
157 179 0
169 190 0
167 188 0
168 189 0
161 184 0
169 190 0
164 187 0
161 182 0
158 180 0
157 179 0
170 192 0
167 189 0
159 182 0
158 180 0
163 185 0
169 192 0
160 182 0
165 187 0
159 182 0
153 175 0
166 189 0
159 182 0
158 180 0
162 185 0
148 169 0
160 183 0
161 183 0
151 171 0
150 172 0
157 179 0
158 181 0
159 180 0
152 174 0
160 181 0
161 183 0
152 173 0
156 177 0
152 174 0
160 182 0
155 177 0
148 170 0
150 172 0
170 193 0
151 173 0
156 177 0
150 172 0
147 170 0
161 183 0
165 188 0
163 185 0
153 176 0
149 171 0
157 179 0
155 176 0
158 180 0
147 168 0
153 176 0
153 174 0
154 176 0
154 176 0
153 175 0
150 171 0
160 182 0
151 173 0
155 176 0
154 175 0
162 184 0
153 175 0
144 167 0
157 178 0
159 182 0
150 171 0
145 166 0
146 168 0
157 180 0
139 161 0
153 177 0
148 171 0
162 183 0
154 178 0
144 169 0
155 178 0
151 174 0
145 168 0
147 169 0
141 162 0
159 181 0
146 168 0
146 169 0
151 172 0
160 181 0
150 172 0
149 170 0
148 169 0
156 177 0
146 168 0
130 149 0
148 169 0
158 183 0
149 170 0
151 173 0
159 180 0
144 168 0
152 175 0
155 178 0
145 167 0
155 177 0
145 167 0
152 174 0
143 163 0
143 165 0
140 160 0
155 177 0
144 165 0
150 169 0
145 166 0
143 165 0
147 168 0
151 173 0
146 167 0
136 156 0
142 162 0
144 165 0
152 174 0
143 166 0
153 175 0
153 176 0
147 168 0
153 174 0
146 166 0
145 166 0
152 173 0
147 168 0
143 163 0
151 171 0
144 167 0
146 167 0
129 148 0
140 161 0
143 163 0
141 162 0
134 155 0
149 170 0
136 155 0
151 170 0
149 169 0
138 159 0
150 168 0
133 153 0
146 168 0
146 166 0
142 165 0
145 166 0
147 168 0
146 168 0
144 165 0
142 163 0
150 168 0
124 144 0
137 157 0
143 164 0
147 167 0
141 160 0
149 169 0
150 170 0
149 169 0
145 164 0
137 160 0
147 165 0
143 163 0
161 182 0
149 169 0
141 160 0
142 164 0
145 164 0
123 143 0
140 161 0
130 149 0
148 163 0
150 171 0
141 161 0
141 157 0
149 167 0
151 174 0
144 162 0
135 151 0
141 160 0
157 178 0
148 166 0
142 158 0
144 163 0
144 160 0
147 167 0
135 155 0
143 162 0
137 155 0
147 167 0
147 166 0
148 168 0
155 174 0
144 163 0
140 157 0
146 164 0
145 159 0
157 177 0
150 167 0
139 158 0
142 157 0
137 154 0
144 160 0
146 161 0
137 155 0
155 168 0
138 156 0
144 161 0
142 158 0
147 165 0
150 167 0
150 165 0
128 145 0
148 165 0
142 160 0
149 166 0
158 178 0
145 161 0
152 167 0
150 168 0
151 166 0
148 164 0
148 162 0
144 160 0
143 158 0
151 168 0
155 171 0
144 157 0
143 159 0
145 158 0
146 161 0
159 174 0
145 158 0
152 169 0
150 166 0
147 160 0
153 165 0
150 167 0
151 166 0
152 166 0
149 166 0
146 157 0
143 158 0
143 153 0
143 157 0
135 146 0
149 163 0
148 161 0
137 150 0
154 168 0
155 166 0
149 160 0
146 159 0
152 164 0
134 137 0
147 152 0
146 157 0
140 144 0
151 163 0
158 168 0
147 158 0
156 168 0
143 155 0
140 149 0
152 161 0
154 165 0
143 151 0
149 161 0
151 161 0
148 154 0
149 161 0
142 152 0
153 165 0
150 159 0
148 159 0
157 165 0
148 156 0
146 153 0
140 144 0
153 162 0
148 153 0
156 165 0
149 158 0
156 168 0
153 159 0
149 156 0
151 160 0
152 160 0
151 158 0
150 157 0
157 168 0
149 158 0
146 151 0
152 160 0
153 160 0
142 147 0
151 156 0
154 160 0
152 156 0
160 170 0
148 151 0
151 156 0
155 162 0
155 163 0
153 160 0
148 155 0
154 160 0
151 157 0
154 163 0
157 165 0
152 161 0
148 154 0
157 165 0
153 158 0
159 167 0
155 162 0
143 146 0
154 160 0
161 171 0
159 170 0
154 158 0
159 167 0
163 175 0
156 159 0
153 160 0
162 173 0
158 167 0
153 158 0
157 165 0
151 155 0
162 172 0
151 157 0
174 195 0
164 185 0
174 196 0
173 194 0
168 190 0
171 193 0
175 195 0
175 197 0
174 195 0
170 191 0
175 196 0
177 198 0
177 198 0
179 199 0
174 193 0
170 190 0
170 192 0
174 195 0
173 194 0
168 189 0
172 193 0
173 194 0
171 192 0
176 197 0
175 195 0
172 194 0
173 193 0
168 190 0
169 190 0
167 188 0
170 191 0
169 189 0
170 191 0
171 191 0
172 194 0
167 188 0
170 191 0
162 183 0
174 194 0
171 192 0
162 183 0
169 190 0
166 188 0
173 193 0
166 188 0
158 180 0
169 190 0
163 183 0
171 192 0
166 186 0
167 188 0
170 193 0
168 187 0
160 181 0
168 188 0
161 182 0
170 191 0
173 193 0
159 182 0
170 191 0
164 185 0
164 185 0
168 189 0
171 192 0
163 186 0
171 191 0
164 184 0
160 183 0
167 187 0
164 185 0
158 179 0
164 187 0
162 183 0
167 188 0
160 182 0
162 183 0
158 181 0
157 179 0
166 187 0
160 183 0
143 165 0
158 178 0
164 186 0
155 176 0
168 191 0
154 175 0
170 191 0
165 188 0
157 180 0
160 182 0
160 181 0
160 183 0
154 177 0
156 178 0
165 188 0
157 178 0
153 176 0
157 179 0
154 177 0
158 179 0
154 176 0
164 185 0
159 182 0
163 184 0
162 186 0
156 179 0
164 185 0
162 183 0
158 180 0
162 185 0
148 170 0
149 171 0
155 178 0
159 181 0
157 179 0
142 164 0
140 163 0
156 178 0
147 170 0
166 190 0
158 181 0
157 179 0
156 179 0
157 179 0
141 163 0
150 171 0
148 171 0
163 186 0
148 171 0
146 169 0
149 170 0
153 175 0
153 175 0
144 166 0
152 175 0
153 175 0
154 175 0
157 181 0
148 171 0
150 172 0
149 171 0
160 182 0
156 178 0
152 174 0
149 173 0
151 172 0
142 164 0
159 181 0
146 167 0
143 167 0
158 181 0
146 167 0
142 163 0
151 172 0
143 164 0
143 165 0
148 171 0
153 175 0
146 169 0
145 166 0
152 174 0
136 157 0
153 176 0
143 165 0
144 164 0
152 173 0
144 166 0
155 177 0
154 175 0
151 172 0
142 163 0
138 160 0
141 165 0
157 178 0
154 176 0
137 159 0
129 148 0
149 171 0
144 165 0
141 163 0
145 168 0
161 180 0
154 174 0
154 175 0
141 161 0
146 167 0
141 161 0
142 164 0
135 155 0
143 165 0
130 153 0
137 160 0
136 155 0
150 171 0
147 170 0
134 153 0
152 172 0
139 161 0
142 166 0
150 170 0
135 155 0
151 173 0
146 166 0
148 169 0
145 165 0
153 175 0
153 173 0
138 161 0
150 170 0
136 157 0
143 165 0
147 169 0
145 166 0
150 171 0
147 168 0
126 146 0
146 166 0
147 168 0
150 171 0
140 162 0
149 168 0
142 164 0
132 153 0
148 169 0
147 169 0
143 163 0
140 160 0
149 168 0
135 155 0
144 166 0
135 155 0
138 156 0
155 174 0
148 166 0
147 166 0
139 159 0
145 165 0
148 168 0
144 165 0
144 161 0
151 171 0
144 161 0
142 161 0
143 162 0
134 151 0
149 170 0
153 175 0
150 170 0
141 159 0
148 168 0
145 162 0
146 164 0
137 157 0
145 162 0
144 164 0
150 171 0
137 157 0
151 170 0
144 165 0
149 168 0
155 172 0
144 163 0
150 171 0
135 150 0
146 162 0
144 160 0
149 164 0
149 168 0
140 154 0
160 179 0
143 158 0
154 174 0
154 172 0
141 160 0
139 155 0
150 167 0
143 159 0
141 160 0
137 154 0
150 168 0
150 168 0
153 173 0
148 166 0
150 165 0
149 168 0
150 166 0
149 167 0
141 157 0
153 168 0
143 160 0
159 174 0
136 151 0
143 158 0
144 160 0
146 161 0
147 166 0
156 173 0
149 164 0
154 169 0
145 159 0
140 153 0
149 163 0
149 164 0
146 161 0
154 169 0
142 155 0
144 162 0
145 160 0
145 159 0
150 165 0
140 155 0
139 153 0
153 167 0
157 171 0
144 158 0
146 158 0
147 160 0
151 164 0
154 166 0
153 166 0
149 162 0
149 162 0
149 158 0
145 156 0
157 170 0
151 163 0
147 159 0
160 176 0
146 157 0
157 166 0
156 168 0
139 148 0
151 159 0
156 169 0
137 145 0
142 150 0
148 160 0
152 162 0
154 165 0
153 163 0
146 155 0
146 159 0
152 156 0
148 158 0
150 157 0
154 164 0
153 163 0
144 150 0
147 156 0
150 158 0
153 163 0
148 154 0
151 159 0
149 158 0
150 159 0
153 167 0
150 156 0
152 161 0
157 165 0
156 161 0
152 162 0
153 162 0
152 157 0
152 160 0
154 160 0
151 158 0
151 156 0
158 168 0
154 158 0
153 162 0
150 156 0
153 153 0
158 165 0
156 165 0
154 158 0
156 162 0
147 151 0
146 149 0
148 148 0
148 152 0
155 161 0
152 156 0
151 160 0
147 153 0
150 159 0
159 168 0
151 161 0
149 155 0
157 163 0
155 164 0
158 164 0
146 153 0
142 147 0
153 159 0
154 161 0
155 162 0
155 163 0
157 165 0
153 163 0
148 157 0
177 198 0
171 192 0
168 189 0
172 194 0
173 195 0
171 192 0
176 197 0
176 198 0
174 196 0
174 196 0
174 196 0
175 194 0
173 195 0
173 195 0
173 195 0
176 196 0
169 190 0
174 195 0
171 193 0
174 195 0
176 197 0
170 191 0
175 195 0
174 195 0
173 193 0
175 196 0
172 192 0
172 194 0
175 195 0
174 195 0
172 192 0
172 194 0
170 191 0
170 192 0
174 194 0
162 183 0
174 195 0
171 193 0
171 193 0
175 194 0
170 191 0
165 186 0
171 193 0
167 187 0
166 188 0
167 188 0
167 189 0
169 192 0
170 191 0
169 188 0
173 194 0
159 182 0
161 182 0
168 190 0
168 188 0
165 185 0
166 187 0
157 179 0
164 186 0
160 182 0
158 180 0
170 193 0
166 188 0
160 181 0
163 185 0
168 190 0
163 184 0
168 189 0
163 185 0
160 181 0
165 185 0
160 182 0
162 183 0
166 188 0
161 182 0
154 176 0
165 188 0
163 185 0
166 188 0
160 183 0
154 176 0
157 179 0
167 189 0
161 182 0
158 181 0
167 188 0
166 188 0
154 177 0
152 174 0
161 182 0
160 183 0
156 179 0
161 183 0
164 187 0
156 178 0
163 186 0
161 181 0
156 178 0
159 181 0
157 180 0
156 177 0
155 179 0
150 174 0
155 178 0
161 183 0
166 188 0
158 180 0
152 176 0
151 172 0
167 190 0
158 180 0
151 174 0
153 174 0
153 177 0
164 187 0
152 174 0
155 178 0
153 175 0
165 187 0
168 190 0
152 174 0
159 182 0
154 176 0
156 177 0
147 169 0
158 180 0
156 179 0
146 168 0
159 181 0
161 184 0
155 177 0
162 183 0
154 176 0
160 182 0
159 182 0
159 180 0
163 184 0
157 179 0
155 177 0
150 172 0
154 176 0
162 184 0
148 171 0
150 172 0
145 165 0
138 161 0
152 175 0
148 169 0
158 180 0
155 176 0
161 182 0
151 174 0
145 166 0
154 175 0
147 168 0
153 174 0
150 172 0
146 166 0
155 177 0
133 155 0
161 184 0
157 178 0
137 160 0
138 160 0
147 169 0
139 157 0
136 156 0
146 167 0
158 180 0
140 163 0
146 169 0
147 168 0
159 181 0
148 169 0
143 162 0
142 164 0
143 165 0
150 171 0
153 174 0
152 174 0
148 169 0
133 154 0
141 160 0
146 168 0
139 159 0
143 164 0
148 170 0
145 165 0
141 162 0
146 167 0
154 176 0
149 171 0
153 176 0
149 172 0
150 171 0
149 171 0
139 162 0
134 154 0
139 159 0
152 175 0
155 177 0
143 164 0
140 161 0
145 165 0
148 169 0
143 163 0
135 155 0
135 155 0
137 157 0
139 160 0
142 163 0
146 168 0
143 162 0
152 172 0
144 164 0
147 167 0
133 154 0
145 163 0
146 168 0
149 169 0
147 167 0
146 166 0
138 161 0
149 169 0
142 163 0
151 172 0
152 174 0
142 159 0
146 167 0
145 166 0
148 168 0
140 161 0
156 177 0
144 164 0
141 158 0
143 163 0
139 160 0
141 158 0
146 166 0
139 158 0
143 164 0
154 173 0
140 159 0
152 175 0
145 161 0
136 151 0
139 158 0
145 165 0
138 157 0
142 161 0
130 148 0
146 166 0
143 162 0
139 159 0
147 166 0
155 172 0
161 180 0
149 169 0
147 167 0
144 162 0
148 170 0
146 167 0
145 164 0
138 153 0
149 168 0
134 153 0
155 174 0
142 156 0
145 162 0
143 163 0
150 168 0
144 162 0
151 167 0
140 156 0
149 171 0
152 172 0
142 159 0
147 165 0
153 171 0
155 173 0
142 161 0
146 159 0
143 160 0
142 157 0
156 173 0
146 165 0
150 165 0
147 162 0
139 156 0
143 158 0
146 161 0
144 158 0
156 168 0
147 164 0
141 157 0
141 161 0
147 165 0
147 161 0
148 165 0
143 156 0
144 159 0
142 160 0
161 175 0
153 163 0
145 159 0
154 169 0
152 164 0
149 164 0
146 162 0
152 166 0
152 167 0
145 159 0
151 165 0
139 153 0
144 153 0
154 168 0
142 157 0
147 161 0
151 170 0
155 172 0
143 155 0
144 157 0
149 161 0
144 158 0
152 163 0
153 164 0
144 153 0
157 170 0
150 162 0
149 158 0
157 168 0
156 168 0
150 163 0
138 146 0
151 158 0
147 157 0
150 163 0
152 162 0
146 156 0
151 159 0
150 158 0
141 146 0
151 161 0
149 156 0
153 158 0
153 162 0
148 156 0
155 167 0
153 162 0
154 164 0
160 174 0
154 161 0
145 153 0
141 147 0
147 155 0
147 155 0
148 153 0
150 158 0
152 159 0
152 159 0
156 166 0
154 167 0
153 161 0
146 155 0
149 158 0
150 157 0
148 152 0
149 154 0
152 163 0
153 161 0
152 160 0
156 165 0
149 156 0
148 158 0
150 153 0
162 172 0
143 146 0
156 164 0
147 148 0
161 171 0
148 154 0
152 163 0
146 153 0
155 159 0
152 160 0
154 162 0
151 157 0
159 166 0
157 160 0
157 164 0
163 171 0
160 170 0
152 158 0
158 167 0
151 158 0
157 166 0
151 158 0
148 153 0
153 161 0
151 156 0
173 195 0
174 195 0
174 195 0
175 196 0
175 197 0
172 193 0
173 195 0
170 192 0
170 191 0
167 189 0
174 196 0
173 194 0
169 188 0
173 194 0
172 192 0
170 191 0
175 195 0
171 192 0
174 196 0
175 196 0
174 195 0
176 196 0
178 198 0
166 187 0
171 192 0
176 197 0
175 195 0
173 195 0
167 189 0
173 194 0
172 194 0
165 187 0
166 186 0
165 187 0
170 189 0
163 183 0
163 185 0
165 186 0
174 196 0
166 187 0
168 190 0
171 193 0
166 187 0
168 190 0
167 189 0
177 197 0
169 189 0
167 188 0
159 180 0
160 182 0
167 189 0
169 192 0
173 194 0
168 189 0
170 192 0
157 178 0
160 181 0
160 179 0
168 189 0
164 186 0
167 189 0
167 189 0
164 186 0
169 191 0
159 180 0
167 188 0
159 181 0
162 184 0
166 189 0
162 184 0
170 193 0
169 191 0
167 188 0
152 173 0
161 183 0
166 188 0
159 180 0
163 185 0
159 180 0
158 180 0
165 187 0
167 186 0
158 179 0
165 189 0
168 190 0
160 182 0
160 181 0
164 187 0
161 183 0
160 182 0
160 183 0
158 180 0
165 186 0
163 185 0
154 176 0
159 182 0
160 183 0
162 185 0
166 188 0
168 190 0
158 181 0
155 176 0
166 187 0
163 186 0
164 186 0
162 184 0
152 174 0
166 188 0
148 171 0
165 187 0
165 186 0
160 182 0
158 181 0
159 180 0
160 182 0
146 168 0
157 178 0
150 173 0
160 182 0
162 185 0
152 174 0
145 168 0
153 175 0
163 186 0
154 176 0
155 177 0
146 169 0
159 182 0
153 176 0
150 172 0
154 177 0
148 172 0
157 179 0
160 182 0
152 176 0
144 166 0
152 173 0
159 182 0
149 170 0
153 175 0
144 165 0
147 169 0
143 165 0
149 172 0
147 169 0
152 176 0
153 175 0
141 162 0
155 177 0
151 174 0
159 182 0
138 162 0
155 177 0
142 163 0
148 170 0
151 171 0
150 173 0
146 168 0
158 181 0
146 168 0
147 167 0
148 170 0
142 164 0
147 168 0
138 157 0
156 176 0
152 173 0
143 165 0
151 171 0
146 169 0
152 174 0
156 178 0
154 175 0
154 176 0
145 167 0
144 163 0
159 181 0
150 173 0
152 174 0
122 143 0
156 178 0
145 166 0
147 169 0
153 175 0
153 175 0
134 153 0
147 168 0
153 175 0
141 160 0
152 172 0
147 169 0
144 164 0
147 171 0
140 159 0
152 174 0
153 175 0
143 163 0
136 157 0
136 154 0
149 169 0
155 176 0
152 172 0
157 176 0
142 164 0
149 170 0
148 167 0
158 181 0
141 163 0
137 159 0
147 167 0
134 155 0
145 165 0
145 165 0
148 167 0
141 161 0
150 169 0
156 175 0
152 173 0
147 167 0
144 163 0
146 167 0
146 168 0
140 161 0
122 139 0
146 165 0
139 160 0
152 173 0
153 173 0
150 167 0
144 160 0
144 163 0
143 165 0
134 154 0
139 160 0
144 161 0
150 170 0
151 173 0
153 173 0
148 167 0
147 167 0
141 161 0
141 161 0
155 177 0
146 164 0
149 170 0
149 167 0
142 161 0
145 163 0
144 162 0
134 152 0
144 162 0
148 167 0
141 162 0
164 181 0
148 168 0
145 162 0
150 170 0
152 174 0
152 170 0
145 164 0
150 167 0
149 166 0
139 159 0
146 165 0
149 169 0
139 155 0
150 167 0
151 171 0
156 176 0
150 167 0
146 167 0
145 163 0
135 151 0
143 164 0
140 158 0
153 174 0
152 171 0
138 153 0
149 167 0
141 160 0
149 168 0
147 165 0
143 161 0
152 170 0
157 176 0
140 157 0
152 164 0
152 171 0
153 171 0
150 167 0
158 175 0
151 167 0
148 163 0
142 160 0
152 168 0
138 154 0
151 163 0
139 156 0
132 147 0
142 155 0
143 159 0
138 154 0
140 154 0
137 149 0
150 163 0
150 162 0
152 169 0
145 164 0
154 169 0
157 174 0
157 173 0
147 161 0
143 155 0
146 161 0
154 168 0
156 171 0
140 154 0
154 169 0
142 154 0
146 160 0
154 169 0
148 157 0
152 164 0
149 162 0
151 161 0
156 168 0
148 161 0
150 164 0
149 161 0
146 160 0
148 160 0
148 158 0
153 165 0
139 148 0
153 164 0
159 168 0
156 166 0
151 163 0
139 152 0
149 156 0
148 160 0
151 158 0
144 155 0
154 166 0
145 156 0
158 171 0
152 164 0
146 154 0
149 156 0
152 159 0
154 166 0
148 154 0
156 170 0
156 166 0
154 162 0
144 151 0
140 150 0
152 161 0
150 154 0
149 153 0
146 155 0
148 155 0
150 160 0
154 160 0
153 167 0
157 165 0
156 161 0
158 169 0
155 164 0
158 167 0
155 161 0
157 168 0
159 170 0
147 153 0
149 156 0
150 154 0
153 163 0
154 158 0
147 157 0
152 155 0
154 160 0
156 164 0
155 164 0
151 157 0
156 165 0
157 162 0
157 164 0
158 169 0
155 160 0
161 170 0
162 174 0
159 173 0
157 161 0
153 157 0
160 169 0
165 177 0
153 160 0
151 155 0
156 164 0
154 162 0
171 193 0
173 194 0
174 196 0
177 198 0
177 199 0
169 190 0
174 195 0
170 192 0
174 195 0
171 192 0
170 190 0
170 190 0
175 196 0
170 190 0
169 191 0
174 196 0
176 197 0
171 193 0
166 187 0
173 194 0
174 193 0
168 189 0
165 187 0
162 183 0
175 196 0
167 188 0
169 190 0
172 191 0
164 186 0
162 183 0
172 193 0
168 190 0
169 190 0
169 189 0
168 189 0
171 193 0
170 192 0
171 194 0
168 189 0
160 182 0
172 193 0
174 196 0
164 184 0
166 188 0
167 188 0
171 191 0
169 190 0
163 184 0
163 183 0
168 190 0
173 193 0
167 189 0
170 191 0
164 186 0
170 192 0
170 193 0
167 189 0
162 184 0
172 192 0
162 182 0
174 196 0
173 194 0
170 192 0
163 186 0
169 189 0
171 192 0
157 177 0
145 167 0
164 186 0
162 186 0
167 189 0
151 172 0
165 187 0
173 195 0
155 178 0
165 186 0
163 186 0
159 180 0
162 185 0
160 183 0
160 181 0
165 186 0
156 179 0
157 180 0
165 188 0
158 180 0
158 180 0
167 189 0
166 189 0
160 181 0
150 172 0
156 178 0
164 187 0
157 179 0
159 181 0
155 180 0
148 171 0
159 181 0
151 172 0
158 180 0
155 176 0
154 178 0
163 184 0
149 171 0
159 181 0
159 180 0
158 181 0
161 182 0
164 186 0
164 186 0
157 179 0
152 175 0
157 179 0
151 174 0
160 183 0
158 178 0
145 169 0
162 183 0
158 180 0
166 189 0
154 176 0
153 176 0
154 176 0
156 181 0
164 187 0
150 172 0
161 184 0
154 176 0
150 172 0
157 179 0
149 172 0
158 180 0
149 173 0
152 173 0
157 177 0
156 178 0
157 181 0
149 172 0
151 174 0
156 179 0
156 179 0
156 179 0
153 177 0
143 165 0
156 177 0
140 164 0
160 183 0
147 169 0
137 159 0
156 177 0
149 172 0
150 173 0
154 175 0
142 163 0
142 164 0
149 171 0
146 169 0
150 173 0
156 178 0
147 167 0
154 176 0
150 171 0
146 170 0
148 171 0
155 177 0
158 181 0
154 177 0
143 165 0
147 170 0
146 168 0
143 163 0
150 173 0
134 155 0
156 178 0
147 170 0
148 171 0
149 171 0
152 173 0
140 161 0
154 176 0
149 172 0
144 165 0
152 173 0
151 173 0
151 170 0
157 179 0
134 156 0
160 181 0
142 165 0
157 179 0
146 166 0
147 166 0
145 166 0
129 149 0
151 173 0
139 161 0
149 170 0
145 166 0
150 172 0
152 173 0
153 176 0
149 171 0
127 147 0
143 165 0
123 142 0
144 165 0
135 156 0
146 166 0
135 154 0
145 167 0
148 170 0
145 163 0
151 170 0
152 173 0
152 174 0
145 166 0
132 153 0
140 160 0
150 171 0
148 169 0
134 155 0
142 162 0
145 164 0
139 160 0
142 162 0
149 168 0
134 156 0
140 162 0
150 170 0
153 170 0
154 177 0
130 150 0
144 163 0
139 158 0
147 166 0
145 163 0
132 153 0
143 163 0
145 165 0
145 166 0
142 161 0
151 171 0
139 159 0
148 168 0
141 160 0
151 170 0
143 160 0
141 160 0
150 171 0
146 164 0
140 158 0
151 174 0
148 167 0
153 172 0
149 170 0
158 179 0
147 168 0
148 168 0
146 165 0
138 156 0
147 168 0
152 173 0
154 172 0
150 168 0
157 176 0
154 174 0
159 179 0
139 159 0
144 161 0
149 165 0
152 171 0
141 162 0
153 172 0
139 158 0
156 174 0
143 161 0
144 163 0
154 174 0
148 166 0
159 176 0
158 176 0
148 168 0
141 158 0
150 167 0
148 164 0
154 170 0
156 171 0
145 161 0
144 160 0
147 161 0
148 167 0
154 168 0
146 163 0
150 165 0
150 167 0
150 167 0
148 168 0
139 156 0
147 161 0
159 174 0
152 169 0
153 169 0
150 166 0
152 168 0
147 162 0
150 163 0
149 164 0
161 181 0
153 169 0
148 163 0
144 157 0
151 168 0
147 158 0
149 161 0
151 168 0
148 161 0
149 163 0
149 164 0
155 169 0
148 160 0
144 160 0
159 175 0
144 159 0
154 170 0
150 163 0
149 162 0
156 174 0
152 166 0
154 168 0
143 153 0
155 166 0
152 166 0
148 162 0
147 161 0
150 163 0
146 155 0
149 157 0
158 169 0
153 165 0
153 159 0
146 160 0
150 161 0
157 170 0
153 167 0
147 152 0
144 152 0
147 161 0
145 153 0
154 165 0
150 158 0
158 169 0
153 162 0
156 168 0
151 159 0
154 162 0
155 163 0
151 159 0
149 158 0
155 164 0
151 159 0
145 151 0
151 160 0
155 166 0
154 164 0
150 157 0
149 160 0
145 150 0
157 172 0
152 162 0
152 161 0
152 159 0
154 158 0
159 170 0
153 161 0
159 170 0
157 165 0
159 166 0
155 166 0
151 158 0
152 163 0
149 159 0
154 164 0
152 159 0
156 168 0
158 168 0
148 152 0
157 165 0
155 159 0
153 156 0
159 169 0
154 161 0
156 166 0
152 156 0
154 160 0
158 166 0
160 167 0
157 166 0
158 167 0
155 159 0
159 169 0
171 193 0
171 193 0
169 190 0
170 192 0
172 193 0
172 194 0
171 191 0
172 194 0
172 193 0
176 197 0
174 196 0
168 190 0
176 197 0
172 192 0
172 193 0
176 196 0
177 198 0
168 190 0
169 190 0
168 190 0
169 190 0
167 189 0
173 194 0
169 189 0
172 194 0
164 185 0
175 196 0
174 196 0
166 187 0
169 191 0
173 194 0
163 184 0
170 191 0
167 188 0
166 189 0
169 190 0
175 195 0
169 189 0
176 197 0
168 189 0
171 193 0
165 188 0
167 189 0
172 193 0
172 193 0
166 189 0
166 185 0
164 185 0
166 187 0
165 186 0
163 185 0
170 190 0
165 186 0
169 191 0
172 193 0
163 184 0
167 189 0
165 186 0
166 188 0
166 188 0
160 182 0
164 186 0
169 190 0
166 189 0
167 190 0
164 185 0
174 196 0
161 182 0
170 191 0
163 185 0
164 187 0
157 178 0
161 184 0
162 185 0
162 185 0
166 188 0
166 188 0
168 190 0
163 186 0
158 180 0
160 183 0
149 171 0
159 181 0
157 179 0
162 184 0
153 177 0
155 179 0
164 187 0
158 182 0
158 181 0
170 192 0
162 183 0
148 170 0
152 175 0
165 186 0
157 180 0
158 181 0
154 176 0
160 182 0
150 173 0
161 183 0
158 181 0
157 179 0
156 179 0
158 181 0
155 177 0
156 178 0
148 173 0
162 182 0
155 177 0
157 180 0
159 181 0
151 172 0
155 178 0
146 167 0
152 176 0
156 178 0
156 177 0
158 179 0
150 171 0
155 176 0
156 180 0
163 186 0
154 177 0
159 180 0
159 180 0
163 187 0
151 171 0
151 175 0
154 178 0
160 183 0
152 174 0
153 175 0
162 184 0
151 173 0
152 175 0
144 166 0
150 172 0
163 185 0
150 173 0
150 172 0
155 178 0
157 180 0
149 171 0
149 172 0
159 183 0
154 176 0
157 180 0
155 179 0
146 168 0
158 179 0
153 176 0
150 173 0
155 177 0
147 169 0
155 176 0
153 173 0
153 175 0
152 173 0
149 171 0
153 172 0
134 157 0
154 176 0
143 164 0
148 171 0
152 173 0
154 173 0
152 174 0
145 166 0
146 168 0
139 160 0
133 154 0
150 170 0
157 177 0
156 178 0
151 171 0
151 173 0
147 168 0
151 172 0
142 163 0
148 170 0
157 179 0
146 168 0
156 177 0
149 169 0
146 167 0
147 169 0
146 166 0
144 165 0
150 171 0
150 173 0
140 160 0
142 163 0
148 169 0
158 178 0
147 168 0
142 163 0
147 170 0
143 164 0
133 154 0
155 177 0
142 163 0
147 168 0
147 168 0
142 162 0
150 171 0
146 167 0
147 167 0
152 174 0
147 169 0
143 163 0
145 167 0
137 159 0
143 163 0
139 161 0
147 167 0
144 164 0
143 163 0
147 167 0
123 143 0
140 161 0
151 172 0
149 171 0
143 163 0
144 165 0
151 173 0
148 169 0
155 174 0
134 153 0
147 167 0
142 161 0
141 161 0
142 165 0
144 163 0
143 161 0
144 164 0
147 166 0
152 173 0
150 172 0
151 172 0
137 158 0
149 167 0
148 169 0
135 155 0
150 168 0
149 170 0
140 160 0
143 161 0
142 161 0
144 164 0
141 160 0
153 175 0
147 163 0
147 166 0
148 168 0
144 161 0
154 170 0
152 171 0
144 165 0
150 169 0
145 163 0
141 160 0
141 161 0
148 167 0
154 173 0
140 158 0
154 171 0
147 167 0
153 171 0
142 158 0
150 168 0
148 166 0
151 168 0
131 147 0
147 165 0
144 162 0
149 165 0
150 169 0
146 160 0
135 150 0
148 163 0
153 169 0
146 164 0
155 175 0
155 172 0
149 166 0
142 159 0
145 160 0
149 167 0
158 176 0
160 179 0
152 169 0
158 177 0
143 162 0
142 159 0
145 161 0
152 169 0
151 166 0
133 147 0
158 173 0
153 169 0
152 168 0
146 163 0
151 170 0
142 154 0
143 161 0
157 173 0
145 160 0
150 165 0
148 164 0
154 167 0
133 146 0
159 174 0
146 162 0
145 159 0
137 147 0
144 160 0
143 154 0
150 163 0
152 170 0
146 159 0
153 167 0
155 167 0
151 165 0
145 160 0
153 162 0
155 168 0
148 162 0
140 148 0
151 158 0
156 172 0
158 170 0
155 169 0
151 165 0
155 168 0
148 160 0
153 166 0
155 168 0
155 166 0
155 163 0
151 162 0
159 171 0
137 146 0
153 162 0
155 162 0
152 162 0
141 148 0
140 148 0
157 168 0
156 164 0
148 157 0
153 160 0
149 158 0
145 155 0
154 164 0
155 163 0
147 156 0
147 160 0
158 171 0
158 171 0
153 166 0
154 164 0
154 166 0
152 160 0
150 158 0
153 159 0
159 170 0
159 169 0
158 167 0
145 153 0
165 180 0
153 166 0
143 149 0
157 167 0
154 164 0
156 168 0
157 161 0
149 154 0
154 160 0
159 166 0
161 172 0
157 167 0
161 174 0
156 162 0
157 165 0
160 172 0
159 173 0
156 167 0
155 165 0
159 169 0
156 165 0
153 163 0
162 173 0
154 162 0
154 164 0
151 158 0
164 175 0
157 165 0
162 171 0
159 171 0
174 195 0
174 196 0
174 196 0
172 193 0
168 190 0
173 195 0
170 191 0
173 195 0
172 194 0
173 195 0
169 189 0
167 189 0
173 194 0
172 194 0
171 191 0
172 193 0
170 192 0
168 191 0
168 189 0
171 191 0
171 192 0
174 195 0
168 190 0
173 194 0
162 184 0
174 195 0
169 191 0
176 196 0
161 182 0
163 184 0
169 190 0
166 188 0
172 194 0
172 193 0
174 195 0
167 190 0
175 196 0
174 195 0
170 193 0
167 189 0
169 189 0
166 187 0
167 187 0
168 189 0
165 187 0
173 195 0
168 190 0
168 189 0
162 184 0
166 187 0
166 188 0
165 186 0
166 188 0
164 185 0
173 193 0
158 181 0
160 180 0
156 179 0
166 190 0
156 178 0
166 188 0
156 179 0
156 178 0
163 185 0
154 176 0
167 188 0
164 186 0
154 175 0
169 192 0
156 177 0
166 188 0
154 175 0
168 188 0
165 187 0
154 176 0
163 186 0
152 174 0
157 181 0
156 177 0
162 185 0
163 186 0
159 181 0
161 182 0
169 191 0
150 174 0
167 190 0
157 179 0
168 190 0
165 188 0
169 191 0
163 185 0
161 183 0
145 167 0
161 184 0
160 183 0
166 188 0
159 180 0
160 183 0
158 179 0
160 182 0
148 171 0
156 179 0
149 172 0
165 188 0
151 173 0
165 188 0
159 182 0
158 180 0
157 179 0
165 189 0
159 183 0
157 181 0
159 181 0
156 178 0
157 179 0
146 168 0
158 181 0
159 182 0
161 184 0
155 177 0
151 174 0
153 174 0
155 177 0
163 185 0
157 180 0
149 171 0
150 172 0
151 174 0
151 172 0
156 180 0
157 180 0
157 180 0
156 178 0
163 187 0
145 166 0
158 180 0
153 177 0
162 183 0
162 184 0
158 180 0
156 179 0
145 167 0
147 170 0
142 164 0
145 168 0
150 171 0
161 183 0
149 170 0
148 170 0
140 162 0
159 181 0
142 164 0
142 163 0
153 175 0
153 175 0
149 172 0
146 167 0
154 177 0
150 171 0
162 183 0
152 173 0
152 173 0
153 175 0
141 161 0
143 164 0
156 179 0
149 171 0
151 172 0
159 180 0
145 167 0
166 187 0
151 172 0
138 160 0
138 161 0
142 161 0
151 173 0
137 158 0
154 176 0
158 177 0
153 174 0
147 169 0
147 167 0
149 170 0
153 174 0
152 174 0
147 170 0
145 166 0
153 174 0
143 164 0
154 176 0
146 168 0
152 174 0
142 165 0
141 164 0
147 169 0
147 168 0
147 169 0
160 182 0
153 174 0
156 179 0
137 159 0
148 171 0
135 157 0
150 169 0
146 167 0
137 156 0
137 157 0
143 165 0
145 167 0
140 160 0
142 162 0
147 169 0
141 162 0
135 155 0
136 157 0
152 173 0
144 165 0
155 175 0
148 170 0
136 158 0
154 176 0
158 178 0
143 164 0
158 179 0
159 181 0
142 161 0
148 168 0
151 169 0
144 163 0
155 175 0
152 172 0
148 169 0
150 170 0
149 169 0
152 172 0
149 170 0
146 166 0
150 170 0
135 156 0
151 172 0
154 176 0
144 162 0
147 167 0
150 171 0
147 166 0
143 162 0
152 174 0
153 173 0
150 172 0
145 167 0
147 164 0
151 172 0
142 163 0
154 172 0
147 168 0
147 168 0
149 171 0
149 169 0
144 160 0
143 160 0
140 158 0
140 155 0
144 161 0
149 168 0
147 164 0
148 168 0
151 170 0
143 160 0
141 156 0
143 160 0
145 163 0
149 167 0
151 171 0
138 155 0
137 156 0
143 160 0
149 169 0
155 176 0
148 167 0
145 162 0
151 167 0
150 170 0
147 163 0
154 170 0
139 154 0
150 170 0
154 174 0
149 166 0
149 165 0
141 157 0
151 168 0
150 170 0
156 171 0
152 170 0
156 175 0
157 174 0
144 161 0
153 167 0
157 176 0
150 165 0
137 154 0
150 167 0
149 165 0
146 160 0
143 158 0
140 155 0
157 174 0
143 160 0
152 168 0
154 168 0
149 163 0
155 174 0
154 171 0
147 162 0
155 171 0
151 163 0
148 164 0
151 167 0
161 178 0
140 155 0
156 170 0
151 167 0
157 173 0
148 162 0
150 164 0
150 165 0
150 163 0
149 164 0
148 160 0
156 169 0
147 161 0
147 160 0
139 149 0
149 160 0
149 158 0
137 148 0
155 167 0
150 159 0
154 162 0
155 167 0
141 152 0
158 175 0
154 167 0
154 165 0
149 163 0
153 167 0
146 155 0
142 150 0
145 155 0
149 163 0
147 158 0
144 153 0
146 151 0
147 159 0
138 148 0
156 165 0
142 152 0
150 158 0
145 153 0
152 162 0
160 171 0
144 151 0
161 175 0
147 157 0
156 167 0
153 165 0
148 155 0
143 150 0
158 169 0
152 159 0
152 159 0
154 165 0
152 160 0
158 172 0
158 167 0
156 165 0
143 151 0
152 159 0
156 160 0
154 162 0
157 164 0
162 173 0
147 152 0
160 175 0
149 156 0
145 151 0
151 159 0
154 168 0
150 160 0
155 164 0
152 158 0
159 171 0
150 156 0
154 160 0
164 177 0
160 168 0
150 160 0
158 168 0
152 162 0
155 164 0
173 194 0
172 193 0
176 198 0
168 189 0
172 194 0
177 198 0
176 197 0
174 195 0
173 196 0
173 194 0
171 192 0
166 188 0
172 194 0
174 194 0
165 186 0
169 190 0
171 193 0
170 191 0
171 193 0
164 186 0
167 188 0
176 196 0
173 194 0
165 186 0
176 196 0
173 195 0
168 190 0
174 195 0
166 188 0
170 192 0
165 187 0
171 193 0
167 187 0
169 190 0
157 178 0
166 187 0
170 192 0
165 188 0
170 191 0
164 184 0
163 187 0
173 194 0
170 192 0
168 191 0
170 191 0
175 198 0
164 185 0
175 197 0
165 186 0
170 191 0
159 180 0
164 185 0
166 186 0
170 191 0
165 187 0
167 189 0
152 174 0
169 191 0
161 182 0
164 187 0
162 185 0
160 181 0
168 191 0
164 186 0
165 187 0
161 184 0
165 186 0
160 183 0
165 186 0
164 187 0
157 180 0
155 176 0
165 188 0
152 175 0
166 188 0
157 181 0
154 176 0
165 189 0
169 191 0
159 181 0
155 176 0
163 186 0
164 185 0
162 185 0
152 174 0
153 175 0
166 188 0
149 171 0
154 176 0
159 181 0
159 181 0
165 187 0
161 183 0
156 179 0
161 184 0
150 171 0
163 185 0
156 178 0
158 181 0
163 186 0
159 181 0
160 183 0
162 183 0
155 176 0
164 186 0
154 178 0
153 176 0
155 177 0
160 182 0
156 179 0
156 178 0
162 185 0
163 186 0
154 177 0
150 173 0
152 174 0
157 180 0
143 166 0
160 183 0
153 175 0
149 172 0
157 179 0
149 171 0
159 182 0
149 168 0
159 180 0
152 176 0
159 180 0
156 179 0
149 170 0
161 183 0
155 177 0
156 180 0
153 176 0
150 173 0
157 179 0
155 178 0
136 157 0
154 177 0
154 176 0
160 182 0
155 176 0
146 169 0
158 179 0
149 172 0
138 160 0
156 177 0
158 181 0
153 174 0
154 176 0
144 167 0
143 165 0
157 180 0
141 163 0
156 179 0
155 176 0
151 171 0
132 155 0
147 170 0
144 167 0
151 174 0
157 179 0
156 180 0
153 176 0
153 173 0
142 165 0
157 179 0
153 175 0
148 170 0
148 169 0
153 176 0
139 159 0
149 171 0
145 164 0
157 178 0
151 173 0
138 161 0
158 182 0
144 166 0
144 166 0
151 173 0
144 166 0
145 166 0
142 166 0
155 177 0
144 164 0
149 169 0
149 171 0
141 163 0
139 161 0
150 172 0
151 171 0
155 176 0
136 156 0
148 168 0
158 180 0
143 164 0
142 164 0
148 168 0
151 171 0
152 171 0
156 178 0
143 165 0
158 179 0
150 173 0
143 163 0
149 169 0
150 171 0
153 173 0
143 164 0
139 162 0
151 171 0
150 172 0
145 167 0
142 164 0
142 163 0
145 166 0
151 171 0
158 180 0
144 167 0
134 155 0
145 165 0
148 167 0
156 177 0
161 181 0
153 173 0
144 163 0
142 162 0
155 176 0
147 167 0
143 167 0
151 173 0
154 174 0
148 170 0
143 162 0
137 157 0
139 158 0
153 173 0
145 163 0
145 167 0
151 172 0
143 163 0
134 154 0
143 163 0
141 162 0
144 165 0
151 171 0
145 163 0
153 174 0
154 173 0
161 178 0
160 182 0
144 162 0
140 160 0
147 165 0
156 173 0
144 164 0
159 181 0
148 168 0
154 174 0
139 160 0
142 160 0
149 166 0
154 173 0
150 169 0
154 170 0
158 179 0
158 177 0
135 153 0
150 169 0
152 171 0
148 165 0
146 163 0
147 168 0
151 170 0
153 170 0
154 173 0
149 170 0
161 180 0
151 169 0
143 156 0
150 166 0
155 172 0
143 158 0
157 176 0
147 160 0
154 173 0
156 178 0
143 157 0
146 162 0
148 165 0
142 162 0
149 167 0
148 166 0
145 158 0
147 164 0
147 166 0
154 171 0
151 168 0
144 161 0
147 164 0
153 169 0
148 167 0
163 179 0
148 164 0
156 175 0
153 171 0
148 166 0
151 166 0
158 175 0
161 179 0
149 164 0
149 163 0
144 158 0
149 163 0
149 160 0
153 167 0
155 173 0
151 164 0
150 165 0
150 166 0
144 159 0
148 163 0
138 149 0
153 164 0
151 164 0
154 169 0
149 166 0
151 164 0
160 178 0
160 175 0
147 160 0
150 165 0
153 170 0
139 151 0
153 167 0
148 162 0
147 158 0
150 162 0
148 164 0
144 160 0
150 158 0
149 158 0
158 171 0
146 159 0
154 161 0
140 149 0
154 164 0
148 158 0
152 161 0
149 160 0
158 168 0
160 169 0
143 147 0
148 160 0
154 166 0
151 158 0
161 173 0
155 169 0
146 156 0
153 167 0
150 162 0
149 159 0
159 170 0
156 163 0
148 154 0
152 165 0
146 154 0
162 170 0
160 174 0
156 163 0
157 170 0
154 163 0
159 169 0
148 157 0
160 169 0
152 162 0
154 164 0
162 175 0
152 161 0
153 159 0
138 146 0
155 162 0
149 156 0
158 166 0
153 163 0
158 168 0
157 169 0
158 171 0
161 174 0
161 170 0
158 166 0
154 161 0
160 169 0
154 162 0
151 156 0
156 163 0
159 172 0
157 166 0
161 172 0
173 194 0
176 197 0
173 195 0
172 193 0
169 191 0
175 196 0
169 190 0
177 198 0
173 194 0
171 191 0
170 191 0
168 189 0
166 188 0
172 193 0
173 194 0
172 195 0
163 184 0
174 195 0
170 192 0
173 194 0
176 198 0
172 194 0
164 186 0
171 193 0
172 193 0
171 192 0
173 194 0
166 186 0
177 199 0
170 191 0
174 196 0
170 192 0
173 193 0
165 186 0
175 195 0
165 187 0
170 191 0
164 185 0
160 182 0
168 191 0
173 195 0
172 193 0
168 190 0
165 186 0
162 184 0
167 189 0
161 183 0
165 187 0
168 190 0
170 192 0
167 190 0
166 187 0
168 189 0
166 188 0
167 188 0
164 186 0
153 176 0
154 176 0
170 192 0
157 180 0
162 184 0
171 193 0
165 188 0
163 185 0
167 189 0
164 188 0
156 179 0
163 184 0
160 181 0
163 184 0
168 190 0
157 181 0
164 185 0
156 180 0
156 179 0
165 187 0
165 187 0
163 185 0
166 188 0
159 181 0
161 182 0
168 189 0
172 193 0
167 190 0
161 184 0
159 181 0
158 182 0
159 181 0
158 180 0
164 185 0
158 180 0
154 175 0
159 180 0
159 181 0
161 185 0
154 177 0
158 181 0
155 178 0
156 179 0
153 175 0
156 178 0
155 177 0
157 180 0
163 185 0
150 171 0
161 184 0
155 178 0
157 180 0
155 177 0
153 175 0
158 180 0
160 182 0
158 180 0
154 177 0
160 183 0
152 175 0
154 177 0
161 185 0
160 184 0
161 184 0
156 179 0
157 178 0
152 174 0
157 180 0
151 174 0
151 173 0
159 181 0
159 180 0
154 177 0
155 178 0
156 180 0
158 181 0
156 180 0
160 181 0
151 174 0
157 180 0
149 171 0
149 173 0
154 177 0
154 177 0
153 176 0
155 177 0
148 169 0
148 170 0
151 175 0
156 177 0
152 174 0
151 172 0
151 171 0
154 178 0
156 178 0
158 179 0
150 171 0
155 179 0
163 187 0
148 171 0
139 161 0
156 177 0
158 181 0
139 162 0
152 175 0
155 176 0
155 178 0
153 173 0
159 181 0
150 174 0
144 167 0
152 173 0
158 180 0
145 168 0
139 160 0
152 173 0
148 172 0
155 176 0
146 169 0
149 171 0
142 164 0
144 166 0
150 172 0
150 172 0
147 170 0
147 169 0
153 174 0
155 177 0
140 161 0
156 179 0
153 176 0
146 167 0
154 177 0
152 174 0
146 168 0
135 156 0
151 173 0
143 165 0
140 160 0
156 178 0
144 165 0
160 182 0
144 165 0
153 175 0
157 178 0
151 170 0
141 162 0
157 178 0
152 173 0
154 175 0
141 163 0
157 178 0
150 171 0
147 168 0
149 170 0
151 173 0
147 169 0
139 160 0
142 164 0
144 167 0
146 167 0
140 162 0
155 177 0
149 169 0
152 173 0
151 173 0
148 168 0
155 178 0
146 168 0
151 173 0
152 174 0
145 165 0
145 168 0
146 167 0
139 158 0
149 167 0
156 177 0
161 182 0
155 174 0
155 175 0
147 167 0
165 185 0
151 172 0
148 168 0
152 172 0
141 160 0
168 189 0
138 157 0
136 156 0
144 165 0
140 158 0
152 171 0
148 169 0
159 181 0
151 170 0
141 160 0
148 166 0
134 153 0
152 172 0
152 169 0
153 170 0
144 162 0
135 155 0
149 164 0
155 176 0
145 164 0
135 155 0
142 162 0
154 172 0
145 164 0
150 170 0
138 157 0
150 171 0
151 170 0
158 178 0
144 163 0
160 176 0
153 175 0
137 153 0
162 179 0
147 163 0
147 160 0
151 169 0
152 170 0
150 169 0
155 173 0
152 173 0
151 164 0
153 174 0
145 165 0
153 172 0
145 161 0
150 170 0
151 168 0
149 167 0
153 169 0
151 167 0
151 170 0
149 162 0
142 162 0
147 165 0
145 158 0
151 168 0
151 167 0
153 169 0
143 161 0
156 174 0
150 166 0
153 169 0
141 157 0
153 167 0
147 163 0
151 168 0
148 165 0
149 163 0
154 168 0
139 154 0
147 163 0
152 167 0
148 161 0
154 167 0
150 167 0
149 165 0
153 171 0
146 160 0
150 163 0
151 166 0
148 160 0
139 151 0
154 173 0
150 162 0
155 169 0
155 168 0
156 168 0
146 159 0
151 165 0
159 174 0
156 172 0
157 172 0
153 170 0
154 165 0
157 169 0
151 165 0
148 159 0
164 179 0
151 161 0
141 153 0
159 172 0
156 165 0
153 167 0
147 159 0
155 166 0
156 165 0
159 173 0
157 168 0
147 159 0
149 157 0
148 159 0
148 159 0
149 162 0
155 166 0
156 170 0
145 154 0
150 159 0
155 169 0
152 162 0
148 154 0
159 172 0
144 150 0
150 163 0
156 165 0
150 162 0
145 155 0
150 158 0
151 155 0
156 167 0
155 166 0
153 164 0
164 177 0
157 169 0
151 159 0
157 168 0
157 166 0
153 164 0
155 165 0
155 165 0
159 170 0
160 167 0
149 159 0
152 158 0
162 175 0
157 164 0
148 157 0
154 162 0
156 167 0
154 162 0
150 155 0
156 163 0
153 164 0
156 166 0
155 167 0
160 168 0
150 155 0
161 172 0
174 196 0
169 191 0
170 193 0
169 192 0
176 198 0
169 191 0
175 196 0
171 192 0
170 192 0
174 195 0
168 189 0
172 194 0
175 196 0
172 193 0
166 188 0
171 191 0
173 196 0
173 193 0
171 193 0
167 189 0
171 193 0
169 191 0
163 185 0
172 192 0
167 188 0
171 193 0
173 195 0
175 196 0
165 187 0
173 194 0
163 185 0
171 192 0
164 186 0
169 191 0
167 187 0
166 188 0
173 193 0
163 185 0
172 193 0
166 188 0
168 190 0
169 190 0
162 184 0
163 184 0
169 191 0
165 187 0
159 181 0
170 191 0
159 181 0
170 191 0
165 187 0
162 184 0
160 182 0
168 189 0
160 181 0
160 181 0
166 189 0
167 187 0
168 190 0
172 193 0
165 185 0
158 180 0
162 185 0
161 183 0
170 193 0
163 184 0
164 186 0
171 193 0
156 178 0
165 187 0
164 187 0
165 187 0
168 190 0
166 186 0
164 186 0
155 177 0
158 179 0
155 180 0
142 166 0
162 184 0
164 187 0
159 181 0
156 178 0
149 170 0
158 182 0
156 179 0
157 180 0
166 189 0
156 179 0
155 179 0
160 182 0
151 173 0
160 182 0
168 190 0
162 184 0
155 178 0
161 183 0
154 176 0
160 184 0
159 181 0
155 177 0
158 180 0
159 181 0
158 181 0
147 169 0
163 187 0
160 182 0
159 181 0
159 182 0
159 181 0
166 190 0
154 176 0
154 177 0
148 171 0
157 180 0
161 185 0
161 183 0
151 175 0
157 179 0
162 185 0
157 179 0
156 180 0
157 180 0
157 179 0
154 175 0
153 176 0
153 177 0
159 182 0
154 178 0
161 184 0
162 184 0
150 173 0
147 169 0
157 180 0
158 182 0
153 177 0
152 175 0
146 168 0
163 187 0
158 179 0
161 185 0
161 185 0
157 180 0
148 169 0
156 179 0
157 179 0
157 178 0
154 176 0
151 173 0
155 178 0
150 174 0
155 178 0
160 182 0
151 172 0
163 186 0
158 181 0
153 175 0
150 170 0
155 178 0
149 170 0
155 178 0
151 174 0
150 171 0
140 163 0
152 176 0
151 173 0
164 187 0
147 169 0
141 162 0
151 172 0
153 176 0
158 180 0
151 174 0
152 174 0
159 181 0
153 173 0
159 182 0
164 187 0
149 171 0
154 177 0
154 175 0
152 171 0
147 169 0
143 163 0
145 168 0
153 175 0
142 164 0
155 177 0
139 160 0
155 178 0
142 164 0
146 168 0
147 169 0
153 175 0
157 180 0
144 166 0
146 168 0
153 175 0
155 178 0
146 165 0
145 168 0
152 174 0
151 172 0
137 157 0
150 170 0
151 172 0
154 175 0
151 171 0
157 178 0
156 176 0
147 165 0
142 163 0
153 173 0
151 172 0
147 167 0
139 160 0
152 174 0
159 180 0
147 166 0
146 168 0
153 175 0
151 171 0
149 169 0
145 166 0
154 175 0
155 175 0
140 161 0
156 175 0
150 172 0
155 177 0
143 164 0
135 153 0
151 173 0
144 165 0
141 161 0
150 169 0
155 175 0
153 171 0
148 167 0
151 170 0
150 170 0
139 159 0
140 159 0
146 166 0
153 174 0
146 166 0
156 177 0
147 168 0
145 163 0
150 169 0
149 167 0
149 168 0
152 173 0
148 169 0
148 168 0
150 166 0
145 162 0
138 158 0
146 166 0
145 164 0
151 169 0
151 171 0
139 157 0
139 158 0
146 166 0
152 172 0
149 170 0
152 172 0
142 159 0
158 178 0
159 180 0
158 177 0
155 175 0
146 162 0
146 167 0
157 176 0
144 164 0
144 160 0
157 177 0
151 167 0
157 176 0
142 158 0
159 178 0
161 182 0
152 168 0
157 176 0
156 172 0
151 168 0
142 161 0
152 172 0
147 166 0
147 165 0
148 165 0
142 158 0
149 163 0
144 161 0
161 179 0
156 175 0
150 169 0
152 169 0
147 162 0
149 164 0
155 172 0
141 157 0
149 165 0
152 172 0
158 174 0
149 164 0
152 165 0
151 166 0
149 168 0
146 159 0
155 172 0
150 167 0
151 166 0
140 151 0
149 166 0
156 173 0
162 181 0
150 163 0
146 157 0
153 166 0
138 149 0
162 177 0
147 162 0
139 149 0
156 169 0
154 170 0
152 164 0
144 155 0
158 172 0
151 163 0
151 168 0
150 162 0
160 174 0
139 149 0
158 169 0
152 166 0
155 170 0
150 163 0
163 178 0
154 165 0
152 164 0
150 164 0
161 176 0
151 164 0
157 171 0
152 167 0
153 164 0
157 170 0
158 168 0
160 173 0
150 160 0
153 163 0
150 157 0
145 157 0
155 171 0
154 168 0
147 156 0
149 159 0
159 172 0
148 163 0
145 156 0
136 144 0
160 173 0
150 157 0
160 171 0
152 162 0
152 161 0
149 155 0
153 161 0
156 164 0
157 168 0
141 148 0
153 164 0
152 161 0
158 167 0
162 170 0
164 177 0
151 159 0
161 171 0
153 164 0
154 168 0
158 173 0
156 166 0
156 166 0
153 166 0
158 169 0
158 167 0
152 158 0
153 161 0
157 167 0
152 161 0
158 168 0
150 153 0
150 156 0
158 169 0
161 173 0
161 170 0
153 161 0
173 195 0
170 191 0
173 195 0
171 191 0
170 192 0
169 191 0
176 197 0
172 193 0
173 193 0
174 196 0
173 194 0
171 192 0
172 193 0
165 185 0
169 190 0
172 193 0
174 195 0
175 196 0
172 194 0
171 194 0
162 184 0
165 186 0
168 190 0
170 192 0
172 194 0
171 194 0
174 195 0
164 185 0
173 195 0
170 191 0
162 184 0
173 194 0
162 184 0
168 190 0
167 189 0
163 184 0
170 190 0
165 187 0
163 184 0
162 183 0
170 191 0
168 189 0
165 188 0
167 188 0
169 191 0
168 191 0
165 188 0
170 193 0
157 178 0
158 181 0
159 180 0
168 189 0
163 186 0
166 188 0
167 190 0
169 191 0
168 190 0
156 179 0
159 181 0
169 192 0
160 181 0
163 185 0
155 177 0
167 189 0
155 179 0
168 190 0
169 193 0
162 184 0
165 188 0
152 175 0
160 182 0
164 186 0
162 184 0
168 190 0
158 181 0
169 191 0
162 186 0
149 172 0
162 184 0
168 191 0
159 181 0
162 184 0
158 181 0
166 188 0
162 186 0
167 189 0
157 180 0
166 189 0
160 183 0
150 172 0
160 183 0
157 180 0
153 175 0
164 185 0
165 186 0
150 172 0
152 174 0
143 163 0
165 187 0
153 176 0
157 180 0
155 180 0
163 186 0
158 181 0
160 183 0
159 183 0
162 185 0
162 183 0
162 183 0
149 168 0
156 179 0
163 187 0
161 183 0
158 181 0
147 169 0
157 179 0
164 186 0
151 175 0
162 184 0
156 178 0
154 176 0
167 190 0
163 185 0
160 182 0
158 179 0
154 175 0
156 180 0
148 171 0
146 169 0
160 182 0
154 176 0
159 181 0
147 171 0
159 182 0
155 176 0
157 178 0
155 177 0
163 184 0
157 180 0
158 181 0
144 165 0
153 174 0
150 173 0
151 174 0
151 174 0
144 165 0
150 173 0
152 175 0
149 170 0
156 179 0
142 163 0
141 164 0
158 182 0
154 176 0
153 176 0
153 176 0
156 177 0
161 184 0
155 176 0
148 170 0
154 177 0
156 178 0
150 171 0
147 168 0
155 176 0
146 166 0
150 173 0
144 166 0
144 167 0
158 180 0
134 156 0
141 164 0
148 171 0
144 165 0
154 177 0
152 174 0
151 170 0
144 167 0
158 181 0
149 168 0
150 172 0
144 165 0
150 174 0
156 179 0
157 177 0
144 166 0
154 175 0
159 180 0
142 166 0
157 176 0
157 178 0
148 171 0
152 173 0
147 171 0
150 171 0
150 169 0
151 173 0
153 175 0
154 174 0
155 174 0
153 175 0
134 154 0
152 172 0
159 181 0
149 169 0
140 161 0
142 164 0
156 176 0
150 172 0
139 161 0
151 169 0
138 159 0
145 165 0
153 176 0
152 172 0
148 169 0
149 171 0
144 164 0
139 162 0
147 167 0
150 171 0
147 168 0
150 171 0
153 175 0
145 165 0
147 168 0
148 170 0
139 159 0
158 180 0
131 151 0
142 159 0
146 167 0
150 170 0
154 176 0
154 176 0
155 177 0
156 175 0
147 167 0
155 171 0
148 168 0
149 168 0
163 183 0
141 162 0
150 168 0
153 174 0
146 164 0
136 155 0
148 167 0
153 175 0
150 170 0
141 163 0
151 171 0
147 167 0
157 176 0
147 167 0
151 170 0
142 161 0
145 165 0
144 162 0
144 161 0
151 170 0
140 158 0
158 179 0
149 167 0
153 168 0
148 164 0
153 176 0
147 165 0
146 165 0
150 170 0
154 175 0
154 174 0
144 162 0
145 165 0
150 170 0
146 162 0
154 172 0
150 166 0
146 161 0
145 161 0
155 173 0
145 165 0
147 169 0
152 167 0
153 170 0
149 166 0
149 168 0
149 165 0
144 162 0
151 171 0
154 173 0
155 172 0
159 177 0
150 163 0
161 179 0
156 172 0
159 176 0
150 167 0
153 173 0
144 161 0
148 166 0
146 164 0
155 176 0
153 171 0
155 169 0
147 163 0
154 171 0
157 175 0
141 153 0
143 156 0
155 171 0
152 169 0
157 173 0
153 167 0
153 170 0
154 171 0
160 177 0
155 173 0
148 162 0
143 154 0
147 161 0
153 172 0
156 172 0
144 156 0
159 175 0
148 167 0
152 166 0
155 171 0
149 163 0
150 164 0
150 163 0
155 169 0
153 165 0
148 162 0
165 182 0
160 178 0
157 169 0
153 167 0
148 157 0
153 162 0
153 166 0
149 159 0
154 168 0
160 175 0
151 165 0
158 174 0
150 159 0
148 159 0
148 159 0
149 160 0
152 163 0
153 162 0
161 172 0
156 172 0
156 170 0
149 159 0
146 155 0
160 176 0
157 171 0
150 161 0
149 159 0
156 169 0
155 168 0
153 162 0
150 157 0
154 160 0
148 157 0
157 169 0
152 164 0
154 166 0
154 167 0
154 164 0
158 169 0
155 165 0
152 164 0
148 160 0
154 164 0
159 172 0
153 164 0
161 174 0
162 176 0
161 168 0
148 150 0
150 156 0
152 165 0
156 164 0
163 174 0
158 168 0
147 157 0
160 171 0
149 158 0
165 179 0
155 167 0
157 167 0
162 173 0
152 163 0
157 168 0
154 159 0
160 171 0
144 146 0
172 195 0
170 192 0
169 191 0
167 188 0
168 189 0
169 191 0
173 194 0
174 196 0
170 192 0
163 184 0
173 195 0
167 189 0
163 184 0
175 197 0
167 189 0
170 192 0
176 197 0
166 188 0
171 193 0
173 195 0
172 193 0
167 188 0
169 191 0
170 192 0
167 188 0
164 185 0
156 177 0
171 192 0
170 192 0
166 189 0
174 195 0
168 189 0
165 188 0
161 183 0
173 194 0
164 185 0
166 187 0
168 189 0
168 187 0
170 191 0
162 184 0
169 190 0
163 186 0
163 184 0
165 188 0
164 186 0
160 181 0
162 183 0
162 184 0
158 180 0
164 186 0
162 184 0
166 187 0
167 189 0
157 179 0
158 180 0
170 193 0
168 190 0
159 182 0
168 190 0
165 186 0
162 183 0
166 188 0
158 181 0
170 190 0
166 190 0
163 186 0
168 191 0
162 185 0
159 179 0
160 181 0
158 180 0
162 185 0
153 176 0
159 182 0
168 191 0
157 180 0
159 182 0
159 181 0
155 177 0
164 188 0
152 173 0
170 191 0
155 177 0
153 176 0
161 184 0
162 183 0
165 188 0
155 179 0
158 180 0
156 177 0
165 187 0
164 187 0
158 182 0
163 185 0
159 184 0
161 183 0
162 184 0
159 182 0
158 180 0
152 174 0
152 174 0
161 184 0
158 181 0
157 181 0
155 178 0
159 181 0
154 177 0
152 175 0
165 188 0
152 174 0
159 181 0
162 185 0
159 181 0
149 172 0
153 176 0
160 182 0
163 187 0
159 181 0
164 185 0
157 181 0
153 175 0
161 184 0
160 182 0
158 182 0
157 180 0
159 182 0
156 178 0
160 183 0
154 177 0
162 184 0
157 180 0
156 180 0
153 174 0
157 179 0
155 178 0
153 176 0
167 190 0
158 180 0
153 175 0
155 176 0
153 174 0
158 180 0
162 184 0
150 174 0
150 173 0
146 167 0
160 183 0
153 175 0
156 179 0
146 166 0
151 175 0
148 171 0
148 170 0
153 176 0
146 168 0
150 173 0
157 178 0
153 174 0
151 173 0
149 172 0
151 172 0
152 174 0
150 172 0
150 171 0
148 169 0
149 171 0
146 168 0
151 171 0
146 169 0
163 184 0
155 177 0
153 175 0
144 167 0
145 167 0
163 185 0
160 181 0
153 175 0
153 174 0
154 177 0
140 160 0
139 161 0
149 170 0
154 175 0
142 162 0
154 176 0
138 161 0
146 167 0
150 172 0
154 177 0
148 168 0
150 174 0
153 176 0
148 169 0
140 159 0
146 168 0
153 176 0
150 172 0
155 176 0
145 167 0
152 173 0
146 168 0
145 164 0
143 165 0
145 164 0
148 170 0
145 168 0
139 159 0
152 174 0
141 163 0
148 169 0
156 178 0
147 168 0
143 164 0
144 165 0
149 170 0
153 173 0
152 174 0
143 164 0
152 174 0
157 181 0
151 174 0
148 169 0
149 171 0
146 164 0
148 171 0
150 172 0
137 156 0
145 164 0
153 175 0
155 174 0
153 174 0
152 175 0
139 158 0
135 157 0
144 164 0
147 170 0
159 181 0
153 173 0
134 152 0
147 166 0
151 171 0
152 174 0
145 166 0
149 170 0
149 169 0
151 172 0
154 174 0
150 170 0
154 174 0
156 178 0
151 169 0
153 170 0
150 170 0
145 167 0
153 173 0
149 168 0
148 167 0
149 169 0
149 168 0
145 167 0
148 167 0
142 163 0
147 167 0
155 172 0
151 170 0
157 176 0
155 174 0
139 158 0
150 168 0
147 167 0
146 165 0
152 172 0
160 179 0
150 168 0
158 179 0
157 175 0
152 170 0
153 172 0
159 180 0
143 164 0
150 166 0
152 168 0
151 169 0
152 169 0
157 176 0
151 170 0
153 168 0
151 171 0
155 173 0
145 164 0
150 168 0
153 173 0
151 167 0
157 175 0
149 166 0
151 168 0
156 171 0
149 165 0
162 184 0
150 168 0
145 163 0
156 168 0
148 165 0
153 168 0
142 155 0
139 154 0
160 176 0
155 173 0
154 169 0
154 170 0
142 149 0
148 167 0
147 161 0
141 158 0
155 169 0
147 163 0
150 165 0
151 166 0
150 164 0
151 167 0
151 169 0
145 159 0
148 160 0
148 161 0
142 153 0
146 160 0
159 171 0
164 181 0
152 166 0
162 177 0
153 169 0
156 174 0
157 172 0
151 165 0
144 157 0
150 165 0
149 163 0
159 175 0
148 165 0
145 155 0
147 158 0
162 175 0
156 165 0
154 165 0
146 159 0
144 155 0
147 160 0
157 167 0
153 169 0
154 169 0
146 155 0
153 163 0
153 161 0
152 164 0
152 166 0
155 166 0
148 161 0
151 161 0
151 160 0
164 177 0
155 162 0
153 167 0
156 168 0
152 164 0
153 161 0
157 169 0
147 154 0
153 164 0
151 165 0
159 171 0
150 158 0
157 171 0
156 168 0
155 164 0
157 166 0
143 152 0
157 166 0
144 151 0
157 169 0
155 164 0
159 172 0
153 162 0
151 160 0
152 160 0
161 175 0
156 162 0
151 156 0
164 174 0
158 169 0
156 167 0
146 157 0
152 160 0
156 167 0
153 163 0
156 166 0
150 157 0
165 177 0
159 168 0
150 158 0
176 198 0
170 192 0
170 192 0
172 194 0
168 191 0
163 186 0
171 193 0
171 194 0
172 194 0
175 196 0
168 189 0
171 192 0
170 192 0
170 192 0
172 194 0
167 190 0
169 190 0
163 184 0
167 189 0
167 188 0
169 191 0
167 190 0
170 192 0
163 185 0
165 187 0
174 194 0
167 188 0
169 192 0
161 182 0
173 194 0
173 195 0
171 192 0
170 191 0
163 185 0
164 187 0
169 192 0
167 189 0
175 197 0
159 181 0
167 190 0
169 192 0
172 194 0
165 188 0
160 180 0
167 189 0
161 182 0
161 184 0
164 185 0
168 191 0
167 189 0
163 185 0
160 184 0
163 184 0
167 189 0
163 184 0
162 184 0
168 190 0
164 186 0
164 187 0
173 195 0
167 190 0
163 185 0
159 184 0
150 173 0
164 187 0
163 185 0
163 184 0
164 186 0
162 186 0
166 187 0
159 183 0
156 178 0
160 183 0
156 178 0
158 180 0
158 180 0
164 186 0
164 187 0
156 179 0
158 178 0
159 182 0
157 179 0
153 176 0
162 184 0
157 179 0
156 179 0
158 182 0
153 176 0
161 183 0
157 179 0
169 191 0
146 168 0
164 187 0
160 183 0
154 177 0
155 179 0
159 180 0
154 177 0
164 185 0
163 186 0
155 177 0
156 179 0
157 181 0
163 185 0
160 183 0
163 187 0
166 188 0
158 179 0
156 179 0
160 182 0
148 170 0
169 192 0
156 178 0
151 173 0
152 175 0
163 184 0
161 183 0
161 182 0
156 178 0
149 173 0
156 177 0
150 174 0
162 185 0
149 173 0
158 179 0
151 174 0
157 180 0
153 175 0
149 172 0
159 182 0
159 183 0
151 174 0
152 175 0
159 182 0
146 168 0
147 169 0
165 188 0
153 176 0
157 180 0
149 172 0
153 176 0
162 185 0
161 183 0
155 177 0
159 183 0
167 188 0
154 174 0
157 180 0
152 174 0
149 172 0
155 178 0
151 173 0
154 177 0
150 172 0
161 184 0
158 181 0
149 172 0
159 181 0
152 174 0
162 185 0
157 179 0
160 181 0
152 174 0
153 176 0
161 183 0
159 181 0
147 168 0
158 180 0
150 171 0
159 182 0
138 157 0
146 168 0
151 173 0
151 173 0
155 177 0
148 171 0
151 173 0
151 172 0
156 178 0
148 170 0
147 169 0
155 176 0
155 177 0
145 166 0
152 174 0
153 175 0
152 174 0
148 170 0
146 167 0
145 167 0
157 179 0
144 166 0
152 175 0
135 156 0
147 170 0
138 159 0
138 158 0
146 166 0
156 178 0
141 163 0
154 175 0
146 165 0
147 169 0
145 166 0
151 174 0
154 176 0
153 175 0
159 179 0
154 177 0
152 173 0
142 160 0
149 169 0
149 169 0
155 178 0
144 167 0
153 173 0
146 164 0
142 162 0
145 166 0
137 157 0
142 161 0
151 171 0
140 161 0
149 171 0
146 166 0
148 168 0
154 175 0
148 170 0
153 172 0
152 171 0
150 168 0
149 169 0
156 175 0
149 166 0
145 166 0
144 163 0
148 167 0
150 169 0
151 174 0
150 171 0
147 166 0
161 183 0
155 175 0
161 182 0
155 176 0
157 175 0
146 165 0
148 169 0
145 165 0
147 168 0
150 170 0
145 161 0
158 176 0
154 176 0
145 165 0
152 170 0
145 166 0
157 176 0
142 159 0
147 167 0
144 161 0
159 179 0
141 159 0
154 172 0
159 180 0
146 166 0
153 173 0
143 161 0
140 161 0
147 165 0
140 156 0
159 176 0
153 171 0
153 174 0
144 163 0
152 171 0
146 165 0
139 154 0
148 166 0
149 169 0
153 174 0
148 166 0
153 172 0
151 170 0
143 160 0
145 161 0
147 166 0
152 169 0
160 178 0
149 169 0
151 169 0
151 169 0
151 168 0
152 172 0
143 161 0
146 162 0
134 152 0
146 164 0
161 181 0
159 178 0
148 165 0
154 172 0
149 166 0
145 159 0
156 172 0
156 175 0
147 163 0
146 164 0
157 169 0
162 180 0
154 170 0
154 171 0
156 172 0
138 154 0
156 172 0
142 161 0
156 173 0
153 172 0
141 156 0
152 170 0
161 181 0
150 167 0
152 166 0
147 162 0
152 169 0
151 165 0
151 164 0
156 174 0
159 177 0
145 161 0
155 172 0
150 165 0
141 154 0
152 168 0
156 174 0
145 160 0
156 171 0
145 157 0
149 163 0
160 176 0
155 170 0
158 175 0
150 167 0
152 167 0
157 173 0
149 162 0
148 159 0
150 164 0
154 163 0
156 171 0
146 160 0
154 168 0
155 166 0
154 167 0
159 176 0
149 159 0
153 168 0
143 153 0
155 167 0
160 171 0
159 177 0
165 179 0
156 164 0
157 169 0
158 166 0
155 170 0
149 160 0
147 157 0
155 163 0
155 165 0
157 169 0
151 160 0
160 173 0
161 177 0
161 168 0
161 176 0
162 171 0
157 169 0
160 173 0
162 174 0
157 172 0
159 173 0
162 174 0
159 169 0
150 160 0
158 171 0
165 177 0
154 163 0
158 171 0
156 165 0
150 156 0
157 170 0
157 163 0
151 161 0
161 173 0
154 166 0
169 180 0
159 168 0
161 171 0
154 164 0
173 194 0
171 192 0
173 195 0
169 190 0
167 188 0
166 188 0
175 197 0
171 192 0
173 195 0
170 191 0
170 192 0
172 194 0
176 197 0
173 192 0
168 190 0
169 192 0
178 198 0
173 194 0
170 193 0
166 187 0
169 192 0
172 193 0
165 186 0
165 187 0
170 191 0
161 181 0
159 180 0
163 184 0
167 189 0
172 193 0
169 192 0
173 195 0
170 192 0
175 198 0
164 184 0
164 188 0
168 190 0
171 193 0
170 192 0
169 191 0
168 190 0
163 185 0
167 190 0
160 183 0
164 186 0
164 187 0
168 190 0
165 189 0
175 197 0
171 192 0
162 183 0
166 189 0
154 175 0
162 184 0
168 191 0
170 190 0
162 184 0
164 186 0
168 192 0
166 187 0
160 181 0
161 183 0
166 190 0
159 180 0
162 184 0
160 181 0
161 184 0
164 187 0
162 184 0
162 185 0
166 188 0
164 186 0
167 189 0
162 185 0
164 187 0
157 180 0
156 178 0
160 182 0
159 182 0
164 187 0
160 182 0
163 185 0
164 187 0
164 187 0
160 183 0
161 182 0
168 189 0
155 178 0
158 180 0
158 182 0
159 182 0
162 184 0
156 177 0
156 178 0
159 182 0
155 176 0
155 179 0
153 174 0
165 187 0
152 175 0
162 185 0
154 177 0
165 188 0
153 175 0
160 182 0
165 188 0
158 180 0
142 164 0
159 182 0
161 184 0
150 172 0
162 184 0
161 183 0
159 182 0
158 180 0
156 178 0
156 179 0
159 180 0
163 186 0
157 180 0
146 167 0
162 186 0
153 175 0
163 186 0
164 186 0
151 174 0
161 182 0
158 180 0
153 177 0
150 170 0
157 180 0
157 181 0
165 188 0
154 176 0
165 188 0
150 171 0
156 179 0
148 171 0
151 173 0
142 164 0
161 184 0
155 178 0
163 187 0
152 174 0
158 180 0
157 180 0
147 169 0
157 179 0
157 178 0
156 178 0
146 169 0
152 175 0
146 170 0
158 180 0
151 174 0
147 169 0
151 175 0
162 185 0
147 169 0
148 171 0
152 175 0
150 172 0
148 171 0
158 179 0
157 179 0
159 181 0
154 175 0
155 176 0
156 180 0
143 163 0
148 170 0
158 180 0
144 162 0
144 166 0
150 173 0
153 174 0
151 172 0
148 169 0
152 176 0
157 179 0
145 168 0
152 174 0
160 182 0
146 169 0
152 175 0
137 158 0
159 181 0
156 177 0
143 162 0
145 166 0
139 161 0
147 168 0
153 175 0
149 171 0
166 188 0
156 176 0
149 171 0
142 164 0
142 163 0
148 171 0
150 170 0
146 165 0
145 165 0
140 161 0
155 175 0
146 167 0
145 168 0
149 172 0
138 159 0
150 172 0
145 166 0
151 172 0
143 163 0
144 166 0
147 167 0
149 170 0
159 182 0
141 162 0
143 164 0
153 173 0
143 165 0
144 165 0
153 175 0
161 183 0
137 157 0
146 165 0
142 164 0
138 159 0
149 168 0
151 172 0
153 173 0
146 168 0
144 164 0
158 179 0
145 167 0
148 168 0
148 169 0
163 183 0
149 170 0
151 172 0
135 155 0
150 172 0
156 174 0
155 176 0
159 180 0
149 170 0
161 182 0
142 162 0
152 173 0
154 175 0
154 175 0
147 167 0
153 173 0
145 164 0
148 168 0
143 161 0
154 174 0
151 169 0
146 165 0
147 167 0
148 169 0
153 173 0
157 178 0
153 174 0
151 171 0
146 164 0
155 177 0
148 167 0
147 165 0
151 171 0
144 163 0
160 184 0
148 167 0
148 166 0
155 173 0
152 173 0
150 170 0
146 165 0
153 172 0
161 182 0
143 162 0
152 168 0
149 166 0
149 165 0
148 167 0
155 172 0
152 168 0
154 172 0
145 163 0
156 175 0
152 168 0
155 171 0
156 177 0
153 174 0
152 169 0
151 169 0
147 163 0
147 164 0
139 157 0
147 164 0
152 170 0
157 173 0
146 165 0
153 170 0
149 164 0
146 163 0
144 160 0
154 171 0
157 176 0
148 164 0
135 149 0
152 170 0
152 165 0
138 156 0
158 180 0
152 166 0
148 164 0
152 173 0
154 168 0
144 159 0
155 171 0
155 173 0
149 161 0
153 167 0
148 165 0
163 180 0
157 174 0
154 172 0
152 169 0
157 172 0
154 169 0
155 171 0
151 163 0
153 167 0
150 165 0
159 177 0
155 172 0
139 149 0
153 166 0
157 173 0
154 170 0
150 162 0
161 179 0
163 180 0
154 167 0
159 177 0
158 173 0
155 171 0
159 174 0
155 171 0
149 159 0
146 159 0
149 164 0
147 158 0
152 162 0
149 163 0
150 157 0
153 168 0
145 157 0
150 158 0
156 169 0
160 174 0
144 152 0
164 178 0
156 171 0
153 164 0
156 169 0
161 172 0
158 175 0
163 179 0
146 157 0
149 162 0
165 179 0
155 165 0
160 175 0
154 165 0
152 161 0
153 162 0
159 175 0
154 164 0
152 161 0
151 161 0
158 169 0
163 174 0
161 173 0
159 171 0
162 177 0
153 164 0
167 179 0
152 166 0
152 161 0
161 169 0
157 167 0
156 167 0
151 162 0
163 178 0
159 167 0
157 165 0
162 176 0
157 170 0
170 191 0
171 192 0
173 196 0
171 192 0
168 189 0
174 195 0
172 195 0
173 194 0
174 195 0
170 191 0
175 196 0
170 192 0
168 189 0
172 194 0
169 191 0
171 193 0
172 195 0
171 193 0
168 190 0
174 195 0
166 187 0
167 189 0
171 193 0
171 192 0
165 187 0
163 184 0
173 195 0
172 194 0
166 188 0
164 186 0
166 188 0
167 190 0
165 187 0
158 180 0
163 185 0
160 183 0
166 189 0
169 191 0
165 187 0
169 191 0
167 189 0
169 190 0
167 189 0
170 192 0
163 184 0
168 189 0
161 183 0
163 185 0
167 188 0
172 195 0
166 189 0
166 187 0
165 187 0
158 181 0
163 186 0
160 182 0
167 189 0
162 185 0
159 182 0
164 186 0
164 187 0
155 177 0
160 182 0
158 181 0
156 179 0
160 183 0
165 187 0
162 185 0
160 182 0
165 187 0
165 188 0
157 180 0
172 194 0
159 183 0
161 182 0
158 181 0
148 172 0
160 182 0
157 180 0
160 183 0
168 191 0
167 187 0
164 186 0
161 185 0
157 179 0
166 188 0
156 178 0
164 187 0
155 177 0
167 189 0
160 182 0
162 186 0
165 187 0
153 176 0
153 175 0
154 176 0
158 180 0
162 184 0
163 185 0
164 186 0
154 177 0
158 181 0
155 178 0
166 188 0
153 177 0
155 179 0
162 185 0
161 183 0
165 189 0
157 179 0
168 190 0
160 180 0
157 180 0
155 177 0
165 187 0
158 182 0
160 185 0
161 183 0
160 182 0
160 182 0
152 174 0
160 181 0
158 180 0
161 185 0
151 173 0
162 185 0
156 179 0
151 172 0
151 172 0
146 169 0
144 167 0
152 174 0
154 177 0
158 182 0
154 177 0
159 181 0
160 183 0
151 173 0
152 175 0
158 181 0
158 180 0
156 179 0
149 172 0
150 172 0
154 177 0
160 181 0
151 172 0
154 176 0
153 175 0
158 179 0
156 178 0
154 178 0
158 179 0
152 174 0
157 175 0
155 177 0
153 174 0
155 177 0
158 180 0
154 175 0
150 172 0
161 184 0
149 171 0
153 175 0
149 173 0
158 181 0
151 172 0
151 174 0
158 179 0
161 183 0
156 177 0
156 179 0
157 178 0
149 170 0
138 159 0
148 169 0
153 175 0
158 179 0
152 175 0
150 171 0
137 160 0
142 164 0
152 172 0
153 174 0
157 178 0
155 177 0
156 177 0
151 173 0
152 171 0
152 176 0
157 179 0
145 167 0
145 167 0
149 171 0
149 169 0
150 173 0
146 166 0
148 171 0
150 173 0
160 180 0
146 168 0
152 173 0
151 172 0
146 167 0
154 176 0
143 163 0
151 171 0
151 173 0
140 163 0
147 167 0
148 169 0
153 173 0
153 175 0
153 175 0
145 167 0
152 173 0
146 167 0
135 155 0
144 166 0
144 165 0
152 172 0
148 168 0
146 168 0
139 159 0
158 180 0
156 177 0
157 179 0
153 173 0
149 168 0
142 162 0
137 157 0
146 164 0
147 169 0
159 181 0
138 160 0
154 174 0
158 179 0
149 171 0
156 179 0
151 171 0
142 162 0
148 167 0
148 168 0
154 175 0
157 178 0
157 179 0
146 169 0
150 169 0
150 171 0
154 174 0
150 171 0
154 175 0
143 164 0
142 163 0
149 169 0
149 170 0
141 159 0
147 165 0
144 165 0
155 176 0
155 175 0
160 180 0
154 167 0
153 174 0
154 172 0
154 174 0
160 180 0
140 157 0
165 184 0
147 167 0
145 163 0
155 172 0
150 170 0
150 168 0
150 170 0
154 174 0
139 159 0
149 169 0
152 170 0
152 172 0
149 169 0
146 163 0
151 172 0
154 173 0
156 175 0
150 167 0
159 181 0
136 154 0
148 167 0
151 169 0
161 180 0
156 174 0
146 165 0
146 162 0
155 173 0
141 160 0
146 163 0
153 174 0
159 177 0
157 176 0
153 171 0
157 176 0
146 165 0
149 168 0
161 179 0
151 167 0
151 167 0
148 164 0
153 171 0
157 174 0
158 174 0
151 165 0
149 170 0
136 151 0
144 159 0
158 175 0
158 176 0
153 172 0
149 164 0
147 164 0
150 165 0
152 170 0
155 172 0
152 167 0
163 179 0
155 172 0
138 154 0
145 158 0
156 172 0
163 180 0
155 172 0
148 163 0
155 167 0
147 160 0
152 167 0
158 173 0
151 164 0
156 168 0
141 154 0
159 172 0
155 174 0
157 171 0
151 166 0
157 170 0
153 169 0
145 156 0
146 163 0
155 169 0
155 168 0
155 162 0
148 161 0
156 168 0
151 166 0
162 178 0
154 168 0
155 167 0
157 173 0
151 163 0
153 166 0
153 165 0
157 171 0
158 171 0
149 161 0
163 175 0
147 160 0
156 167 0
152 162 0
162 176 0
146 158 0
147 156 0
153 167 0
162 177 0
149 157 0
157 171 0
147 154 0
163 175 0
153 165 0
152 161 0
157 170 0
155 170 0
155 165 0
162 174 0
164 174 0
149 163 0
159 173 0
154 164 0
155 168 0
158 168 0
147 155 0
152 161 0
157 171 0
155 166 0
153 164 0
151 161 0
154 163 0
159 169 0
156 166 0
160 169 0
157 169 0
165 178 0
170 192 0
170 194 0
164 187 0
172 193 0
172 194 0
172 193 0
162 184 0
173 195 0
169 191 0
169 189 0
169 191 0
166 187 0
172 193 0
165 187 0
170 192 0
172 193 0
172 195 0
165 187 0
161 184 0
166 186 0
166 187 0
163 186 0
169 192 0
173 195 0
162 184 0
169 191 0
164 185 0
168 191 0
170 192 0
165 187 0
164 187 0
177 199 0
161 183 0
162 185 0
162 184 0
163 185 0
168 190 0
163 185 0
164 185 0
161 183 0
158 179 0
160 183 0
166 188 0
164 186 0
161 184 0
156 177 0
166 189 0
161 183 0
161 185 0
164 186 0
162 182 0
171 194 0
160 183 0
161 185 0
162 185 0
159 181 0
157 180 0
155 177 0
169 191 0
166 189 0
160 181 0
167 190 0
160 184 0
161 184 0
164 186 0
160 183 0
156 178 0
158 181 0
160 182 0
165 188 0
152 174 0
163 185 0
166 190 0
163 186 0
165 187 0
164 187 0
155 178 0
156 179 0
162 186 0
163 184 0
160 182 0
164 185 0
157 178 0
161 184 0
158 180 0
160 182 0
154 176 0
159 182 0
155 179 0
154 176 0
167 189 0
154 177 0
160 182 0
166 189 0
164 186 0
152 175 0
151 172 0
155 177 0
166 189 0
158 182 0
163 186 0
164 186 0
155 178 0
156 178 0
159 182 0
170 192 0
158 180 0
165 188 0
158 182 0
150 172 0
156 180 0
153 176 0
161 185 0
155 177 0
154 178 0
161 184 0
158 181 0
154 175 0
146 168 0
147 169 0
164 188 0
144 167 0
159 183 0
153 175 0
155 178 0
156 176 0
160 183 0
159 182 0
158 182 0
163 186 0
160 181 0
161 184 0
155 177 0
162 184 0
141 163 0
147 171 0
163 185 0
157 180 0
162 184 0
159 181 0
146 167 0
144 167 0
158 180 0
152 172 0
157 180 0
152 174 0
159 180 0
145 168 0
154 175 0
154 176 0
146 168 0
154 176 0
154 174 0
148 171 0
152 175 0
159 182 0
153 175 0
144 167 0
151 174 0
150 171 0
151 173 0
154 177 0
148 170 0
142 164 0
151 173 0
154 178 0
152 174 0
164 185 0
152 172 0
155 176 0
155 177 0
143 165 0
158 180 0
156 178 0
152 175 0
145 164 0
162 183 0
143 165 0
162 184 0
156 177 0
144 166 0
150 172 0
161 183 0
149 171 0
146 168 0
142 163 0
145 168 0
149 171 0
158 179 0
141 159 0
147 169 0
156 177 0
158 182 0
142 162 0
149 171 0
149 171 0
150 171 0
144 164 0
145 168 0
153 175 0
159 179 0
149 170 0
146 167 0
163 186 0
145 167 0
156 179 0
157 179 0
142 164 0
142 164 0
143 165 0
156 178 0
144 163 0
152 174 0
154 176 0
139 161 0
159 180 0
147 167 0
148 167 0
151 171 0
146 165 0
142 162 0
160 180 0
144 166 0
143 163 0
147 167 0
152 175 0
150 171 0
152 173 0
150 171 0
152 171 0
153 174 0
160 180 0
139 161 0
153 175 0
146 168 0
155 175 0
150 171 0
157 179 0
153 174 0
148 168 0
149 169 0
155 174 0
145 167 0
166 186 0
148 168 0
157 179 0
160 179 0
155 173 0
151 171 0
153 174 0
147 165 0
152 174 0
141 161 0
131 151 0
159 181 0
142 161 0
154 172 0
154 175 0
150 171 0
149 168 0
144 164 0
145 167 0
151 170 0
157 176 0
155 173 0
150 170 0
154 175 0
142 159 0
146 168 0
145 165 0
140 161 0
161 179 0
146 164 0
151 170 0
149 167 0
146 165 0
156 173 0
153 174 0
145 165 0
152 168 0
147 167 0
154 167 0
151 167 0
147 166 0
149 169 0
153 171 0
161 181 0
155 172 0
154 173 0
148 170 0
166 184 0
150 169 0
148 165 0
162 183 0
135 152 0
145 165 0
155 171 0
153 171 0
154 172 0
148 169 0
156 176 0
154 169 0
143 160 0
153 172 0
152 171 0
153 172 0
154 173 0
154 173 0
148 164 0
155 176 0
146 163 0
150 166 0
148 167 0
146 160 0
151 166 0
144 159 0
149 165 0
162 179 0
163 180 0
161 179 0
152 170 0
143 161 0
146 165 0
144 159 0
150 165 0
150 166 0
163 178 0
156 174 0
157 170 0
154 168 0
161 179 0
159 172 0
152 167 0
153 171 0
155 172 0
147 160 0
157 174 0
158 177 0
153 168 0
154 167 0
155 170 0
156 171 0
157 174 0
151 165 0
151 166 0
145 157 0
156 169 0
154 166 0
148 163 0
159 171 0
154 171 0
159 176 0
148 161 0
148 161 0
154 167 0
162 177 0
167 181 0
155 170 0
158 170 0
154 166 0
157 172 0
153 166 0
155 167 0
157 168 0
158 170 0
159 174 0
161 177 0
153 164 0
163 180 0
157 165 0
157 167 0
161 170 0
153 166 0
156 168 0
151 161 0
157 169 0
155 169 0
157 173 0
155 168 0
158 167 0
163 176 0
152 162 0
164 181 0
162 178 0
151 163 0
158 171 0
160 171 0
160 171 0
148 157 0
154 165 0
157 165 0
155 168 0
152 161 0
151 161 0
148 159 0
161 172 0
155 165 0
161 176 0
154 164 0
157 170 0
167 190 0
176 198 0
173 194 0
171 193 0
165 187 0
171 194 0
171 192 0
170 193 0
172 194 0
168 190 0
167 189 0
162 184 0
171 192 0
176 198 0
166 188 0
172 194 0
170 193 0
170 193 0
165 187 0
163 185 0
168 188 0
164 187 0
169 190 0
166 189 0
171 193 0
171 193 0
166 188 0
161 182 0
170 192 0
165 186 0
167 189 0
163 186 0
168 191 0
162 184 0
167 188 0
167 189 0
156 178 0
172 194 0
166 188 0
162 185 0
171 193 0
174 195 0
169 190 0
165 186 0
176 197 0
161 184 0
163 185 0
160 182 0
161 182 0
165 188 0
156 178 0
164 186 0
160 183 0
169 191 0
166 188 0
159 181 0
168 191 0
167 190 0
160 183 0
162 184 0
158 180 0
166 188 0
159 181 0
168 192 0
163 185 0
164 187 0
162 185 0
168 190 0
165 188 0
158 181 0
162 184 0
158 182 0
157 180 0
165 187 0
168 191 0
162 184 0
165 187 0
162 183 0
162 185 0
158 180 0
165 188 0
158 182 0
166 189 0
155 177 0
160 182 0
161 184 0
159 181 0
157 179 0
157 180 0
145 168 0
160 181 0
160 183 0
155 176 0
159 181 0
163 186 0
165 188 0
160 182 0
156 178 0
161 181 0
154 176 0
151 173 0
160 182 0
163 185 0
157 180 0
157 179 0
153 175 0
161 182 0
155 177 0
155 177 0
159 182 0
160 183 0
159 182 0
154 177 0
161 185 0
154 177 0
157 179 0
157 180 0
152 174 0
158 178 0
160 182 0
154 177 0
155 178 0
152 173 0
156 178 0
147 169 0
155 178 0
149 170 0
160 184 0
157 179 0
153 176 0
152 175 0
166 189 0
147 169 0
163 185 0
152 174 0
149 173 0
157 179 0
158 181 0
151 172 0
155 177 0
151 172 0
160 183 0
153 175 0
153 175 0
142 164 0
162 185 0
156 179 0
144 166 0
156 179 0
158 178 0
152 175 0
154 176 0
150 172 0
153 176 0
160 181 0
150 171 0
152 176 0
146 169 0
154 175 0
153 174 0
140 164 0
155 178 0
155 178 0
145 168 0
156 177 0
148 169 0
158 179 0
156 176 0
156 177 0
130 152 0
142 164 0
145 167 0
154 174 0
152 174 0
151 172 0
144 166 0
154 176 0
146 170 0
149 170 0
152 175 0
143 164 0
157 179 0
146 167 0
149 171 0
147 167 0
157 180 0
150 173 0
154 176 0
155 177 0
157 180 0
161 183 0
159 180 0
139 160 0
145 166 0
141 163 0
147 169 0
155 176 0
154 175 0
160 183 0
156 176 0
151 171 0
155 177 0
152 172 0
154 177 0
159 182 0
142 161 0
143 163 0
133 153 0
163 183 0
146 169 0
155 177 0
149 169 0
151 172 0
151 173 0
146 164 0
151 173 0
149 172 0
150 172 0
152 171 0
143 160 0
151 174 0
149 168 0
155 176 0
154 175 0
144 165 0
152 173 0
148 169 0
138 158 0
156 178 0
147 168 0
147 166 0
157 177 0
146 167 0
147 167 0
153 171 0
151 174 0
145 165 0
129 148 0
149 170 0
149 169 0
156 175 0
156 177 0
150 170 0
144 166 0
136 157 0
145 166 0
140 160 0
142 165 0
163 183 0
156 177 0
158 179 0
147 165 0
147 168 0
142 163 0
153 174 0
143 163 0
141 161 0
155 177 0
153 173 0
143 163 0
148 168 0
160 183 0
143 161 0
154 175 0
148 165 0
154 172 0
161 181 0
148 164 0
156 175 0
159 181 0
146 165 0
157 176 0
131 148 0
145 164 0
149 169 0
146 166 0
153 171 0
148 165 0
146 162 0
151 168 0
135 150 0
161 180 0
144 161 0
146 165 0
158 177 0
158 173 0
155 171 0
163 183 0
144 158 0
158 177 0
156 177 0
152 172 0
149 167 0
153 174 0
159 180 0
153 174 0
156 177 0
149 163 0
154 172 0
151 172 0
152 166 0
157 176 0
156 175 0
156 173 0
160 179 0
153 172 0
160 180 0
161 180 0
149 166 0
160 180 0
156 173 0
162 180 0
150 164 0
152 170 0
154 171 0
162 176 0
159 176 0
147 165 0
143 157 0
156 174 0
148 163 0
153 171 0
142 154 0
153 163 0
147 162 0
158 176 0
152 172 0
158 175 0
157 173 0
145 160 0
155 172 0
159 178 0
152 168 0
154 168 0
153 171 0
152 168 0
154 170 0
151 166 0
157 175 0
160 176 0
149 161 0
152 173 0
157 173 0
156 172 0
149 166 0
152 167 0
156 174 0
153 169 0
149 163 0
163 178 0
155 171 0
155 165 0
154 167 0
150 162 0
152 166 0
157 173 0
157 171 0
150 162 0
151 164 0
154 168 0
155 169 0
165 178 0
157 170 0
152 164 0
139 144 0
159 172 0
160 174 0
151 164 0
154 166 0
162 175 0
155 166 0
141 148 0
150 159 0
163 175 0
162 180 0
150 159 0
163 177 0
155 169 0
157 168 0
154 166 0
150 163 0
160 174 0
150 163 0
155 165 0
158 174 0
161 171 0
157 169 0
155 167 0
156 166 0
159 170 0
158 172 0
161 175 0
159 170 0
160 172 0
164 176 0
157 168 0
160 175 0
159 173 0
156 167 0
160 175 0
168 191 0
168 190 0
174 196 0
173 196 0
166 188 0
170 192 0
176 197 0
170 191 0
173 194 0
170 192 0
171 193 0
164 185 0
170 192 0
170 191 0
168 191 0
170 191 0
164 187 0
169 190 0
173 193 0
173 193 0
172 193 0
168 189 0
163 184 0
169 191 0
174 195 0
161 184 0
166 188 0
165 187 0
170 194 0
166 189 0
169 191 0
167 189 0
153 174 0
170 192 0
165 187 0
170 192 0
165 188 0
171 194 0
170 192 0
158 179 0
162 184 0
169 191 0
170 193 0
155 178 0
160 184 0
170 191 0
165 188 0
161 184 0
166 188 0
160 183 0
156 178 0
165 189 0
161 185 0
169 191 0
166 190 0
168 190 0
163 185 0
163 185 0
165 188 0
154 176 0
164 187 0
167 190 0
161 184 0
165 188 0
164 187 0
169 192 0
160 182 0
164 187 0
164 187 0
169 191 0
160 182 0
160 183 0
166 188 0
161 183 0
164 186 0
159 183 0
159 180 0
163 187 0
162 183 0
159 180 0
157 180 0
161 185 0
163 184 0
165 188 0
167 189 0
165 187 0
158 179 0
162 183 0
162 186 0
158 181 0
165 188 0
157 180 0
159 182 0
157 180 0
155 178 0
157 180 0
160 180 0
159 181 0
154 176 0
160 184 0
165 188 0
153 175 0
159 181 0
164 186 0
155 177 0
162 185 0
159 181 0
149 172 0
161 185 0
157 180 0
160 183 0
158 180 0
162 184 0
157 180 0
162 184 0
158 181 0
165 188 0
149 171 0
162 184 0
152 174 0
155 180 0
158 182 0
162 185 0
158 182 0
166 189 0
151 171 0
159 180 0
154 177 0
149 171 0
157 179 0
159 180 0
156 178 0
157 180 0
155 177 0
161 183 0
149 171 0
154 177 0
156 177 0
149 170 0
157 180 0
156 179 0
156 179 0
148 169 0
148 170 0
143 167 0
157 179 0
159 182 0
158 180 0
148 169 0
149 170 0
144 167 0
152 174 0
147 168 0
163 186 0
157 179 0
162 184 0
150 174 0
155 176 0
150 173 0
161 184 0
147 170 0
160 182 0
155 177 0
156 180 0
151 173 0
160 183 0
144 167 0
141 162 0
155 178 0
162 185 0
159 181 0
163 187 0
153 174 0
143 166 0
155 174 0
149 171 0
149 171 0
151 173 0
155 176 0
148 169 0
141 164 0
159 181 0
158 179 0
140 159 0
139 160 0
148 169 0
158 181 0
141 163 0
144 166 0
142 160 0
152 173 0
155 175 0
153 176 0
150 173 0
153 174 0
140 159 0
155 175 0
151 175 0
151 171 0
153 175 0
149 171 0
148 170 0
155 177 0
146 166 0
153 175 0
149 171 0
157 178 0
147 164 0
147 169 0
164 187 0
152 173 0
150 172 0
155 176 0
156 177 0
150 172 0
149 171 0
143 164 0
150 174 0
158 179 0
157 178 0
153 174 0
157 179 0
158 179 0
150 172 0
158 177 0
159 180 0
162 185 0
144 164 0
147 165 0
154 174 0
146 165 0
155 177 0
152 171 0
154 173 0
147 167 0
151 174 0
151 168 0
149 169 0
150 170 0
149 169 0
156 176 0
152 174 0
155 173 0
149 167 0
153 174 0
151 170 0
155 175 0
151 170 0
151 171 0
155 175 0
147 168 0
143 163 0
155 174 0
155 173 0
149 170 0
156 178 0
151 172 0
145 164 0
151 170 0
140 160 0
146 168 0
152 170 0
157 177 0
139 157 0
155 176 0
147 166 0
146 165 0
159 181 0
149 170 0
152 173 0
159 181 0
151 169 0
146 167 0
151 169 0
165 186 0
153 173 0
145 163 0
153 172 0
152 172 0
144 161 0
148 169 0
154 174 0
155 172 0
151 170 0
155 173 0
154 173 0
149 170 0
157 174 0
154 172 0
152 170 0
155 176 0
152 173 0
158 176 0
160 178 0
150 168 0
144 162 0
143 160 0
144 161 0
139 156 0
147 163 0
155 173 0
151 167 0
144 159 0
156 174 0
153 171 0
150 170 0
145 162 0
152 168 0
152 170 0
141 156 0
147 162 0
149 164 0
149 164 0
155 173 0
159 176 0
158 177 0
156 173 0
150 167 0
153 173 0
151 168 0
148 165 0
149 163 0
160 174 0
159 174 0
149 166 0
157 176 0
146 162 0
153 168 0
153 167 0
148 163 0
159 178 0
161 178 0
160 176 0
142 158 0
149 165 0
153 171 0
159 177 0
152 165 0
153 170 0
151 164 0
146 162 0
153 167 0
156 172 0
144 156 0
154 169 0
150 165 0
146 159 0
154 168 0
160 177 0
154 168 0
151 163 0
157 171 0
161 180 0
153 168 0
151 163 0
152 164 0
165 181 0
153 167 0
153 166 0
153 168 0
151 162 0
164 180 0
156 170 0
147 161 0
159 173 0
156 172 0
157 172 0
155 169 0
158 169 0
155 169 0
156 168 0
154 170 0
149 161 0
144 151 0
158 175 0
151 166 0
154 167 0
150 163 0
150 162 0
161 171 0
153 162 0
161 175 0
159 171 0
157 170 0
152 165 0
155 165 0
159 169 0
156 169 0
159 171 0
159 172 0
162 177 0
165 182 0
159 168 0
159 167 0
159 172 0
151 161 0
161 171 0
155 168 0
158 168 0
153 167 0
168 190 0
171 193 0
173 195 0
169 191 0
174 197 0
177 198 0
168 191 0
166 189 0
171 193 0
170 192 0
173 195 0
164 187 0
170 192 0
168 189 0
163 186 0
170 193 0
169 191 0
171 193 0
169 192 0
164 186 0
168 191 0
167 189 0
162 185 0
161 183 0
166 188 0
162 184 0
165 188 0
167 188 0
158 180 0
159 181 0
163 185 0
166 187 0
165 188 0
167 188 0
175 196 0
169 191 0
171 193 0
163 186 0
168 190 0
164 186 0
164 186 0
166 188 0
169 192 0
164 187 0
165 188 0
160 182 0
163 186 0
165 188 0
165 188 0
165 188 0
164 186 0
161 182 0
155 176 0
167 189 0
163 185 0
169 193 0
160 183 0
160 181 0
157 179 0
166 188 0
157 180 0
160 182 0
161 184 0
167 189 0
167 189 0
168 192 0
162 183 0
152 173 0
166 187 0
161 184 0
161 183 0
163 186 0
164 186 0
166 189 0
162 183 0
160 182 0
160 183 0
172 195 0
159 183 0
158 180 0
161 184 0
160 180 0
155 178 0
164 186 0
157 180 0
165 188 0
168 191 0
167 189 0
160 182 0
159 182 0
153 175 0
172 195 0
168 189 0
155 177 0
164 186 0
165 188 0
169 191 0
160 184 0
153 175 0
158 180 0
158 180 0
159 181 0
157 180 0
155 179 0
149 171 0
159 182 0
155 179 0
151 173 0
150 173 0
160 183 0
152 172 0
158 180 0
156 180 0
162 183 0
163 185 0
162 183 0
160 183 0
155 178 0
162 183 0
152 174 0
152 175 0
161 184 0
159 183 0
158 180 0
159 181 0
153 177 0
154 178 0
150 172 0
155 176 0
161 183 0
157 181 0
159 183 0
149 172 0
158 181 0
157 181 0
159 183 0
163 187 0
152 174 0
151 173 0
155 178 0
150 172 0
155 178 0
150 173 0
156 178 0
157 180 0
152 175 0
149 172 0
147 168 0
156 178 0
151 174 0
158 181 0
160 183 0
158 180 0
151 173 0
152 175 0
155 176 0
151 174 0
158 179 0
152 174 0
147 169 0
156 180 0
154 176 0
152 173 0
163 186 0
158 180 0
148 170 0
160 183 0
148 170 0
152 175 0
157 179 0
143 165 0
156 176 0
157 179 0
161 184 0
149 171 0
156 178 0
138 160 0
151 173 0
143 164 0
151 173 0
148 171 0
162 186 0
156 178 0
156 179 0
156 177 0
154 177 0
148 171 0
161 183 0
158 180 0
154 177 0
157 180 0
148 168 0
147 169 0
143 165 0
155 178 0
153 175 0
149 172 0
156 178 0
162 185 0
156 176 0
138 160 0
156 177 0
155 178 0
160 183 0
149 169 0
153 175 0
147 166 0
154 175 0
153 175 0
158 178 0
154 176 0
140 162 0
146 166 0
141 160 0
154 176 0
154 176 0
149 170 0
157 178 0
157 180 0
159 181 0
145 163 0
153 175 0
152 174 0
148 168 0
139 159 0
138 158 0
149 171 0
150 172 0
143 166 0
147 170 0
143 164 0
147 168 0
156 176 0
153 174 0
144 166 0
142 161 0
149 170 0
142 160 0
144 164 0
147 166 0
156 178 0
143 161 0
152 170 0
146 165 0
144 165 0
146 166 0
146 168 0
155 175 0
145 162 0
151 172 0
144 164 0
149 167 0
152 173 0
146 163 0
155 175 0
146 167 0
150 170 0
145 162 0
157 177 0
143 164 0
160 178 0
158 176 0
152 172 0
149 169 0
140 159 0
155 177 0
151 172 0
154 173 0
156 177 0
148 167 0
153 172 0
151 172 0
158 178 0
157 174 0
149 169 0
157 177 0
163 183 0
152 173 0
154 175 0
150 170 0
151 167 0
157 177 0
148 168 0
156 177 0
158 178 0
159 181 0
153 169 0
154 173 0
148 167 0
156 176 0
148 163 0
152 173 0
155 176 0
150 169 0
152 173 0
144 161 0
152 169 0
155 173 0
153 173 0
157 174 0
151 166 0
156 173 0
155 177 0
154 172 0
153 174 0
152 166 0
150 167 0
156 175 0
160 179 0
155 173 0
148 167 0
148 169 0
147 166 0
154 175 0
154 171 0
156 172 0
158 173 0
160 178 0
152 171 0
154 172 0
151 170 0
144 162 0
162 178 0
159 175 0
148 163 0
153 172 0
162 178 0
160 176 0
151 167 0
149 165 0
154 171 0
160 178 0
153 170 0
153 169 0
158 177 0
145 160 0
157 173 0
155 172 0
159 172 0
154 164 0
152 164 0
162 181 0
154 169 0
148 164 0
156 170 0
158 173 0
158 172 0
163 182 0
163 181 0
154 166 0
154 171 0
155 168 0
144 157 0
149 162 0
156 172 0
156 169 0
150 163 0
153 169 0
158 175 0
158 173 0
161 176 0
154 170 0
151 167 0
150 167 0
161 177 0
150 162 0
145 158 0
160 172 0
166 178 0
152 164 0
151 166 0
153 166 0
151 160 0
161 178 0
152 165 0
154 164 0
153 167 0
146 157 0
154 166 0
166 183 0
158 173 0
150 162 0
153 165 0
152 165 0
157 169 0
159 173 0
153 167 0
153 164 0
163 179 0
161 173 0
159 172 0
158 171 0
156 171 0
157 172 0
163 177 0
162 175 0
154 164 0
155 166 0
162 176 0
151 161 0
161 183 0
170 191 0
168 190 0
171 191 0
175 196 0
164 185 0
175 197 0
173 195 0
171 193 0
169 191 0
165 187 0
166 189 0
168 190 0
168 191 0
167 188 0
167 189 0
170 192 0
168 189 0
170 192 0
171 193 0
173 194 0
170 192 0
159 181 0
169 192 0
167 190 0
156 178 0
167 189 0
166 188 0
171 193 0
160 182 0
158 181 0
169 192 0
174 196 0
164 185 0
165 188 0
162 185 0
173 195 0
163 185 0
163 185 0
168 190 0
165 189 0
159 181 0
163 186 0
159 183 0
158 181 0
169 192 0
168 191 0
163 185 0
167 189 0
163 184 0
166 189 0
161 185 0
158 179 0
161 184 0
166 188 0
166 188 0
161 183 0
159 182 0
161 183 0
168 191 0
163 184 0
165 186 0
164 187 0
162 185 0
164 186 0
168 192 0
161 182 0
172 194 0
156 178 0
167 189 0
165 187 0
165 189 0
160 182 0
161 184 0
160 183 0
161 184 0
158 180 0
162 186 0
167 191 0
165 187 0
169 192 0
147 169 0
163 184 0
152 175 0
167 190 0
164 185 0
160 183 0
159 183 0
160 183 0
155 177 0
163 186 0
149 170 0
161 185 0
158 180 0
150 173 0
160 184 0
157 180 0
161 184 0
161 185 0
158 181 0
162 183 0
163 185 0
162 183 0
161 185 0
148 172 0
158 180 0
160 182 0
156 178 0
158 179 0
157 179 0
154 177 0
164 188 0
154 176 0
150 173 0
167 188 0
158 181 0
166 187 0
156 179 0
162 183 0
158 181 0
156 179 0
153 175 0
154 177 0
160 182 0
152 174 0
154 175 0
153 175 0
161 185 0
150 173 0
152 174 0
160 183 0
163 185 0
160 182 0
160 183 0
161 183 0
165 187 0
158 183 0
156 177 0
154 176 0
161 182 0
159 181 0
157 179 0
156 179 0
157 180 0
154 176 0
155 179 0
158 181 0
153 176 0
160 183 0
148 171 0
152 173 0
150 174 0
153 175 0
150 172 0
150 173 0
152 174 0
158 181 0
158 178 0
152 173 0
147 169 0
165 187 0
147 169 0
159 180 0
159 180 0
151 172 0
156 179 0
156 178 0
152 176 0
140 161 0
155 175 0
145 168 0
157 178 0
147 170 0
147 169 0
150 174 0
151 174 0
151 173 0
156 179 0
157 180 0
147 170 0
145 166 0
152 173 0
143 164 0
148 170 0
157 180 0
163 184 0
151 173 0
147 169 0
150 171 0
158 182 0
150 174 0
153 175 0
141 163 0
150 170 0
153 175 0
151 171 0
152 172 0
160 184 0
152 175 0
146 168 0
140 161 0
136 157 0
153 175 0
152 172 0
147 168 0
154 175 0
143 163 0
148 169 0
155 177 0
159 180 0
152 174 0
157 181 0
150 170 0
162 183 0
144 166 0
150 172 0
160 181 0
151 170 0
143 166 0
153 174 0
153 174 0
152 171 0
162 183 0
144 163 0
151 172 0
146 166 0
153 174 0
158 178 0
143 166 0
160 181 0
147 168 0
149 166 0
154 175 0
156 176 0
159 181 0
150 171 0
151 170 0
152 175 0
141 161 0
149 170 0
152 173 0
151 171 0
154 175 0
159 180 0
140 159 0
146 164 0
143 165 0
154 175 0
156 178 0
148 166 0
158 178 0
154 174 0
155 176 0
156 174 0
153 170 0
149 170 0
162 185 0
149 168 0
149 171 0
161 183 0
155 175 0
159 180 0
150 169 0
158 179 0
157 178 0
155 176 0
144 163 0
151 170 0
153 172 0
149 169 0
160 179 0
156 177 0
161 181 0
162 184 0
153 172 0
164 183 0
144 163 0
145 164 0
145 162 0
148 168 0
149 171 0
164 185 0
154 173 0
154 173 0
158 177 0
150 169 0
151 171 0
156 178 0
153 172 0
150 168 0
156 174 0
155 172 0
152 168 0
160 179 0
141 160 0
164 180 0
154 171 0
147 165 0
152 173 0
151 172 0
149 166 0
158 176 0
160 176 0
154 173 0
149 167 0
164 180 0
161 179 0
155 173 0
149 167 0
160 180 0
153 173 0
157 175 0
158 175 0
160 177 0
150 164 0
162 179 0
159 175 0
157 175 0
148 165 0
159 174 0
150 167 0
154 172 0
149 164 0
153 169 0
155 173 0
161 177 0
162 180 0
146 161 0
165 180 0
151 168 0
157 175 0
154 173 0
153 168 0
159 175 0
151 166 0
154 169 0
151 169 0
157 176 0
151 167 0
151 168 0
157 173 0
154 166 0
161 178 0
154 169 0
154 170 0
159 176 0
145 160 0
152 169 0
156 177 0
164 183 0
158 174 0
157 174 0
161 179 0
154 168 0
161 177 0
160 178 0
156 171 0
157 172 0
146 159 0
159 173 0
152 167 0
165 182 0
160 176 0
145 156 0
160 174 0
154 167 0
157 172 0
147 157 0
160 173 0
156 170 0
155 170 0
157 171 0
154 167 0
155 164 0
154 164 0
156 169 0
162 174 0
145 154 0
160 173 0
151 167 0
158 170 0
157 165 0
154 169 0
153 163 0
162 177 0
159 174 0
151 158 0
151 160 0
150 162 0
163 176 0
164 177 0
154 169 0
157 172 0
157 170 0
145 153 0
164 180 0
161 172 0
155 166 0
156 168 0
162 177 0
167 190 0
171 195 0
169 191 0
171 193 0
168 190 0
171 194 0
166 189 0
168 190 0
169 191 0
165 187 0
166 189 0
170 192 0
170 192 0
169 191 0
173 195 0
164 186 0
170 192 0
165 186 0
166 187 0
165 188 0
170 193 0
164 186 0
162 185 0
170 191 0
165 188 0
166 189 0
158 180 0
162 185 0
164 187 0
161 184 0
168 190 0
166 189 0
171 193 0
163 185 0
160 183 0
166 189 0
167 189 0
163 186 0
170 192 0
160 182 0
168 191 0
160 183 0
161 184 0
164 186 0
173 194 0
167 190 0
169 191 0
167 189 0
163 187 0
165 187 0
171 193 0
167 188 0
160 183 0
164 187 0
162 186 0
161 183 0
170 192 0
165 186 0
160 181 0
161 183 0
160 182 0
159 183 0
161 182 0
159 181 0
156 178 0
165 188 0
164 187 0
169 193 0
163 186 0
160 181 0
158 179 0
159 182 0
163 186 0
153 176 0
159 181 0
159 182 0
154 176 0
167 190 0
161 182 0
163 185 0
162 186 0
164 186 0
162 184 0
164 186 0
165 187 0
159 181 0
161 183 0
160 183 0
158 182 0
164 187 0
160 183 0
164 186 0
165 188 0
162 183 0
164 188 0
155 178 0
172 194 0
158 181 0
160 184 0
163 185 0
158 182 0
157 180 0
162 184 0
165 187 0
159 181 0
164 187 0
166 190 0
159 182 0
162 185 0
157 179 0
148 172 0
157 179 0
160 181 0
153 176 0
147 169 0
159 182 0
151 174 0
153 176 0
160 183 0
148 171 0
165 187 0
164 185 0
155 178 0
153 175 0
150 173 0
156 179 0
155 178 0
159 182 0
156 179 0
152 175 0
159 183 0
152 175 0
159 181 0
157 180 0
158 181 0
164 186 0
155 178 0
151 174 0
156 179 0
156 178 0
150 172 0
154 176 0
156 178 0
162 184 0
150 171 0
158 181 0
161 184 0
153 176 0
152 174 0
154 177 0
155 178 0
170 193 0
154 175 0
147 169 0
148 170 0
155 176 0
161 184 0
149 171 0
155 176 0
151 172 0
151 173 0
149 171 0
153 177 0
154 176 0
148 170 0
158 181 0
162 185 0
156 178 0
161 184 0
164 186 0
155 179 0
144 165 0
154 176 0
159 182 0
154 174 0
150 171 0
152 174 0
156 177 0
158 180 0
156 178 0
153 176 0
155 178 0
147 168 0
148 170 0
148 169 0
138 160 0
156 177 0
149 170 0
150 168 0
143 165 0
150 172 0
147 166 0
155 177 0
150 171 0
159 181 0
154 177 0
157 179 0
153 176 0
154 175 0
159 182 0
145 167 0
148 170 0
145 166 0
157 178 0
143 167 0
159 182 0
162 183 0
145 165 0
159 181 0
158 180 0
153 175 0
153 174 0
157 180 0
142 162 0
145 166 0
147 169 0
159 182 0
149 172 0
152 175 0
141 163 0
145 164 0
150 171 0
152 171 0
158 179 0
151 171 0
148 167 0
156 177 0
149 171 0
153 175 0
156 178 0
147 169 0
158 180 0
156 175 0
141 162 0
156 179 0
148 168 0
153 173 0
146 167 0
149 168 0
146 167 0
151 171 0
155 178 0
151 171 0
153 171 0
147 168 0
149 168 0
154 175 0
147 167 0
150 168 0
151 171 0
139 157 0
149 170 0
155 175 0
148 167 0
149 170 0
158 180 0
151 170 0
151 171 0
150 171 0
156 175 0
146 167 0
154 173 0
159 180 0
157 177 0
150 171 0
157 173 0
155 176 0
143 163 0
154 171 0
146 164 0
149 170 0
160 180 0
152 171 0
161 183 0
148 165 0
152 171 0
160 180 0
152 172 0
151 171 0
154 175 0
155 174 0
151 171 0
158 179 0
151 169 0
153 174 0
143 165 0
148 167 0
143 157 0
163 185 0
157 178 0
150 169 0
153 170 0
152 170 0
163 181 0
155 176 0
152 172 0
161 180 0
161 182 0
149 168 0
153 174 0
155 172 0
149 167 0
158 174 0
144 162 0
148 162 0
145 163 0
162 183 0
152 170 0
151 168 0
144 161 0
150 170 0
155 172 0
161 180 0
153 171 0
161 176 0
146 160 0
155 173 0
159 177 0
151 170 0
154 172 0
160 177 0
147 160 0
153 170 0
155 171 0
139 156 0
153 169 0
153 170 0
159 177 0
147 161 0
155 174 0
160 179 0
150 165 0
144 157 0
149 167 0
161 180 0
155 173 0
158 176 0
150 162 0
151 167 0
147 161 0
160 180 0
155 167 0
157 171 0
156 172 0
157 173 0
158 174 0
150 166 0
160 178 0
147 160 0
157 171 0
150 163 0
155 171 0
156 171 0
161 177 0
163 178 0
160 180 0
152 167 0
150 163 0
155 172 0
148 163 0
159 174 0
151 166 0
148 164 0
152 163 0
146 160 0
161 177 0
150 160 0
159 176 0
158 173 0
157 173 0
152 164 0
156 171 0
150 165 0
153 163 0
155 167 0
155 168 0
159 173 0
152 164 0
157 170 0
146 155 0
150 158 0
157 172 0
158 173 0
156 168 0
163 176 0
156 171 0
158 166 0
155 167 0
150 163 0
152 164 0
157 169 0
161 173 0
152 165 0
158 171 0
152 165 0
153 168 0
159 176 0
164 180 0
154 164 0
156 167 0
168 190 0
172 195 0
164 186 0
168 190 0
167 189 0
167 190 0
170 192 0
170 192 0
166 187 0
166 188 0
167 191 0
168 191 0
172 194 0
170 191 0
166 188 0
169 192 0
164 186 0
169 192 0
170 191 0
166 187 0
165 188 0
161 182 0
166 188 0
170 192 0
168 190 0
168 190 0
171 193 0
161 182 0
164 186 0
163 186 0
169 190 0
165 186 0
162 184 0
163 186 0
161 183 0
165 189 0
164 186 0
170 192 0
165 188 0
167 190 0
168 190 0
158 181 0
166 187 0
155 177 0
165 186 0
164 186 0
162 186 0
164 186 0
165 187 0
156 180 0
166 189 0
164 187 0
161 183 0
154 176 0
162 186 0
159 183 0
168 191 0
160 183 0
168 190 0
171 193 0
153 174 0
161 184 0
163 187 0
162 185 0
162 187 0
157 180 0
160 182 0
159 181 0
160 183 0
167 189 0
158 181 0
164 186 0
163 186 0
164 187 0
150 172 0
155 179 0
165 187 0
160 183 0
157 181 0
156 178 0
162 185 0
166 189 0
167 189 0
161 184 0
168 189 0
162 185 0
160 185 0
157 179 0
165 187 0
161 181 0
159 183 0
157 180 0
153 174 0
157 178 0
157 181 0
161 184 0
160 183 0
161 185 0
163 186 0
160 184 0
164 187 0
160 183 0
161 182 0
166 189 0
160 184 0
145 167 0
160 183 0
165 187 0
158 181 0
168 191 0
161 183 0
160 184 0
153 176 0
162 185 0
162 185 0
153 177 0
155 179 0
154 176 0
151 172 0
155 177 0
165 188 0
154 176 0
154 177 0
159 180 0
161 184 0
156 178 0
151 173 0
157 179 0
163 185 0
158 180 0
156 179 0
156 178 0
157 180 0
157 179 0
159 183 0
154 177 0
148 171 0
154 176 0
157 180 0
159 182 0
156 178 0
153 175 0
157 180 0
156 178 0
144 165 0
151 175 0
159 181 0
150 172 0
147 170 0
152 175 0
158 182 0
161 185 0
147 171 0
146 167 0
166 190 0
153 177 0
159 180 0
155 176 0
162 186 0
145 166 0
140 162 0
157 179 0
159 182 0
149 170 0
153 172 0
156 178 0
144 166 0
148 169 0
160 183 0
146 167 0
159 181 0
156 178 0
152 173 0
156 179 0
139 161 0
160 181 0
167 188 0
153 175 0
157 179 0
140 160 0
154 175 0
161 186 0
165 187 0
155 178 0
147 169 0
151 173 0
154 178 0
151 174 0
146 167 0
144 166 0
155 178 0
148 168 0
154 177 0
156 179 0
154 176 0
152 174 0
156 179 0
149 169 0
149 170 0
157 176 0
149 170 0
159 181 0
150 171 0
158 179 0
162 184 0
156 180 0
156 178 0
147 168 0
158 179 0
144 163 0
141 162 0
147 169 0
165 188 0
160 182 0
143 164 0
160 181 0
144 166 0
148 170 0
164 185 0
138 161 0
150 171 0
149 171 0
146 168 0
150 171 0
154 172 0
150 172 0
137 160 0
152 171 0
153 174 0
158 180 0
141 160 0
159 179 0
152 173 0
152 170 0
149 170 0
144 164 0
153 175 0
145 167 0
151 168 0
157 180 0
144 161 0
155 176 0
157 178 0
153 173 0
158 175 0
151 171 0
161 182 0
162 184 0
149 169 0
159 181 0
158 174 0
140 160 0
151 169 0
143 162 0
147 167 0
155 176 0
153 174 0
154 174 0
151 170 0
152 171 0
153 173 0
150 168 0
152 171 0
153 174 0
154 177 0
162 181 0
158 179 0
155 175 0
154 176 0
164 183 0
159 181 0
152 172 0
151 170 0
160 179 0
152 173 0
157 180 0
146 165 0
148 166 0
158 180 0
159 179 0
147 166 0
140 160 0
160 180 0
156 174 0
157 174 0
148 166 0
154 173 0
156 174 0
148 168 0
148 164 0
159 178 0
158 179 0
149 165 0
163 183 0
162 184 0
156 173 0
156 176 0
158 175 0
146 165 0
156 174 0
152 173 0
149 166 0
158 177 0
154 173 0
154 171 0
153 172 0
159 175 0
153 169 0
154 174 0
152 172 0
166 188 0
154 172 0
160 180 0
156 169 0
147 166 0
146 166 0
153 173 0
160 179 0
160 178 0
160 180 0
147 161 0
156 169 0
148 164 0
152 171 0
161 179 0
147 165 0
150 167 0
159 178 0
164 183 0
154 173 0
166 184 0
157 173 0
150 168 0
159 174 0
162 180 0
160 177 0
155 174 0
149 160 0
155 172 0
148 159 0
161 179 0
150 166 0
153 167 0
155 172 0
162 176 0
152 168 0
160 177 0
156 174 0
162 179 0
154 171 0
154 168 0
153 170 0
138 154 0
164 182 0
156 173 0
163 181 0
148 165 0
157 173 0
148 162 0
164 183 0
157 173 0
155 173 0
149 166 0
163 176 0
152 164 0
145 162 0
146 159 0
162 180 0
161 177 0
156 170 0
159 171 0
154 168 0
151 159 0
152 163 0
149 163 0
157 172 0
157 174 0
153 164 0
166 185 0
151 166 0
160 175 0
153 167 0
155 169 0
156 170 0
162 174 0
156 169 0
156 167 0
165 181 0
154 169 0
167 182 0
155 168 0
165 180 0
163 175 0
162 174 0
157 171 0
164 180 0
149 159 0
160 171 0
163 172 0
157 170 0
165 187 0
172 195 0
172 194 0
169 190 0
169 192 0
169 191 0
172 196 0
172 194 0
162 185 0
168 190 0
168 190 0
166 189 0
171 192 0
172 195 0
160 182 0
163 186 0
165 187 0
162 186 0
166 189 0
164 185 0
165 188 0
170 192 0
162 185 0
160 183 0
169 191 0
159 182 0
173 196 0
165 188 0
176 198 0
164 186 0
167 191 0
163 185 0
168 190 0
164 186 0
166 189 0
167 191 0
165 188 0
164 187 0
161 183 0
161 183 0
164 186 0
168 191 0
163 184 0
166 188 0
165 187 0
168 190 0
168 190 0
158 181 0
161 184 0
161 183 0
167 189 0
166 188 0
156 179 0
167 190 0
165 188 0
169 190 0
162 186 0
159 181 0
166 188 0
154 178 0
165 187 0
157 179 0
162 184 0
166 189 0
157 178 0
166 189 0
154 177 0
160 184 0
153 176 0
158 180 0
164 186 0
160 184 0
164 188 0
159 182 0
166 189 0
158 181 0
161 184 0
157 180 0
159 180 0
159 182 0
162 186 0
155 178 0
160 183 0
157 179 0
154 175 0
163 185 0
154 177 0
157 181 0
159 181 0
171 194 0
157 182 0
161 184 0
165 187 0
160 184 0
153 176 0
158 182 0
155 178 0
162 184 0
160 184 0
158 181 0
156 179 0
163 185 0
159 182 0
156 178 0
157 180 0
153 175 0
162 185 0
163 186 0
166 189 0
158 181 0
157 179 0
158 181 0
151 174 0
153 177 0
159 182 0
155 177 0
156 180 0
150 172 0
153 174 0
152 175 0
155 179 0
157 179 0
161 184 0
160 183 0
162 185 0
158 180 0
161 185 0
162 184 0
156 178 0
155 178 0
152 175 0
160 183 0
150 172 0
159 182 0
164 187 0
157 180 0
157 180 0
157 180 0
154 177 0
154 176 0
160 181 0
141 164 0
159 181 0
151 174 0
156 178 0
150 172 0
158 180 0
151 173 0
154 176 0
153 175 0
159 182 0
150 172 0
151 173 0
164 187 0
156 181 0
158 182 0
160 183 0
153 175 0
157 180 0
158 182 0
152 174 0
150 170 0
151 173 0
155 177 0
163 186 0
153 176 0
161 184 0
149 171 0
154 177 0
147 171 0
146 169 0
160 183 0
145 168 0
153 175 0
159 181 0
161 183 0
150 170 0
139 162 0
155 178 0
158 180 0
144 166 0
155 177 0
159 181 0
147 170 0
150 173 0
152 173 0
156 179 0
151 173 0
159 180 0
162 184 0
150 173 0
147 168 0
153 175 0
152 175 0
152 172 0
155 176 0
157 178 0
145 168 0
153 173 0
143 164 0
151 171 0
154 176 0
155 176 0
150 171 0
147 167 0
146 168 0
165 186 0
151 172 0
144 166 0
157 176 0
160 182 0
152 175 0
146 166 0
152 173 0
158 180 0
154 174 0
147 167 0
142 162 0
149 169 0
155 179 0
148 169 0
151 170 0
154 177 0
152 173 0
141 163 0
151 172 0
151 172 0
157 178 0
142 164 0
149 172 0
155 177 0
148 170 0
149 171 0
145 167 0
145 166 0
147 168 0
151 170 0
152 173 0
163 185 0
158 181 0
147 169 0
164 185 0
147 167 0
156 177 0
151 172 0
152 171 0
158 179 0
152 173 0
157 174 0
149 170 0
149 170 0
152 171 0
147 167 0
153 173 0
151 173 0
149 171 0
150 173 0
146 167 0
153 174 0
148 166 0
158 179 0
155 177 0
156 173 0
146 165 0
155 176 0
157 177 0
152 169 0
147 169 0
154 175 0
148 168 0
148 168 0
144 162 0
147 167 0
157 177 0
143 161 0
155 173 0
153 173 0
145 165 0
152 173 0
154 172 0
153 173 0
151 172 0
150 170 0
152 170 0
153 171 0
158 178 0
151 169 0
144 165 0
160 181 0
144 164 0
146 162 0
151 170 0
157 177 0
145 163 0
151 171 0
153 171 0
153 173 0
148 166 0
157 176 0
150 168 0
154 172 0
155 173 0
153 171 0
153 169 0
145 161 0
152 173 0
148 164 0
158 177 0
161 176 0
151 170 0
163 181 0
144 161 0
146 163 0
160 177 0
152 170 0
159 176 0
156 176 0
159 174 0
137 157 0
155 173 0
148 163 0
149 166 0
164 184 0
153 172 0
159 178 0
145 164 0
149 164 0
149 165 0
154 169 0
159 176 0
154 172 0
152 169 0
158 179 0
159 175 0
153 170 0
161 180 0
154 172 0
152 169 0
149 166 0
155 171 0
152 167 0
150 163 0
164 180 0
143 154 0
144 158 0
162 180 0
160 177 0
162 178 0
156 173 0
162 180 0
161 177 0
159 175 0
150 163 0
151 163 0
160 176 0
152 168 0
158 174 0
158 175 0
150 163 0
147 162 0
151 165 0
161 177 0
151 165 0
162 180 0
152 164 0
153 164 0
155 172 0
152 165 0
157 169 0
163 173 0
152 166 0
154 165 0
152 163 0
145 157 0
155 169 0
163 176 0
155 166 0
157 173 0
157 173 0
160 176 0
156 167 0
148 158 0
158 170 0
146 156 0
158 171 0
162 177 0
155 169 0
163 178 0
153 163 0
153 165 0
154 164 0
159 173 0
156 170 0
155 164 0
158 170 0
156 172 0
155 166 0
169 182 0
155 164 0
155 171 0
161 184 0
167 190 0
169 191 0
173 194 0
175 198 0
165 186 0
170 192 0
173 194 0
172 195 0
167 189 0
172 194 0
170 194 0
166 189 0
168 190 0
166 188 0
162 184 0
165 189 0
158 181 0
167 189 0
170 192 0
167 188 0
166 188 0
158 181 0
156 177 0
168 190 0
163 186 0
168 191 0
172 193 0
170 192 0
165 187 0
165 187 0
159 182 0
168 190 0
169 192 0
167 190 0
161 182 0
166 189 0
165 188 0
160 183 0
169 191 0
164 188 0
168 190 0
171 194 0
165 188 0
168 189 0
155 177 0
171 194 0
162 186 0
157 179 0
161 184 0
166 188 0
160 182 0
159 182 0
161 184 0
163 188 0
157 179 0
160 183 0
164 187 0
156 179 0
168 191 0
164 186 0
159 183 0
164 187 0
160 184 0
161 185 0
157 180 0
166 188 0
163 187 0
154 177 0
166 190 0
162 186 0
161 183 0
168 190 0
152 176 0
157 180 0
158 181 0
159 181 0
160 183 0
156 179 0
159 181 0
165 187 0
152 177 0
158 180 0
162 184 0
163 187 0
155 179 0
153 176 0
159 181 0
156 180 0
158 183 0
153 175 0
156 178 0
165 188 0
160 182 0
164 188 0
164 185 0
152 175 0
153 177 0
165 187 0
155 179 0
156 178 0
161 183 0
160 183 0
151 174 0
147 170 0
158 181 0
160 182 0
161 184 0
159 183 0
165 188 0
166 190 0
148 170 0
157 180 0
156 179 0
163 185 0
156 179 0
158 181 0
163 186 0
157 179 0
156 178 0
159 182 0
156 179 0
151 174 0
159 181 0
159 182 0
150 173 0
163 185 0
156 179 0
157 180 0
166 189 0
156 178 0
159 182 0
158 181 0
150 170 0
154 177 0
152 174 0
152 173 0
160 183 0
157 178 0
154 177 0
155 178 0
154 174 0
159 180 0
148 170 0
158 182 0
152 174 0
157 178 0
164 187 0
160 182 0
155 178 0
150 171 0
159 184 0
149 172 0
164 188 0
158 179 0
152 173 0
162 183 0
158 181 0
153 174 0
161 181 0
157 179 0
160 183 0
149 172 0
163 188 0
154 178 0
153 174 0
158 181 0
147 170 0
148 171 0
155 178 0
152 175 0
152 175 0
145 167 0
158 181 0
159 181 0
155 178 0
149 171 0
150 173 0
156 181 0
154 177 0
150 172 0
159 181 0
156 179 0
156 180 0
156 176 0
163 182 0
148 170 0
152 173 0
155 178 0
153 175 0
153 174 0
146 168 0
157 178 0
155 177 0
143 163 0
150 173 0
149 169 0
151 174 0
146 169 0
154 176 0
157 176 0
160 182 0
148 170 0
154 174 0
147 171 0
149 171 0
155 175 0
153 172 0
150 172 0
154 175 0
144 165 0
154 176 0
147 170 0
160 182 0
157 179 0
155 175 0
151 173 0
149 170 0
151 172 0
147 169 0
154 176 0
152 174 0
157 179 0
147 169 0
153 172 0
160 182 0
152 173 0
149 167 0
153 175 0
153 175 0
151 173 0
159 183 0
144 165 0
156 176 0
158 177 0
149 166 0
155 178 0
153 174 0
151 171 0
146 168 0
155 177 0
152 171 0
154 174 0
159 181 0
155 177 0
153 174 0
150 171 0
144 164 0
144 164 0
157 181 0
158 177 0
145 165 0
155 175 0
158 178 0
159 179 0
160 179 0
160 181 0
142 165 0
148 167 0
150 170 0
149 170 0
157 178 0
156 175 0
147 166 0
158 178 0
148 169 0
153 174 0
157 177 0
160 181 0
154 176 0
158 179 0
148 168 0
160 180 0
149 169 0
154 171 0
146 166 0
149 168 0
151 172 0
153 173 0
164 184 0
155 178 0
163 183 0
151 170 0
149 168 0
153 170 0
158 175 0
157 175 0
163 183 0
143 163 0
156 177 0
148 167 0
148 168 0
157 176 0
155 175 0
157 181 0
145 164 0
144 162 0
156 176 0
149 170 0
153 173 0
161 181 0
148 164 0
152 168 0
152 170 0
153 170 0
159 176 0
154 173 0
161 182 0
157 175 0
153 171 0
161 181 0
148 165 0
151 169 0
162 181 0
142 159 0
148 166 0
150 165 0
164 183 0
155 175 0
159 179 0
154 170 0
152 169 0
155 173 0
154 174 0
157 176 0
160 181 0
151 165 0
155 172 0
155 173 0
152 170 0
145 162 0
150 167 0
155 172 0
155 169 0
159 178 0
156 177 0
155 173 0
153 171 0
150 163 0
154 174 0
147 162 0
153 167 0
154 167 0
153 168 0
161 180 0
149 167 0
155 171 0
153 166 0
154 166 0
156 174 0
159 174 0
157 174 0
151 162 0
158 173 0
155 171 0
159 177 0
152 164 0
155 171 0
156 169 0
150 163 0
156 167 0
156 171 0
160 175 0
161 175 0
151 162 0
144 158 0
156 172 0
162 177 0
160 174 0
158 175 0
151 164 0
149 163 0
155 171 0
162 180 0
160 174 0
149 164 0
154 168 0
158 173 0
162 176 0
156 173 0
154 167 0
164 179 0
159 174 0
153 169 0
165 183 0
160 173 0
156 172 0
150 162 0
148 162 0
161 173 0
155 167 0
166 180 0
163 177 0
145 158 0
159 173 0
165 178 0
150 164 0
160 175 0
154 164 0
158 174 0
175 197 0
166 188 0
172 194 0
174 196 0
167 189 0
174 195 0
168 191 0
174 196 0
168 191 0
167 188 0
167 190 0
171 192 0
166 189 0
168 191 0
170 192 0
160 183 0
165 188 0
159 181 0
165 186 0
160 182 0
163 185 0
171 193 0
163 186 0
174 195 0
161 183 0
160 183 0
165 188 0
170 193 0
169 191 0
168 191 0
164 186 0
169 192 0
166 190 0
168 190 0
167 190 0
169 190 0
171 193 0
163 184 0
164 186 0
167 188 0
158 181 0
163 187 0
157 180 0
166 189 0
162 183 0
161 184 0
159 182 0
167 190 0
166 190 0
169 190 0
163 186 0
159 181 0
163 186 0
169 192 0
157 180 0
163 187 0
164 187 0
161 184 0
162 185 0
164 187 0
146 170 0
155 179 0
163 185 0
159 182 0
160 183 0
161 184 0
162 185 0
162 186 0
163 187 0
156 179 0
161 184 0
163 186 0
161 183 0
160 183 0
163 186 0
164 187 0
162 184 0
155 178 0
166 190 0
166 189 0
154 176 0
169 192 0
163 187 0
168 191 0
167 191 0
161 185 0
152 177 0
164 186 0
161 183 0
160 182 0
163 185 0
154 176 0
168 192 0
166 188 0
167 188 0
158 182 0
164 188 0
163 184 0
164 187 0
163 185 0
158 179 0
160 182 0
157 179 0
156 181 0
159 180 0
153 175 0
161 184 0
155 178 0
159 182 0
164 187 0
157 181 0
157 182 0
170 193 0
161 185 0
154 176 0
162 185 0
152 174 0
148 171 0
156 179 0
166 188 0
156 180 0
156 178 0
159 183 0
153 177 0
158 180 0
159 182 0
152 176 0
162 185 0
157 179 0
153 175 0
142 165 0
158 181 0
155 176 0
164 186 0
158 180 0
163 187 0
157 178 0
150 173 0
156 180 0
153 173 0
168 191 0
152 174 0
160 181 0
164 187 0
163 185 0
154 174 0
152 174 0
159 181 0
158 178 0
154 178 0
145 166 0
154 177 0
156 179 0
154 177 0
155 179 0
157 179 0
157 181 0
155 179 0
152 173 0
157 180 0
159 181 0
156 179 0
151 175 0
164 187 0
163 186 0
146 168 0
157 180 0
162 185 0
155 176 0
154 176 0
163 185 0
159 181 0
151 172 0
151 171 0
154 176 0
152 172 0
143 167 0
145 165 0
155 176 0
154 174 0
148 170 0
145 167 0
161 183 0
158 182 0
158 181 0
153 175 0
156 178 0
151 173 0
148 170 0
154 175 0
153 177 0
158 180 0
158 179 0
162 184 0
150 173 0
146 168 0
159 180 0
157 178 0
158 181 0
155 176 0
152 173 0
150 173 0
151 173 0
150 172 0
147 166 0
154 176 0
143 166 0
154 177 0
155 177 0
146 166 0
145 166 0
154 177 0
143 163 0
155 179 0
150 171 0
152 174 0
159 179 0
151 175 0
154 175 0
147 168 0
153 173 0
152 172 0
157 180 0
152 173 0
144 165 0
150 170 0
156 177 0
150 169 0
158 178 0
147 169 0
152 172 0
145 165 0
154 177 0
157 178 0
162 182 0
164 187 0
150 171 0
148 169 0
155 176 0
147 167 0
144 168 0
148 167 0
157 177 0
156 177 0
159 179 0
161 182 0
142 163 0
139 160 0
148 167 0
150 173 0
149 169 0
143 165 0
151 169 0
147 168 0
151 172 0
153 173 0
154 173 0
153 172 0
159 180 0
151 173 0
156 174 0
147 166 0
159 179 0
158 178 0
152 173 0
157 178 0
154 173 0
155 177 0
150 171 0
153 173 0
141 160 0
142 159 0
150 169 0
148 168 0
168 190 0
158 175 0
157 175 0
146 165 0
156 179 0
155 175 0
155 175 0
155 176 0
156 178 0
162 182 0
155 175 0
160 182 0
155 175 0
156 174 0
157 174 0
144 161 0
154 172 0
149 169 0
156 175 0
157 177 0
154 173 0
148 163 0
159 179 0
152 168 0
152 168 0
156 172 0
166 188 0
150 171 0
149 166 0
153 171 0
155 175 0
157 177 0
150 165 0
156 175 0
151 171 0
151 169 0
149 166 0
161 182 0
159 178 0
143 163 0
155 173 0
153 172 0
153 171 0
157 176 0
149 169 0
155 173 0
157 177 0
158 177 0
143 156 0
153 169 0
151 167 0
150 162 0
155 175 0
160 179 0
161 182 0
150 165 0
153 171 0
161 176 0
155 175 0
161 180 0
154 171 0
156 172 0
152 167 0
153 170 0
156 172 0
148 166 0
151 168 0
154 173 0
157 175 0
151 166 0
146 162 0
151 167 0
154 172 0
152 166 0
159 174 0
161 178 0
149 167 0
155 171 0
156 174 0
161 178 0
155 168 0
160 176 0
150 164 0
155 172 0
154 170 0
158 175 0
157 170 0
158 174 0
156 171 0
160 175 0
153 170 0
156 174 0
150 162 0
149 163 0
158 173 0
162 176 0
155 169 0
145 156 0
158 170 0
158 175 0
153 171 0
152 164 0
147 160 0
157 170 0
160 175 0
158 172 0
156 170 0
154 168 0
159 173 0
156 171 0
156 169 0
152 167 0
154 168 0
161 176 0
148 163 0
158 174 0
151 168 0
159 173 0
153 163 0
154 167 0
160 176 0
164 178 0
160 170 0
158 171 0
152 163 0
156 165 0
169 191 0
171 194 0
169 191 0
170 192 0
170 192 0
164 187 0
165 188 0
163 186 0
165 187 0
167 190 0
162 183 0
165 188 0
173 194 0
163 187 0
170 193 0
165 189 0
166 189 0
167 189 0
169 192 0
164 188 0
170 194 0
173 197 0
164 187 0
170 191 0
171 194 0
158 181 0
165 188 0
172 193 0
166 189 0
171 193 0
167 190 0
165 188 0
163 186 0
164 188 0
167 190 0
168 190 0
171 193 0
162 185 0
159 182 0
158 179 0
162 183 0
160 183 0
165 188 0
169 190 0
165 187 0
164 186 0
164 185 0
162 186 0
160 183 0
162 186 0
161 182 0
164 187 0
166 189 0
159 181 0
162 185 0
159 181 0
163 187 0
165 187 0
161 185 0
165 189 0
168 191 0
163 187 0
164 186 0
163 187 0
163 186 0
170 192 0
159 181 0
164 187 0
158 182 0
159 181 0
157 180 0
166 189 0
160 183 0
168 190 0
151 175 0
160 183 0
152 174 0
158 180 0
162 185 0
163 187 0
168 191 0
159 181 0
170 193 0
151 172 0
153 176 0
168 191 0
151 175 0
160 183 0
163 188 0
162 186 0
156 178 0
157 181 0
158 181 0
161 183 0
157 179 0
160 183 0
155 176 0
164 186 0
160 182 0
154 177 0
160 184 0
158 181 0
162 185 0
140 161 0
149 170 0
160 183 0
159 182 0
151 173 0
165 189 0
143 166 0
157 180 0
161 184 0
153 176 0
162 185 0
156 178 0
152 173 0
163 185 0
166 190 0
160 183 0
161 184 0
162 185 0
156 178 0
161 184 0
155 176 0
154 176 0
158 181 0
160 182 0
159 182 0
161 183 0
156 178 0
154 177 0
163 185 0
159 182 0
156 178 0
161 181 0
156 179 0
152 176 0
155 178 0
148 170 0
165 188 0
155 177 0
160 183 0
158 182 0
157 181 0
151 172 0
160 183 0
157 180 0
156 177 0
149 171 0
160 183 0
159 182 0
146 166 0
159 180 0
148 171 0
149 172 0
162 186 0
149 170 0
150 172 0
162 185 0
153 174 0
154 176 0
142 162 0
160 182 0
151 171 0
152 175 0
153 175 0
149 171 0
149 170 0
155 179 0
157 180 0
147 171 0
157 180 0
150 172 0
162 183 0
151 175 0
159 181 0
160 183 0
154 177 0
151 175 0
152 174 0
154 176 0
160 183 0
150 172 0
153 175 0
150 173 0
150 172 0
139 159 0
149 171 0
159 183 0
146 167 0
155 177 0
145 168 0
162 182 0
165 189 0
158 181 0
152 173 0
152 176 0
157 180 0
158 180 0
149 169 0
151 174 0
148 167 0
154 175 0
152 174 0
155 176 0
159 179 0
153 174 0
149 169 0
155 174 0
142 162 0
154 175 0
164 186 0
154 175 0
158 180 0
161 185 0
150 172 0
157 179 0
148 171 0
152 175 0
159 181 0
155 177 0
154 176 0
146 168 0
160 179 0
146 169 0
155 175 0
148 170 0
158 179 0
150 170 0
158 180 0
159 182 0
151 173 0
154 175 0
162 185 0
145 168 0
161 181 0
157 178 0
160 183 0
157 178 0
143 164 0
148 166 0
159 181 0
147 169 0
146 165 0
153 176 0
146 166 0
159 179 0
158 181 0
152 172 0
148 169 0
148 168 0
151 171 0
152 171 0
150 172 0
150 170 0
160 178 0
161 183 0
157 178 0
146 166 0
154 173 0
153 174 0
143 161 0
154 175 0
160 182 0
154 174 0
156 177 0
160 179 0
149 170 0
153 173 0
152 172 0
156 175 0
158 180 0
160 179 0
150 173 0
144 165 0
150 168 0
159 175 0
152 172 0
152 171 0
167 189 0
153 171 0
151 171 0
153 173 0
145 163 0
160 175 0
154 174 0
155 178 0
154 175 0
157 178 0
144 164 0
146 165 0
155 174 0
159 176 0
136 154 0
156 174 0
159 180 0
156 176 0
147 167 0
164 185 0
152 170 0
161 181 0
151 168 0
154 172 0
145 164 0
160 183 0
164 182 0
145 160 0
161 181 0
154 174 0
153 174 0
161 179 0
157 174 0
153 171 0
151 169 0
148 167 0
152 169 0
147 163 0
157 176 0
151 170 0
158 177 0
157 175 0
152 171 0
157 178 0
154 172 0
156 171 0
164 179 0
154 173 0
156 176 0
159 175 0
160 178 0
153 171 0
157 173 0
150 168 0
158 175 0
157 176 0
158 175 0
150 167 0
158 175 0
160 179 0
154 168 0
156 173 0
155 173 0
161 177 0
149 163 0
145 159 0
151 166 0
156 172 0
146 157 0
161 177 0
157 177 0
151 167 0
158 173 0
160 177 0
156 170 0
162 179 0
153 167 0
154 168 0
143 157 0
156 170 0
166 184 0
150 163 0
160 178 0
146 162 0
164 182 0
159 175 0
161 174 0
153 166 0
151 167 0
152 168 0
156 169 0
148 160 0
159 172 0
152 163 0
147 163 0
154 165 0
151 164 0
155 167 0
161 171 0
154 168 0
157 170 0
156 172 0
157 174 0
160 170 0
156 167 0
156 166 0
157 171 0
156 168 0
155 171 0
162 179 0
161 175 0
166 179 0
161 176 0
160 175 0
165 181 0
161 177 0
149 162 0
151 164 0
160 172 0
153 170 0
166 183 0
