P3
400 225
255
204 226 255
204 226 255
204 226 255
204 226 255
204 226 255
204 226 255
204 226 255
204 226 255
204 226 255
204 226 255
204 226 255
204 226 255
204 226 255
204 226 255
204 226 255
203 226 255
203 226 255
203 226 255
203 226 255
203 226 255
203 226 255
203 226 255
203 226 255
203 225 255
203 225 255
203 225 255
203 225 255
203 225 255
203 225 255
203 225 255
203 225 255
203 225 255
202 225 255
202 225 255
202 225 255
202 225 255
202 225 255
202 225 255
202 225 255
202 225 255
202 225 255
202 225 255
202 225 255
202 225 255
202 225 255
202 225 255
202 225 255
202 225 255
201 225 255
201 225 255
201 225 255
201 225 255
201 224 255
201 224 255
201 224 255
201 224 255
201 224 255
201 224 255
201 224 255
201 224 255
201 224 255
201 224 255
201 224 255
200 224 255
200 224 255
200 224 255
200 224 255
200 224 255
200 224 255
200 224 255
200 224 255
200 224 255
200 224 255
200 224 255
200 224 255
200 224 255
200 224 255
200 224 255
199 224 255
199 223 255
199 223 255
199 223 255
199 223 255
199 223 255
199 223 255
199 223 255
199 223 255
199 223 255
199 223 255
199 223 255
199 223 255
199 223 255
198 223 255
198 223 255
198 223 255
198 223 255
198 223 255
198 223 255
198 223 255
198 223 255
198 223 255
198 223 255
198 223 255
198 223 255
198 223 255
198 223 255
197 222 255
197 222 255
197 222 255
197 222 255
197 222 255
197 222 255
197 222 255
197 222 255
197 222 255
197 222 255
197 222 255
197 222 255
197 222 255
197 222 255
197 222 255
196 222 255
196 222 255
196 222 255
196 222 255
196 222 255
196 222 255
196 222 255
196 222 255
196 222 255
196 222 255
196 222 255
196 222 255
196 222 255
196 222 255
196 221 255
195 221 255
195 221 255
195 221 255
195 221 255
195 221 255
195 221 255
195 221 255
195 221 255
195 221 255
195 221 255
195 221 255
195 221 255
195 221 255
195 221 255
195 221 255
195 221 255
195 221 255
195 221 255
195 221 255
194 221 255
194 221 255
194 221 255
194 221 255
194 221 255
194 221 255
194 221 255
194 221 255
194 221 255
194 221 255
194 221 255
194 221 255
194 221 255
194 221 255
194 221 255
194 221 255
194 221 255
194 221 255
194 221 255
194 221 255
194 221 255
194 221 255
194 220 255
194 220 255
194 220 255
194 220 255
194 220 255
194 220 255
194 220 255
194 220 255
194 220 255
194 220 255
193 220 255
193 220 255
193 220 255
193 220 255
193 220 255
193 220 255
193 220 255
193 220 255
193 220 255
193 220 255
193 220 255
193 220 255
193 220 255
193 220 255
193 220 255
193 220 255
193 220 255
193 220 255
193 220 255
193 220 255
193 220 255
193 220 255
193 220 255
193 220 255
193 220 255
193 220 255
193 220 255
194 220 255
194 220 255
194 220 255
194 220 255
194 220 255
194 220 255
194 220 255
194 220 255
194 220 255
194 221 255
194 221 255
194 221 255
194 221 255
194 221 255
194 221 255
194 221 255
194 221 255
194 221 255
194 221 255
194 221 255
194 221 255
194 221 255
194 221 255
194 221 255
194 221 255
194 221 255
194 221 255
194 221 255
194 221 255
194 221 255
194 221 255
195 221 255
195 221 255
195 221 255
195 221 255
195 221 255
195 221 255
195 221 255
195 221 255
195 221 255
195 221 255
195 221 255
195 221 255
195 221 255
195 221 255
195 221 255
195 221 255
195 221 255
195 221 255
195 221 255
196 221 255
196 222 255
196 222 255
196 222 255
196 222 255
196 222 255
196 222 255
196 222 255
196 222 255
196 222 255
196 222 255
196 222 255
196 222 255
196 222 255
196 222 255
197 222 255
197 222 255
197 222 255
197 222 255
197 222 255
197 222 255
197 222 255
197 222 255
197 222 255
197 222 255
197 222 255
197 222 255
197 222 255
197 222 255
197 223 255
198 223 255
198 223 255
198 223 255
198 223 255
198 223 255
198 223 255
198 223 255
198 223 255
198 223 255
198 223 255
198 223 255
198 223 255
198 223 255
198 223 255
199 223 255
199 223 255
199 223 255
199 223 255
199 223 255
199 223 255
199 223 255
199 223 255
199 223 255
199 223 255
199 223 255
199 223 255
199 224 255
199 224 255
199 224 255
200 224 255
200 224 255
200 224 255
200 224 255
200 224 255
200 224 255
200 224 255
200 224 255
200 224 255
200 224 255
200 224 255
200 224 255
200 224 255
200 224 255
201 224 255
201 224 255
201 224 255
201 224 255
201 224 255
201 224 255
201 224 255
201 224 255
201 224 255
201 224 255
201 224 255
201 225 255
201 225 255
201 225 255
201 225 255
201 225 255
202 225 255
202 225 255
202 225 255
202 225 255
202 225 255
202 225 255
202 225 255
202 225 255
202 225 255
202 225 255
202 225 255
202 225 255
202 225 255
202 225 255
202 225 255
203 225 255
203 225 255
203 225 255
203 225 255
203 225 255
203 225 255
203 225 255
203 225 255
203 225 255
203 226 255
203 226 255
203 226 255
203 226 255
203 226 255
203 226 255
203 226 255
204 226 255
204 226 255
204 226 255
204 226 255
204 226 255
204 226 255
204 226 255
204 226 255
204 226 255
204 226 255
204 226 255
204 226 255
204 226 255
204 226 255
204 226 255
204 226 255
204 226 255
204 226 255
204 226 255
204 226 255
204 226 255
204 226 255
204 226 255
204 226 255
204 226 255
204 226 255
204 226 255
204 226 255
204 226 255
204 226 255
204 226 255
204 226 255
204 226 255
203 226 255
203 226 255
203 226 255
203 226 255
203 226 255
203 226 255
203 226 255
203 226 255
203 225 255
203 225 255
203 225 255
203 225 255
203 225 255
203 225 255
203 225 255
203 225 255
203 225 255
202 225 255
202 225 255
202 225 255
202 225 255
202 225 255
202 225 255
202 225 255
202 225 255
202 225 255
202 225 255
202 225 255
202 225 255
202 225 255
202 225 255
202 225 255
202 225 255
201 225 255
201 225 255
201 225 255
201 225 255
201 225 255
201 224 255
201 224 255
201 224 255
201 224 255
201 224 255
201 224 255
201 224 255
201 224 255
201 224 255
201 224 255
200 224 255
200 224 255
200 224 255
200 224 255
200 224 255
200 224 255
200 224 255
200 224 255
200 224 255
200 224 255
200 224 255
200 224 255
200 224 255
200 224 255
200 224 255
199 224 255
199 224 255
199 223 255
199 223 255
199 223 255
199 223 255
199 223 255
199 223 255
199 223 255
199 223 255
199 223 255
199 223 255
199 223 255
199 223 255
198 223 255
198 223 255
198 223 255
198 223 255
198 223 255
198 223 255
198 223 255
198 223 255
198 223 255
198 223 255
198 223 255
198 223 255
198 223 255
198 223 255
197 222 255
197 222 255
197 222 255
197 222 255
197 222 255
197 222 255
197 222 255
197 222 255
197 222 255
197 222 255
197 222 255
197 222 255
197 222 255
197 222 255
197 222 255
196 222 255
196 222 255
196 222 255
196 222 255
196 222 255
196 222 255
196 222 255
196 222 255
196 222 255
196 222 255
196 222 255
196 222 255
196 222 255
196 222 255
196 222 255
196 221 255
195 221 255
195 221 255
195 221 255
195 221 255
195 221 255
195 221 255
195 221 255
195 221 255
195 221 255
195 221 255
195 221 255
195 221 255
195 221 255
195 221 255
195 221 255
195 221 255
195 221 255
195 221 255
195 221 255
194 221 255
194 221 255
194 221 255
194 221 255
194 221 255
194 221 255
194 221 255
194 221 255
194 221 255
194 221 255
194 221 255
194 221 255
194 221 255
194 221 255
194 221 255
194 221 255
194 221 255
194 221 255
194 221 255
194 221 255
194 221 255
194 221 255
194 221 255
194 221 255
194 221 255
194 220 255
194 220 255
194 220 255
194 220 255
194 220 255
194 220 255
194 220 255
194 220 255
194 220 255
194 220 255
194 220 255
194 220 255
194 220 255
194 220 255
194 220 255
194 220 255
194 220 255
193 220 255
194 220 255
194 220 255
194 220 255
194 220 255
194 220 255
194 220 255
194 220 255
194 220 255
194 220 255
194 220 255
194 220 255
194 220 255
194 220 255
194 220 255
194 220 255
194 220 255
194 221 255
194 221 255
194 221 255
194 221 255
194 221 255
194 221 255
194 221 255
194 221 255
194 221 255
194 221 255
194 221 255
194 221 255
194 221 255
194 221 255
194 221 255
194 221 255
194 221 255
194 221 255
194 221 255
194 221 255
194 221 255
194 221 255
194 221 255
194 221 255
194 221 255
195 221 255
195 221 255
195 221 255
195 221 255
195 221 255
195 221 255
195 221 255
195 221 255
195 221 255
195 221 255
195 221 255
195 221 255
195 221 255
195 221 255
195 221 255
195 221 255
195 221 255
195 221 255
195 221 255
196 221 255
196 221 255
196 222 255
196 222 255
196 222 255
196 222 255
196 222 255
196 222 255
196 222 255
196 222 255
196 222 255
196 222 255
196 222 255
196 222 255
196 222 255
196 222 255
197 222 255
197 222 255
197 222 255
197 222 255
197 222 255
197 222 255
197 222 255
197 222 255
197 222 255
197 222 255
197 222 255
197 222 255
197 222 255
197 222 255
197 222 255
198 223 255
198 223 255
198 223 255
198 223 255
198 223 255
198 223 255
198 223 255
198 223 255
198 223 255
198 223 255
198 223 255
198 223 255
198 223 255
198 223 255
199 223 255
199 223 255
199 223 255
199 223 255
199 223 255
199 223 255
199 223 255
199 223 255
199 223 255
199 223 255
199 223 255
199 223 255
199 223 255
199 224 255
199 224 255
200 224 255
200 224 255
200 224 255
200 224 255
200 224 255
200 224 255
200 224 255
200 224 255
200 224 255
200 224 255
200 224 255
200 224 255
200 224 255
200 224 255
201 224 255
201 224 255
201 224 255
201 224 255
201 224 255
201 224 255
201 224 255
201 224 255
201 224 255
201 224 255
201 225 255
201 225 255
201 225 255
201 225 255
201 225 255
202 225 255
202 225 255
202 225 255
202 225 255
202 225 255
202 225 255
202 225 255
202 225 255
202 225 255
202 225 255
202 225 255
202 225 255
202 225 255
202 225 255
202 225 255
203 225 255
203 225 255
203 225 255
203 225 255
203 225 255
203 225 255
203 225 255
203 225 255
203 225 255
203 225 255
203 226 255
203 226 255
203 226 255
203 226 255
203 226 255
203 226 255
203 226 255
203 226 255
204 226 255
204 226 255
204 226 255
204 226 255
204 226 255
204 226 255
204 226 255
204 226 255
204 226 255
204 226 255
204 226 255
204 226 255
204 226 255
204 226 255
204 226 255
204 226 255
204 226 255
205 226 255
205 226 255
204 226 255
204 226 255
204 226 255
204 226 255
204 226 255
204 226 255
204 226 255
204 226 255
204 226 255
204 226 255
204 226 255
204 226 255
204 226 255
204 226 255
204 226 255
204 226 255
204 226 255
204 226 255
203 226 255
203 226 255
203 226 255
203 226 255
203 226 255
203 226 255
203 226 255
203 225 255
203 225 255
203 225 255
203 225 255
203 225 255
203 225 255
203 225 255
203 225 255
203 225 255
203 225 255
202 225 255
202 225 255
202 225 255
202 225 255
202 225 255
202 225 255
202 225 255
202 225 255
202 225 255
202 225 255
202 225 255
202 225 255
202 225 255
202 225 255
202 225 255
201 225 255
201 225 255
201 225 255
201 225 255
201 225 255
201 224 255
201 224 255
201 224 255
201 224 255
201 224 255
201 224 255
201 224 255
201 224 255
201 224 255
201 224 255
200 224 255
200 224 255
200 224 255
200 224 255
200 224 255
200 224 255
200 224 255
200 224 255
200 224 255
200 224 255
200 224 255
200 224 255
200 224 255
200 224 255
200 224 255
199 224 255
199 224 255
199 223 255
199 223 255
199 223 255
199 223 255
199 223 255
199 223 255
199 223 255
199 223 255
199 223 255
199 223 255
199 223 255
199 223 255
198 223 255
198 223 255
198 223 255
198 223 255
198 223 255
198 223 255
198 223 255
198 223 255
198 223 255
198 223 255
198 223 255
198 223 255
198 223 255
198 223 255
197 223 255
197 222 255
197 222 255
197 222 255
197 222 255
197 222 255
197 222 255
197 222 255
197 222 255
197 222 255
197 222 255
197 222 255
197 222 255
197 222 255
197 222 255
196 222 255
196 222 255
196 222 255
196 222 255
196 222 255
196 222 255
196 222 255
196 222 255
196 222 255
196 222 255
196 222 255
196 222 255
196 222 255
196 222 255
196 222 255
196 221 255
196 221 255
195 221 255
195 221 255
195 221 255
195 221 255
195 221 255
195 221 255
195 221 255
195 221 255
195 221 255
195 221 255
195 221 255
195 221 255
195 221 255
195 221 255
195 221 255
195 221 255
195 221 255
195 221 255
195 221 255
195 221 255
194 221 255
194 221 255
194 221 255
194 221 255
194 221 255
194 221 255
194 221 255
194 221 255
194 221 255
194 221 255
194 221 255
194 221 255
194 221 255
194 221 255
194 221 255
194 221 255
194 221 255
194 221 255
194 221 255
194 221 255
194 221 255
194 221 255
194 221 255
194 221 255
194 221 255
194 221 255
194 221 255
194 221 255
194 221 255
194 221 255
194 220 255
194 221 255
194 220 255
194 220 255
194 220 255
194 220 255
194 220 255
194 220 255
194 220 255
194 220 255
194 220 255
194 220 255
194 220 255
194 220 255
194 220 255
194 221 255
194 221 255
194 221 255
194 221 255
194 221 255
194 221 255
194 221 255
194 221 255
194 221 255
194 221 255
194 221 255
194 221 255
194 221 255
194 221 255
194 221 255
194 221 255
194 221 255
194 221 255
194 221 255
194 221 255
194 221 255
194 221 255
194 221 255
194 221 255
194 221 255
194 221 255
194 221 255
194 221 255
194 221 255
194 221 255
194 221 255
195 221 255
195 221 255
195 221 255
195 221 255
195 221 255
195 221 255
195 221 255
195 221 255
195 221 255
195 221 255
195 221 255
195 221 255
195 221 255
195 221 255
195 221 255
195 221 255
195 221 255
195 221 255
195 221 255
195 221 255
196 221 255
196 221 255
196 222 255
196 222 255
196 222 255
196 222 255
196 222 255
196 222 255
196 222 255
196 222 255
196 222 255
196 222 255
196 222 255
196 222 255
196 222 255
196 222 255
196 222 255
197 222 255
197 222 255
197 222 255
197 222 255
197 222 255
197 222 255
197 222 255
197 222 255
197 222 255
197 222 255
197 222 255
197 222 255
197 222 255
197 222 255
197 222 255
198 223 255
198 223 255
198 223 255
198 223 255
198 223 255
198 223 255
198 223 255
198 223 255
198 223 255
198 223 255
198 223 255
198 223 255
198 223 255
198 223 255
199 223 255
199 223 255
199 223 255
199 223 255
199 223 255
199 223 255
199 223 255
199 223 255
199 223 255
199 223 255
199 223 255
199 223 255
199 224 255
199 224 255
200 224 255
200 224 255
200 224 255
200 224 255
200 224 255
200 224 255
200 224 255
200 224 255
200 224 255
200 224 255
200 224 255
200 224 255
200 224 255
200 224 255
200 224 255
201 224 255
201 224 255
201 224 255
201 224 255
201 224 255
201 224 255
201 224 255
201 224 255
201 224 255
201 224 255
201 225 255
201 225 255
201 225 255
201 225 255
201 225 255
202 225 255
202 225 255
202 225 255
202 225 255
202 225 255
202 225 255
202 225 255
202 225 255
202 225 255
202 225 255
202 225 255
202 225 255
202 225 255
202 225 255
202 225 255
202 225 255
203 225 255
203 225 255
203 225 255
203 225 255
203 225 255
203 225 255
203 225 255
203 225 255
203 225 255
203 226 255
203 226 255
203 226 255
203 226 255
203 226 255
203 226 255
203 226 255
204 226 255
204 226 255
204 226 255
204 226 255
204 226 255
204 226 255
204 226 255
204 226 255
204 226 255
204 226 255
204 226 255
204 226 255
204 226 255
204 226 255
204 226 255
204 226 255
204 226 255
204 226 255
205 226 255
205 226 255
205 226 255
205 226 255
205 226 255
205 226 255
204 226 255
204 226 255
204 226 255
204 226 255
204 226 255
204 226 255
204 226 255
204 226 255
204 226 255
204 226 255
204 226 255
204 226 255
204 226 255
204 226 255
204 226 255
204 226 255
204 226 255
204 226 255
203 226 255
203 226 255
203 226 255
203 226 255
203 226 255
203 226 255
203 226 255
203 226 255
203 225 255
203 225 255
203 225 255
203 225 255
203 225 255
203 225 255
203 225 255
203 225 255
203 225 255
202 225 255
202 225 255
202 225 255
202 225 255
202 225 255
202 225 255
202 225 255
202 225 255
202 225 255
202 225 255
202 225 255
202 225 255
202 225 255
202 225 255
202 225 255
201 225 255
201 225 255
201 225 255
201 225 255
201 225 255
201 224 255
201 224 255
201 224 255
201 224 255
201 224 255
201 224 255
201 224 255
201 224 255
201 224 255
201 224 255
200 224 255
200 224 255
200 224 255
200 224 255
200 224 255
200 224 255
200 224 255
200 224 255
200 224 255
200 224 255
200 224 255
200 224 255
200 224 255
200 224 255
200 224 255
199 224 255
199 224 255
199 223 255
199 223 255
199 223 255
199 223 255
199 223 255
199 223 255
199 223 255
199 223 255
199 223 255
199 223 255
199 223 255
199 223 255
198 223 255
198 223 255
198 223 255
198 223 255
198 223 255
198 223 255
198 223 255
198 223 255
198 223 255
198 223 255
198 223 255
198 223 255
198 223 255
198 223 255
197 223 255
197 222 255
197 222 255
197 222 255
197 222 255
197 222 255
197 222 255
197 222 255
197 222 255
197 222 255
197 222 255
197 222 255
197 222 255
197 222 255
197 222 255
196 222 255
196 222 255
196 222 255
196 222 255
196 222 255
196 222 255
196 222 255
196 222 255
196 222 255
196 222 255
196 222 255
196 222 255
196 222 255
196 222 255
196 222 255
196 221 255
196 221 255
195 221 255
195 221 255
195 221 255
195 221 255
195 221 255
195 221 255
195 221 255
195 221 255
195 221 255
195 221 255
195 221 255
195 221 255
195 221 255
195 221 255
195 221 255
195 221 255
195 221 255
195 221 255
195 221 255
195 221 255
195 221 255
194 221 255
194 221 255
194 221 255
194 221 255
194 221 255
194 221 255
194 221 255
194 221 255
194 221 255
194 221 255
194 221 255
194 221 255
194 221 255
194 221 255
194 221 255
194 221 255
194 221 255
194 221 255
194 221 255
194 221 255
194 221 255
194 221 255
194 221 255
194 221 255
194 221 255
194 221 255
194 221 255
194 221 255
194 221 255
194 221 255
194 221 255
194 221 255
194 221 255
194 221 255
194 221 255
194 221 255
194 221 255
194 221 255
194 221 255
194 221 255
194 221 255
194 221 255
194 221 255
194 221 255
194 221 255
194 221 255
194 221 255
194 221 255
194 221 255
194 221 255
194 221 255
194 221 255
194 221 255
194 221 255
194 221 255
194 221 255
194 221 255
194 221 255
194 221 255
194 221 255
194 221 255
194 221 255
194 221 255
194 221 255
194 221 255
194 221 255
194 221 255
194 221 255
194 221 255
194 221 255
195 221 255
195 221 255
195 221 255
195 221 255
195 221 255
195 221 255
195 221 255
195 221 255
195 221 255
195 221 255
195 221 255
195 221 255
195 221 255
195 221 255
195 221 255
195 221 255
195 221 255
195 221 255
195 221 255
195 221 255
195 221 255
196 221 255
196 221 255
196 222 255
196 222 255
196 222 255
196 222 255
196 222 255
196 222 255
196 222 255
196 222 255
196 222 255
196 222 255
196 222 255
196 222 255
196 222 255
196 222 255
196 222 255
197 222 255
197 222 255
197 222 255
197 222 255
197 222 255
197 222 255
197 222 255
197 222 255
197 222 255
197 222 255
197 222 255
197 222 255
197 222 255
197 222 255
197 223 255
198 223 255
198 223 255
198 223 255
198 223 255
198 223 255
198 223 255
198 223 255
198 223 255
198 223 255
198 223 255
198 223 255
198 223 255
198 223 255
198 223 255
199 223 255
199 223 255
199 223 255
199 223 255
199 223 255
199 223 255
199 223 255
199 223 255
199 223 255
199 223 255
199 223 255
199 223 255
199 224 255
199 224 255
200 224 255
200 224 255
200 224 255
200 224 255
200 224 255
200 224 255
200 224 255
200 224 255
200 224 255
200 224 255
200 224 255
200 224 255
200 224 255
200 224 255
200 224 255
201 224 255
201 224 255
201 224 255
201 224 255
201 224 255
201 224 255
201 224 255
201 224 255
201 224 255
201 224 255
201 225 255
201 225 255
201 225 255
201 225 255
202 225 255
202 225 255
202 225 255
202 225 255
202 225 255
202 225 255
202 225 255
202 225 255
202 225 255
202 225 255
202 225 255
202 225 255
202 225 255
202 225 255
202 225 255
202 225 255
203 225 255
203 225 255
203 225 255
203 225 255
203 225 255
203 225 255
203 225 255
203 225 255
203 225 255
203 226 255
203 226 255
203 226 255
203 226 255
203 226 255
203 226 255
203 226 255
204 226 255
204 226 255
204 226 255
204 226 255
204 226 255
204 226 255
204 226 255
204 226 255
204 226 255
204 226 255
204 226 255
204 226 255
204 226 255
204 226 255
204 226 255
204 226 255
204 226 255
204 226 255
205 226 255
205 226 255
205 226 255
205 226 255
205 226 255
205 226 255
205 226 255
205 226 255
205 226 255
205 226 255
205 226 255
205 226 255
204 226 255
204 226 255
204 226 255
204 226 255
204 226 255
204 226 255
204 226 255
204 226 255
204 226 255
204 226 255
204 226 255
204 226 255
204 226 255
204 226 255
204 226 255
204 226 255
204 226 255
203 226 255
203 226 255
203 226 255
203 226 255
203 226 255
203 226 255
203 226 255
203 226 255
203 225 255
203 225 255
203 225 255
203 225 255
203 225 255
203 225 255
203 225 255
203 225 255
203 225 255
202 225 255
202 225 255
202 225 255
202 225 255
202 225 255
202 225 255
202 225 255
202 225 255
202 225 255
202 225 255
202 225 255
202 225 255
202 225 255
202 225 255
202 225 255
201 225 255
201 225 255
201 225 255
201 225 255
201 224 255
201 224 255
201 224 255
201 224 255
201 224 255
201 224 255
201 224 255
201 224 255
201 224 255
201 224 255
201 224 255
200 224 255
200 224 255
200 224 255
200 224 255
200 224 255
200 224 255
200 224 255
200 224 255
200 224 255
200 224 255
200 224 255
200 224 255
200 224 255
200 224 255
200 224 255
199 224 255
199 224 255
199 223 255
199 223 255
199 223 255
199 223 255
199 223 255
199 223 255
199 223 255
199 223 255
199 223 255
199 223 255
199 223 255
199 223 255
198 223 255
198 223 255
198 223 255
198 223 255
198 223 255
198 223 255
198 223 255
198 223 255
198 223 255
198 223 255
198 223 255
198 223 255
198 223 255
198 223 255
197 223 255
197 222 255
197 222 255
197 222 255
197 222 255
197 222 255
197 222 255
197 222 255
197 222 255
197 222 255
197 222 255
197 222 255
197 222 255
197 222 255
197 222 255
197 222 255
196 222 255
196 222 255
196 222 255
196 222 255
196 222 255
196 222 255
196 222 255
196 222 255
196 222 255
196 222 255
196 222 255
196 222 255
196 222 255
196 222 255
196 222 255
196 222 255
196 221 255
195 221 255
195 221 255
195 221 255
195 221 255
195 221 255
195 221 255
195 221 255
195 221 255
195 221 255
195 221 255
195 221 255
195 221 255
195 221 255
195 221 255
195 221 255
195 221 255
195 221 255
195 221 255
195 221 255
195 221 255
195 221 255
195 221 255
195 221 255
194 221 255
194 221 255
194 221 255
194 221 255
194 221 255
194 221 255
194 221 255
194 221 255
194 221 255
194 221 255
194 221 255
194 221 255
194 221 255
194 221 255
194 221 255
194 221 255
194 221 255
194 221 255
194 221 255
194 221 255
194 221 255
194 221 255
194 221 255
194 221 255
194 221 255
194 221 255
194 221 255
194 221 255
194 221 255
194 221 255
194 221 255
194 221 255
194 221 255
194 221 255
194 221 255
194 221 255
194 221 255
194 221 255
194 221 255
194 221 255
194 221 255
194 221 255
194 221 255
194 221 255
194 221 255
194 221 255
194 221 255
194 221 255
194 221 255
194 221 255
194 221 255
194 221 255
194 221 255
194 221 255
194 221 255
194 221 255
194 221 255
194 221 255
194 221 255
194 221 255
194 221 255
195 221 255
195 221 255
195 221 255
195 221 255
195 221 255
195 221 255
195 221 255
195 221 255
195 221 255
195 221 255
195 221 255
195 221 255
195 221 255
195 221 255
195 221 255
195 221 255
195 221 255
195 221 255
195 221 255
195 221 255
195 221 255
195 221 255
196 221 255
196 221 255
196 222 255
196 222 255
196 222 255
196 222 255
196 222 255
196 222 255
196 222 255
196 222 255
196 222 255
196 222 255
196 222 255
196 222 255
196 222 255
196 222 255
196 222 255
197 222 255
197 222 255
197 222 255
197 222 255
197 222 255
197 222 255
197 222 255
197 222 255
197 222 255
197 222 255
197 222 255
197 222 255
197 222 255
197 222 255
197 222 255
197 223 255
198 223 255
198 223 255
198 223 255
198 223 255
198 223 255
198 223 255
198 223 255
198 223 255
198 223 255
198 223 255
198 223 255
198 223 255
198 223 255
198 223 255
199 223 255
199 223 255
199 223 255
199 223 255
199 223 255
199 223 255
199 223 255
199 223 255
199 223 255
199 223 255
199 223 255
199 223 255
199 224 255
199 224 255
200 224 255
200 224 255
200 224 255
200 224 255
200 224 255
200 224 255
200 224 255
200 224 255
200 224 255
200 224 255
200 224 255
200 224 255
200 224 255
200 224 255
200 224 255
201 224 255
201 224 255
201 224 255
201 224 255
201 224 255
201 224 255
201 224 255
201 224 255
201 224 255
201 224 255
201 225 255
201 225 255
201 225 255
201 225 255
202 225 255
202 225 255
202 225 255
202 225 255
202 225 255
202 225 255
202 225 255
202 225 255
202 225 255
202 225 255
202 225 255
202 225 255
202 225 255
202 225 255
202 225 255
202 225 255
203 225 255
203 225 255
203 225 255
203 225 255
203 225 255
203 225 255
203 225 255
203 225 255
203 225 255
203 226 255
203 226 255
203 226 255
203 226 255
203 226 255
203 226 255
203 226 255
203 226 255
204 226 255
204 226 255
204 226 255
204 226 255
204 226 255
204 226 255
204 226 255
204 226 255
204 226 255
204 226 255
204 226 255
204 226 255
204 226 255
204 226 255
204 226 255
204 226 255
204 226 255
204 226 255
205 226 255
205 226 255
205 226 255
205 226 255
205 226 255
205 226 255
205 227 255
205 227 255
205 226 255
205 226 255
205 226 255
205 226 255
205 226 255
205 226 255
205 226 255
204 226 255
204 226 255
204 226 255
204 226 255
204 226 255
204 226 255
204 226 255
204 226 255
204 226 255
204 226 255
204 226 255
204 226 255
204 226 255
204 226 255
204 226 255
204 226 255
204 226 255
204 226 255
203 226 255
203 226 255
203 226 255
203 226 255
203 226 255
203 226 255
203 226 255
203 225 255
203 225 255
203 225 255
203 225 255
203 225 255
203 225 255
203 225 255
203 225 255
203 225 255
202 225 255
202 225 255
202 225 255
202 225 255
202 225 255
202 225 255
202 225 255
202 225 255
202 225 255
202 225 255
202 225 255
202 225 255
202 225 255
202 225 255
202 225 255
202 225 255
201 225 255
201 225 255
201 225 255
201 225 255
201 224 255
201 224 255
201 224 255
201 224 255
201 224 255
201 224 255
201 224 255
201 224 255
201 224 255
201 224 255
200 224 255
200 224 255
200 224 255
200 224 255
200 224 255
200 224 255
200 224 255
200 224 255
200 224 255
200 224 255
200 224 255
200 224 255
200 224 255
200 224 255
200 224 255
199 224 255
199 224 255
199 223 255
199 223 255
199 223 255
199 223 255
199 223 255
199 223 255
199 223 255
199 223 255
199 223 255
199 223 255
199 223 255
199 223 255
198 223 255
198 223 255
198 223 255
198 223 255
198 223 255
198 223 255
198 223 255
198 223 255
198 223 255
198 223 255
198 223 255
198 223 255
198 223 255
198 223 255
198 223 255
197 222 255
197 222 255
197 222 255
197 222 255
197 222 255
197 222 255
197 222 255
197 222 255
197 222 255
197 222 255
197 222 255
197 222 255
197 222 255
197 222 255
197 222 255
196 222 255
196 222 255
196 222 255
196 222 255
196 222 255
196 222 255
196 222 255
196 222 255
196 222 255
196 222 255
196 222 255
196 222 255
196 222 255
196 222 255
196 222 255
196 222 255
196 221 255
195 221 255
195 221 255
195 221 255
195 221 255
195 221 255
195 221 255
195 221 255
195 221 255
195 221 255
195 221 255
195 221 255
195 221 255
195 221 255
195 221 255
195 221 255
195 221 255
195 221 255
195 221 255
195 221 255
195 221 255
195 221 255
195 221 255
195 221 255
195 221 255
194 221 255
194 221 255
194 221 255
194 221 255
194 221 255
194 221 255
194 221 255
194 221 255
194 221 255
194 221 255
194 221 255
194 221 255
194 221 255
194 221 255
194 221 255
194 221 255
194 221 255
194 221 255
194 221 255
194 221 255
194 221 255
194 221 255
194 221 255
194 221 255
194 221 255
194 221 255
194 221 255
194 221 255
194 221 255
194 221 255
194 221 255
194 221 255
194 221 255
194 221 255
194 221 255
194 221 255
194 221 255
194 221 255
194 221 255
194 221 255
194 221 255
194 221 255
194 221 255
194 221 255
194 221 255
194 221 255
194 221 255
194 221 255
194 221 255
194 221 255
194 221 255
194 221 255
194 221 255
194 221 255
195 221 255
195 221 255
195 221 255
195 221 255
195 221 255
195 221 255
195 221 255
195 221 255
195 221 255
195 221 255
195 221 255
195 221 255
195 221 255
195 221 255
195 221 255
195 221 255
195 221 255
195 221 255
195 221 255
195 221 255
195 221 255
195 221 255
195 221 255
195 221 255
196 221 255
196 222 255
196 222 255
196 222 255
196 222 255
196 222 255
196 222 255
196 222 255
196 222 255
196 222 255
196 222 255
196 222 255
196 222 255
196 222 255
196 222 255
196 222 255
196 222 255
197 222 255
197 222 255
197 222 255
197 222 255
197 222 255
197 222 255
197 222 255
197 222 255
197 222 255
197 222 255
197 222 255
197 222 255
197 222 255
197 222 255
197 222 255
198 223 255
198 223 255
198 223 255
198 223 255
198 223 255
198 223 255
198 223 255
198 223 255
198 223 255
198 223 255
198 223 255
198 223 255
198 223 255
198 223 255
198 223 255
199 223 255
199 223 255
199 223 255
199 223 255
199 223 255
199 223 255
199 223 255
199 223 255
199 223 255
199 223 255
199 223 255
199 223 255
199 224 255
199 224 255
200 224 255
200 224 255
200 224 255
200 224 255
200 224 255
200 224 255
200 224 255
200 224 255
200 224 255
200 224 255
200 224 255
200 224 255
200 224 255
200 224 255
201 224 255
201 224 255
201 224 255
201 224 255
201 224 255
201 224 255
201 224 255
201 224 255
201 224 255
201 224 255
201 224 255
201 225 255
201 225 255
201 225 255
201 225 255
202 225 255
202 225 255
202 225 255
202 225 255
202 225 255
202 225 255
202 225 255
202 225 255
202 225 255
202 225 255
202 225 255
202 225 255
202 225 255
202 225 255
202 225 255
202 225 255
203 225 255
203 225 255
203 225 255
203 225 255
203 225 255
203 225 255
203 225 255
203 225 255
203 225 255
203 226 255
203 226 255
203 226 255
203 226 255
203 226 255
203 226 255
203 226 255
204 226 255
204 226 255
204 226 255
204 226 255
204 226 255
204 226 255
204 226 255
204 226 255
204 226 255
204 226 255
204 226 255
204 226 255
204 226 255
204 226 255
204 226 255
204 226 255
204 226 255
204 226 255
205 226 255
205 226 255
205 226 255
205 226 255
205 226 255
205 226 255
205 226 255
205 226 255
205 227 255
205 227 255
205 227 255
205 227 255
205 227 255
205 226 255
205 226 255
205 226 255
205 226 255
205 226 255
205 226 255
205 226 255
205 226 255
204 226 255
204 226 255
204 226 255
204 226 255
204 226 255
204 226 255
204 226 255
204 226 255
204 226 255
204 226 255
204 226 255
204 226 255
204 226 255
204 226 255
204 226 255
204 226 255
204 226 255
203 226 255
203 226 255
203 226 255
203 226 255
203 226 255
203 226 255
203 226 255
203 225 255
203 225 255
203 225 255
203 225 255
203 225 255
203 225 255
203 225 255
203 225 255
203 225 255
203 225 255
202 225 255
202 225 255
202 225 255
202 225 255
202 225 255
202 225 255
202 225 255
202 225 255
202 225 255
202 225 255
202 225 255
202 225 255
202 225 255
202 225 255
202 225 255
201 225 255
201 225 255
201 225 255
201 225 255
201 224 255
201 224 255
201 224 255
201 224 255
201 224 255
201 224 255
201 224 255
201 224 255
201 224 255
201 224 255
201 224 255
200 224 255
200 224 255
200 224 255
200 224 255
200 224 255
200 224 255
200 224 255
200 224 255
200 224 255
200 224 255
200 224 255
200 224 255
200 224 255
200 224 255
199 224 255
199 224 255
199 223 255
199 223 255
199 223 255
199 223 255
199 223 255
199 223 255
199 223 255
199 223 255
199 223 255
199 223 255
199 223 255
199 223 255
198 223 255
198 223 255
198 223 255
198 223 255
198 223 255
198 223 255
198 223 255
198 223 255
198 223 255
198 223 255
198 223 255
198 223 255
198 223 255
198 223 255
198 223 255
197 223 255
197 222 255
197 222 255
197 222 255
197 222 255
197 222 255
197 222 255
197 222 255
197 222 255
197 222 255
197 222 255
197 222 255
197 222 255
197 222 255
197 222 255
197 222 255
196 222 255
196 222 255
196 222 255
196 222 255
196 222 255
196 222 255
196 222 255
196 222 255
196 222 255
196 222 255
196 222 255
196 222 255
196 222 255
196 222 255
196 222 255
196 222 255
196 221 255
195 221 255
195 221 255
195 221 255
195 221 255
195 221 255
195 221 255
195 221 255
195 221 255
195 221 255
195 221 255
195 221 255
195 221 255
195 221 255
195 221 255
195 221 255
195 221 255
195 221 255
195 221 255
195 221 255
195 221 255
195 221 255
195 221 255
195 221 255
195 221 255
195 221 255
195 221 255
195 221 255
194 221 255
194 221 255
194 221 255
194 221 255
194 221 255
194 221 255
194 221 255
194 221 255
194 221 255
194 221 255
194 221 255
194 221 255
194 221 255
194 221 255
194 221 255
194 221 255
194 221 255
194 221 255
194 221 255
194 221 255
194 221 255
194 221 255
194 221 255
194 221 255
194 221 255
194 221 255
194 221 255
194 221 255
194 221 255
194 221 255
194 221 255
194 221 255
194 221 255
194 221 255
194 221 255
194 221 255
194 221 255
194 221 255
194 221 255
194 221 255
194 221 255
194 221 255
195 221 255
195 221 255
195 221 255
195 221 255
195 221 255
195 221 255
195 221 255
195 221 255
195 221 255
195 221 255
195 221 255
195 221 255
195 221 255
195 221 255
195 221 255
195 221 255
195 221 255
195 221 255
195 221 255
195 221 255
195 221 255
195 221 255
195 221 255
195 221 255
195 221 255
195 221 255
195 221 255
196 221 255
196 221 255
196 222 255
196 222 255
196 222 255
196 222 255
196 222 255
196 222 255
196 222 255
196 222 255
196 222 255
196 222 255
196 222 255
196 222 255
196 222 255
196 222 255
196 222 255
196 222 255
197 222 255
197 222 255
197 222 255
197 222 255
197 222 255
197 222 255
197 222 255
197 222 255
197 222 255
197 222 255
197 222 255
197 222 255
197 222 255
197 222 255
197 222 255
198 223 255
198 223 255
198 223 255
198 223 255
198 223 255
198 223 255
198 223 255
198 223 255
198 223 255
198 223 255
198 223 255
198 223 255
198 223 255
198 223 255
198 223 255
199 223 255
199 223 255
199 223 255
199 223 255
199 223 255
199 223 255
199 223 255
199 223 255
199 223 255
199 223 255
199 223 255
199 223 255
199 224 255
199 224 255
200 224 255
200 224 255
200 224 255
200 224 255
200 224 255
200 224 255
200 224 255
200 224 255
200 224 255
200 224 255
200 224 255
200 224 255
200 224 255
200 224 255
201 224 255
201 224 255
201 224 255
201 224 255
201 224 255
201 224 255
201 224 255
201 224 255
201 224 255
201 224 255
201 224 255
201 225 255
201 225 255
201 225 255
201 225 255
202 225 255
202 225 255
202 225 255
202 225 255
202 225 255
202 225 255
202 225 255
202 225 255
202 225 255
202 225 255
202 225 255
202 225 255
202 225 255
202 225 255
202 225 255
202 225 255
203 225 255
203 225 255
203 225 255
203 225 255
203 225 255
203 225 255
203 225 255
203 225 255
203 225 255
203 226 255
203 226 255
203 226 255
203 226 255
203 226 255
203 226 255
203 226 255
204 226 255
204 226 255
204 226 255
204 226 255
204 226 255
204 226 255
204 226 255
204 226 255
204 226 255
204 226 255
204 226 255
204 226 255
204 226 255
204 226 255
204 226 255
204 226 255
204 226 255
205 226 255
205 226 255
205 226 255
205 226 255
205 226 255
205 226 255
205 226 255
205 226 255
205 227 255
205 227 255
205 227 255
205 227 255
205 227 255
205 227 255
205 227 255
205 227 255
205 227 255
205 227 255
205 227 255
205 226 255
205 226 255
205 226 255
205 226 255
205 226 255
205 226 255
205 226 255
204 226 255
204 226 255
204 226 255
204 226 255
204 226 255
204 226 255
204 226 255
204 226 255
204 226 255
204 226 255
204 226 255
204 226 255
204 226 255
204 226 255
204 226 255
204 226 255
204 226 255
203 226 255
203 226 255
203 226 255
203 226 255
203 226 255
203 226 255
203 226 255
203 226 255
203 225 255
203 225 255
203 225 255
203 225 255
203 225 255
203 225 255
203 225 255
203 225 255
203 225 255
202 225 255
202 225 255
202 225 255
202 225 255
202 225 255
202 225 255
202 225 255
202 225 255
202 225 255
202 225 255
202 225 255
202 225 255
202 225 255
202 225 255
202 225 255
201 225 255
201 225 255
201 225 255
201 225 255
201 224 255
201 224 255
201 224 255
201 224 255
201 224 255
201 224 255
201 224 255
201 224 255
201 224 255
201 224 255
201 224 255
200 224 255
200 224 255
200 224 255
200 224 255
200 224 255
200 224 255
200 224 255
200 224 255
200 224 255
200 224 255
200 224 255
200 224 255
200 224 255
200 224 255
199 224 255
199 224 255
199 223 255
199 223 255
199 223 255
199 223 255
199 223 255
199 223 255
199 223 255
199 223 255
199 223 255
199 223 255
199 223 255
199 223 255
199 223 255
198 223 255
198 223 255
198 223 255
198 223 255
198 223 255
198 223 255
198 223 255
198 223 255
198 223 255
198 223 255
198 223 255
198 223 255
198 223 255
198 223 255
197 223 255
197 222 255
197 222 255
197 222 255
197 222 255
197 222 255
197 222 255
197 222 255
197 222 255
197 222 255
197 222 255
197 222 255
197 222 255
197 222 255
197 222 255
197 222 255
196 222 255
196 222 255
196 222 255
196 222 255
196 222 255
196 222 255
196 222 255
196 222 255
196 222 255
196 222 255
196 222 255
196 222 255
196 222 255
196 222 255
196 222 255
196 222 255
196 222 255
196 221 255
195 221 255
195 221 255
195 221 255
195 221 255
195 221 255
195 221 255
195 221 255
195 221 255
195 221 255
195 221 255
195 221 255
195 221 255
195 221 255
195 221 255
195 221 255
195 221 255
195 221 255
195 221 255
195 221 255
195 221 255
195 221 255
195 221 255
195 221 255
195 221 255
195 221 255
195 221 255
195 221 255
195 221 255
195 221 255
195 221 255
195 221 255
194 221 255
194 221 255
194 221 255
194 221 255
194 221 255
194 221 255
194 221 255
194 221 255
194 221 255
194 221 255
194 221 255
194 221 255
194 221 255
194 221 255
194 221 255
194 221 255
194 221 255
194 221 255
194 221 255
194 221 255
194 221 255
194 221 255
194 221 255
194 221 255
194 221 255
194 221 255
194 221 255
194 221 255
195 221 255
195 221 255
195 221 255
195 221 255
195 221 255
195 221 255
195 221 255
195 221 255
195 221 255
195 221 255
195 221 255
195 221 255
195 221 255
195 221 255
195 221 255
195 221 255
195 221 255
195 221 255
195 221 255
195 221 255
195 221 255
195 221 255
195 221 255
195 221 255
195 221 255
195 221 255
195 221 255
195 221 255
195 221 255
195 221 255
195 221 255
196 221 255
196 222 255
196 222 255
196 222 255
196 222 255
196 222 255
196 222 255
196 222 255
196 222 255
196 222 255
196 222 255
196 222 255
196 222 255
196 222 255
196 222 255
196 222 255
196 222 255
196 222 255
196 222 255
197 222 255
197 222 255
197 222 255
197 222 255
197 222 255
197 222 255
197 222 255
197 222 255
197 222 255
197 222 255
197 222 255
197 222 255
197 222 255
197 222 255
197 222 255
198 223 255
198 223 255
198 223 255
198 223 255
198 223 255
198 223 255
198 223 255
198 223 255
198 223 255
198 223 255
198 223 255
198 223 255
198 223 255
198 223 255
198 223 255
199 223 255
199 223 255
199 223 255
199 223 255
199 223 255
199 223 255
199 223 255
199 223 255
199 223 255
199 223 255
199 223 255
199 224 255
199 224 255
199 224 255
200 224 255
200 224 255
200 224 255
200 224 255
200 224 255
200 224 255
200 224 255
200 224 255
200 224 255
200 224 255
200 224 255
200 224 255
200 224 255
200 224 255
201 224 255
201 224 255
201 224 255
201 224 255
201 224 255
201 224 255
201 224 255
201 224 255
201 224 255
201 224 255
201 225 255
201 225 255
201 225 255
201 225 255
201 225 255
202 225 255
202 225 255
202 225 255
202 225 255
202 225 255
202 225 255
202 225 255
202 225 255
202 225 255
202 225 255
202 225 255
202 225 255
202 225 255
202 225 255
202 225 255
203 225 255
203 225 255
203 225 255
203 225 255
203 225 255
203 225 255
203 225 255
203 225 255
203 225 255
203 226 255
203 226 255
203 226 255
203 226 255
203 226 255
203 226 255
203 226 255
203 226 255
204 226 255
204 226 255
204 226 255
204 226 255
204 226 255
204 226 255
204 226 255
204 226 255
204 226 255
204 226 255
204 226 255
204 226 255
204 226 255
204 226 255
204 226 255
204 226 255
204 226 255
205 226 255
205 226 255
205 226 255
205 226 255
205 226 255
205 226 255
205 226 255
205 227 255
205 227 255
205 227 255
205 227 255
205 227 255
205 227 255
205 227 255
205 227 255
205 227 255
205 227 255
205 227 255
205 227 255
205 227 255
205 227 255
205 227 255
205 227 255
205 226 255
205 226 255
205 226 255
205 226 255
205 226 255
205 226 255
205 226 255
204 226 255
204 226 255
204 226 255
204 226 255
204 226 255
204 226 255
204 226 255
204 226 255
204 226 255
204 226 255
204 226 255
204 226 255
204 226 255
204 226 255
204 226 255
204 226 255
204 226 255
203 226 255
203 226 255
203 226 255
203 226 255
203 226 255
203 226 255
203 226 255
203 226 255
203 225 255
203 225 255
203 225 255
203 225 255
203 225 255
203 225 255
203 225 255
203 225 255
203 225 255
202 225 255
202 225 255
202 225 255
202 225 255
202 225 255
202 225 255
202 225 255
202 225 255
202 225 255
202 225 255
202 225 255
202 225 255
202 225 255
202 225 255
202 225 255
201 225 255
201 225 255
201 225 255
201 225 255
201 225 255
201 224 255
201 224 255
201 224 255
201 224 255
201 224 255
201 224 255
201 224 255
201 224 255
201 224 255
201 224 255
200 224 255
200 224 255
200 224 255
200 224 255
200 224 255
200 224 255
200 224 255
200 224 255
200 224 255
200 224 255
200 224 255
200 224 255
200 224 255
200 224 255
200 224 255
199 224 255
199 224 255
199 223 255
199 223 255
199 223 255
199 223 255
199 223 255
199 223 255
199 223 255
199 223 255
199 223 255
199 223 255
199 223 255
199 223 255
198 223 255
198 223 255
198 223 255
198 223 255
198 223 255
198 223 255
198 223 255
198 223 255
198 223 255
198 223 255
198 223 255
198 223 255
198 223 255
198 223 255
197 223 255
197 222 255
197 222 255
197 222 255
197 222 255
197 222 255
197 222 255
197 222 255
197 222 255
197 222 255
197 222 255
197 222 255
197 222 255
197 222 255
197 222 255
197 222 255
197 222 255
196 222 255
196 222 255
196 222 255
196 222 255
196 222 255
196 222 255
196 222 255
196 222 255
196 222 255
196 222 255
196 222 255
196 222 255
196 222 255
196 222 255
196 222 255
196 222 255
196 222 255
196 221 255
196 221 255
195 221 255
195 221 255
195 221 255
195 221 255
195 221 255
195 221 255
195 221 255
195 221 255
195 221 255
195 221 255
195 221 255
195 221 255
195 221 255
195 221 255
195 221 255
195 221 255
195 221 255
195 221 255
195 221 255
195 221 255
195 221 255
195 221 255
195 221 255
195 221 255
195 221 255
195 221 255
195 221 255
195 221 255
195 221 255
195 221 255
195 221 255
195 221 255
195 221 255
195 221 255
195 221 255
195 221 255
195 221 255
195 221 255
195 221 255
195 221 255
195 221 255
194 221 255
195 221 255
195 221 255
195 221 255
195 221 255
195 221 255
195 221 255
195 221 255
195 221 255
195 221 255
195 221 255
195 221 255
195 221 255
195 221 255
195 221 255
195 221 255
195 221 255
195 221 255
195 221 255
195 221 255
195 221 255
195 221 255
195 221 255
195 221 255
195 221 255
195 221 255
195 221 255
195 221 255
195 221 255
195 221 255
195 221 255
195 221 255
195 221 255
195 221 255
195 221 255
195 221 255
195 221 255
195 221 255
195 221 255
195 221 255
195 221 255
196 221 255
196 221 255
196 222 255
196 222 255
196 222 255
196 222 255
196 222 255
196 222 255
196 222 255
196 222 255
196 222 255
196 222 255
196 222 255
196 222 255
196 222 255
196 222 255
196 222 255
196 222 255
196 222 255
196 222 255
197 222 255
197 222 255
197 222 255
197 222 255
197 222 255
197 222 255
197 222 255
197 222 255
197 222 255
197 222 255
197 222 255
197 222 255
197 222 255
197 222 255
197 222 255
197 223 255
198 223 255
198 223 255
198 223 255
198 223 255
198 223 255
198 223 255
198 223 255
198 223 255
198 223 255
198 223 255
198 223 255
198 223 255
198 223 255
198 223 255
199 223 255
199 223 255
199 223 255
199 223 255
199 223 255
199 223 255
199 223 255
199 223 255
199 223 255
199 223 255
199 223 255
199 223 255
199 224 255
199 224 255
199 224 255
200 224 255
200 224 255
200 224 255
200 224 255
200 224 255
200 224 255
200 224 255
200 224 255
200 224 255
200 224 255
200 224 255
200 224 255
200 224 255
200 224 255
200 224 255
201 224 255
201 224 255
201 224 255
201 224 255
201 224 255
201 224 255
201 224 255
201 224 255
201 224 255
201 224 255
201 225 255
201 225 255
201 225 255
201 225 255
202 225 255
202 225 255
202 225 255
202 225 255
202 225 255
202 225 255
202 225 255
202 225 255
202 225 255
202 225 255
202 225 255
202 225 255
202 225 255
202 225 255
202 225 255
203 225 255
203 225 255
203 225 255
203 225 255
203 225 255
203 225 255
203 225 255
203 225 255
203 225 255
203 226 255
203 226 255
203 226 255
203 226 255
203 226 255
203 226 255
203 226 255
204 226 255
204 226 255
204 226 255
204 226 255
204 226 255
204 226 255
204 226 255
204 226 255
204 226 255
204 226 255
204 226 255
204 226 255
204 226 255
204 226 255
204 226 255
204 226 255
204 226 255
205 226 255
205 226 255
205 226 255
205 226 255
205 226 255
205 226 255
205 226 255
205 226 255
205 227 255
205 227 255
205 227 255
205 227 255
205 227 255
205 227 255
205 227 255
205 227 255
205 227 255
205 227 255
205 227 255
205 227 255
205 227 255
205 227 255
205 227 255
205 227 255
205 227 255
205 227 255
205 227 255
205 227 255
205 226 255
205 226 255
205 226 255
205 226 255
205 226 255
205 226 255
205 226 255
205 226 255
204 226 255
204 226 255
204 226 255
204 226 255
204 226 255
204 226 255
204 226 255
204 226 255
204 226 255
204 226 255
204 226 255
204 226 255
204 226 255
204 226 255
204 226 255
204 226 255
204 226 255
203 226 255
203 226 255
203 226 255
203 226 255
203 226 255
203 226 255
203 226 255
203 225 255
203 225 255
203 225 255
203 225 255
203 225 255
203 225 255
203 225 255
203 225 255
203 225 255
202 225 255
202 225 255
202 225 255
202 225 255
202 225 255
202 225 255
202 225 255
202 225 255
202 225 255
202 225 255
202 225 255
202 225 255
202 225 255
202 225 255
202 225 255
202 225 255
201 225 255
201 225 255
201 225 255
201 225 255
201 224 255
201 224 255
201 224 255
201 224 255
201 224 255
201 224 255
201 224 255
201 224 255
201 224 255
201 224 255
200 224 255
200 224 255
200 224 255
200 224 255
200 224 255
200 224 255
200 224 255
200 224 255
200 224 255
200 224 255
200 224 255
200 224 255
200 224 255
200 224 255
199 224 255
199 224 255
199 224 255
199 223 255
199 223 255
199 223 255
199 223 255
199 223 255
199 223 255
199 223 255
199 223 255
199 223 255
199 223 255
199 223 255
199 223 255
198 223 255
198 223 255
198 223 255
198 223 255
198 223 255
198 223 255
198 223 255
198 223 255
198 223 255
198 223 255
198 223 255
198 223 255
198 223 255
198 223 255
198 223 255
197 223 255
197 222 255
197 222 255
197 222 255
197 222 255
197 222 255
197 222 255
197 222 255
197 222 255
197 222 255
197 222 255
197 222 255
197 222 255
197 222 255
197 222 255
197 222 255
196 222 255
196 222 255
196 222 255
196 222 255
196 222 255
196 222 255
196 222 255
196 222 255
196 222 255
196 222 255
196 222 255
196 222 255
196 222 255
196 222 255
196 222 255
196 222 255
196 222 255
196 222 255
196 221 255
196 221 255
195 221 255
195 221 255
195 221 255
195 221 255
195 221 255
195 221 255
195 221 255
195 221 255
195 221 255
195 221 255
195 221 255
195 221 255
195 221 255
195 221 255
195 221 255
195 221 255
195 221 255
195 221 255
195 221 255
195 221 255
195 221 255
195 221 255
195 221 255
195 221 255
195 221 255
195 221 255
195 221 255
195 221 255
195 221 255
195 221 255
195 221 255
195 221 255
195 221 255
195 221 255
195 221 255
195 221 255
195 221 255
195 221 255
195 221 255
195 221 255
195 221 255
195 221 255
195 221 255
195 221 255
195 221 255
195 221 255
195 221 255
195 221 255
195 221 255
195 221 255
195 221 255
195 221 255
195 221 255
195 221 255
195 221 255
195 221 255
195 221 255
195 221 255
195 221 255
195 221 255
195 221 255
195 221 255
195 221 255
195 221 255
195 221 255
195 221 255
195 221 255
195 221 255
195 221 255
195 221 255
195 221 255
195 221 255
195 221 255
195 221 255
195 221 255
195 221 255
196 221 255
196 221 255
196 222 255
196 222 255
196 222 255
196 222 255
196 222 255
196 222 255
196 222 255
196 222 255
196 222 255
196 222 255
196 222 255
196 222 255
196 222 255
196 222 255
196 222 255
196 222 255
196 222 255
196 222 255
197 222 255
197 222 255
197 222 255
197 222 255
197 222 255
197 222 255
197 222 255
197 222 255
197 222 255
197 222 255
197 222 255
197 222 255
197 222 255
197 222 255
197 222 255
197 222 255
198 223 255
198 223 255
198 223 255
198 223 255
198 223 255
198 223 255
198 223 255
198 223 255
198 223 255
198 223 255
198 223 255
198 223 255
198 223 255
198 223 255
198 223 255
199 223 255
199 223 255
199 223 255
199 223 255
199 223 255
199 223 255
199 223 255
199 223 255
199 223 255
199 223 255
199 223 255
199 223 255
199 224 255
199 224 255
200 224 255
200 224 255
200 224 255
200 224 255
200 224 255
200 224 255
200 224 255
200 224 255
200 224 255
200 224 255
200 224 255
200 224 255
200 224 255
200 224 255
200 224 255
201 224 255
201 224 255
201 224 255
201 224 255
201 224 255
201 224 255
201 224 255
201 224 255
201 224 255
201 224 255
201 224 255
201 225 255
201 225 255
201 225 255
201 225 255
202 225 255
202 225 255
202 225 255
202 225 255
202 225 255
202 225 255
202 225 255
202 225 255
202 225 255
202 225 255
202 225 255
202 225 255
202 225 255
202 225 255
202 225 255
203 225 255
203 225 255
203 225 255
203 225 255
203 225 255
203 225 255
203 225 255
203 225 255
203 225 255
203 226 255
203 226 255
203 226 255
203 226 255
203 226 255
203 226 255
203 226 255
204 226 255
204 226 255
204 226 255
204 226 255
204 226 255
204 226 255
204 226 255
204 226 255
204 226 255
204 226 255
204 226 255
204 226 255
204 226 255
204 226 255
204 226 255
204 226 255
204 226 255
205 226 255
205 226 255
205 226 255
205 226 255
205 226 255
205 226 255
205 226 255
205 227 255
205 227 255
205 227 255
205 227 255
205 227 255
205 227 255
205 227 255
205 227 255
205 227 255
205 227 255
205 227 255
205 227 255
206 227 255
206 227 255
206 227 255
205 227 255
205 227 255
205 227 255
205 227 255
205 227 255
205 227 255
205 227 255
205 227 255
205 227 255
205 227 255
205 227 255
205 226 255
205 226 255
205 226 255
205 226 255
205 226 255
205 226 255
205 226 255
204 226 255
204 226 255
204 226 255
204 226 255
204 226 255
204 226 255
204 226 255
204 226 255
204 226 255
204 226 255
204 226 255
204 226 255
204 226 255
204 226 255
204 226 255
204 226 255
204 226 255
204 226 255
203 226 255
203 226 255
203 226 255
203 226 255
203 226 255
203 226 255
203 226 255
203 225 255
203 225 255
203 225 255
203 225 255
203 225 255
203 225 255
203 225 255
203 225 255
202 225 255
202 225 255
202 225 255
202 225 255
202 225 255
202 225 255
202 225 255
202 225 255
202 225 255
202 225 255
202 225 255
202 225 255
202 225 255
202 225 255
202 225 255
202 225 255
201 225 255
201 225 255
201 225 255
201 225 255
201 224 255
201 224 255
201 224 255
201 224 255
201 224 255
201 224 255
201 224 255
201 224 255
201 224 255
201 224 255
200 224 255
200 224 255
200 224 255
200 224 255
200 224 255
200 224 255
200 224 255
200 224 255
200 224 255
200 224 255
200 224 255
200 224 255
200 224 255
200 224 255
200 224 255
199 224 255
199 224 255
199 223 255
199 223 255
199 223 255
199 223 255
199 223 255
199 223 255
199 223 255
199 223 255
199 223 255
199 223 255
199 223 255
199 223 255
198 223 255
198 223 255
198 223 255
198 223 255
198 223 255
198 223 255
198 223 255
198 223 255
198 223 255
198 223 255
198 223 255
198 223 255
198 223 255
198 223 255
198 223 255
197 223 255
197 222 255
197 222 255
197 222 255
197 222 255
197 222 255
197 222 255
197 222 255
197 222 255
197 222 255
197 222 255
197 222 255
197 222 255
197 222 255
197 222 255
197 222 255
196 222 255
196 222 255
196 222 255
196 222 255
196 222 255
196 222 255
196 222 255
196 222 255
196 222 255
196 222 255
196 222 255
196 222 255
196 222 255
196 222 255
196 222 255
196 222 255
196 222 255
196 222 255
196 222 255
196 221 255
196 221 255
196 221 255
195 221 255
195 221 255
195 221 255
195 221 255
195 221 255
195 221 255
195 221 255
195 221 255
195 221 255
195 221 255
195 221 255
195 221 255
195 221 255
195 221 255
195 221 255
195 221 255
195 221 255
195 221 255
195 221 255
195 221 255
195 221 255
195 221 255
195 221 255
195 221 255
195 221 255
195 221 255
195 221 255
195 221 255
195 221 255
195 221 255
195 221 255
195 221 255
195 221 255
195 221 255
195 221 255
195 221 255
195 221 255
195 221 255
195 221 255
195 221 255
195 221 255
195 221 255
195 221 255
195 221 255
195 221 255
195 221 255
195 221 255
195 221 255
195 221 255
195 221 255
195 221 255
195 221 255
195 221 255
195 221 255
195 221 255
195 221 255
195 221 255
195 221 255
195 221 255
195 221 255
195 221 255
195 221 255
195 221 255
195 221 255
195 221 255
195 221 255
195 221 255
195 221 255
196 221 255
196 221 255
196 222 255
196 222 255
196 222 255
196 222 255
196 222 255
196 222 255
196 222 255
196 222 255
196 222 255
196 222 255
196 222 255
196 222 255
196 222 255
196 222 255
196 222 255
196 222 255
196 222 255
196 222 255
196 222 255
196 222 255
197 222 255
197 222 255
197 222 255
197 222 255
197 222 255
197 222 255
197 222 255
197 222 255
197 222 255
197 222 255
197 222 255
197 222 255
197 222 255
197 222 255
197 222 255
197 222 255
198 223 255
198 223 255
198 223 255
198 223 255
198 223 255
198 223 255
198 223 255
198 223 255
198 223 255
198 223 255
198 223 255
198 223 255
198 223 255
198 223 255
198 223 255
199 223 255
199 223 255
199 223 255
199 223 255
199 223 255
199 223 255
199 223 255
199 223 255
199 223 255
199 223 255
199 223 255
199 223 255
199 224 255
199 224 255
200 224 255
200 224 255
200 224 255
200 224 255
200 224 255
200 224 255
200 224 255
200 224 255
200 224 255
200 224 255
200 224 255
200 224 255
200 224 255
200 224 255
200 224 255
201 224 255
201 224 255
201 224 255
201 224 255
201 224 255
201 224 255
201 224 255
201 224 255
201 224 255
201 224 255
201 225 255
201 225 255
201 225 255
201 225 255
202 225 255
202 225 255
202 225 255
202 225 255
202 225 255
202 225 255
202 225 255
202 225 255
202 225 255
202 225 255
202 225 255
202 225 255
202 225 255
202 225 255
202 225 255
203 225 255
203 225 255
203 225 255
203 225 255
203 225 255
203 225 255
203 225 255
203 225 255
203 225 255
203 226 255
203 226 255
203 226 255
203 226 255
203 226 255
203 226 255
203 226 255
203 226 255
204 226 255
204 226 255
204 226 255
204 226 255
204 226 255
204 226 255
204 226 255
204 226 255
204 226 255
204 226 255
204 226 255
204 226 255
204 226 255
204 226 255
204 226 255
204 226 255
205 226 255
205 226 255
205 226 255
205 226 255
205 226 255
205 226 255
205 226 255
205 226 255
205 227 255
205 227 255
205 227 255
205 227 255
205 227 255
205 227 255
205 227 255
205 227 255
205 227 255
205 227 255
205 227 255
206 227 255
206 227 255
206 227 255
206 227 255
206 227 255
206 227 255
206 227 255
206 227 255
205 227 255
205 227 255
205 227 255
205 227 255
205 227 255
205 227 255
205 227 255
205 227 255
205 227 255
205 227 255
205 227 255
205 227 255
205 226 255
205 226 255
205 226 255
205 226 255
205 226 255
205 226 255
205 226 255
204 226 255
204 226 255
204 226 255
204 226 255
204 226 255
204 226 255
204 226 255
204 226 255
204 226 255
204 226 255
204 226 255
204 226 255
204 226 255
204 226 255
204 226 255
204 226 255
204 226 255
203 226 255
203 226 255
203 226 255
203 226 255
203 226 255
203 226 255
203 226 255
203 225 255
203 225 255
203 225 255
203 225 255
203 225 255
203 225 255
203 225 255
203 225 255
202 225 255
202 225 255
202 225 255
202 225 255
202 225 255
202 225 255
202 225 255
202 225 255
202 225 255
202 225 255
202 225 255
202 225 255
202 225 255
202 225 255
202 225 255
202 225 255
201 225 255
201 225 255
201 225 255
201 225 255
201 224 255
201 224 255
201 224 255
201 224 255
201 224 255
201 224 255
201 224 255
201 224 255
201 224 255
201 224 255
200 224 255
200 224 255
200 224 255
200 224 255
200 224 255
200 224 255
200 224 255
200 224 255
200 224 255
200 224 255
200 224 255
200 224 255
200 224 255
200 224 255
200 224 255
199 224 255
199 224 255
199 223 255
199 223 255
199 223 255
199 223 255
199 223 255
199 223 255
199 223 255
199 223 255
199 223 255
199 223 255
199 223 255
199 223 255
198 223 255
198 223 255
198 223 255
198 223 255
198 223 255
198 223 255
198 223 255
198 223 255
198 223 255
198 223 255
198 223 255
198 223 255
198 223 255
198 223 255
198 223 255
198 223 255
197 222 255
197 222 255
197 222 255
197 222 255
197 222 255
197 222 255
197 222 255
197 222 255
197 222 255
197 222 255
197 222 255
197 222 255
197 222 255
197 222 255
197 222 255
197 222 255
197 222 255
196 222 255
196 222 255
196 222 255
196 222 255
196 222 255
196 222 255
196 222 255
196 222 255
196 222 255
196 222 255
196 222 255
196 222 255
196 222 255
196 222 255
196 222 255
196 222 255
196 222 255
196 222 255
196 222 255
196 222 255
196 221 255
195 221 255
195 221 255
195 221 255
195 221 255
195 221 255
195 221 255
195 221 255
195 221 255
195 221 255
195 221 255
195 221 255
195 221 255
195 221 255
195 221 255
195 221 255
195 221 255
195 221 255
195 221 255
195 221 255
195 221 255
195 221 255
195 221 255
195 221 255
195 221 255
195 221 255
195 221 255
195 221 255
195 221 255
195 221 255
195 221 255
195 221 255
195 221 255
195 221 255
195 221 255
195 221 255
195 221 255
195 221 255
195 221 255
195 221 255
195 221 255
195 221 255
195 221 255
195 221 255
195 221 255
195 221 255
195 221 255
195 221 255
195 221 255
195 221 255
195 221 255
195 221 255
195 221 255
195 221 255
195 221 255
195 221 255
195 221 255
195 221 255
195 221 255
195 221 255
195 221 255
195 221 255
196 221 255
196 221 255
196 222 255
196 222 255
196 222 255
196 222 255
196 222 255
196 222 255
196 222 255
196 222 255
196 222 255
196 222 255
196 222 255
196 222 255
196 222 255
196 222 255
196 222 255
196 222 255
196 222 255
196 222 255
196 222 255
196 222 255
196 222 255
197 222 255
197 222 255
197 222 255
197 222 255
197 222 255
197 222 255
197 222 255
197 222 255
197 222 255
197 222 255
197 222 255
197 222 255
197 222 255
197 222 255
197 222 255
197 222 255
198 223 255
198 223 255
198 223 255
198 223 255
198 223 255
198 223 255
198 223 255
198 223 255
198 223 255
198 223 255
198 223 255
198 223 255
198 223 255
198 223 255
198 223 255
199 223 255
199 223 255
199 223 255
199 223 255
199 223 255
199 223 255
199 223 255
199 223 255
199 223 255
199 223 255
199 223 255
199 223 255
199 223 255
199 224 255
199 224 255
199 224 255
200 224 255
200 224 255
200 224 255
200 224 255
200 224 255
200 224 255
200 224 255
200 224 255
200 224 255
200 224 255
200 224 255
200 224 255
200 224 255
200 224 255
201 224 255
201 224 255
201 224 255
201 224 255
201 224 255
201 224 255
201 224 255
201 224 255
201 224 255
201 224 255
201 225 255
201 225 255
201 225 255
201 225 255
202 225 255
202 225 255
202 225 255
202 225 255
202 225 255
202 225 255
202 225 255
202 225 255
202 225 255
202 225 255
202 225 255
202 225 255
202 225 255
202 225 255
202 225 255
203 225 255
203 225 255
203 225 255
203 225 255
203 225 255
203 225 255
203 225 255
203 225 255
203 225 255
203 226 255
203 226 255
203 226 255
203 226 255
203 226 255
203 226 255
203 226 255
203 226 255
204 226 255
204 226 255
204 226 255
204 226 255
204 226 255
204 226 255
204 226 255
204 226 255
204 226 255
204 226 255
204 226 255
204 226 255
204 226 255
204 226 255
204 226 255
204 226 255
204 226 255
205 226 255
205 226 255
205 226 255
205 226 255
205 226 255
205 226 255
205 227 255
205 227 255
205 227 255
205 227 255
205 227 255
205 227 255
205 227 255
205 227 255
205 227 255
205 227 255
205 227 255
205 227 255
206 227 255
206 227 255
206 227 255
206 227 255
206 227 255
206 227 255
206 227 255
206 227 255
206 227 255
206 227 255
206 227 255
206 227 255
206 227 255
205 227 255
205 227 255
205 227 255
205 227 255
205 227 255
205 227 255
205 227 255
205 227 255
205 227 255
205 227 255
205 227 255
205 226 255
205 226 255
205 226 255
205 226 255
205 226 255
205 226 255
205 226 255
205 226 255
204 226 255
204 226 255
204 226 255
204 226 255
204 226 255
204 226 255
204 226 255
204 226 255
204 226 255
204 226 255
204 226 255
204 226 255
204 226 255
204 226 255
204 226 255
204 226 255
203 226 255
203 226 255
203 226 255
203 226 255
203 226 255
203 226 255
203 226 255
203 225 255
203 225 255
203 225 255
203 225 255
203 225 255
203 225 255
203 225 255
203 225 255
203 225 255
202 225 255
202 225 255
202 225 255
202 225 255
202 225 255
202 225 255
202 225 255
202 225 255
202 225 255
202 225 255
202 225 255
202 225 255
202 225 255
202 225 255
202 225 255
201 225 255
201 225 255
201 225 255
201 225 255
201 225 255
201 224 255
201 224 255
201 224 255
201 224 255
201 224 255
201 224 255
201 224 255
201 224 255
201 224 255
201 224 255
200 224 255
200 224 255
200 224 255
200 224 255
200 224 255
200 224 255
200 224 255
200 224 255
200 224 255
200 224 255
200 224 255
200 224 255
200 224 255
200 224 255
199 224 255
199 224 255
199 223 255
199 223 255
199 223 255
199 223 255
199 223 255
199 223 255
199 223 255
199 223 255
199 223 255
199 223 255
199 223 255
199 223 255
199 223 255
198 223 255
198 223 255
198 223 255
198 223 255
198 223 255
198 223 255
198 223 255
198 223 255
198 223 255
198 223 255
198 223 255
198 223 255
198 223 255
198 223 255
198 223 255
197 223 255
197 222 255
197 222 255
197 222 255
197 222 255
197 222 255
197 222 255
197 222 255
197 222 255
197 222 255
197 222 255
197 222 255
197 222 255
197 222 255
197 222 255
197 222 255
197 222 255
197 222 255
196 222 255
196 222 255
196 222 255
196 222 255
196 222 255
196 222 255
196 222 255
196 222 255
196 222 255
196 222 255
196 222 255
196 222 255
196 222 255
196 222 255
196 222 255
196 222 255
196 222 255
196 222 255
196 222 255
196 222 255
196 222 255
196 222 255
196 221 255
196 221 255
195 221 255
195 221 255
195 221 255
195 221 255
195 221 255
195 221 255
195 221 255
195 221 255
195 221 255
195 221 255
195 221 255
195 221 255
195 221 255
195 221 255
195 221 255
195 221 255
195 221 255
195 221 255
195 221 255
195 221 255
195 221 255
195 221 255
195 221 255
195 221 255
195 221 255
195 221 255
195 221 255
195 221 255
195 221 255
195 221 255
195 221 255
195 221 255
195 221 255
195 221 255
195 221 255
195 221 255
195 221 255
195 221 255
195 221 255
195 221 255
195 221 255
195 221 255
195 221 255
195 221 255
195 221 255
195 221 255
195 221 255
195 221 255
195 221 255
195 221 255
196 221 255
196 221 255
196 221 255
196 222 255
196 222 255
196 222 255
196 222 255
196 222 255
196 222 255
196 222 255
196 222 255
196 222 255
196 222 255
196 222 255
196 222 255
196 222 255
196 222 255
196 222 255
196 222 255
196 222 255
196 222 255
196 222 255
196 222 255
196 222 255
196 222 255
197 222 255
197 222 255
197 222 255
197 222 255
197 222 255
197 222 255
197 222 255
197 222 255
197 222 255
197 222 255
197 222 255
197 222 255
197 222 255
197 222 255
197 222 255
197 222 255
198 223 255
198 223 255
198 223 255
198 223 255
198 223 255
198 223 255
198 223 255
198 223 255
198 223 255
198 223 255
198 223 255
198 223 255
198 223 255
198 223 255
198 223 255
198 223 255
199 223 255
199 223 255
199 223 255
199 223 255
199 223 255
199 223 255
199 223 255
199 223 255
199 223 255
199 223 255
199 223 255
199 223 255
199 223 255
199 224 255
200 224 255
200 224 255
200 224 255
200 224 255
200 224 255
200 224 255
200 224 255
200 224 255
200 224 255
200 224 255
200 224 255
200 224 255
200 224 255
200 224 255
200 224 255
201 224 255
201 224 255
201 224 255
201 224 255
201 224 255
201 224 255
201 224 255
201 224 255
201 224 255
201 224 255
201 224 255
201 225 255
201 225 255
201 225 255
201 225 255
202 225 255
202 225 255
202 225 255
202 225 255
202 225 255
202 225 255
202 225 255
202 225 255
202 225 255
202 225 255
202 225 255
202 225 255
202 225 255
202 225 255
202 225 255
203 225 255
203 225 255
203 225 255
203 225 255
203 225 255
203 225 255
203 225 255
203 225 255
203 225 255
203 226 255
203 226 255
203 226 255
203 226 255
203 226 255
203 226 255
204 226 255
204 226 255
204 226 255
204 226 255
204 226 255
204 226 255
204 226 255
204 226 255
204 226 255
204 226 255
204 226 255
204 226 255
204 226 255
204 226 255
204 226 255
204 226 255
204 226 255
204 226 255
205 226 255
205 226 255
205 226 255
205 226 255
205 226 255
205 226 255
205 226 255
205 227 255
205 227 255
205 227 255
205 227 255
205 227 255
205 227 255
205 227 255
205 227 255
205 227 255
205 227 255
206 227 255
206 227 255
206 227 255
206 227 255
206 227 255
206 227 255
206 227 255
206 227 255
206 227 255
206 227 255
206 227 255
206 227 255
206 227 255
206 227 255
206 227 255
206 227 255
206 227 255
206 227 255
206 227 255
206 227 255
205 227 255
205 227 255
205 227 255
205 227 255
205 227 255
205 227 255
205 227 255
205 227 255
205 227 255
205 227 255
205 226 255
205 226 255
205 226 255
205 226 255
205 226 255
205 226 255
205 226 255
205 226 255
204 226 255
204 226 255
204 226 255
204 226 255
204 226 255
204 226 255
204 226 255
204 226 255
204 226 255
204 226 255
204 226 255
204 226 255
204 226 255
204 226 255
204 226 255
204 226 255
204 226 255
203 226 255
203 226 255
203 226 255
203 226 255
203 226 255
203 226 255
203 226 255
203 225 255
203 225 255
203 225 255
203 225 255
203 225 255
203 225 255
203 225 255
203 225 255
202 225 255
202 225 255
202 225 255
202 225 255
202 225 255
202 225 255
202 225 255
202 225 255
202 225 255
202 225 255
202 225 255
202 225 255
202 225 255
202 225 255
202 225 255
201 225 255
201 225 255
201 225 255
201 225 255
201 224 255
201 224 255
201 224 255
201 224 255
201 224 255
201 224 255
201 224 255
201 224 255
201 224 255
201 224 255
201 224 255
200 224 255
200 224 255
200 224 255
200 224 255
200 224 255
200 224 255
200 224 255
200 224 255
200 224 255
200 224 255
200 224 255
200 224 255
200 224 255
200 224 255
200 224 255
199 224 255
199 224 255
199 223 255
199 223 255
199 223 255
199 223 255
199 223 255
199 223 255
199 223 255
199 223 255
199 223 255
199 223 255
199 223 255
199 223 255
198 223 255
198 223 255
198 223 255
198 223 255
198 223 255
198 223 255
198 223 255
198 223 255
198 223 255
198 223 255
198 223 255
198 223 255
198 223 255
198 223 255
198 223 255
198 223 255
197 222 255
197 222 255
197 222 255
197 222 255
197 222 255
197 222 255
197 222 255
197 222 255
197 222 255
197 222 255
197 222 255
197 222 255
197 222 255
197 222 255
197 222 255
197 222 255
197 222 255
197 222 255
196 222 255
196 222 255
196 222 255
196 222 255
196 222 255
196 222 255
196 222 255
196 222 255
196 222 255
196 222 255
196 222 255
196 222 255
196 222 255
196 222 255
196 222 255
196 222 255
196 222 255
196 222 255
196 222 255
196 222 255
196 222 255
196 222 255
196 222 255
196 221 255
196 221 255
196 221 255
195 221 255
195 221 255
195 221 255
195 221 255
195 221 255
195 221 255
195 221 255
195 221 255
195 221 255
195 221 255
195 221 255
195 221 255
195 221 255
195 221 255
195 221 255
195 221 255
195 221 255
195 221 255
195 221 255
195 221 255
195 221 255
195 221 255
195 221 255
195 221 255
195 221 255
195 221 255
195 221 255
195 221 255
195 221 255
195 221 255
195 221 255
195 221 255
195 221 255
195 221 255
195 221 255
195 221 255
195 221 255
195 221 255
195 221 255
195 221 255
196 221 255
196 221 255
196 221 255
196 222 255
196 222 255
196 222 255
196 222 255
196 222 255
196 222 255
196 222 255
196 222 255
196 222 255
196 222 255
196 222 255
196 222 255
196 222 255
196 222 255
196 222 255
196 222 255
196 222 255
196 222 255
196 222 255
196 222 255
196 222 255
196 222 255
196 222 255
197 222 255
197 222 255
197 222 255
197 222 255
197 222 255
197 222 255
197 222 255
197 222 255
197 222 255
197 222 255
197 222 255
197 222 255
197 222 255
197 222 255
197 222 255
197 222 255
197 222 255
197 222 255
198 223 255
198 223 255
198 223 255
198 223 255
198 223 255
198 223 255
198 223 255
198 223 255
198 223 255
198 223 255
198 223 255
198 223 255
198 223 255
198 223 255
198 223 255
198 223 255
199 223 255
199 223 255
199 223 255
199 223 255
199 223 255
199 223 255
199 223 255
199 223 255
199 223 255
199 223 255
199 223 255
199 223 255
199 223 255
199 224 255
199 224 255
200 224 255
200 224 255
200 224 255
200 224 255
200 224 255
200 224 255
200 224 255
200 224 255
200 224 255
200 224 255
200 224 255
200 224 255
200 224 255
200 224 255
201 224 255
201 224 255
201 224 255
201 224 255
201 224 255
201 224 255
201 224 255
201 224 255
201 224 255
201 224 255
201 225 255
201 225 255
201 225 255
201 225 255
201 225 255
202 225 255
202 225 255
202 225 255
202 225 255
202 225 255
202 225 255
202 225 255
202 225 255
202 225 255
202 225 255
202 225 255
202 225 255
202 225 255
202 225 255
202 225 255
203 225 255
203 225 255
203 225 255
203 225 255
203 225 255
203 225 255
203 225 255
203 225 255
203 226 255
203 226 255
203 226 255
203 226 255
203 226 255
203 226 255
203 226 255
203 226 255
204 226 255
204 226 255
204 226 255
204 226 255
204 226 255
204 226 255
204 226 255
204 226 255
204 226 255
204 226 255
204 226 255
204 226 255
204 226 255
204 226 255
204 226 255
204 226 255
205 226 255
205 226 255
205 226 255
205 226 255
205 226 255
205 226 255
205 226 255
205 227 255
205 227 255
205 227 255
205 227 255
205 227 255
205 227 255
205 227 255
205 227 255
205 227 255
205 227 255
205 227 255
205 227 255
206 227 255
206 227 255
206 227 255
206 227 255
206 227 255
206 227 255
206 227 255
206 227 255
206 227 255
206 227 255
206 227 255
206 227 255
206 227 255
206 227 255
206 227 255
206 227 255
206 227 255
206 227 255
206 227 255
206 227 255
206 227 255
206 227 255
206 227 255
205 227 255
205 227 255
205 227 255
205 227 255
205 227 255
205 227 255
205 227 255
205 227 255
205 227 255
205 227 255
205 227 255
205 226 255
205 226 255
205 226 255
205 226 255
205 226 255
205 226 255
205 226 255
204 226 255
204 226 255
204 226 255
204 226 255
204 226 255
204 226 255
204 226 255
204 226 255
204 226 255
204 226 255
204 226 255
204 226 255
204 226 255
204 226 255
204 226 255
204 226 255
204 226 255
203 226 255
203 226 255
203 226 255
203 226 255
203 226 255
203 226 255
203 226 255
203 225 255
203 225 255
203 225 255
203 225 255
203 225 255
203 225 255
203 225 255
203 225 255
202 225 255
202 225 255
202 225 255
202 225 255
202 225 255
202 225 255
202 225 255
202 225 255
202 225 255
202 225 255
202 225 255
202 225 255
202 225 255
202 225 255
202 225 255
202 225 255
201 225 255
201 225 255
201 225 255
201 225 255
201 224 255
201 224 255
201 224 255
201 224 255
201 224 255
201 224 255
201 224 255
201 224 255
201 224 255
201 224 255
200 224 255
200 224 255
200 224 255
200 224 255
200 224 255
200 224 255
200 224 255
200 224 255
200 224 255
200 224 255
200 224 255
200 224 255
200 224 255
200 224 255
200 224 255
199 224 255
199 224 255
199 223 255
199 223 255
199 223 255
199 223 255
199 223 255
199 223 255
199 223 255
199 223 255
199 223 255
199 223 255
199 223 255
199 223 255
199 223 255
198 223 255
198 223 255
198 223 255
198 223 255
198 223 255
198 223 255
198 223 255
198 223 255
198 223 255
198 223 255
198 223 255
198 223 255
198 223 255
198 223 255
198 223 255
197 223 255
197 222 255
197 222 255
197 222 255
197 222 255
197 222 255
197 222 255
197 222 255
197 222 255
197 222 255
197 222 255
197 222 255
197 222 255
197 222 255
197 222 255
197 222 255
197 222 255
197 222 255
197 222 255
196 222 255
196 222 255
196 222 255
196 222 255
196 222 255
196 222 255
196 222 255
196 222 255
196 222 255
196 222 255
196 222 255
196 222 255
196 222 255
196 222 255
196 222 255
196 222 255
196 222 255
196 222 255
196 222 255
196 222 255
196 222 255
196 222 255
196 222 255
196 222 255
196 222 255
196 222 255
196 222 255
196 222 255
196 221 255
196 221 255
196 221 255
196 221 255
196 221 255
195 221 255
195 221 255
195 221 255
195 221 255
195 221 255
195 221 255
195 221 255
195 221 255
195 221 255
195 221 255
195 221 255
195 221 255
195 221 255
195 221 255
195 221 255
195 221 255
195 221 255
195 221 255
195 221 255
195 221 255
196 221 255
196 221 255
196 221 255
196 221 255
196 221 255
196 222 255
196 222 255
196 222 255
196 222 255
196 222 255
196 222 255
196 222 255
196 222 255
196 222 255
196 222 255
196 222 255
196 222 255
196 222 255
196 222 255
196 222 255
196 222 255
196 222 255
196 222 255
196 222 255
196 222 255
196 222 255
196 222 255
196 222 255
196 222 255
196 222 255
196 222 255
196 222 255
196 222 255
197 222 255
197 222 255
197 222 255
197 222 255
197 222 255
197 222 255
197 222 255
197 222 255
197 222 255
197 222 255
197 222 255
197 222 255
197 222 255
197 222 255
197 222 255
197 222 255
197 222 255
197 222 255
198 223 255
198 223 255
198 223 255
198 223 255
198 223 255
198 223 255
198 223 255
198 223 255
198 223 255
198 223 255
198 223 255
198 223 255
198 223 255
198 223 255
198 223 255
198 223 255
198 223 255
199 223 255
199 223 255
199 223 255
199 223 255
199 223 255
199 223 255
199 223 255
199 223 255
199 223 255
199 223 255
199 223 255
199 223 255
199 224 255
199 224 255
200 224 255
200 224 255
200 224 255
200 224 255
200 224 255
200 224 255
200 224 255
200 224 255
200 224 255
200 224 255
200 224 255
200 224 255
200 224 255
200 224 255
200 224 255
201 224 255
201 224 255
201 224 255
201 224 255
201 224 255
201 224 255
201 224 255
201 224 255
201 224 255
201 224 255
201 225 255
201 225 255
201 225 255
201 225 255
202 225 255
202 225 255
202 225 255
202 225 255
202 225 255
202 225 255
202 225 255
202 225 255
202 225 255
202 225 255
202 225 255
202 225 255
202 225 255
202 225 255
202 225 255
202 225 255
203 225 255
203 225 255
203 225 255
203 225 255
203 225 255
203 225 255
203 225 255
203 225 255
203 226 255
203 226 255
203 226 255
203 226 255
203 226 255
203 226 255
203 226 255
204 226 255
204 226 255
204 226 255
204 226 255
204 226 255
204 226 255
204 226 255
204 226 255
204 226 255
204 226 255
204 226 255
204 226 255
204 226 255
204 226 255
204 226 255
204 226 255
204 226 255
204 226 255
205 226 255
205 226 255
205 226 255
205 226 255
205 226 255
205 227 255
205 227 255
205 227 255
205 227 255
205 227 255
205 227 255
205 227 255
205 227 255
205 227 255
205 227 255
205 227 255
205 227 255
206 227 255
206 227 255
206 227 255
206 227 255
206 227 255
206 227 255
206 227 255
206 227 255
206 227 255
206 227 255
206 227 255
206 227 255
206 227 255
206 227 255
206 227 255
206 227 255
206 227 255
206 227 255
206 227 255
206 227 255
206 227 255
206 227 255
206 227 255
206 227 255
206 227 255
206 227 255
206 227 255
206 227 255
206 227 255
205 227 255
205 227 255
205 227 255
205 227 255
205 227 255
205 227 255
205 227 255
205 227 255
205 227 255
205 227 255
205 227 255
205 226 255
205 226 255
205 226 255
205 226 255
205 226 255
205 226 255
205 226 255
204 226 255
204 226 255
204 226 255
204 226 255
204 226 255
204 226 255
204 226 255
204 226 255
204 226 255
204 226 255
204 226 255
204 226 255
204 226 255
204 226 255
204 226 255
204 226 255
203 226 255
203 226 255
203 226 255
203 226 255
203 226 255
203 226 255
203 226 255
203 225 255
203 225 255
203 225 255
203 225 255
203 225 255
203 225 255
203 225 255
203 225 255
203 225 255
202 225 255
202 225 255
202 225 255
202 225 255
202 225 255
202 225 255
202 225 255
202 225 255
202 225 255
202 225 255
202 225 255
202 225 255
202 225 255
202 225 255
202 225 255
201 225 255
201 225 255
201 225 255
201 225 255
201 224 255
201 224 255
201 224 255
201 224 255
201 224 255
201 224 255
201 224 255
201 224 255
201 224 255
201 224 255
200 224 255
200 224 255
200 224 255
200 224 255
200 224 255
200 224 255
200 224 255
200 224 255
200 224 255
200 224 255
200 224 255
200 224 255
200 224 255
200 224 255
200 224 255
199 224 255
199 224 255
199 224 255
199 223 255
199 223 255
199 223 255
199 223 255
199 223 255
199 223 255
199 223 255
199 223 255
199 223 255
199 223 255
199 223 255
199 223 255
198 223 255
198 223 255
198 223 255
198 223 255
198 223 255
198 223 255
198 223 255
198 223 255
198 223 255
198 223 255
198 223 255
198 223 255
198 223 255
198 223 255
198 223 255
198 223 255
197 223 255
197 222 255
197 222 255
197 222 255
197 222 255
197 222 255
197 222 255
197 222 255
197 222 255
197 222 255
197 222 255
197 222 255
197 222 255
197 222 255
197 222 255
197 222 255
197 222 255
197 222 255
197 222 255
197 222 255
196 222 255
196 222 255
196 222 255
196 222 255
196 222 255
196 222 255
196 222 255
196 222 255
196 222 255
196 222 255
196 222 255
196 222 255
196 222 255
196 222 255
196 222 255
196 222 255
196 222 255
196 222 255
196 222 255
196 222 255
196 222 255
196 222 255
196 222 255
196 222 255
196 222 255
196 222 255
196 222 255
196 222 255
196 222 255
196 222 255
196 222 255
196 222 255
196 222 255
196 222 255
196 221 255
196 222 255
196 222 255
196 222 255
196 222 255
196 222 255
196 221 255
196 222 255
196 221 255
196 222 255
196 222 255
196 222 255
196 222 255
196 222 255
196 222 255
196 222 255
196 222 255
196 222 255
196 222 255
196 222 255
196 222 255
196 222 255
196 222 255
196 222 255
196 222 255
196 222 255
196 222 255
196 222 255
196 222 255
196 222 255
196 222 255
196 222 255
196 222 255
196 222 255
196 222 255
196 222 255
196 222 255
196 222 255
196 222 255
196 222 255
196 222 255
196 222 255
196 222 255
196 222 255
196 222 255
197 222 255
197 222 255
197 222 255
197 222 255
197 222 255
197 222 255
197 222 255
197 222 255
197 222 255
197 222 255
197 222 255
197 222 255
197 222 255
197 222 255
197 222 255
197 222 255
197 222 255
197 222 255
197 223 255
198 223 255
198 223 255
198 223 255
198 223 255
198 223 255
198 223 255
198 223 255
198 223 255
198 223 255
198 223 255
198 223 255
198 223 255
198 223 255
198 223 255
198 223 255
198 223 255
199 223 255
199 223 255
199 223 255
199 223 255
199 223 255
199 223 255
199 223 255
199 223 255
199 223 255
199 223 255
199 223 255
199 223 255
199 224 255
199 224 255
199 224 255
200 224 255
200 224 255
200 224 255
200 224 255
200 224 255
200 224 255
200 224 255
200 224 255
200 224 255
200 224 255
200 224 255
200 224 255
200 224 255
200 224 255
201 224 255
201 224 255
201 224 255
201 224 255
201 224 255
201 224 255
201 224 255
201 224 255
201 224 255
201 224 255
201 224 255
201 225 255
201 225 255
201 225 255
201 225 255
202 225 255
202 225 255
202 225 255
202 225 255
202 225 255
202 225 255
202 225 255
202 225 255
202 225 255
202 225 255
202 225 255
202 225 255
202 225 255
202 225 255
202 225 255
203 225 255
203 225 255
203 225 255
203 225 255
203 225 255
203 225 255
203 225 255
203 225 255
203 225 255
203 226 255
203 226 255
203 226 255
203 226 255
203 226 255
203 226 255
203 226 255
204 226 255
204 226 255
204 226 255
204 226 255
204 226 255
204 226 255
204 226 255
204 226 255
204 226 255
204 226 255
204 226 255
204 226 255
204 226 255
204 226 255
204 226 255
204 226 255
205 226 255
205 226 255
205 226 255
205 226 255
205 226 255
205 226 255
205 226 255
205 226 255
205 227 255
205 227 255
205 227 255
205 227 255
205 227 255
205 227 255
205 227 255
205 227 255
205 227 255
205 227 255
206 227 255
206 227 255
206 227 255
206 227 255
206 227 255
206 227 255
206 227 255
206 227 255
206 227 255
206 227 255
206 227 255
206 227 255
206 227 255
206 227 255
206 227 255
206 227 255
206 227 255
206 227 255
206 227 255
206 227 255
206 227 255
206 227 255
206 227 255
206 227 255
206 227 255
206 227 255
206 227 255
206 227 255
206 227 255
206 227 255
206 227 255
206 227 255
206 227 255
206 227 255
206 227 255
205 227 255
205 227 255
205 227 255
205 227 255
205 227 255
205 227 255
205 227 255
205 227 255
205 227 255
205 227 255
205 226 255
205 226 255
205 226 255
205 226 255
205 226 255
205 226 255
205 226 255
204 226 255
204 226 255
204 226 255
204 226 255
204 226 255
204 226 255
204 226 255
204 226 255
204 226 255
204 226 255
204 226 255
204 226 255
204 226 255
204 226 255
204 226 255
204 226 255
204 226 255
203 226 255
203 226 255
203 226 255
203 226 255
203 226 255
203 226 255
203 226 255
203 225 255
203 225 255
203 225 255
203 225 255
203 225 255
203 225 255
203 225 255
203 225 255
202 225 255
202 225 255
202 225 255
202 225 255
202 225 255
202 225 255
202 225 255
202 225 255
202 225 255
202 225 255
202 225 255
202 225 255
202 225 255
202 225 255
202 225 255
201 225 255
201 225 255
201 225 255
201 225 255
201 225 255
201 224 255
201 224 255
201 224 255
201 224 255
201 224 255
201 224 255
201 224 255
201 224 255
201 224 255
201 224 255
200 224 255
200 224 255
200 224 255
200 224 255
200 224 255
200 224 255
200 224 255
200 224 255
200 224 255
200 224 255
200 224 255
200 224 255
200 224 255
200 224 255
200 224 255
199 224 255
199 224 255
199 223 255
199 223 255
199 223 255
199 223 255
199 223 255
199 223 255
199 223 255
199 223 255
199 223 255
199 223 255
199 223 255
199 223 255
199 223 255
198 223 255
198 223 255
198 223 255
198 223 255
198 223 255
198 223 255
198 223 255
198 223 255
198 223 255
198 223 255
198 223 255
198 223 255
198 223 255
198 223 255
198 223 255
197 223 255
197 223 255
197 222 255
197 222 255
197 222 255
197 222 255
197 222 255
197 222 255
197 222 255
197 222 255
197 222 255
197 222 255
197 222 255
197 222 255
197 222 255
197 222 255
197 222 255
197 222 255
197 222 255
197 222 255
197 222 255
196 222 255
196 222 255
196 222 255
196 222 255
196 222 255
196 222 255
196 222 255
196 222 255
196 222 255
196 222 255
196 222 255
196 222 255
196 222 255
196 222 255
196 222 255
196 222 255
196 222 255
196 222 255
196 222 255
196 222 255
196 222 255
196 222 255
196 222 255
196 222 255
196 222 255
196 222 255
196 222 255
196 222 255
196 222 255
196 222 255
196 222 255
196 222 255
196 222 255
196 222 255
196 222 255
196 222 255
196 222 255
196 222 255
196 222 255
196 222 255
196 222 255
196 222 255
196 222 255
196 222 255
196 222 255
196 222 255
196 222 255
196 222 255
196 222 255
196 222 255
196 222 255
196 222 255
196 222 255
196 222 255
196 222 255
196 222 255
196 222 255
196 222 255
196 222 255
196 222 255
196 222 255
196 222 255
196 222 255
196 222 255
196 222 255
196 222 255
196 222 255
196 222 255
196 222 255
196 222 255
196 222 255
197 222 255
197 222 255
197 222 255
197 222 255
197 222 255
197 222 255
197 222 255
197 222 255
197 222 255
197 222 255
197 222 255
197 222 255
197 222 255
197 222 255
197 222 255
197 222 255
197 222 255
197 222 255
197 222 255
197 222 255
197 223 255
198 223 255
198 223 255
198 223 255
198 223 255
198 223 255
198 223 255
198 223 255
198 223 255
198 223 255
198 223 255
198 223 255
198 223 255
198 223 255
198 223 255
198 223 255
198 223 255
199 223 255
199 223 255
199 223 255
199 223 255
199 223 255
199 223 255
199 223 255
199 223 255
199 223 255
199 223 255
199 223 255
199 223 255
199 223 255
199 224 255
199 224 255
200 224 255
200 224 255
200 224 255
200 224 255
200 224 255
200 224 255
200 224 255
200 224 255
200 224 255
200 224 255
200 224 255
200 224 255
200 224 255
200 224 255
200 224 255
200 224 255
201 224 255
201 224 255
201 224 255
201 224 255
201 224 255
201 224 255
201 224 255
201 224 255
201 224 255
201 225 255
201 225 255
201 225 255
201 225 255
201 225 255
202 225 255
202 225 255
202 225 255
202 225 255
202 225 255
202 225 255
202 225 255
202 225 255
202 225 255
202 225 255
202 225 255
202 225 255
202 225 255
202 225 255
202 225 255
203 225 255
203 225 255
203 225 255
203 225 255
203 225 255
203 225 255
203 225 255
203 225 255
203 226 255
203 226 255
203 226 255
203 226 255
203 226 255
203 226 255
203 226 255
203 226 255
204 226 255
204 226 255
204 226 255
204 226 255
204 226 255
204 226 255
204 226 255
204 226 255
204 226 255
204 226 255
204 226 255
204 226 255
204 226 255
204 226 255
204 226 255
204 226 255
205 226 255
205 226 255
205 226 255
205 226 255
205 226 255
205 226 255
205 226 255
205 227 255
205 227 255
205 227 255
205 227 255
205 227 255
205 227 255
205 227 255
205 227 255
205 227 255
205 227 255
205 227 255
206 227 255
206 227 255
206 227 255
206 227 255
206 227 255
206 227 255
206 227 255
206 227 255
206 227 255
206 227 255
206 227 255
206 227 255
206 227 255
206 227 255
206 227 255
206 227 255
206 227 255
206 227 255
207 227 255
207 227 255
206 227 255
206 227 255
206 227 255
206 227 255
206 227 255
206 227 255
206 227 255
206 227 255
206 227 255
206 227 255
206 227 255
206 227 255
206 227 255
206 227 255
206 227 255
206 227 255
206 227 255
206 227 255
206 227 255
205 227 255
205 227 255
205 227 255
205 227 255
205 227 255
205 227 255
205 227 255
205 227 255
205 227 255
205 227 255
205 227 255
205 226 255
205 226 255
205 226 255
205 226 255
205 226 255
205 226 255
205 226 255
204 226 255
204 226 255
204 226 255
204 226 255
204 226 255
204 226 255
204 226 255
204 226 255
204 226 255
204 226 255
204 226 255
204 226 255
204 226 255
204 226 255
204 226 255
204 226 255
203 226 255
203 226 255
203 226 255
203 226 255
203 226 255
203 226 255
203 226 255
203 225 255
203 225 255
203 225 255
203 225 255
203 225 255
203 225 255
203 225 255
203 225 255
203 225 255
202 225 255
202 225 255
202 225 255
202 225 255
202 225 255
202 225 255
202 225 255
202 225 255
202 225 255
202 225 255
202 225 255
202 225 255
202 225 255
202 225 255
202 225 255
201 225 255
201 225 255
201 225 255
201 225 255
201 224 255
201 224 255
201 224 255
201 224 255
201 224 255
201 224 255
201 224 255
201 224 255
201 224 255
201 224 255
201 224 255
200 224 255
200 224 255
200 224 255
200 224 255
200 224 255
200 224 255
200 224 255
200 224 255
200 224 255
200 224 255
200 224 255
200 224 255
200 224 255
200 224 255
199 224 255
199 224 255
199 223 255
199 223 255
199 223 255
199 223 255
199 223 255
199 223 255
199 223 255
199 223 255
199 223 255
199 223 255
199 223 255
199 223 255
199 223 255
198 223 255
198 223 255
198 223 255
198 223 255
198 223 255
198 223 255
198 223 255
198 223 255
198 223 255
198 223 255
198 223 255
198 223 255
198 223 255
198 223 255
198 223 255
198 223 255
198 223 255
197 223 255
197 222 255
197 222 255
197 222 255
197 222 255
197 222 255
197 222 255
197 222 255
197 222 255
197 222 255
197 222 255
197 222 255
197 222 255
197 222 255
197 222 255
197 222 255
197 222 255
197 222 255
197 222 255
197 222 255
197 222 255
197 222 255
196 222 255
196 222 255
196 222 255
196 222 255
196 222 255
196 222 255
196 222 255
196 222 255
196 222 255
196 222 255
196 222 255
196 222 255
196 222 255
196 222 255
196 222 255
196 222 255
196 222 255
196 222 255
196 222 255
196 222 255
196 222 255
196 222 255
196 222 255
196 222 255
196 222 255
196 222 255
196 222 255
196 222 255
196 222 255
196 222 255
196 222 255
196 222 255
196 222 255
196 222 255
196 222 255
196 222 255
196 222 255
196 222 255
196 222 255
196 222 255
196 222 255
196 222 255
196 222 255
196 222 255
196 222 255
196 222 255
196 222 255
196 222 255
196 222 255
196 222 255
196 222 255
196 222 255
196 222 255
196 222 255
196 222 255
196 222 255
196 222 255
196 222 255
196 222 255
196 222 255
196 222 255
196 222 255
197 222 255
197 222 255
197 222 255
197 222 255
197 222 255
197 222 255
197 222 255
197 222 255
197 222 255
197 222 255
197 222 255
197 222 255
197 222 255
197 222 255
197 222 255
197 222 255
197 222 255
197 222 255
197 222 255
197 222 255
197 222 255
197 223 255
198 223 255
198 223 255
198 223 255
198 223 255
198 223 255
198 223 255
198 223 255
198 223 255
198 223 255
198 223 255
198 223 255
198 223 255
198 223 255
198 223 255
198 223 255
198 223 255
198 223 255
199 223 255
199 223 255
199 223 255
199 223 255
199 223 255
199 223 255
199 223 255
199 223 255
199 223 255
199 223 255
199 223 255
199 223 255
199 223 255
199 224 255
199 224 255
200 224 255
200 224 255
200 224 255
200 224 255
200 224 255
200 224 255
200 224 255
200 224 255
200 224 255
200 224 255
200 224 255
200 224 255
200 224 255
200 224 255
200 224 255
201 224 255
201 224 255
201 224 255
201 224 255
201 224 255
201 224 255
201 224 255
201 224 255
201 224 255
201 224 255
201 225 255
201 225 255
201 225 255
201 225 255
201 225 255
202 225 255
202 225 255
202 225 255
202 225 255
202 225 255
202 225 255
202 225 255
202 225 255
202 225 255
202 225 255
202 225 255
202 225 255
202 225 255
202 225 255
203 225 255
203 225 255
203 225 255
203 225 255
203 225 255
203 225 255
203 225 255
203 225 255
203 225 255
203 226 255
203 226 255
203 226 255
203 226 255
203 226 255
203 226 255
203 226 255
204 226 255
204 226 255
204 226 255
204 226 255
204 226 255
204 226 255
204 226 255
204 226 255
204 226 255
204 226 255
204 226 255
204 226 255
204 226 255
204 226 255
204 226 255
204 226 255
205 226 255
205 226 255
205 226 255
205 226 255
205 226 255
205 226 255
205 226 255
205 227 255
205 227 255
205 227 255
205 227 255
205 227 255
205 227 255
205 227 255
205 227 255
205 227 255
205 227 255
205 227 255
206 227 255
206 227 255
206 227 255
206 227 255
206 227 255
206 227 255
206 227 255
206 227 255
206 227 255
206 227 255
206 227 255
206 227 255
206 227 255
206 227 255
206 227 255
206 227 255
206 227 255
206 227 255
206 227 255
206 227 255
207 227 255
207 227 255
207 227 255
207 227 255
207 227 255
206 227 255
206 227 255
206 227 255
206 227 255
206 227 255
206 227 255
206 227 255
206 227 255
206 227 255
206 227 255
206 227 255
206 227 255
206 227 255
206 227 255
206 227 255
206 227 255
206 227 255
206 227 255
206 227 255
206 227 255
205 227 255
205 227 255
205 227 255
205 227 255
205 227 255
205 227 255
205 227 255
205 227 255
205 227 255
205 227 255
205 226 255
205 226 255
205 226 255
205 226 255
205 226 255
205 226 255
205 226 255
204 226 255
204 226 255
204 226 255
204 226 255
204 226 255
204 226 255
204 226 255
204 226 255
204 226 255
204 226 255
204 226 255
204 226 255
204 226 255
204 226 255
204 226 255
204 226 255
204 226 255
203 226 255
203 226 255
203 226 255
203 226 255
203 226 255
203 226 255
203 226 255
203 225 255
203 225 255
203 225 255
203 225 255
203 225 255
203 225 255
203 225 255
203 225 255
202 225 255
202 225 255
202 225 255
202 225 255
202 225 255
202 225 255
202 225 255
202 225 255
202 225 255
202 225 255
202 225 255
202 225 255
202 225 255
202 225 255
202 225 255
201 225 255
201 225 255
201 225 255
201 225 255
201 224 255
201 224 255
201 224 255
201 224 255
201 224 255
201 224 255
201 224 255
201 224 255
201 224 255
201 224 255
201 224 255
200 224 255
200 224 255
200 224 255
200 224 255
200 224 255
200 224 255
200 224 255
200 224 255
200 224 255
200 224 255
200 224 255
200 224 255
200 224 255
200 224 255
200 224 255
199 224 255
199 224 255
199 223 255
199 223 255
199 223 255
199 223 255
199 223 255
199 223 255
199 223 255
199 223 255
199 223 255
199 223 255
199 223 255
199 223 255
199 223 255
198 223 255
198 223 255
198 223 255
198 223 255
198 223 255
198 223 255
198 223 255
198 223 255
198 223 255
198 223 255
198 223 255
198 223 255
198 223 255
198 223 255
198 223 255
198 223 255
198 223 255
197 222 255
197 222 255
197 222 255
197 222 255
197 222 255
197 222 255
197 222 255
197 222 255
197 222 255
197 222 255
197 222 255
197 222 255
197 222 255
197 222 255
197 222 255
197 222 255
197 222 255
197 222 255
197 222 255
197 222 255
197 222 255
197 222 255
197 222 255
197 222 255
196 222 255
196 222 255
196 222 255
196 222 255
196 222 255
196 222 255
196 222 255
196 222 255
196 222 255
196 222 255
196 222 255
196 222 255
196 222 255
196 222 255
196 222 255
196 222 255
196 222 255
196 222 255
196 222 255
196 222 255
196 222 255
196 222 255
196 222 255
196 222 255
196 222 255
196 222 255
196 222 255
196 222 255
196 222 255
196 222 255
196 222 255
196 222 255
196 222 255
196 222 255
196 222 255
196 222 255
196 222 255
196 222 255
196 222 255
196 222 255
196 222 255
196 222 255
196 222 255
196 222 255
196 222 255
196 222 255
196 222 255
196 222 255
196 222 255
196 222 255
196 222 255
196 222 255
196 222 255
197 222 255
197 222 255
197 222 255
197 222 255
197 222 255
197 222 255
197 222 255
197 222 255
197 222 255
197 222 255
197 222 255
197 222 255
197 222 255
197 222 255
197 222 255
197 222 255
197 222 255
197 222 255
197 222 255
197 222 255
197 222 255
197 222 255
198 223 255
198 223 255
198 223 255
198 223 255
198 223 255
198 223 255
198 223 255
198 223 255
198 223 255
198 223 255
198 223 255
198 223 255
198 223 255
198 223 255
198 223 255
198 223 255
198 223 255
198 223 255
199 223 255
199 223 255
199 223 255
199 223 255
199 223 255
199 223 255
199 223 255
199 223 255
199 223 255
199 223 255
199 223 255
199 223 255
199 223 255
199 224 255
199 224 255
199 224 255
200 224 255
200 224 255
200 224 255
200 224 255
200 224 255
200 224 255
200 224 255
200 224 255
200 224 255
200 224 255
200 224 255
200 224 255
200 224 255
200 224 255
201 224 255
201 224 255
201 224 255
201 224 255
201 224 255
201 224 255
201 224 255
201 224 255
201 224 255
201 224 255
201 224 255
201 225 255
201 225 255
201 225 255
201 225 255
202 225 255
202 225 255
202 225 255
202 225 255
202 225 255
202 225 255
202 225 255
202 225 255
202 225 255
202 225 255
202 225 255
202 225 255
202 225 255
202 225 255
202 225 255
203 225 255
203 225 255
203 225 255
203 225 255
203 225 255
203 225 255
203 225 255
203 225 255
203 225 255
203 226 255
203 226 255
203 226 255
203 226 255
203 226 255
203 226 255
203 226 255
204 226 255
204 226 255
204 226 255
204 226 255
204 226 255
204 226 255
204 226 255
204 226 255
204 226 255
204 226 255
204 226 255
204 226 255
204 226 255
204 226 255
204 226 255
204 226 255
205 226 255
205 226 255
205 226 255
205 226 255
205 226 255
205 226 255
205 226 255
205 227 255
205 227 255
205 227 255
205 227 255
205 227 255
205 227 255
205 227 255
205 227 255
205 227 255
205 227 255
205 227 255
206 227 255
206 227 255
206 227 255
206 227 255
206 227 255
206 227 255
206 227 255
206 227 255
206 227 255
206 227 255
206 227 255
206 227 255
206 227 255
206 227 255
206 227 255
206 227 255
206 227 255
206 227 255
207 227 255
207 227 255
207 227 255
207 227 255
207 227 255
207 228 255
207 228 255
207 228 255
207 227 255
207 227 255
207 227 255
207 227 255
206 227 255
206 227 255
206 227 255
206 227 255
206 227 255
206 227 255
206 227 255
206 227 255
206 227 255
206 227 255
206 227 255
206 227 255
206 227 255
206 227 255
206 227 255
206 227 255
206 227 255
206 227 255
206 227 255
205 227 255
205 227 255
205 227 255
205 227 255
205 227 255
205 227 255
205 227 255
205 227 255
205 227 255
205 227 255
205 227 255
205 226 255
205 226 255
205 226 255
205 226 255
205 226 255
205 226 255
205 226 255
204 226 255
204 226 255
204 226 255
204 226 255
204 226 255
204 226 255
204 226 255
204 226 255
204 226 255
204 226 255
204 226 255
204 226 255
204 226 255
204 226 255
204 226 255
204 226 255
203 226 255
203 226 255
203 226 255
203 226 255
203 226 255
203 226 255
203 226 255
203 225 255
203 225 255
203 225 255
203 225 255
203 225 255
203 225 255
203 225 255
203 225 255
203 225 255
202 225 255
202 225 255
202 225 255
202 225 255
202 225 255
202 225 255
202 225 255
202 225 255
202 225 255
202 225 255
202 225 255
202 225 255
202 225 255
202 225 255
201 225 255
201 225 255
201 225 255
201 225 255
201 225 255
201 224 255
201 224 255
201 224 255
201 224 255
201 224 255
201 224 255
201 224 255
201 224 255
201 224 255
201 224 255
200 224 255
200 224 255
200 224 255
200 224 255
200 224 255
200 224 255
200 224 255
200 224 255
200 224 255
200 224 255
200 224 255
200 224 255
200 224 255
200 224 255
200 224 255
199 224 255
199 224 255
199 223 255
199 223 255
199 223 255
199 223 255
199 223 255
199 223 255
199 223 255
199 223 255
199 223 255
199 223 255
199 223 255
199 223 255
199 223 255
199 223 255
198 223 255
198 223 255
198 223 255
198 223 255
198 223 255
198 223 255
198 223 255
198 223 255
198 223 255
198 223 255
198 223 255
198 223 255
198 223 255
198 223 255
198 223 255
198 223 255
198 223 255
197 223 255
197 222 255
197 222 255
197 222 255
197 222 255
197 222 255
197 222 255
197 222 255
197 222 255
197 222 255
197 222 255
197 222 255
197 222 255
197 222 255
197 222 255
197 222 255
197 222 255
197 222 255
197 222 255
197 222 255
197 222 255
197 222 255
197 222 255
197 222 255
197 222 255
197 222 255
197 222 255
197 222 255
196 222 255
196 222 255
196 222 255
196 222 255
196 222 255
196 222 255
196 222 255
196 222 255
196 222 255
196 222 255
196 222 255
196 222 255
196 222 255
196 222 255
196 222 255
196 222 255
196 222 255
196 222 255
196 222 255
196 222 255
196 222 255
196 222 255
196 222 255
196 222 255
196 222 255
196 222 255
196 222 255
196 222 255
196 222 255
196 222 255
196 222 255
196 222 255
196 222 255
196 222 255
196 222 255
196 222 255
196 222 255
196 222 255
196 222 255
197 222 255
197 222 255
197 222 255
197 222 255
197 222 255
197 222 255
197 222 255
197 222 255
197 222 255
197 222 255
197 222 255
197 222 255
197 222 255
197 222 255
197 222 255
197 222 255
197 222 255
197 222 255
197 222 255
197 222 255
197 222 255
197 222 255
197 222 255
197 222 255
197 222 255
197 223 255
198 223 255
198 223 255
198 223 255
198 223 255
198 223 255
198 223 255
198 223 255
198 223 255
198 223 255
198 223 255
198 223 255
198 223 255
198 223 255
198 223 255
198 223 255
198 223 255
198 223 255
198 223 255
199 223 255
199 223 255
199 223 255
199 223 255
199 223 255
199 223 255
199 223 255
199 223 255
199 223 255
199 223 255
199 223 255
199 223 255
199 223 255
199 223 255
199 224 255
199 224 255
200 224 255
200 224 255
200 224 255
200 224 255
200 224 255
200 224 255
200 224 255
200 224 255
200 224 255
200 224 255
200 224 255
200 224 255
200 224 255
200 224 255
200 224 255
201 224 255
201 224 255
201 224 255
201 224 255
201 224 255
201 224 255
201 224 255
201 224 255
201 224 255
201 224 255
201 225 255
201 225 255
201 225 255
201 225 255
201 225 255
202 225 255
202 225 255
202 225 255
202 225 255
202 225 255
202 225 255
202 225 255
202 225 255
202 225 255
202 225 255
202 225 255
202 225 255
202 225 255
202 225 255
202 225 255
203 225 255
203 225 255
203 225 255
203 225 255
203 225 255
203 225 255
203 225 255
203 225 255
203 226 255
203 226 255
203 226 255
203 226 255
203 226 255
203 226 255
203 226 255
204 226 255
204 226 255
204 226 255
204 226 255
204 226 255
204 226 255
204 226 255
204 226 255
204 226 255
204 226 255
204 226 255
204 226 255
204 226 255
204 226 255
204 226 255
204 226 255
205 226 255
205 226 255
205 226 255
205 226 255
205 226 255
205 226 255
205 226 255
205 226 255
205 227 255
205 227 255
205 227 255
205 227 255
205 227 255
205 227 255
205 227 255
205 227 255
205 227 255
206 227 255
206 227 255
206 227 255
206 227 255
206 227 255
206 227 255
206 227 255
206 227 255
206 227 255
206 227 255
206 227 255
206 227 255
206 227 255
206 227 255
206 227 255
206 227 255
206 227 255
206 227 255
206 227 255
207 227 255
207 227 255
207 227 255
207 227 255
207 227 255
207 227 255
207 228 255
207 228 255
207 228 255
207 228 255
207 228 255
207 228 255
207 228 255
207 227 255
207 227 255
207 227 255
207 227 255
207 227 255
206 227 255
206 227 255
206 227 255
206 227 255
206 227 255
206 227 255
206 227 255
206 227 255
206 227 255
206 227 255
206 227 255
206 227 255
206 227 255
206 227 255
206 227 255
206 227 255
206 227 255
206 227 255
206 227 255
205 227 255
205 227 255
205 227 255
205 227 255
205 227 255
205 227 255
205 227 255
205 227 255
205 227 255
205 227 255
205 226 255
205 226 255
205 226 255
205 226 255
205 226 255
205 226 255
205 226 255
205 226 255
204 226 255
204 226 255
204 226 255
204 226 255
204 226 255
204 226 255
204 226 255
204 226 255
204 226 255
204 226 255
204 226 255
204 226 255
204 226 255
204 226 255
204 226 255
204 226 255
203 226 255
203 226 255
203 226 255
203 226 255
203 226 255
203 226 255
203 226 255
203 225 255
203 225 255
203 225 255
203 225 255
203 225 255
203 225 255
203 225 255
203 225 255
202 225 255
202 225 255
202 225 255
202 225 255
202 225 255
202 225 255
202 225 255
202 225 255
202 225 255
202 225 255
202 225 255
202 225 255
202 225 255
202 225 255
201 225 255
201 225 255
201 225 255
201 225 255
201 225 255
201 224 255
201 224 255
201 224 255
201 224 255
201 224 255
201 224 255
201 224 255
201 224 255
201 224 255
201 224 255
201 224 255
200 224 255
200 224 255
200 224 255
200 224 255
200 224 255
200 224 255
200 224 255
200 224 255
200 224 255
200 224 255
200 224 255
200 224 255
200 224 255
200 224 255
199 224 255
199 224 255
199 224 255
199 223 255
199 223 255
199 223 255
199 223 255
199 223 255
199 223 255
199 223 255
199 223 255
199 223 255
199 223 255
199 223 255
199 223 255
199 223 255
198 223 255
198 223 255
198 223 255
198 223 255
198 223 255
198 223 255
198 223 255
198 223 255
198 223 255
198 223 255
198 223 255
198 223 255
198 223 255
198 223 255
198 223 255
198 223 255
198 223 255
198 223 255
198 223 255
197 223 255
197 222 255
197 222 255
197 222 255
197 222 255
197 222 255
197 222 255
197 222 255
197 222 255
197 222 255
197 222 255
197 222 255
197 222 255
197 222 255
197 222 255
197 222 255
197 222 255
197 222 255
197 222 255
197 222 255
197 222 255
197 222 255
197 222 255
197 222 255
197 222 255
197 222 255
197 222 255
197 222 255
197 222 255
197 222 255
197 222 255
197 222 255
196 222 255
196 222 255
196 222 255
196 222 255
196 222 255
196 222 255
196 222 255
196 222 255
196 222 255
196 222 255
196 222 255
196 222 255
196 222 255
196 222 255
196 222 255
196 222 255
196 222 255
196 222 255
196 222 255
196 222 255
196 222 255
196 222 255
196 222 255
197 222 255
197 222 255
197 222 255
197 222 255
197 222 255
197 222 255
197 222 255
197 222 255
197 222 255
197 222 255
197 222 255
197 222 255
197 222 255
197 222 255
197 222 255
197 222 255
197 222 255
197 222 255
197 222 255
197 222 255
197 222 255
197 222 255
197 222 255
197 222 255
197 222 255
197 222 255
197 222 255
197 222 255
197 222 255
197 222 255
197 223 255
198 223 255
198 223 255
198 223 255
198 223 255
198 223 255
198 223 255
198 223 255
198 223 255
198 223 255
198 223 255
198 223 255
198 223 255
198 223 255
198 223 255
198 223 255
198 223 255
198 223 255
198 223 255
198 223 255
199 223 255
199 223 255
199 223 255
199 223 255
199 223 255
199 223 255
199 223 255
199 223 255
199 223 255
199 223 255
199 223 255
199 223 255
199 223 255
199 224 255
199 224 255
200 224 255
200 224 255
200 224 255
200 224 255
200 224 255
200 224 255
200 224 255
200 224 255
200 224 255
200 224 255
200 224 255
200 224 255
200 224 255
200 224 255
200 224 255
201 224 255
201 224 255
201 224 255
201 224 255
201 224 255
201 224 255
201 224 255
201 224 255
201 224 255
201 224 255
201 224 255
201 225 255
201 225 255
201 225 255
201 225 255
202 225 255
202 225 255
202 225 255
202 225 255
202 225 255
202 225 255
202 225 255
202 225 255
202 225 255
202 225 255
202 225 255
202 225 255
202 225 255
202 225 255
202 225 255
203 225 255
203 225 255
203 225 255
203 225 255
203 225 255
203 225 255
203 225 255
203 225 255
203 226 255
203 226 255
203 226 255
203 226 255
203 226 255
203 226 255
203 226 255
204 226 255
204 226 255
204 226 255
204 226 255
204 226 255
204 226 255
204 226 255
204 226 255
204 226 255
204 226 255
204 226 255
204 226 255
204 226 255
204 226 255
204 226 255
204 226 255
204 226 255
205 226 255
205 226 255
205 226 255
205 226 255
205 226 255
205 226 255
205 226 255
205 227 255
205 227 255
205 227 255
205 227 255
205 227 255
205 227 255
205 227 255
205 227 255
205 227 255
205 227 255
206 227 255
206 227 255
206 227 255
206 227 255
206 227 255
206 227 255
206 227 255
206 227 255
206 227 255
206 227 255
206 227 255
206 227 255
206 227 255
206 227 255
206 227 255
206 227 255
206 227 255
206 227 255
206 227 255
207 227 255
207 227 255
207 227 255
207 227 255
207 228 255
207 228 255
207 228 255
207 228 255
207 228 255
207 228 255
207 228 255
207 228 255
207 228 255
207 228 255
207 228 255
207 228 255
207 228 255
207 228 255
207 227 255
207 227 255
207 227 255
207 227 255
207 227 255
206 227 255
206 227 255
206 227 255
206 227 255
206 227 255
206 227 255
206 227 255
206 227 255
206 227 255
206 227 255
206 227 255
206 227 255
206 227 255
206 227 255
206 227 255
206 227 255
206 227 255
206 227 255
206 227 255
205 227 255
205 227 255
205 227 255
205 227 255
205 227 255
205 227 255
205 227 255
205 227 255
205 227 255
205 227 255
205 226 255
205 226 255
205 226 255
205 226 255
205 226 255
205 226 255
205 226 255
204 226 255
204 226 255
204 226 255
204 226 255
204 226 255
204 226 255
204 226 255
204 226 255
204 226 255
204 226 255
204 226 255
204 226 255
204 226 255
204 226 255
204 226 255
204 226 255
204 226 255
203 226 255
203 226 255
203 226 255
203 226 255
203 226 255
203 226 255
203 225 255
203 225 255
203 225 255
203 225 255
203 225 255
203 225 255
203 225 255
203 225 255
203 225 255
202 225 255
202 225 255
202 225 255
202 225 255
202 225 255
202 225 255
202 225 255
202 225 255
202 225 255
202 225 255
202 225 255
202 225 255
202 225 255
202 225 255
201 225 255
201 225 255
201 225 255
201 225 255
201 225 255
201 224 255
201 224 255
201 224 255
201 224 255
201 224 255
201 224 255
201 224 255
201 224 255
201 224 255
201 224 255
200 224 255
200 224 255
200 224 255
200 224 255
200 224 255
200 224 255
200 224 255
200 224 255
200 224 255
200 224 255
200 224 255
200 224 255
200 224 255
200 224 255
200 224 255
199 224 255
199 224 255
199 224 255
199 223 255
199 223 255
199 223 255
199 223 255
199 223 255
199 223 255
199 223 255
199 223 255
199 223 255
199 223 255
199 223 255
199 223 255
199 223 255
198 223 255
198 223 255
198 223 255
198 223 255
198 223 255
198 223 255
198 223 255
198 223 255
198 223 255
198 223 255
198 223 255
198 223 255
198 223 255
198 223 255
198 223 255
198 223 255
198 223 255
198 223 255
198 223 255
198 223 255
197 223 255
197 222 255
197 222 255
197 222 255
197 222 255
197 222 255
197 222 255
197 222 255
197 222 255
197 222 255
197 222 255
197 222 255
197 222 255
197 222 255
197 222 255
197 222 255
197 222 255
197 222 255
197 222 255
197 222 255
197 222 255
197 222 255
197 222 255
197 222 255
197 222 255
197 222 255
197 222 255
197 222 255
197 222 255
197 222 255
197 222 255
197 222 255
197 222 255
197 222 255
197 222 255
197 222 255
197 222 255
197 222 255
197 222 255
197 222 255
197 222 255
197 222 255
197 222 255
197 222 255
197 222 255
197 222 255
197 222 255
197 222 255
197 222 255
197 222 255
197 222 255
197 222 255
197 222 255
197 222 255
197 222 255
197 222 255
197 222 255
197 222 255
197 222 255
197 222 255
197 222 255
197 222 255
197 222 255
197 222 255
197 222 255
197 222 255
197 222 255
197 222 255
197 222 255
197 222 255
197 222 255
197 222 255
197 222 255
197 222 255
197 222 255
197 222 255
197 222 255
197 223 255
198 223 255
198 223 255
198 223 255
198 223 255
198 223 255
198 223 255
198 223 255
198 223 255
198 223 255
198 223 255
198 223 255
198 223 255
198 223 255
198 223 255
198 223 255
198 223 255
198 223 255
198 223 255
198 223 255
199 223 255
199 223 255
199 223 255
199 223 255
199 223 255
199 223 255
199 223 255
199 223 255
199 223 255
199 223 255
199 223 255
199 223 255
199 223 255
199 223 255
199 223 255
199 224 255
199 224 255
200 224 255
200 224 255
200 224 255
200 224 255
200 224 255
200 224 255
200 224 255
200 224 255
200 224 255
200 224 255
200 224 255
200 224 255
200 224 255
200 224 255
200 224 255
201 224 255
201 224 255
201 224 255
201 224 255
201 224 255
201 224 255
201 224 255
201 224 255
201 224 255
201 224 255
201 225 255
201 225 255
201 225 255
201 225 255
202 225 255
202 225 255
202 225 255
202 225 255
202 225 255
202 225 255
202 225 255
202 225 255
202 225 255
202 225 255
202 225 255
202 225 255
202 225 255
202 225 255
202 225 255
202 225 255
203 225 255
203 225 255
203 225 255
203 225 255
203 225 255
203 225 255
203 225 255
203 225 255
203 226 255
203 226 255
203 226 255
203 226 255
203 226 255
203 226 255
203 226 255
204 226 255
204 226 255
204 226 255
204 226 255
204 226 255
204 226 255
204 226 255
204 226 255
204 226 255
204 226 255
204 226 255
204 226 255
204 226 255
204 226 255
204 226 255
204 226 255
205 226 255
205 226 255
205 226 255
205 226 255
205 226 255
205 226 255
205 226 255
205 227 255
205 227 255
205 227 255
205 227 255
205 227 255
205 227 255
205 227 255
205 227 255
205 227 255
205 227 255
206 227 255
206 227 255
206 227 255
206 227 255
206 227 255
206 227 255
206 227 255
206 227 255
206 227 255
206 227 255
206 227 255
206 227 255
206 227 255
206 227 255
206 227 255
206 227 255
206 227 255
206 227 255
206 227 255
207 227 255
207 227 255
207 227 255
207 227 255
207 227 255
207 228 255
207 228 255
207 228 255
207 228 255
207 228 255
207 228 255
207 228 255
207 228 255
207 228 255
207 228 255
207 228 255
207 228 255
207 228 255
207 228 255
207 228 255
207 228 255
207 228 255
207 228 255
207 228 255
207 227 255
207 227 255
207 227 255
207 227 255
207 227 255
206 227 255
206 227 255
206 227 255
206 227 255
206 227 255
206 227 255
206 227 255
206 227 255
206 227 255
206 227 255
206 227 255
206 227 255
206 227 255
206 227 255
206 227 255
206 227 255
206 227 255
206 227 255
205 227 255
205 227 255
205 227 255
205 227 255
205 227 255
205 227 255
205 227 255
205 227 255
205 227 255
205 227 255
205 227 255
205 226 255
205 226 255
205 226 255
205 226 255
205 226 255
205 226 255
204 226 255
204 226 255
204 226 255
204 226 255
204 226 255
204 226 255
204 226 255
204 226 255
204 226 255
204 226 255
204 226 255
204 226 255
204 226 255
204 226 255
204 226 255
204 226 255
204 226 255
203 226 255
203 226 255
203 226 255
203 226 255
203 226 255
203 226 255
203 225 255
203 225 255
203 225 255
203 225 255
203 225 255
203 225 255
203 225 255
203 225 255
203 225 255
202 225 255
202 225 255
202 225 255
202 225 255
202 225 255
202 225 255
202 225 255
202 225 255
202 225 255
202 225 255
202 225 255
202 225 255
202 225 255
202 225 255
202 225 255
201 225 255
201 225 255
201 225 255
201 225 255
201 224 255
201 224 255
201 224 255
201 224 255
201 224 255
201 224 255
201 224 255
201 224 255
201 224 255
201 224 255
201 224 255
200 224 255
200 224 255
200 224 255
200 224 255
200 224 255
200 224 255
200 224 255
200 224 255
200 224 255
200 224 255
200 224 255
200 224 255
200 224 255
200 224 255
200 224 255
199 224 255
199 224 255
199 223 255
199 223 255
199 223 255
199 223 255
199 223 255
199 223 255
199 223 255
199 223 255
199 223 255
199 223 255
199 223 255
199 223 255
199 223 255
199 223 255
199 223 255
198 223 255
198 223 255
198 223 255
198 223 255
198 223 255
198 223 255
198 223 255
198 223 255
198 223 255
198 223 255
198 223 255
198 223 255
198 223 255
198 223 255
198 223 255
198 223 255
198 223 255
198 223 255
198 223 255
198 223 255
197 223 255
197 222 255
197 222 255
197 222 255
197 222 255
197 222 255
197 222 255
197 222 255
197 222 255
197 222 255
197 222 255
197 222 255
197 222 255
197 222 255
197 222 255
197 222 255
197 222 255
197 222 255
197 222 255
197 222 255
197 222 255
197 222 255
197 222 255
197 222 255
197 222 255
197 222 255
197 222 255
197 222 255
197 222 255
197 222 255
197 222 255
197 222 255
197 222 255
197 222 255
197 222 255
197 222 255
197 222 255
197 222 255
197 222 255
197 222 255
197 222 255
197 222 255
197 222 255
197 222 255
197 222 255
197 222 255
197 222 255
197 222 255
197 222 255
197 222 255
197 222 255
197 222 255
197 222 255
197 222 255
197 222 255
197 222 255
197 222 255
197 222 255
197 222 255
197 222 255
197 222 255
197 222 255
197 222 255
197 222 255
197 222 255
197 222 255
197 222 255
197 222 255
197 222 255
197 223 255
198 223 255
198 223 255
198 223 255
198 223 255
198 223 255
198 223 255
198 223 255
198 223 255
198 223 255
198 223 255
198 223 255
198 223 255
198 223 255
198 223 255
198 223 255
198 223 255
198 223 255
198 223 255
198 223 255
198 223 255
198 223 255
199 223 255
199 223 255
199 223 255
199 223 255
199 223 255
199 223 255
199 223 255
199 223 255
199 223 255
199 223 255
199 223 255
199 223 255
199 223 255
199 223 255
199 224 255
199 224 255
200 224 255
200 224 255
200 224 255
200 224 255
200 224 255
200 224 255
200 224 255
200 224 255
200 224 255
200 224 255
200 224 255
200 224 255
200 224 255
200 224 255
200 224 255
201 224 255
201 224 255
201 224 255
201 224 255
201 224 255
201 224 255
201 224 255
201 224 255
201 224 255
201 224 255
201 225 255
201 225 255
201 225 255
201 225 255
201 225 255
202 225 255
202 225 255
202 225 255
202 225 255
202 225 255
202 225 255
202 225 255
202 225 255
202 225 255
202 225 255
202 225 255
202 225 255
202 225 255
202 225 255
202 225 255
203 225 255
203 225 255
203 225 255
203 225 255
203 225 255
203 225 255
203 225 255
203 225 255
203 225 255
203 226 255
203 226 255
203 226 255
203 226 255
203 226 255
203 226 255
204 226 255
204 226 255
204 226 255
204 226 255
204 226 255
204 226 255
204 226 255
204 226 255
204 226 255
204 226 255
204 226 255
204 226 255
204 226 255
204 226 255
204 226 255
204 226 255
204 226 255
205 226 255
205 226 255
205 226 255
205 226 255
205 226 255
205 226 255
205 227 255
205 227 255
205 227 255
205 227 255
205 227 255
205 227 255
205 227 255
205 227 255
205 227 255
205 227 255
205 227 255
206 227 255
206 227 255
206 227 255
206 227 255
206 227 255
206 227 255
206 227 255
206 227 255
206 227 255
206 227 255
206 227 255
206 227 255
206 227 255
206 227 255
206 227 255
206 227 255
206 227 255
206 227 255
207 227 255
207 227 255
207 227 255
207 227 255
207 227 255
207 228 255
207 228 255
207 228 255
207 228 255
207 228 255
207 228 255
207 228 255
207 228 255
207 228 255
207 228 255
207 228 255
207 228 255
207 228 255
207 228 255
207 228 255
207 228 255
207 228 255
207 228 255
207 228 255
207 228 255
207 228 255
207 228 255
207 228 255
207 228 255
207 228 255
207 227 255
207 227 255
207 227 255
207 227 255
206 227 255
206 227 255
206 227 255
206 227 255
206 227 255
206 227 255
206 227 255
206 227 255
206 227 255
206 227 255
206 227 255
206 227 255
206 227 255
206 227 255
206 227 255
206 227 255
206 227 255
206 227 255
206 227 255
205 227 255
205 227 255
205 227 255
205 227 255
205 227 255
205 227 255
205 227 255
205 227 255
205 227 255
205 227 255
205 226 255
205 226 255
205 226 255
205 226 255
205 226 255
205 226 255
205 226 255
204 226 255
204 226 255
204 226 255
204 226 255
204 226 255
204 226 255
204 226 255
204 226 255
204 226 255
204 226 255
204 226 255
204 226 255
204 226 255
204 226 255
204 226 255
204 226 255
203 226 255
203 226 255
203 226 255
203 226 255
203 226 255
203 226 255
203 226 255
203 225 255
203 225 255
203 225 255
203 225 255
203 225 255
203 225 255
203 225 255
203 225 255
203 225 255
202 225 255
202 225 255
202 225 255
202 225 255
202 225 255
202 225 255
202 225 255
202 225 255
202 225 255
202 225 255
202 225 255
202 225 255
202 225 255
202 225 255
202 225 255
201 225 255
201 225 255
201 225 255
201 225 255
201 224 255
201 224 255
201 224 255
201 224 255
201 224 255
201 224 255
201 224 255
201 224 255
201 224 255
201 224 255
200 224 255
200 224 255
200 224 255
200 224 255
200 224 255
200 224 255
200 224 255
200 224 255
200 224 255
200 224 255
200 224 255
200 224 255
200 224 255
200 224 255
200 224 255
199 224 255
199 224 255
199 224 255
199 223 255
199 223 255
199 223 255
199 223 255
199 223 255
199 223 255
199 223 255
199 223 255
199 223 255
199 223 255
199 223 255
199 223 255
199 223 255
199 223 255
199 223 255
198 223 255
198 223 255
198 223 255
198 223 255
198 223 255
198 223 255
198 223 255
198 223 255
198 223 255
198 223 255
198 223 255
198 223 255
198 223 255
198 223 255
198 223 255
198 223 255
198 223 255
198 223 255
198 223 255
198 223 255
198 223 255
198 223 255
197 223 255
197 222 255
197 222 255
197 222 255
197 222 255
197 222 255
197 222 255
197 222 255
197 222 255
197 222 255
197 222 255
197 222 255
197 222 255
197 222 255
197 222 255
197 222 255
197 222 255
197 222 255
197 222 255
197 222 255
197 222 255
197 222 255
197 222 255
197 222 255
197 222 255
197 222 255
197 222 255
197 222 255
197 222 255
197 222 255
197 222 255
197 222 255
197 222 255
197 222 255
197 222 255
197 222 255
197 222 255
197 222 255
197 222 255
197 222 255
197 222 255
197 222 255
197 222 255
197 222 255
197 222 255
197 222 255
197 222 255
197 222 255
197 222 255
197 222 255
197 222 255
197 222 255
197 222 255
197 222 255
197 222 255
197 222 255
197 222 255
197 222 255
197 222 255
197 223 255
198 223 255
198 223 255
198 223 255
198 223 255
198 223 255
198 223 255
198 223 255
198 223 255
198 223 255
198 223 255
198 223 255
198 223 255
198 223 255
198 223 255
198 223 255
198 223 255
198 223 255
198 223 255
198 223 255
198 223 255
198 223 255
198 223 255
199 223 255
199 223 255
199 223 255
199 223 255
199 223 255
199 223 255
199 223 255
199 223 255
199 223 255
199 223 255
199 223 255
199 223 255
199 223 255
199 223 255
199 223 255
199 224 255
199 224 255
200 224 255
200 224 255
200 224 255
200 224 255
200 224 255
200 224 255
200 224 255
200 224 255
200 224 255
200 224 255
200 224 255
200 224 255
200 224 255
200 224 255
200 224 255
200 224 255
201 224 255
201 224 255
201 224 255
201 224 255
201 224 255
201 224 255
201 224 255
201 224 255
201 224 255
201 224 255
201 225 255
201 225 255
201 225 255
201 225 255
202 225 255
202 225 255
202 225 255
202 225 255
202 225 255
202 225 255
202 225 255
202 225 255
202 225 255
202 225 255
202 225 255
202 225 255
202 225 255
202 225 255
202 225 255
203 225 255
203 225 255
203 225 255
203 225 255
203 225 255
203 225 255
203 225 255
203 225 255
203 225 255
203 226 255
203 226 255
203 226 255
203 226 255
203 226 255
203 226 255
203 226 255
204 226 255
204 226 255
204 226 255
204 226 255
204 226 255
204 226 255
204 226 255
204 226 255
204 226 255
204 226 255
204 226 255
204 226 255
204 226 255
204 226 255
204 226 255
204 226 255
205 226 255
205 226 255
205 226 255
205 226 255
205 226 255
205 226 255
205 226 255
205 227 255
205 227 255
205 227 255
205 227 255
205 227 255
205 227 255
205 227 255
205 227 255
205 227 255
205 227 255
206 227 255
206 227 255
206 227 255
206 227 255
206 227 255
206 227 255
206 227 255
206 227 255
206 227 255
206 227 255
206 227 255
206 227 255
206 227 255
206 227 255
206 227 255
206 227 255
206 227 255
206 227 255
207 227 255
207 227 255
207 227 255
207 227 255
207 227 255
207 228 255
207 228 255
207 228 255
207 228 255
207 228 255
207 228 255
207 228 255
207 228 255
207 228 255
207 228 255
207 228 255
207 228 255
207 228 255
207 228 255
208 228 255
207 228 255
207 228 255
207 228 255
207 228 255
207 228 255
207 228 255
207 228 255
207 228 255
207 228 255
207 228 255
207 228 255
207 228 255
207 228 255
207 228 255
207 228 255
207 228 255
207 227 255
207 227 255
207 227 255
207 227 255
206 227 255
206 227 255
206 227 255
206 227 255
206 227 255
206 227 255
206 227 255
206 227 255
206 227 255
206 227 255
206 227 255
206 227 255
206 227 255
206 227 255
206 227 255
206 227 255
206 227 255
206 227 255
206 227 255
205 227 255
205 227 255
205 227 255
205 227 255
205 227 255
205 227 255
205 227 255
205 227 255
205 227 255
205 227 255
205 226 255
205 226 255
205 226 255
205 226 255
205 226 255
205 226 255
205 226 255
204 226 255
204 226 255
204 226 255
204 226 255
204 226 255
204 226 255
204 226 255
204 226 255
204 226 255
204 226 255
204 226 255
204 226 255
204 226 255
204 226 255
204 226 255
203 226 255
203 226 255
203 226 255
203 226 255
203 226 255
203 226 255
203 226 255
203 226 255
203 225 255
203 225 255
203 225 255
203 225 255
203 225 255
203 225 255
203 225 255
203 225 255
202 225 255
202 225 255
202 225 255
202 225 255
202 225 255
202 225 255
202 225 255
202 225 255
202 225 255
202 225 255
202 225 255
202 225 255
202 225 255
202 225 255
202 225 255
201 225 255
201 225 255
201 225 255
201 225 255
201 224 255
201 224 255
201 224 255
201 224 255
201 224 255
201 224 255
201 224 255
201 224 255
201 224 255
201 224 255
201 224 255
200 224 255
200 224 255
200 224 255
200 224 255
200 224 255
200 224 255
200 224 255
200 224 255
200 224 255
200 224 255
200 224 255
200 224 255
200 224 255
200 224 255
200 224 255
199 224 255
199 224 255
199 224 255
199 223 255
199 223 255
199 223 255
199 223 255
199 223 255
199 223 255
199 223 255
199 223 255
199 223 255
199 223 255
199 223 255
199 223 255
199 223 255
199 223 255
199 223 255
198 223 255
198 223 255
198 223 255
198 223 255
198 223 255
198 223 255
198 223 255
198 223 255
198 223 255
198 223 255
198 223 255
198 223 255
198 223 255
198 223 255
198 223 255
198 223 255
198 223 255
198 223 255
198 223 255
198 223 255
198 223 255
198 223 255
198 223 255
198 223 255
198 223 255
197 222 255
197 222 255
197 222 255
197 222 255
197 222 255
197 222 255
197 222 255
197 222 255
197 222 255
197 222 255
197 222 255
197 222 255
197 222 255
197 222 255
197 222 255
197 222 255
197 222 255
197 222 255
197 222 255
197 222 255
197 222 255
197 222 255
197 222 255
197 222 255
197 222 255
197 222 255
197 222 255
197 222 255
197 222 255
197 222 255
197 222 255
197 222 255
197 222 255
197 222 255
197 222 255
197 222 255
197 222 255
197 222 255
197 222 255
197 222 255
197 222 255
197 222 255
197 222 255
197 222 255
197 222 255
197 222 255
197 222 255
197 223 255
198 223 255
198 223 255
198 223 255
198 223 255
198 223 255
198 223 255
198 223 255
198 223 255
198 223 255
198 223 255
198 223 255
198 223 255
198 223 255
198 223 255
198 223 255
198 223 255
198 223 255
198 223 255
198 223 255
198 223 255
198 223 255
198 223 255
198 223 255
198 223 255
198 223 255
199 223 255
199 223 255
199 223 255
199 223 255
199 223 255
199 223 255
199 223 255
199 223 255
199 223 255
199 223 255
199 223 255
199 223 255
199 223 255
199 223 255
199 223 255
199 224 255
199 224 255
199 224 255
200 224 255
200 224 255
200 224 255
200 224 255
200 224 255
200 224 255
200 224 255
200 224 255
200 224 255
200 224 255
200 224 255
200 224 255
200 224 255
200 224 255
200 224 255
201 224 255
201 224 255
201 224 255
201 224 255
201 224 255
201 224 255
201 224 255
201 224 255
201 224 255
201 224 255
201 224 255
201 225 255
201 225 255
201 225 255
201 225 255
202 225 255
202 225 255
202 225 255
202 225 255
202 225 255
202 225 255
202 225 255
202 225 255
202 225 255
202 225 255
202 225 255
202 225 255
202 225 255
202 225 255
202 225 255
203 225 255
203 225 255
203 225 255
203 225 255
203 225 255
203 225 255
203 225 255
203 225 255
203 226 255
203 226 255
203 226 255
203 226 255
203 226 255
203 226 255
203 226 255
203 226 255
204 226 255
204 226 255
204 226 255
204 226 255
204 226 255
204 226 255
204 226 255
204 226 255
204 226 255
204 226 255
204 226 255
204 226 255
204 226 255
204 226 255
204 226 255
204 226 255
205 226 255
205 226 255
205 226 255
205 226 255
205 226 255
205 226 255
205 227 255
205 227 255
205 227 255
205 227 255
205 227 255
205 227 255
205 227 255
205 227 255
205 227 255
205 227 255
206 227 255
206 227 255
206 227 255
206 227 255
206 227 255
206 227 255
206 227 255
206 227 255
206 227 255
206 227 255
206 227 255
206 227 255
206 227 255
206 227 255
206 227 255
206 227 255
206 227 255
206 227 255
206 227 255
207 227 255
207 227 255
207 227 255
207 227 255
207 228 255
207 228 255
207 228 255
207 228 255
207 228 255
207 228 255
207 228 255
207 228 255
207 228 255
207 228 255
207 228 255
207 228 255
207 228 255
207 228 255
207 228 255
208 228 255
208 228 255
208 228 255
208 228 255
208 228 255
208 228 255
207 228 255
207 228 255
207 228 255
207 228 255
207 228 255
207 228 255
207 228 255
207 228 255
207 228 255
207 228 255
207 228 255
207 228 255
207 228 255
207 228 255
207 228 255
207 227 255
207 227 255
207 227 255
207 227 255
207 227 255
206 227 255
206 227 255
206 227 255
206 227 255
206 227 255
206 227 255
206 227 255
206 227 255
206 227 255
206 227 255
206 227 255
206 227 255
206 227 255
206 227 255
206 227 255
206 227 255
206 227 255
206 227 255
205 227 255
205 227 255
205 227 255
205 227 255
205 227 255
205 227 255
205 227 255
205 227 255
205 227 255
205 227 255
205 227 255
205 226 255
205 226 255
205 226 255
205 226 255
205 226 255
205 226 255
205 226 255
204 226 255
204 226 255
204 226 255
204 226 255
204 226 255
204 226 255
204 226 255
204 226 255
204 226 255
204 226 255
204 226 255
204 226 255
204 226 255
204 226 255
204 226 255
204 226 255
203 226 255
203 226 255
203 226 255
203 226 255
203 226 255
203 226 255
203 225 255
203 225 255
203 225 255
203 225 255
203 225 255
203 225 255
203 225 255
203 225 255
203 225 255
202 225 255
202 225 255
202 225 255
202 225 255
202 225 255
202 225 255
202 225 255
202 225 255
202 225 255
202 225 255
202 225 255
202 225 255
202 225 255
202 225 255
201 225 255
201 225 255
201 225 255
201 225 255
201 225 255
201 224 255
201 224 255
201 224 255
201 224 255
201 224 255
201 224 255
201 224 255
201 224 255
201 224 255
201 224 255
200 224 255
200 224 255
200 224 255
200 224 255
200 224 255
200 224 255
200 224 255
200 224 255
200 224 255
200 224 255
200 224 255
200 224 255
200 224 255
200 224 255
200 224 255
200 224 255
200 224 255
199 224 255
199 224 255
199 223 255
199 223 255
199 223 255
199 223 255
199 223 255
199 223 255
199 223 255
199 223 255
199 223 255
199 223 255
199 223 255
199 223 255
199 223 255
199 223 255
199 223 255
199 223 255
198 223 255
198 223 255
198 223 255
198 223 255
198 223 255
198 223 255
198 223 255
198 223 255
198 223 255
198 223 255
198 223 255
198 223 255
198 223 255
198 223 255
198 223 255
198 223 255
198 223 255
198 223 255
198 223 255
198 223 255
198 223 255
198 223 255
198 223 255
198 223 255
198 223 255
198 223 255
197 223 255
197 223 255
197 223 255
197 223 255
197 223 255
197 222 255
197 222 255
197 222 255
197 222 255
197 222 255
197 222 255
197 222 255
197 222 255
197 222 255
197 222 255
197 222 255
197 222 255
197 222 255
197 222 255
197 222 255
197 222 255
197 222 255
197 222 255
197 222 255
197 222 255
197 222 255
197 222 255
197 222 255
197 222 255
197 222 255
197 222 255
197 222 255
197 222 255
197 222 255
197 222 255
197 222 255
197 223 255
198 223 255
198 223 255
198 223 255
198 223 255
198 223 255
198 223 255
198 223 255
198 223 255
198 223 255
198 223 255
198 223 255
198 223 255
198 223 255
198 223 255
198 223 255
198 223 255
198 223 255
198 223 255
198 223 255
198 223 255
198 223 255
198 223 255
198 223 255
198 223 255
198 223 255
198 223 255
198 223 255
199 223 255
199 223 255
199 223 255
199 223 255
199 223 255
199 223 255
199 223 255
199 223 255
199 223 255
199 223 255
199 223 255
199 223 255
199 223 255
199 223 255
199 223 255
199 223 255
199 224 255
199 224 255
200 224 255
200 224 255
200 224 255
200 224 255
200 224 255
200 224 255
200 224 255
200 224 255
200 224 255
200 224 255
200 224 255
200 224 255
200 224 255
200 224 255
200 224 255
200 224 255
201 224 255
201 224 255
201 224 255
201 224 255
201 224 255
201 224 255
201 224 255
201 224 255
201 224 255
201 224 255
201 224 255
201 225 255
201 225 255
201 225 255
201 225 255
201 225 255
202 225 255
202 225 255
202 225 255
202 225 255
202 225 255
202 225 255
202 225 255
202 225 255
202 225 255
202 225 255
202 225 255
202 225 255
202 225 255
202 225 255
202 225 255
203 225 255
203 225 255
203 225 255
203 225 255
203 225 255
203 225 255
203 225 255
203 225 255
203 226 255
203 226 255
203 226 255
203 226 255
203 226 255
203 226 255
203 226 255
204 226 255
204 226 255
204 226 255
204 226 255
204 226 255
204 226 255
204 226 255
204 226 255
204 226 255
204 226 255
204 226 255
204 226 255
204 226 255
204 226 255
204 226 255
204 226 255
205 226 255
205 226 255
205 226 255
205 226 255
205 226 255
205 226 255
205 227 255
205 227 255
205 227 255
205 227 255
205 227 255
205 227 255
205 227 255
205 227 255
205 227 255
205 227 255
206 227 255
206 227 255
206 227 255
206 227 255
206 227 255
206 227 255
206 227 255
206 227 255
206 227 255
206 227 255
206 227 255
206 227 255
206 227 255
206 227 255
206 227 255
206 227 255
206 227 255
206 227 255
207 227 255
207 227 255
207 227 255
207 227 255
207 227 255
207 227 255
207 228 255
207 228 255
207 228 255
207 228 255
207 228 255
207 228 255
207 228 255
207 228 255
207 228 255
207 228 255
207 228 255
207 228 255
207 228 255
207 228 255
207 228 255
208 228 255
208 228 255
208 228 255
208 228 255
208 228 255
208 228 255
208 228 255
208 228 255
208 228 255
208 228 255
208 228 255
207 228 255
207 228 255
207 228 255
207 228 255
207 228 255
207 228 255
207 228 255
207 228 255
207 228 255
207 228 255
207 228 255
207 228 255
207 228 255
207 228 255
207 228 255
207 227 255
207 227 255
207 227 255
207 227 255
207 227 255
206 227 255
206 227 255
206 227 255
206 227 255
206 227 255
206 227 255
206 227 255
206 227 255
206 227 255
206 227 255
206 227 255
206 227 255
206 227 255
206 227 255
206 227 255
206 227 255
206 227 255
206 227 255
205 227 255
205 227 255
205 227 255
205 227 255
205 227 255
205 227 255
205 227 255
205 227 255
205 227 255
205 227 255
205 227 255
205 226 255
205 226 255
205 226 255
205 226 255
205 226 255
205 226 255
204 226 255
204 226 255
204 226 255
204 226 255
204 226 255
204 226 255
204 226 255
204 226 255
204 226 255
204 226 255
204 226 255
204 226 255
204 226 255
204 226 255
204 226 255
203 226 255
203 226 255
203 226 255
203 226 255
203 226 255
203 226 255
203 226 255
203 226 255
203 225 255
203 225 255
203 225 255
203 225 255
203 225 255
203 225 255
203 225 255
203 225 255
203 225 255
202 225 255
202 225 255
202 225 255
202 225 255
202 225 255
202 225 255
202 225 255
202 225 255
202 225 255
202 225 255
202 225 255
202 225 255
202 225 255
202 225 255
201 225 255
201 225 255
201 225 255
201 225 255
201 224 255
201 224 255
201 224 255
201 224 255
201 224 255
201 224 255
201 224 255
201 224 255
201 224 255
201 224 255
201 224 255
201 224 255
200 224 255
200 224 255
200 224 255
200 224 255
200 224 255
200 224 255
200 224 255
200 224 255
200 224 255
200 224 255
200 224 255
200 224 255
200 224 255
200 224 255
200 224 255
200 224 255
199 224 255
199 224 255
199 223 255
199 223 255
199 223 255
199 223 255
199 223 255
199 223 255
199 223 255
199 223 255
199 223 255
199 223 255
199 223 255
199 223 255
199 223 255
199 223 255
199 223 255
199 223 255
199 223 255
198 223 255
198 223 255
198 223 255
198 223 255
198 223 255
198 223 255
198 223 255
198 223 255
198 223 255
198 223 255
198 223 255
198 223 255
198 223 255
198 223 255
198 223 255
198 223 255
198 223 255
198 223 255
198 223 255
198 223 255
198 223 255
198 223 255
198 223 255
198 223 255
198 223 255
198 223 255
198 223 255
198 223 255
198 223 255
198 223 255
198 223 255
198 223 255
198 223 255
198 223 255
198 223 255
198 223 255
197 223 255
197 223 255
198 223 255
197 223 255
197 223 255
197 223 255
198 223 255
198 223 255
198 223 255
197 223 255
197 223 255
198 223 255
198 223 255
198 223 255
198 223 255
198 223 255
198 223 255
198 223 255
198 223 255
198 223 255
198 223 255
198 223 255
198 223 255
198 223 255
198 223 255
198 223 255
198 223 255
198 223 255
198 223 255
198 223 255
198 223 255
198 223 255
198 223 255
198 223 255
198 223 255
198 223 255
198 223 255
198 223 255
198 223 255
198 223 255
198 223 255
198 223 255
198 223 255
198 223 255
198 223 255
198 223 255
198 223 255
199 223 255
199 223 255
199 223 255
199 223 255
199 223 255
199 223 255
199 223 255
199 223 255
199 223 255
199 223 255
199 223 255
199 223 255
199 223 255
199 223 255
199 223 255
199 223 255
199 224 255
199 224 255
200 224 255
200 224 255
200 224 255
200 224 255
200 224 255
200 224 255
200 224 255
200 224 255
200 224 255
200 224 255
200 224 255
200 224 255
200 224 255
200 224 255
200 224 255
200 224 255
201 224 255
201 224 255
201 224 255
201 224 255
201 224 255
201 224 255
201 224 255
201 224 255
201 224 255
201 224 255
201 224 255
201 225 255
201 225 255
201 225 255
201 225 255
201 225 255
202 225 255
202 225 255
202 225 255
202 225 255
202 225 255
202 225 255
202 225 255
202 225 255
202 225 255
202 225 255
202 225 255
202 225 255
202 225 255
202 225 255
202 225 255
203 225 255
203 225 255
203 225 255
203 225 255
203 225 255
203 225 255
203 225 255
203 225 255
203 225 255
203 226 255
203 226 255
203 226 255
203 226 255
203 226 255
203 226 255
204 226 255
204 226 255
204 226 255
204 226 255
204 226 255
204 226 255
204 226 255
204 226 255
204 226 255
204 226 255
204 226 255
204 226 255
204 226 255
204 226 255
204 226 255
204 226 255
205 226 255
205 226 255
205 226 255
205 226 255
205 226 255
205 226 255
205 227 255
205 227 255
205 227 255
205 227 255
205 227 255
205 227 255
205 227 255
205 227 255
205 227 255
205 227 255
205 227 255
206 227 255
206 227 255
206 227 255
206 227 255
206 227 255
206 227 255
206 227 255
206 227 255
206 227 255
206 227 255
206 227 255
206 227 255
206 227 255
206 227 255
206 227 255
206 227 255
206 227 255
206 227 255
207 227 255
207 227 255
207 227 255
207 227 255
207 227 255
207 228 255
207 228 255
207 228 255
207 228 255
207 228 255
207 228 255
207 228 255
207 228 255
207 228 255
207 228 255
207 228 255
207 228 255
207 228 255
207 228 255
207 228 255
208 228 255
208 228 255
208 228 255
208 228 255
208 228 255
208 228 255
208 228 255
208 228 255
208 228 255
208 228 255
208 228 255
208 228 255
208 228 255
208 228 255
208 228 255
208 228 255
208 228 255
207 228 255
207 228 255
207 228 255
207 228 255
207 228 255
207 228 255
207 228 255
207 228 255
207 228 255
207 228 255
207 228 255
207 228 255
207 228 255
207 228 255
207 228 255
207 227 255
207 227 255
207 227 255
207 227 255
207 227 255
206 227 255
206 227 255
206 227 255
206 227 255
206 227 255
206 227 255
206 227 255
206 227 255
206 227 255
206 227 255
206 227 255
206 227 255
206 227 255
206 227 255
206 227 255
206 227 255
206 227 255
206 227 255
205 227 255
205 227 255
205 227 255
205 227 255
205 227 255
205 227 255
205 227 255
205 227 255
205 227 255
205 227 255
205 226 255
205 226 255
205 226 255
205 226 255
205 226 255
205 226 255
205 226 255
204 226 255
204 226 255
204 226 255
204 226 255
204 226 255
204 226 255
204 226 255
204 226 255
204 226 255
204 226 255
204 226 255
204 226 255
204 226 255
204 226 255
204 226 255
203 226 255
203 226 255
203 226 255
203 226 255
203 226 255
203 226 255
203 226 255
203 225 255
203 225 255
203 225 255
203 225 255
203 225 255
203 225 255
203 225 255
203 225 255
202 225 255
202 225 255
202 225 255
202 225 255
202 225 255
202 225 255
202 225 255
202 225 255
202 225 255
202 225 255
202 225 255
202 225 255
202 225 255
202 225 255
202 225 255
202 225 255
201 225 255
201 225 255
201 225 255
201 225 255
201 224 255
201 224 255
201 224 255
201 224 255
201 224 255
201 224 255
201 224 255
201 224 255
201 224 255
201 224 255
201 224 255
200 224 255
200 224 255
200 224 255
200 224 255
200 224 255
200 224 255
200 224 255
200 224 255
200 224 255
200 224 255
200 224 255
200 224 255
200 224 255
200 224 255
200 224 255
200 224 255
200 224 255
199 224 255
199 224 255
199 224 255
199 223 255
199 223 255
199 223 255
199 223 255
199 223 255
199 223 255
199 223 255
199 223 255
199 223 255
199 223 255
199 223 255
199 223 255
199 223 255
199 223 255
199 223 255
199 223 255
198 223 255
198 223 255
198 223 255
198 223 255
198 223 255
198 223 255
198 223 255
198 223 255
198 223 255
198 223 255
198 223 255
198 223 255
198 223 255
198 223 255
198 223 255
198 223 255
198 223 255
198 223 255
198 223 255
198 223 255
198 223 255
198 223 255
198 223 255
198 223 255
198 223 255
198 223 255
198 223 255
198 223 255
198 223 255
198 223 255
198 223 255
198 223 255
198 223 255
198 223 255
198 223 255
198 223 255
198 223 255
198 223 255
198 223 255
198 223 255
198 223 255
198 223 255
198 223 255
198 223 255
198 223 255
198 223 255
198 223 255
198 223 255
198 223 255
198 223 255
198 223 255
198 223 255
198 223 255
198 223 255
198 223 255
198 223 255
198 223 255
198 223 255
198 223 255
198 223 255
198 223 255
198 223 255
198 223 255
198 223 255
198 223 255
198 223 255
198 223 255
198 223 255
198 223 255
198 223 255
198 223 255
198 223 255
198 223 255
198 223 255
198 223 255
198 223 255
199 223 255
199 223 255
199 223 255
199 223 255
199 223 255
199 223 255
199 223 255
199 223 255
199 223 255
199 223 255
199 223 255
199 223 255
199 223 255
199 223 255
199 223 255
199 223 255
199 223 255
199 224 255
199 224 255
200 224 255
200 224 255
200 224 255
200 224 255
200 224 255
200 224 255
200 224 255
200 224 255
200 224 255
200 224 255
200 224 255
200 224 255
200 224 255
200 224 255
200 224 255
200 224 255
200 224 255
201 224 255
201 224 255
201 224 255
201 224 255
201 224 255
201 224 255
201 224 255
201 224 255
201 224 255
201 224 255
201 224 255
201 225 255
201 225 255
201 225 255
201 225 255
202 225 255
202 225 255
202 225 255
202 225 255
202 225 255
202 225 255
202 225 255
202 225 255
202 225 255
202 225 255
202 225 255
202 225 255
202 225 255
202 225 255
202 225 255
202 225 255
203 225 255
203 225 255
203 225 255
203 225 255
203 225 255
203 225 255
203 225 255
203 226 255
203 226 255
203 226 255
203 226 255
203 226 255
203 226 255
203 226 255
203 226 255
204 226 255
204 226 255
204 226 255
204 226 255
204 226 255
204 226 255
204 226 255
204 226 255
204 226 255
204 226 255
204 226 255
204 226 255
204 226 255
204 226 255
204 226 255
205 226 255
205 226 255
205 226 255
205 226 255
205 226 255
205 226 255
205 227 255
205 227 255
205 227 255
205 227 255
205 227 255
205 227 255
205 227 255
205 227 255
205 227 255
205 227 255
206 227 255
206 227 255
206 227 255
206 227 255
206 227 255
206 227 255
206 227 255
206 227 255
206 227 255
206 227 255
206 227 255
206 227 255
206 227 255
206 227 255
206 227 255
206 227 255
206 227 255
206 227 255
206 227 255
207 227 255
207 227 255
207 227 255
207 227 255
207 227 255
207 228 255
207 228 255
207 228 255
207 228 255
207 228 255
207 228 255
207 228 255
207 228 255
207 228 255
207 228 255
207 228 255
207 228 255
207 228 255
207 228 255
207 228 255
208 228 255
208 228 255
208 228 255
208 228 255
208 228 255
208 228 255
208 228 255
208 228 255
208 228 255
208 228 255
208 228 255
208 228 255
208 228 255
208 228 255
208 228 255
208 228 255
208 228 255
208 228 255
208 228 255
208 228 255
208 228 255
208 228 255
208 228 255
207 228 255
207 228 255
207 228 255
207 228 255
207 228 255
207 228 255
207 228 255
207 228 255
207 228 255
207 228 255
207 228 255
207 228 255
207 228 255
207 228 255
207 228 255
207 227 255
207 227 255
207 227 255
207 227 255
207 227 255
206 227 255
206 227 255
206 227 255
206 227 255
206 227 255
206 227 255
206 227 255
206 227 255
206 227 255
206 227 255
206 227 255
206 227 255
206 227 255
206 227 255
206 227 255
206 227 255
206 227 255
206 227 255
205 227 255
205 227 255
205 227 255
205 227 255
205 227 255
205 227 255
205 227 255
205 227 255
205 227 255
205 227 255
205 226 255
205 226 255
205 226 255
205 226 255
205 226 255
205 226 255
204 226 255
204 226 255
204 226 255
204 226 255
204 226 255
204 226 255
204 226 255
204 226 255
204 226 255
204 226 255
204 226 255
204 226 255
204 226 255
204 226 255
204 226 255
204 226 255
204 226 255
203 226 255
203 226 255
203 226 255
203 226 255
203 226 255
203 226 255
203 225 255
203 225 255
203 225 255
203 225 255
203 225 255
203 225 255
203 225 255
203 225 255
203 225 255
202 225 255
202 225 255
202 225 255
202 225 255
202 225 255
202 225 255
202 225 255
202 225 255
202 225 255
202 225 255
202 225 255
202 225 255
202 225 255
202 225 255
201 225 255
201 225 255
201 225 255
201 225 255
201 225 255
201 224 255
201 224 255
201 224 255
201 224 255
201 224 255
201 224 255
201 224 255
201 224 255
201 224 255
201 224 255
201 224 255
200 224 255
200 224 255
200 224 255
200 224 255
200 224 255
200 224 255
200 224 255
200 224 255
200 224 255
200 224 255
200 224 255
200 224 255
200 224 255
200 224 255
200 224 255
200 224 255
199 224 255
199 224 255
199 224 255
199 224 255
199 223 255
199 223 255
199 223 255
199 223 255
199 223 255
199 223 255
199 223 255
199 223 255
199 223 255
199 223 255
199 223 255
199 223 255
199 223 255
199 223 255
199 223 255
199 223 255
199 223 255
199 223 255
199 223 255
198 223 255
198 223 255
198 223 255
198 223 255
198 223 255
198 223 255
198 223 255
198 223 255
198 223 255
198 223 255
198 223 255
198 223 255
198 223 255
198 223 255
198 223 255
198 223 255
198 223 255
198 223 255
198 223 255
198 223 255
198 223 255
198 223 255
198 223 255
198 223 255
198 223 255
198 223 255
198 223 255
198 223 255
198 223 255
198 223 255
198 223 255
198 223 255
198 223 255
198 223 255
198 223 255
198 223 255
198 223 255
198 223 255
198 223 255
198 223 255
198 223 255
198 223 255
198 223 255
198 223 255
198 223 255
198 223 255
198 223 255
198 223 255
198 223 255
198 223 255
198 223 255
198 223 255
198 223 255
198 223 255
198 223 255
198 223 255
198 223 255
198 223 255
198 223 255
198 223 255
198 223 255
198 223 255
198 223 255
198 223 255
199 223 255
199 223 255
199 223 255
199 223 255
199 223 255
199 223 255
199 223 255
199 223 255
199 223 255
199 223 255
199 223 255
199 223 255
199 223 255
199 223 255
199 223 255
199 223 255
199 223 255
199 223 255
199 223 255
199 224 255
199 224 255
199 224 255
199 224 255
200 224 255
200 224 255
200 224 255
200 224 255
200 224 255
200 224 255
200 224 255
200 224 255
200 224 255
200 224 255
200 224 255
200 224 255
200 224 255
200 224 255
200 224 255
201 224 255
201 224 255
201 224 255
201 224 255
201 224 255
201 224 255
201 224 255
201 224 255
201 224 255
201 224 255
201 224 255
201 224 255
201 225 255
201 225 255
201 225 255
201 225 255
202 225 255
202 225 255
202 225 255
202 225 255
202 225 255
202 225 255
202 225 255
202 225 255
202 225 255
202 225 255
202 225 255
202 225 255
202 225 255
202 225 255
202 225 255
203 225 255
203 225 255
203 225 255
203 225 255
203 225 255
203 225 255
203 225 255
203 225 255
203 225 255
203 226 255
203 226 255
203 226 255
203 226 255
203 226 255
203 226 255
203 226 255
204 226 255
204 226 255
204 226 255
204 226 255
204 226 255
204 226 255
204 226 255
204 226 255
204 226 255
204 226 255
204 226 255
204 226 255
204 226 255
204 226 255
204 226 255
205 226 255
205 226 255
205 226 255
205 226 255
205 226 255
205 226 255
205 226 255
205 226 255
205 227 255
205 227 255
205 227 255
205 227 255
205 227 255
205 227 255
205 227 255
205 227 255
205 227 255
206 227 255
206 227 255
206 227 255
206 227 255
206 227 255
206 227 255
206 227 255
206 227 255
206 227 255
206 227 255
206 227 255
206 227 255
206 227 255
206 227 255
206 227 255
206 227 255
206 227 255
206 227 255
207 227 255
207 227 255
207 227 255
207 227 255
207 227 255
207 228 255
207 228 255
207 228 255
207 228 255
207 228 255
207 228 255
207 228 255
207 228 255
207 228 255
207 228 255
207 228 255
207 228 255
207 228 255
207 228 255
207 228 255
208 228 255
208 228 255
208 228 255
208 228 255
208 228 255
208 228 255
208 228 255
208 228 255
208 228 255
208 228 255
208 228 255
208 228 255
208 228 255
208 228 255
208 228 255
208 228 255
208 228 255
208 228 255
208 228 255
208 228 255
208 228 255
208 228 255
208 228 255
208 228 255
208 228 255
208 228 255
208 228 255
208 228 255
208 228 255
207 228 255
207 228 255
207 228 255
207 228 255
207 228 255
207 228 255
207 228 255
207 228 255
207 228 255
207 228 255
207 228 255
207 228 255
207 228 255
207 228 255
207 228 255
207 227 255
207 227 255
207 227 255
207 227 255
207 227 255
206 227 255
206 227 255
206 227 255
206 227 255
206 227 255
206 227 255
206 227 255
206 227 255
206 227 255
206 227 255
206 227 255
206 227 255
206 227 255
206 227 255
206 227 255
206 227 255
206 227 255
206 227 255
205 227 255
205 227 255
205 227 255
205 227 255
205 227 255
205 227 255
205 227 255
205 227 255
205 227 255
205 227 255
205 226 255
205 226 255
205 226 255
205 226 255
205 226 255
205 226 255
204 226 255
204 226 255
204 226 255
204 226 255
204 226 255
204 226 255
204 226 255
204 226 255
204 226 255
204 226 255
204 226 255
204 226 255
204 226 255
204 226 255
204 226 255
204 226 255
203 226 255
203 226 255
203 226 255
203 226 255
203 226 255
203 226 255
203 225 255
203 225 255
203 225 255
203 225 255
203 225 255
203 225 255
203 225 255
203 225 255
203 225 255
203 225 255
202 225 255
202 225 255
202 225 255
202 225 255
202 225 255
202 225 255
202 225 255
202 225 255
202 225 255
202 225 255
202 225 255
202 225 255
202 225 255
202 225 255
202 225 255
201 225 255
201 225 255
201 225 255
201 225 255
201 224 255
201 224 255
201 224 255
201 224 255
201 224 255
201 224 255
201 224 255
201 224 255
201 224 255
201 224 255
201 224 255
200 224 255
200 224 255
200 224 255
200 224 255
200 224 255
200 224 255
200 224 255
200 224 255
200 224 255
200 224 255
200 224 255
200 224 255
200 224 255
200 224 255
200 224 255
200 224 255
200 224 255
199 224 255
199 224 255
199 224 255
199 224 255
199 223 255
199 223 255
199 223 255
199 223 255
199 223 255
199 223 255
199 223 255
199 223 255
199 223 255
199 223 255
199 223 255
199 223 255
199 223 255
199 223 255
199 223 255
199 223 255
199 223 255
199 223 255
199 223 255
199 223 255
198 223 255
198 223 255
198 223 255
198 223 255
198 223 255
198 223 255
198 223 255
198 223 255
198 223 255
198 223 255
198 223 255
198 223 255
198 223 255
198 223 255
198 223 255
198 223 255
198 223 255
198 223 255
198 223 255
198 223 255
198 223 255
198 223 255
198 223 255
198 223 255
198 223 255
198 223 255
198 223 255
198 223 255
198 223 255
198 223 255
198 223 255
198 223 255
198 223 255
198 223 255
198 223 255
198 223 255
198 223 255
198 223 255
198 223 255
198 223 255
198 223 255
198 223 255
198 223 255
198 223 255
198 223 255
198 223 255
198 223 255
198 223 255
198 223 255
198 223 255
198 223 255
198 223 255
198 223 255
198 223 255
199 223 255
199 223 255
199 223 255
199 223 255
199 223 255
199 223 255
199 223 255
199 223 255
199 223 255
199 223 255
199 223 255
199 223 255
199 223 255
199 223 255
199 223 255
199 223 255
199 223 255
199 223 255
199 223 255
199 224 255
199 224 255
199 224 255
199 224 255
199 224 255
200 224 255
200 224 255
200 224 255
200 224 255
200 224 255
200 224 255
200 224 255
200 224 255
200 224 255
200 224 255
200 224 255
200 224 255
200 224 255
200 224 255
200 224 255
200 224 255
200 224 255
201 224 255
201 224 255
201 224 255
201 224 255
201 224 255
201 224 255
201 224 255
201 224 255
201 224 255
201 224 255
201 224 255
201 225 255
201 225 255
201 225 255
201 225 255
201 225 255
202 225 255
202 225 255
202 225 255
202 225 255
202 225 255
202 225 255
202 225 255
202 225 255
202 225 255
202 225 255
202 225 255
202 225 255
202 225 255
202 225 255
202 225 255
203 225 255
203 225 255
203 225 255
203 225 255
203 225 255
203 225 255
203 225 255
203 225 255
203 226 255
203 226 255
203 226 255
203 226 255
203 226 255
203 226 255
203 226 255
204 226 255
204 226 255
204 226 255
204 226 255
204 226 255
204 226 255
204 226 255
204 226 255
204 226 255
204 226 255
204 226 255
204 226 255
204 226 255
204 226 255
204 226 255
204 226 255
205 226 255
205 226 255
205 226 255
205 226 255
205 226 255
205 226 255
205 227 255
205 227 255
205 227 255
205 227 255
205 227 255
205 227 255
205 227 255
205 227 255
205 227 255
205 227 255
206 227 255
206 227 255
206 227 255
206 227 255
206 227 255
206 227 255
206 227 255
206 227 255
206 227 255
206 227 255
206 227 255
206 227 255
206 227 255
206 227 255
206 227 255
206 227 255
206 227 255
206 227 255
207 227 255
207 227 255
207 227 255
207 227 255
207 227 255
207 228 255
207 228 255
207 228 255
207 228 255
207 228 255
207 228 255
207 228 255
207 228 255
207 228 255
207 228 255
207 228 255
207 228 255
207 228 255
207 228 255
207 228 255
208 228 255
208 228 255
208 228 255
208 228 255
208 228 255
208 228 255
208 228 255
208 228 255
208 228 255
208 228 255
208 228 255
208 228 255
208 228 255
208 228 255
208 228 255
208 228 255
208 228 255
208 228 255
208 228 255
208 228 255
208 228 255
208 228 255
208 228 255
208 228 255
208 228 255
208 228 255
208 228 255
208 228 255
208 228 255
208 228 255
208 228 255
208 228 255
208 228 255
208 228 255
208 228 255
207 228 255
207 228 255
207 228 255
207 228 255
207 228 255
207 228 255
207 228 255
207 228 255
207 228 255
207 228 255
207 228 255
207 228 255
207 228 255
207 228 255
207 228 255
207 227 255
207 227 255
207 227 255
207 227 255
207 227 255
206 227 255
206 227 255
206 227 255
206 227 255
206 227 255
206 227 255
206 227 255
206 227 255
206 227 255
206 227 255
206 227 255
206 227 255
206 227 255
206 227 255
206 227 255
206 227 255
206 227 255
206 227 255
205 227 255
205 227 255
205 227 255
205 227 255
205 227 255
205 227 255
205 227 255
205 227 255
205 227 255
205 227 255
205 226 255
205 226 255
205 226 255
205 226 255
205 226 255
205 226 255
204 226 255
204 226 255
204 226 255
204 226 255
204 226 255
204 226 255
204 226 255
204 226 255
204 226 255
204 226 255
204 226 255
204 226 255
204 226 255
204 226 255
204 226 255
204 226 255
203 226 255
203 226 255
203 226 255
203 226 255
203 226 255
203 226 255
203 226 255
203 225 255
203 225 255
203 225 255
203 225 255
203 225 255
203 225 255
203 225 255
203 225 255
202 225 255
202 225 255
202 225 255
202 225 255
202 225 255
202 225 255
202 225 255
202 225 255
202 225 255
202 225 255
202 225 255
202 225 255
202 225 255
202 225 255
202 225 255
201 225 255
201 225 255
201 225 255
201 225 255
201 225 255
201 224 255
201 224 255
201 224 255
201 224 255
201 224 255
201 224 255
201 224 255
201 224 255
201 224 255
201 224 255
201 224 255
201 224 255
200 224 255
200 224 255
200 224 255
200 224 255
200 224 255
200 224 255
200 224 255
200 224 255
200 224 255
200 224 255
200 224 255
200 224 255
200 224 255
200 224 255
200 224 255
200 224 255
200 224 255
199 224 255
199 224 255
199 224 255
199 224 255
199 223 255
199 223 255
199 223 255
199 223 255
199 223 255
199 223 255
199 223 255
199 223 255
199 223 255
199 223 255
199 223 255
199 223 255
199 223 255
199 223 255
199 223 255
199 223 255
199 223 255
199 223 255
199 223 255
199 223 255
199 223 255
199 223 255
199 223 255
198 223 255
198 223 255
198 223 255
198 223 255
198 223 255
198 223 255
198 223 255
198 223 255
198 223 255
198 223 255
198 223 255
198 223 255
198 223 255
198 223 255
198 223 255
198 223 255
198 223 255
198 223 255
198 223 255
198 223 255
198 223 255
198 223 255
198 223 255
198 223 255
198 223 255
198 223 255
198 223 255
198 223 255
198 223 255
198 223 255
198 223 255
198 223 255
198 223 255
198 223 255
198 223 255
198 223 255
198 223 255
198 223 255
198 223 255
198 223 255
199 223 255
199 223 255
199 223 255
199 223 255
199 223 255
199 223 255
199 223 255
199 223 255
199 223 255
199 223 255
199 223 255
199 223 255
199 223 255
199 223 255
199 223 255
199 223 255
199 223 255
199 223 255
199 223 255
199 223 255
199 223 255
199 223 255
199 223 255
199 224 255
199 224 255
199 224 255
200 224 255
200 224 255
200 224 255
200 224 255
200 224 255
200 224 255
200 224 255
200 224 255
200 224 255
200 224 255
200 224 255
200 224 255
200 224 255
200 224 255
200 224 255
200 224 255
200 224 255
200 224 255
200 224 255
201 224 255
201 224 255
201 224 255
201 224 255
201 224 255
201 224 255
201 224 255
201 224 255
201 224 255
201 224 255
201 224 255
201 225 255
201 225 255
201 225 255
201 225 255
201 225 255
202 225 255
202 225 255
202 225 255
202 225 255
202 225 255
202 225 255
202 225 255
202 225 255
202 225 255
202 225 255
202 225 255
202 225 255
202 225 255
202 225 255
202 225 255
203 225 255
203 225 255
203 225 255
203 225 255
203 225 255
203 225 255
203 225 255
203 225 255
203 225 255
203 226 255
203 226 255
203 226 255
203 226 255
203 226 255
203 226 255
203 226 255
204 226 255
204 226 255
204 226 255
204 226 255
204 226 255
204 226 255
204 226 255
204 226 255
204 226 255
204 226 255
204 226 255
204 226 255
204 226 255
204 226 255
204 226 255
205 226 255
205 226 255
205 226 255
205 226 255
205 226 255
205 226 255
205 226 255
205 227 255
205 227 255
205 227 255
205 227 255
205 227 255
205 227 255
205 227 255
205 227 255
205 227 255
205 227 255
206 227 255
206 227 255
206 227 255
206 227 255
206 227 255
206 227 255
206 227 255
206 227 255
206 227 255
206 227 255
206 227 255
206 227 255
206 227 255
206 227 255
206 227 255
206 227 255
206 227 255
207 227 255
207 227 255
207 227 255
207 227 255
207 228 255
207 228 255
207 228 255
207 228 255
207 228 255
207 228 255
207 228 255
207 228 255
207 228 255
207 228 255
207 228 255
207 228 255
207 228 255
207 228 255
207 228 255
207 228 255
208 228 255
208 228 255
208 228 255
208 228 255
208 228 255
208 228 255
208 228 255
208 228 255
208 228 255
208 228 255
208 228 255
208 228 255
208 228 255
208 228 255
208 228 255
208 228 255
208 228 255
208 228 255
208 228 255
209 228 255
208 228 255
208 228 255
208 228 255
208 228 255
208 228 255
208 228 255
208 228 255
208 228 255
208 228 255
208 228 255
208 228 255
208 228 255
208 228 255
208 228 255
208 228 255
208 228 255
208 228 255
208 228 255
208 228 255
208 228 255
207 228 255
208 228 255
207 228 255
207 228 255
207 228 255
207 228 255
207 228 255
207 228 255
207 228 255
207 228 255
207 228 255
207 228 255
207 228 255
207 228 255
207 228 255
207 228 255
207 227 255
207 227 255
207 227 255
207 227 255
207 227 255
206 227 255
206 227 255
206 227 255
206 227 255
206 227 255
206 227 255
206 227 255
206 227 255
206 227 255
206 227 255
206 227 255
206 227 255
206 227 255
206 227 255
206 227 255
206 227 255
206 227 255
206 227 255
205 227 255
205 227 255
205 227 255
205 227 255
205 227 255
205 227 255
205 227 255
205 227 255
205 227 255
205 226 255
205 226 255
205 226 255
205 226 255
205 226 255
205 226 255
205 226 255
204 226 255
204 226 255
204 226 255
204 226 255
204 226 255
204 226 255
204 226 255
204 226 255
204 226 255
204 226 255
204 226 255
204 226 255
204 226 255
204 226 255
204 226 255
203 226 255
203 226 255
203 226 255
203 226 255
203 226 255
203 226 255
203 226 255
203 225 255
203 225 255
203 225 255
203 225 255
203 225 255
203 225 255
203 225 255
203 225 255
203 225 255
202 225 255
202 225 255
202 225 255
202 225 255
202 225 255
202 225 255
202 225 255
202 225 255
202 225 255
202 225 255
202 225 255
202 225 255
202 225 255
202 225 255
202 225 255
201 225 255
201 225 255
201 225 255
201 225 255
201 224 255
201 224 255
201 224 255
201 224 255
201 224 255
201 224 255
201 224 255
201 224 255
201 224 255
201 224 255
201 224 255
201 224 255
200 224 255
200 224 255
200 224 255
200 224 255
200 224 255
200 224 255
200 224 255
200 224 255
200 224 255
200 224 255
200 224 255
200 224 255
200 224 255
200 224 255
200 224 255
200 224 255
200 224 255
200 224 255
200 224 255
200 224 255
199 224 255
199 224 255
199 224 255
199 223 255
199 223 255
199 223 255
199 223 255
199 223 255
199 223 255
199 223 255
199 223 255
199 223 255
199 223 255
199 223 255
199 223 255
199 223 255
199 223 255
199 223 255
199 223 255
199 223 255
199 223 255
199 223 255
199 223 255
199 223 255
199 223 255
199 223 255
199 223 255
199 223 255
199 223 255
199 223 255
199 223 255
199 223 255
198 223 255
199 223 255
199 223 255
198 223 255
198 223 255
198 223 255
198 223 255
198 223 255
198 223 255
198 223 255
198 223 255
198 223 255
198 223 255
198 223 255
198 223 255
198 223 255
198 223 255
198 223 255
199 223 255
198 223 255
199 223 255
199 223 255
199 223 255
199 223 255
199 223 255
199 223 255
199 223 255
199 223 255
199 223 255
199 223 255
199 223 255
199 223 255
199 223 255
199 223 255
199 223 255
199 223 255
199 223 255
199 223 255
199 223 255
199 223 255
199 223 255
199 223 255
199 223 255
199 223 255
199 223 255
199 223 255
199 223 255
199 223 255
199 223 255
199 224 255
199 224 255
199 224 255
199 224 255
200 224 255
200 224 255
200 224 255
200 224 255
200 224 255
200 224 255
200 224 255
200 224 255
200 224 255
200 224 255
200 224 255
200 224 255
200 224 255
200 224 255
200 224 255
200 224 255
200 224 255
200 224 255
201 224 255
201 224 255
201 224 255
201 224 255
201 224 255
201 224 255
201 224 255
201 224 255
201 224 255
201 224 255
201 224 255
201 224 255
201 225 255
201 225 255
201 225 255
201 225 255
201 225 255
202 225 255
202 225 255
202 225 255
202 225 255
202 225 255
202 225 255
202 225 255
202 225 255
202 225 255
202 225 255
202 225 255
202 225 255
202 225 255
202 225 255
202 225 255
203 225 255
203 225 255
203 225 255
203 225 255
203 225 255
203 225 255
203 225 255
203 225 255
203 225 255
203 226 255
203 226 255
203 226 255
203 226 255
203 226 255
203 226 255
203 226 255
204 226 255
204 226 255
204 226 255
204 226 255
204 226 255
204 226 255
204 226 255
204 226 255
204 226 255
204 226 255
204 226 255
204 226 255
204 226 255
204 226 255
204 226 255
205 226 255
205 226 255
205 226 255
205 226 255
205 226 255
205 226 255
205 226 255
205 227 255
205 227 255
205 227 255
205 227 255
205 227 255
205 227 255
205 227 255
205 227 255
205 227 255
205 227 255
206 227 255
206 227 255
206 227 255
206 227 255
206 227 255
206 227 255
206 227 255
206 227 255
206 227 255
206 227 255
206 227 255
206 227 255
206 227 255
206 227 255
206 227 255
206 227 255
206 227 255
207 227 255
207 227 255
207 227 255
207 227 255
207 227 255
207 228 255
207 228 255
207 228 255
207 228 255
207 228 255
207 228 255
207 228 255
207 228 255
207 228 255
207 228 255
207 228 255
207 228 255
207 228 255
207 228 255
208 228 255
208 228 255
208 228 255
208 228 255
208 228 255
208 228 255
208 228 255
208 228 255
208 228 255
208 228 255
208 228 255
208 228 255
208 228 255
208 228 255
208 228 255
208 228 255
208 228 255
208 228 255
208 228 255
208 228 255
208 228 255
208 228 255
209 228 255
209 229 255
209 229 255
209 228 255
209 228 255
209 228 255
208 228 255
208 228 255
208 228 255
208 228 255
208 228 255
208 228 255
208 228 255
208 228 255
208 228 255
208 228 255
208 228 255
208 228 255
208 228 255
208 228 255
208 228 255
208 228 255
208 228 255
208 228 255
208 228 255
208 228 255
207 228 255
207 228 255
207 228 255
207 228 255
207 228 255
207 228 255
207 228 255
207 228 255
207 228 255
207 228 255
207 228 255
207 228 255
207 228 255
207 228 255
207 228 255
207 227 255
207 227 255
207 227 255
207 227 255
206 227 255
206 227 255
206 227 255
206 227 255
206 227 255
206 227 255
206 227 255
206 227 255
206 227 255
206 227 255
206 227 255
206 227 255
206 227 255
206 227 255
206 227 255
206 227 255
206 227 255
206 227 255
205 227 255
205 227 255
205 227 255
205 227 255
205 227 255
205 227 255
205 227 255
205 227 255
205 227 255
205 227 255
205 226 255
205 226 255
205 226 255
205 226 255
205 226 255
205 226 255
205 226 255
204 226 255
204 226 255
204 226 255
204 226 255
204 226 255
204 226 255
204 226 255
204 226 255
204 226 255
204 226 255
204 226 255
204 226 255
204 226 255
204 226 255
204 226 255
203 226 255
203 226 255
203 226 255
203 226 255
203 226 255
203 226 255
203 226 255
203 226 255
203 225 255
203 225 255
203 225 255
203 225 255
203 225 255
203 225 255
203 225 255
203 225 255
202 225 255
202 225 255
202 225 255
202 225 255
202 225 255
202 225 255
202 225 255
202 225 255
202 225 255
202 225 255
202 225 255
202 225 255
202 225 255
202 225 255
202 225 255
201 225 255
201 225 255
201 225 255
201 225 255
201 225 255
201 224 255
201 224 255
201 224 255
201 224 255
201 224 255
201 224 255
201 224 255
201 224 255
201 224 255
201 224 255
201 224 255
200 224 255
200 224 255
200 224 255
200 224 255
200 224 255
200 224 255
200 224 255
200 224 255
200 224 255
200 224 255
200 224 255
200 224 255
200 224 255
200 224 255
200 224 255
200 224 255
200 224 255
200 224 255
200 224 255
200 224 255
199 224 255
199 224 255
199 224 255
199 224 255
199 223 255
199 223 255
199 223 255
199 223 255
199 223 255
199 223 255
199 223 255
199 223 255
199 223 255
199 223 255
199 223 255
199 223 255
199 223 255
199 223 255
199 223 255
199 223 255
199 223 255
199 223 255
199 223 255
199 223 255
199 223 255
199 223 255
199 223 255
199 223 255
199 223 255
199 223 255
199 223 255
199 223 255
199 223 255
199 223 255
199 223 255
199 223 255
199 223 255
199 223 255
199 223 255
199 223 255
199 223 255
199 223 255
199 223 255
199 223 255
199 223 255
199 223 255
199 223 255
199 223 255
199 223 255
199 223 255
199 223 255
199 223 255
199 223 255
199 223 255
199 223 255
199 223 255
199 223 255
199 223 255
199 223 255
199 223 255
199 223 255
199 223 255
199 223 255
199 223 255
199 223 255
199 223 255
199 223 255
199 223 255
199 223 255
199 223 255
199 223 255
199 223 255
199 223 255
199 223 255
199 224 255
199 224 255
199 224 255
200 224 255
200 224 255
200 224 255
200 224 255
200 224 255
200 224 255
200 224 255
200 224 255
200 224 255
200 224 255
200 224 255
200 224 255
200 224 255
200 224 255
200 224 255
200 224 255
200 224 255
200 224 255
200 224 255
200 224 255
201 224 255
201 224 255
201 224 255
201 224 255
201 224 255
201 224 255
201 224 255
201 224 255
201 224 255
201 224 255
201 224 255
201 224 255
201 225 255
201 225 255
201 225 255
201 225 255
202 225 255
202 225 255
202 225 255
202 225 255
202 225 255
202 225 255
202 225 255
202 225 255
202 225 255
202 225 255
202 225 255
202 225 255
202 225 255
202 225 255
202 225 255
202 225 255
203 225 255
203 225 255
203 225 255
203 225 255
203 225 255
203 225 255
203 225 255
203 225 255
203 225 255
203 226 255
203 226 255
203 226 255
203 226 255
203 226 255
203 226 255
204 226 255
204 226 255
204 226 255
204 226 255
204 226 255
204 226 255
204 226 255
204 226 255
204 226 255
204 226 255
204 226 255
204 226 255
204 226 255
204 226 255
204 226 255
204 226 255
205 226 255
205 226 255
205 226 255
205 226 255
205 226 255
205 226 255
205 226 255
205 227 255
205 227 255
205 227 255
205 227 255
205 227 255
205 227 255
205 227 255
205 227 255
205 227 255
205 227 255
206 227 255
206 227 255
206 227 255
206 227 255
206 227 255
206 227 255
206 227 255
206 227 255
206 227 255
206 227 255
206 227 255
206 227 255
206 227 255
206 227 255
206 227 255
206 227 255
206 227 255
207 227 255
207 227 255
207 227 255
207 227 255
207 227 255
207 228 255
207 228 255
207 228 255
207 228 255
207 228 255
207 228 255
207 228 255
207 228 255
207 228 255
207 228 255
207 228 255
207 228 255
207 228 255
207 228 255
207 228 255
208 228 255
208 228 255
208 228 255
208 228 255
208 228 255
208 228 255
208 228 255
208 228 255
208 228 255
208 228 255
208 228 255
208 228 255
208 228 255
208 228 255
208 228 255
208 228 255
208 228 255
208 228 255
208 228 255
208 228 255
208 228 255
209 228 255
209 229 255
209 229 255
209 229 255
209 229 255
209 229 255
209 229 255
209 229 255
209 229 255
209 229 255
209 228 255
208 228 255
208 228 255
208 228 255
208 228 255
208 228 255
208 228 255
208 228 255
208 228 255
208 228 255
208 228 255
208 228 255
208 228 255
208 228 255
208 228 255
208 228 255
208 228 255
208 228 255
208 228 255
208 228 255
208 228 255
208 228 255
207 228 255
207 228 255
207 228 255
207 228 255
207 228 255
207 228 255
207 228 255
207 228 255
207 228 255
207 228 255
207 228 255
207 228 255
207 228 255
207 228 255
207 228 255
207 227 255
207 227 255
207 227 255
207 227 255
207 227 255
206 227 255
206 227 255
206 227 255
206 227 255
206 227 255
206 227 255
206 227 255
206 227 255
206 227 255
206 227 255
206 227 255
206 227 255
206 227 255
206 227 255
206 227 255
206 227 255
206 227 255
205 227 255
205 227 255
205 227 255
205 227 255
205 227 255
205 227 255
205 227 255
205 227 255
205 227 255
205 227 255
205 226 255
205 226 255
205 226 255
205 226 255
205 226 255
205 226 255
204 226 255
204 226 255
204 226 255
204 226 255
204 226 255
204 226 255
204 226 255
204 226 255
204 226 255
204 226 255
204 226 255
204 226 255
204 226 255
204 226 255
204 226 255
204 226 255
203 226 255
203 226 255
203 226 255
203 226 255
203 226 255
203 226 255
203 226 255
203 225 255
203 225 255
203 225 255
203 225 255
203 225 255
203 225 255
203 225 255
203 225 255
203 225 255
202 225 255
202 225 255
202 225 255
202 225 255
202 225 255
202 225 255
202 225 255
202 225 255
202 225 255
202 225 255
202 225 255
202 225 255
202 225 255
202 225 255
202 225 255
201 225 255
201 225 255
201 225 255
201 225 255
201 225 255
201 224 255
201 224 255
201 224 255
201 224 255
201 224 255
201 224 255
201 224 255
201 224 255
201 224 255
201 224 255
201 224 255
201 224 255
201 224 255
200 224 255
200 224 255
200 224 255
200 224 255
200 224 255
200 224 255
200 224 255
200 224 255
200 224 255
200 224 255
200 224 255
200 224 255
200 224 255
200 224 255
200 224 255
200 224 255
200 224 255
200 224 255
200 224 255
200 224 255
199 224 255
199 224 255
199 224 255
199 224 255
199 224 255
199 223 255
199 223 255
199 223 255
199 223 255
199 223 255
199 223 255
199 223 255
199 223 255
199 223 255
199 223 255
199 223 255
199 223 255
199 223 255
199 223 255
199 223 255
199 223 255
199 223 255
199 223 255
199 223 255
199 223 255
199 223 255
199 223 255
199 223 255
199 223 255
199 223 255
199 223 255
199 223 255
199 223 255
199 223 255
199 223 255
199 223 255
199 223 255
199 223 255
199 223 255
199 223 255
199 223 255
199 223 255
199 223 255
199 223 255
199 223 255
199 223 255
199 223 255
199 223 255
199 223 255
199 223 255
199 223 255
199 223 255
199 223 255
199 223 255
199 223 255
199 223 255
199 223 255
199 223 255
199 223 255
199 223 255
199 223 255
199 223 255
199 223 255
199 224 255
199 224 255
199 224 255
199 224 255
200 224 255
200 224 255
200 224 255
200 224 255
200 224 255
200 224 255
200 224 255
200 224 255
200 224 255
200 224 255
200 224 255
200 224 255
200 224 255
200 224 255
200 224 255
200 224 255
200 224 255
200 224 255
200 224 255
200 224 255
200 224 255
200 224 255
201 224 255
201 224 255
201 224 255
201 224 255
201 224 255
201 224 255
201 224 255
201 224 255
201 224 255
201 224 255
201 224 255
201 224 255
201 225 255
201 225 255
201 225 255
201 225 255
201 225 255
202 225 255
202 225 255
202 225 255
202 225 255
202 225 255
202 225 255
202 225 255
202 225 255
202 225 255
202 225 255
202 225 255
202 225 255
202 225 255
202 225 255
202 225 255
203 225 255
203 225 255
203 225 255
203 225 255
203 225 255
203 225 255
203 225 255
203 225 255
203 225 255
203 226 255
203 226 255
203 226 255
203 226 255
203 226 255
203 226 255
203 226 255
204 226 255
204 226 255
204 226 255
204 226 255
204 226 255
204 226 255
204 226 255
204 226 255
204 226 255
204 226 255
204 226 255
204 226 255
204 226 255
204 226 255
204 226 255
204 226 255
205 226 255
205 226 255
205 226 255
205 226 255
205 226 255
205 226 255
205 227 255
205 227 255
205 227 255
205 227 255
205 227 255
205 227 255
205 227 255
205 227 255
205 227 255
205 227 255
206 227 255
206 227 255
206 227 255
206 227 255
206 227 255
206 227 255
206 227 255
206 227 255
206 227 255
206 227 255
206 227 255
206 227 255
206 227 255
206 227 255
206 227 255
206 227 255
206 227 255
207 227 255
207 227 255
207 227 255
207 227 255
207 227 255
207 228 255
207 228 255
207 228 255
207 228 255
207 228 255
207 228 255
207 228 255
207 228 255
207 228 255
207 228 255
207 228 255
207 228 255
207 228 255
207 228 255
207 228 255
208 228 255
208 228 255
208 228 255
208 228 255
208 228 255
208 228 255
208 228 255
208 228 255
208 228 255
208 228 255
208 228 255
208 228 255
208 228 255
208 228 255
208 228 255
208 228 255
208 228 255
208 228 255
208 228 255
208 228 255
209 228 255
209 228 255
209 229 255
209 229 255
209 229 255
209 229 255
209 229 255
209 229 255
209 229 255
209 229 255
209 229 255
209 229 255
209 229 255
209 229 255
209 229 255
209 229 255
209 229 255
209 228 255
209 228 255
208 228 255
208 228 255
208 228 255
208 228 255
208 228 255
208 228 255
208 228 255
208 228 255
208 228 255
208 228 255
208 228 255
208 228 255
208 228 255
208 228 255
208 228 255
208 228 255
208 228 255
208 228 255
208 228 255
208 228 255
208 228 255
207 228 255
207 228 255
207 228 255
207 228 255
207 228 255
207 228 255
207 228 255
207 228 255
207 228 255
207 228 255
207 228 255
207 228 255
207 228 255
207 228 255
207 227 255
207 227 255
207 227 255
207 227 255
206 227 255
206 227 255
206 227 255
206 227 255
206 227 255
206 227 255
206 227 255
206 227 255
206 227 255
206 227 255
206 227 255
206 227 255
206 227 255
206 227 255
206 227 255
206 227 255
206 227 255
206 227 255
205 227 255
205 227 255
205 227 255
205 227 255
205 227 255
205 227 255
205 227 255
205 227 255
205 227 255
205 226 255
205 226 255
205 226 255
205 226 255
205 226 255
205 226 255
205 226 255
204 226 255
204 226 255
204 226 255
204 226 255
204 226 255
204 226 255
204 226 255
204 226 255
204 226 255
204 226 255
204 226 255
204 226 255
204 226 255
204 226 255
204 226 255
204 226 255
203 226 255
203 226 255
203 226 255
203 226 255
203 226 255
203 226 255
203 226 255
203 225 255
203 225 255
203 225 255
203 225 255
203 225 255
203 225 255
203 225 255
203 225 255
203 225 255
202 225 255
202 225 255
202 225 255
202 225 255
202 225 255
202 225 255
202 225 255
202 225 255
202 225 255
202 225 255
202 225 255
202 225 255
202 225 255
202 225 255
202 225 255
202 225 255
201 225 255
201 225 255
201 225 255
201 225 255
201 224 255
201 224 255
201 224 255
201 224 255
201 224 255
201 224 255
201 224 255
201 224 255
201 224 255
201 224 255
201 224 255
201 224 255
201 224 255
201 224 255
200 224 255
200 224 255
200 224 255
200 224 255
200 224 255
200 224 255
200 224 255
200 224 255
200 224 255
200 224 255
200 224 255
200 224 255
200 224 255
200 224 255
200 224 255
200 224 255
200 224 255
200 224 255
200 224 255
200 224 255
200 224 255
200 224 255
200 224 255
199 224 255
199 224 255
199 224 255
199 224 255
199 224 255
199 223 255
199 223 255
199 223 255
199 223 255
199 223 255
199 223 255
199 223 255
199 223 255
199 223 255
199 223 255
199 223 255
199 223 255
199 223 255
199 223 255
199 223 255
199 223 255
199 223 255
199 223 255
199 223 255
199 223 255
199 223 255
199 223 255
199 223 255
199 223 255
199 223 255
199 223 255
199 223 255
199 223 255
199 223 255
199 223 255
199 223 255
199 223 255
199 223 255
199 223 255
199 223 255
199 223 255
199 223 255
199 223 255
199 223 255
199 223 255
199 223 255
199 223 255
199 223 255
199 223 255
199 223 255
199 224 255
199 224 255
199 224 255
199 224 255
199 224 255
200 224 255
200 224 255
200 224 255
200 224 255
200 224 255
200 224 255
200 224 255
200 224 255
200 224 255
200 224 255
200 224 255
200 224 255
200 224 255
200 224 255
200 224 255
200 224 255
200 224 255
200 224 255
200 224 255
200 224 255
200 224 255
200 224 255
200 224 255
201 224 255
201 224 255
201 224 255
201 224 255
201 224 255
201 224 255
201 224 255
201 224 255
201 224 255
201 224 255
201 224 255
201 224 255
201 225 255
201 225 255
201 225 255
201 225 255
201 225 255
202 225 255
202 225 255
202 225 255
202 225 255
202 225 255
202 225 255
202 225 255
202 225 255
202 225 255
202 225 255
202 225 255
202 225 255
202 225 255
202 225 255
202 225 255
202 225 255
202 225 255
203 225 255
203 225 255
203 225 255
203 225 255
203 225 255
203 225 255
203 225 255
203 225 255
203 226 255
203 226 255
203 226 255
203 226 255
203 226 255
203 226 255
203 226 255
204 226 255
204 226 255
204 226 255
204 226 255
204 226 255
204 226 255
204 226 255
204 226 255
204 226 255
204 226 255
204 226 255
204 226 255
204 226 255
204 226 255
204 226 255
204 226 255
205 226 255
205 226 255
205 226 255
205 226 255
205 226 255
205 226 255
205 227 255
205 227 255
205 227 255
205 227 255
205 227 255
205 227 255
205 227 255
205 227 255
205 227 255
205 227 255
205 227 255
206 227 255
206 227 255
206 227 255
206 227 255
206 227 255
206 227 255
206 227 255
206 227 255
206 227 255
206 227 255
206 227 255
206 227 255
206 227 255
206 227 255
206 227 255
206 227 255
207 227 255
207 227 255
207 227 255
207 227 255
207 227 255
207 228 255
207 228 255
207 228 255
207 228 255
207 228 255
207 228 255
207 228 255
207 228 255
207 228 255
207 228 255
207 228 255
207 228 255
207 228 255
207 228 255
207 228 255
208 228 255
208 228 255
208 228 255
208 228 255
208 228 255
208 228 255
208 228 255
208 228 255
208 228 255
208 228 255
208 228 255
208 228 255
208 228 255
208 228 255
208 228 255
208 228 255
208 228 255
208 228 255
208 228 255
208 228 255
209 228 255
209 228 255
209 229 255
209 229 255
209 229 255
209 229 255
209 229 255
209 229 255
209 229 255
209 229 255
209 229 255
209 229 255
209 229 255
209 229 255
209 229 255
209 229 255
209 229 255
209 229 255
209 229 255
209 229 255
209 229 255
209 229 255
209 229 255
209 229 255
209 228 255
208 228 255
208 228 255
208 228 255
208 228 255
208 228 255
208 228 255
208 228 255
208 228 255
208 228 255
208 228 255
208 228 255
208 228 255
208 228 255
208 228 255
208 228 255
208 228 255
208 228 255
208 228 255
208 228 255
208 228 255
207 228 255
207 228 255
207 228 255
207 228 255
207 228 255
207 228 255
207 228 255
207 228 255
207 228 255
207 228 255
207 228 255
207 228 255
207 228 255
207 228 255
207 228 255
207 227 255
207 227 255
207 227 255
207 227 255
206 227 255
206 227 255
206 227 255
206 227 255
206 227 255
206 227 255
206 227 255
206 227 255
206 227 255
206 227 255
206 227 255
206 227 255
206 227 255
206 227 255
206 227 255
206 227 255
206 227 255
206 227 255
205 227 255
205 227 255
205 227 255
205 227 255
205 227 255
205 227 255
205 227 255
205 227 255
205 227 255
205 227 255
205 226 255
205 226 255
205 226 255
205 226 255
205 226 255
205 226 255
204 226 255
204 226 255
204 226 255
204 226 255
204 226 255
204 226 255
204 226 255
204 226 255
204 226 255
204 226 255
204 226 255
204 226 255
204 226 255
204 226 255
204 226 255
204 226 255
203 226 255
203 226 255
203 226 255
203 226 255
203 226 255
203 226 255
203 225 255
203 225 255
203 225 255
203 225 255
203 225 255
203 225 255
203 225 255
203 225 255
203 225 255
203 225 255
202 225 255
202 225 255
202 225 255
202 225 255
202 225 255
202 225 255
202 225 255
202 225 255
202 225 255
202 225 255
202 225 255
202 225 255
202 225 255
202 225 255
202 225 255
202 225 255
201 225 255
201 225 255
201 225 255
201 225 255
201 225 255
201 224 255
201 224 255
201 224 255
201 224 255
201 224 255
201 224 255
201 224 255
201 224 255
201 224 255
201 224 255
201 224 255
201 224 255
201 224 255
200 224 255
200 224 255
200 224 255
200 224 255
200 224 255
200 224 255
200 224 255
200 224 255
200 224 255
200 224 255
200 224 255
200 224 255
200 224 255
200 224 255
200 224 255
200 224 255
200 224 255
200 224 255
200 224 255
200 224 255
200 224 255
200 224 255
200 224 255
200 224 255
200 224 255
200 224 255
199 224 255
199 224 255
199 224 255
199 224 255
199 224 255
199 224 255
199 224 255
199 224 255
199 223 255
199 224 255
199 223 255
199 223 255
199 223 255
199 223 255
199 223 255
199 223 255
199 223 255
199 223 255
199 223 255
199 223 255
199 223 255
199 223 255
199 223 255
199 223 255
199 223 255
199 223 255
199 223 255
199 223 255
199 223 255
199 223 255
199 223 255
199 223 255
199 224 255
199 224 255
199 223 255
199 224 255
199 224 255
199 224 255
199 224 255
199 224 255
199 224 255
199 224 255
200 224 255
200 224 255
200 224 255
200 224 255
200 224 255
200 224 255
200 224 255
200 224 255
200 224 255
200 224 255
200 224 255
200 224 255
200 224 255
200 224 255
200 224 255
200 224 255
200 224 255
200 224 255
200 224 255
200 224 255
200 224 255
200 224 255
200 224 255
200 224 255
200 224 255
200 224 255
201 224 255
201 224 255
201 224 255
201 224 255
201 224 255
201 224 255
201 224 255
201 224 255
201 224 255
201 224 255
201 224 255
201 224 255
201 224 255
201 225 255
201 225 255
201 225 255
201 225 255
201 225 255
202 225 255
202 225 255
202 225 255
202 225 255
202 225 255
202 225 255
202 225 255
202 225 255
202 225 255
202 225 255
202 225 255
202 225 255
202 225 255
202 225 255
202 225 255
202 225 255
202 225 255
203 225 255
203 225 255
203 225 255
203 225 255
203 225 255
203 225 255
203 225 255
203 225 255
203 226 255
203 226 255
203 226 255
203 226 255
203 226 255
203 226 255
203 226 255
204 226 255
204 226 255
204 226 255
204 226 255
204 226 255
204 226 255
204 226 255
204 226 255
204 226 255
204 226 255
204 226 255
204 226 255
204 226 255
204 226 255
204 226 255
204 226 255
205 226 255
205 226 255
205 226 255
205 226 255
205 226 255
205 226 255
205 227 255
205 227 255
205 227 255
205 227 255
205 227 255
205 227 255
205 227 255
205 227 255
205 227 255
205 227 255
205 227 255
206 227 255
206 227 255
206 227 255
206 227 255
206 227 255
206 227 255
206 227 255
206 227 255
206 227 255
206 227 255
206 227 255
206 227 255
206 227 255
206 227 255
206 227 255
206 227 255
207 227 255
207 227 255
207 227 255
207 227 255
207 228 255
207 228 255
207 228 255
207 228 255
207 228 255
207 228 255
207 228 255
207 228 255
207 228 255
207 228 255
207 228 255
207 228 255
207 228 255
207 228 255
207 228 255
208 228 255
208 228 255
208 228 255
208 228 255
208 228 255
208 228 255
208 228 255
208 228 255
208 228 255
208 228 255
208 228 255
208 228 255
208 228 255
208 228 255
208 228 255
208 228 255
208 228 255
208 228 255
208 228 255
208 228 255
208 228 255
209 228 255
209 229 255
209 229 255
209 229 255
209 229 255
209 229 255
209 229 255
209 229 255
209 229 255
209 229 255
209 229 255
209 229 255
209 229 255
209 229 255
209 229 255
209 229 255
209 229 255
209 229 255
209 229 255
209 229 255
209 229 255
209 229 255
209 229 255
209 229 255
209 229 255
209 229 255
209 229 255
209 229 255
209 229 255
209 228 255
209 228 255
208 228 255
208 228 255
208 228 255
208 228 255
208 228 255
208 228 255
208 228 255
208 228 255
208 228 255
208 228 255
208 228 255
208 228 255
208 228 255
208 228 255
208 228 255
208 228 255
208 228 255
208 228 255
208 228 255
208 228 255
208 228 255
207 228 255
207 228 255
207 228 255
207 228 255
207 228 255
207 228 255
207 228 255
207 228 255
207 228 255
207 228 255
207 228 255
207 228 255
207 228 255
207 228 255
207 227 255
207 227 255
207 227 255
207 227 255
207 227 255
206 227 255
206 227 255
206 227 255
206 227 255
206 227 255
206 227 255
206 227 255
206 227 255
206 227 255
206 227 255
206 227 255
206 227 255
206 227 255
206 227 255
206 227 255
206 227 255
205 227 255
205 227 255
205 227 255
205 227 255
205 227 255
205 227 255
205 227 255
205 227 255
205 227 255
205 227 255
205 227 255
205 226 255
205 226 255
205 226 255
205 226 255
205 226 255
205 226 255
204 226 255
204 226 255
204 226 255
204 226 255
204 226 255
204 226 255
204 226 255
204 226 255
204 226 255
204 226 255
204 226 255
204 226 255
204 226 255
204 226 255
204 226 255
204 226 255
203 226 255
203 226 255
203 226 255
203 226 255
203 226 255
203 226 255
203 225 255
203 225 255
203 225 255
203 225 255
203 225 255
203 225 255
203 225 255
203 225 255
203 225 255
203 225 255
202 225 255
202 225 255
202 225 255
202 225 255
202 225 255
202 225 255
202 225 255
202 225 255
202 225 255
202 225 255
202 225 255
202 225 255
202 225 255
202 225 255
202 225 255
202 225 255
201 225 255
201 225 255
201 225 255
201 225 255
201 225 255
201 224 255
201 224 255
201 224 255
201 224 255
201 224 255
201 224 255
201 224 255
201 224 255
201 224 255
201 224 255
201 224 255
201 224 255
201 224 255
201 224 255
201 224 255
200 224 255
200 224 255
200 224 255
200 224 255
200 224 255
200 224 255
200 224 255
200 224 255
200 224 255
200 224 255
200 224 255
200 224 255
200 224 255
200 224 255
200 224 255
200 224 255
200 224 255
200 224 255
200 224 255
200 224 255
200 224 255
200 224 255
200 224 255
200 224 255
200 224 255
200 224 255
200 224 255
200 224 255
200 224 255
200 224 255
200 224 255
200 224 255
200 224 255
199 224 255
199 224 255
200 224 255
199 224 255
199 224 255
199 224 255
199 224 255
199 224 255
199 224 255
199 224 255
199 224 255
199 224 255
199 224 255
200 224 255
199 224 255
199 224 255
199 224 255
200 224 255
199 224 255
200 224 255
200 224 255
200 224 255
200 224 255
200 224 255
200 224 255
200 224 255
200 224 255
200 224 255
200 224 255
200 224 255
200 224 255
200 224 255
200 224 255
200 224 255
200 224 255
200 224 255
200 224 255
200 224 255
200 224 255
200 224 255
200 224 255
200 224 255
200 224 255
200 224 255
200 224 255
200 224 255
200 224 255
200 224 255
200 224 255
200 224 255
200 224 255
200 224 255
201 224 255
201 224 255
201 224 255
201 224 255
201 224 255
201 224 255
201 224 255
201 224 255
201 224 255
201 224 255
201 224 255
201 224 255
201 224 255
201 225 255
201 225 255
201 225 255
201 225 255
201 225 255
201 225 255
202 225 255
202 225 255
202 225 255
202 225 255
202 225 255
202 225 255
202 225 255
202 225 255
202 225 255
202 225 255
202 225 255
202 225 255
202 225 255
202 225 255
202 225 255
202 225 255
203 225 255
203 225 255
203 225 255
203 225 255
203 225 255
203 225 255
203 225 255
203 225 255
203 225 255
203 226 255
203 226 255
203 226 255
203 226 255
203 226 255
203 226 255
203 226 255
204 226 255
204 226 255
204 226 255
204 226 255
204 226 255
204 226 255
204 226 255
204 226 255
204 226 255
204 226 255
204 226 255
204 226 255
204 226 255
204 226 255
204 226 255
204 226 255
205 226 255
205 226 255
205 226 255
205 226 255
205 226 255
205 226 255
205 227 255
205 227 255
205 227 255
205 227 255
205 227 255
205 227 255
205 227 255
205 227 255
205 227 255
205 227 255
206 227 255
206 227 255
206 227 255
206 227 255
206 227 255
206 227 255
206 227 255
206 227 255
206 227 255
206 227 255
206 227 255
206 227 255
206 227 255
206 227 255
206 227 255
206 227 255
206 227 255
206 227 255
207 227 255
207 227 255
207 227 255
207 227 255
207 228 255
207 228 255
207 228 255
207 228 255
207 228 255
207 228 255
207 228 255
207 228 255
207 228 255
207 228 255
207 228 255
207 228 255
207 228 255
207 228 255
208 228 255
208 228 255
208 228 255
208 228 255
208 228 255
208 228 255
208 228 255
208 228 255
208 228 255
208 228 255
208 228 255
208 228 255
208 228 255
208 228 255
208 228 255
208 228 255
208 228 255
208 228 255
208 228 255
208 228 255
209 228 255
209 228 255
209 229 255
209 229 255
209 229 255
209 229 255
209 229 255
209 229 255
209 229 255
209 229 255
209 229 255
209 229 255
209 229 255
209 229 255
209 229 255
209 229 255
209 229 255
209 229 255
209 229 255
209 229 255
209 229 255
209 229 255
209 229 255
209 229 255
209 229 255
209 229 255
209 229 255
209 229 255
209 229 255
209 229 255
209 229 255
209 229 255
209 229 255
209 229 255
209 229 255
209 229 255
209 229 255
209 228 255
208 228 255
208 228 255
208 228 255
208 228 255
208 228 255
208 228 255
208 228 255
208 228 255
208 228 255
208 228 255
208 228 255
208 228 255
208 228 255
208 228 255
208 228 255
208 228 255
208 228 255
208 228 255
208 228 255
208 228 255
208 228 255
207 228 255
207 228 255
207 228 255
207 228 255
207 228 255
207 228 255
207 228 255
207 228 255
207 228 255
207 228 255
207 228 255
207 228 255
207 228 255
207 228 255
207 227 255
207 227 255
207 227 255
207 227 255
207 227 255
206 227 255
206 227 255
206 227 255
206 227 255
206 227 255
206 227 255
206 227 255
206 227 255
206 227 255
206 227 255
206 227 255
206 227 255
206 227 255
206 227 255
206 227 255
206 227 255
206 227 255
205 227 255
205 227 255
205 227 255
205 227 255
205 227 255
205 227 255
205 227 255
205 227 255
205 227 255
205 227 255
205 226 255
205 226 255
205 226 255
205 226 255
205 226 255
205 226 255
205 226 255
204 226 255
204 226 255
204 226 255
204 226 255
204 226 255
204 226 255
204 226 255
204 226 255
204 226 255
204 226 255
204 226 255
204 226 255
204 226 255
204 226 255
204 226 255
203 226 255
203 226 255
203 226 255
203 226 255
203 226 255
203 226 255
203 226 255
203 225 255
203 225 255
203 225 255
203 225 255
203 225 255
203 225 255
203 225 255
203 225 255
203 225 255
202 225 255
202 225 255
202 225 255
202 225 255
202 225 255
202 225 255
202 225 255
202 225 255
202 225 255
202 225 255
202 225 255
202 225 255
202 225 255
202 225 255
202 225 255
202 225 255
202 225 255
201 225 255
201 225 255
201 225 255
201 225 255
201 225 255
201 224 255
201 224 255
201 224 255
201 224 255
201 224 255
201 224 255
201 224 255
201 224 255
201 224 255
201 224 255
201 224 255
201 224 255
201 224 255
201 224 255
201 224 255
200 224 255
200 224 255
200 224 255
200 224 255
200 224 255
200 224 255
200 224 255
200 224 255
200 224 255
200 224 255
200 224 255
200 224 255
200 224 255
200 224 255
200 224 255
200 224 255
200 224 255
200 224 255
200 224 255
200 224 255
200 224 255
200 224 255
200 224 255
200 224 255
200 224 255
200 224 255
200 224 255
200 224 255
200 224 255
200 224 255
200 224 255
200 224 255
200 224 255
200 224 255
200 224 255
200 224 255
200 224 255
200 224 255
200 224 255
200 224 255
200 224 255
200 224 255
200 224 255
200 224 255
200 224 255
200 224 255
200 224 255
200 224 255
200 224 255
200 224 255
200 224 255
200 224 255
200 224 255
200 224 255
200 224 255
200 224 255
200 224 255
200 224 255
200 224 255
200 224 255
200 224 255
200 224 255
200 224 255
200 224 255
200 224 255
200 224 255
200 224 255
200 224 255
200 224 255
200 224 255
200 224 255
200 224 255
200 224 255
200 224 255
200 224 255
200 224 255
201 224 255
201 224 255
201 224 255
201 224 255
201 224 255
201 224 255
201 224 255
201 224 255
201 224 255
201 224 255
201 224 255
201 224 255
201 224 255
201 224 255
201 224 255
201 225 255
201 225 255
201 225 255
201 225 255
201 225 255
202 225 255
202 225 255
202 225 255
202 225 255
202 225 255
202 225 255
202 225 255
202 225 255
202 225 255
202 225 255
202 225 255
202 225 255
202 225 255
202 225 255
202 225 255
202 225 255
202 225 255
203 225 255
203 225 255
203 225 255
203 225 255
203 225 255
203 225 255
203 225 255
203 225 255
203 225 255
203 226 255
203 226 255
203 226 255
203 226 255
203 226 255
203 226 255
203 226 255
204 226 255
204 226 255
204 226 255
204 226 255
204 226 255
204 226 255
204 226 255
204 226 255
204 226 255
204 226 255
204 226 255
204 226 255
204 226 255
204 226 255
204 226 255
204 226 255
205 226 255
205 226 255
205 226 255
205 226 255
205 226 255
205 226 255
205 226 255
205 227 255
205 227 255
205 227 255
205 227 255
205 227 255
205 227 255
205 227 255
205 227 255
205 227 255
206 227 255
206 227 255
206 227 255
206 227 255
206 227 255
206 227 255
206 227 255
206 227 255
206 227 255
206 227 255
206 227 255
206 227 255
206 227 255
206 227 255
206 227 255
206 227 255
206 227 255
207 227 255
207 227 255
207 227 255
207 227 255
207 227 255
207 228 255
207 228 255
207 228 255
207 228 255
207 228 255
207 228 255
207 228 255
207 228 255
207 228 255
207 228 255
207 228 255
207 228 255
207 228 255
207 228 255
208 228 255
208 228 255
208 228 255
208 228 255
208 228 255
208 228 255
208 228 255
208 228 255
208 228 255
208 228 255
208 228 255
208 228 255
208 228 255
208 228 255
208 228 255
208 228 255
208 228 255
208 228 255
208 228 255
208 228 255
208 228 255
209 228 255
209 229 255
209 229 255
209 229 255
209 229 255
209 229 255
209 229 255
209 229 255
209 229 255
209 229 255
209 229 255
209 229 255
209 229 255
209 229 255
209 229 255
209 229 255
209 229 255
209 229 255
209 229 255
209 229 255
210 229 255
209 229 255
209 229 255
209 229 255
209 229 255
209 229 255
209 229 255
209 229 255
209 229 255
209 229 255
209 229 255
209 229 255
209 229 255
209 229 255
209 229 255
209 229 255
209 229 255
209 229 255
209 229 255
209 229 255
209 229 255
209 229 255
209 228 255
209 228 255
208 228 255
208 228 255
208 228 255
208 228 255
208 228 255
208 228 255
208 228 255
208 228 255
208 228 255
208 228 255
208 228 255
208 228 255
208 228 255
208 228 255
208 228 255
208 228 255
208 228 255
208 228 255
208 228 255
208 228 255
207 228 255
207 228 255
207 228 255
207 228 255
207 228 255
207 228 255
207 228 255
207 228 255
207 228 255
207 228 255
207 228 255
207 228 255
207 228 255
207 228 255
207 227 255
207 227 255
207 227 255
207 227 255
206 227 255
206 227 255
206 227 255
206 227 255
206 227 255
206 227 255
206 227 255
206 227 255
206 227 255
206 227 255
206 227 255
206 227 255
206 227 255
206 227 255
206 227 255
206 227 255
206 227 255
206 227 255
205 227 255
205 227 255
205 227 255
205 227 255
205 227 255
205 227 255
205 227 255
205 227 255
205 227 255
205 227 255
205 226 255
205 226 255
205 226 255
205 226 255
205 226 255
205 226 255
204 226 255
204 226 255
204 226 255
204 226 255
204 226 255
204 226 255
204 226 255
204 226 255
204 226 255
204 226 255
204 226 255
204 226 255
204 226 255
204 226 255
204 226 255
204 226 255
203 226 255
203 226 255
203 226 255
203 226 255
203 226 255
203 226 255
203 226 255
203 225 255
203 225 255
203 225 255
203 225 255
203 225 255
203 225 255
203 225 255
203 225 255
203 225 255
203 225 255
202 225 255
202 225 255
202 225 255
202 225 255
202 225 255
202 225 255
202 225 255
202 225 255
202 225 255
202 225 255
202 225 255
202 225 255
202 225 255
202 225 255
202 225 255
202 225 255
202 225 255
201 225 255
201 225 255
201 225 255
201 225 255
201 225 255
201 224 255
201 224 255
201 224 255
201 224 255
201 224 255
201 224 255
201 224 255
201 224 255
201 224 255
201 224 255
201 224 255
201 224 255
201 224 255
201 224 255
201 224 255
201 224 255
200 224 255
200 224 255
200 224 255
200 224 255
200 224 255
200 224 255
200 224 255
200 224 255
200 224 255
200 224 255
200 224 255
200 224 255
200 224 255
200 224 255
200 224 255
200 224 255
200 224 255
200 224 255
200 224 255
200 224 255
200 224 255
200 224 255
200 224 255
200 224 255
200 224 255
200 224 255
200 224 255
200 224 255
200 224 255
200 224 255
200 224 255
200 224 255
200 224 255
200 224 255
200 224 255
200 224 255
200 224 255
200 224 255
200 224 255
200 224 255
200 224 255
200 224 255
200 224 255
200 224 255
200 224 255
200 224 255
200 224 255
200 224 255
200 224 255
200 224 255
200 224 255
200 224 255
200 224 255
200 224 255
200 224 255
200 224 255
200 224 255
200 224 255
200 224 255
200 224 255
200 224 255
200 224 255
200 224 255
200 224 255
200 224 255
200 224 255
201 224 255
201 224 255
201 224 255
201 224 255
201 224 255
201 224 255
201 224 255
201 224 255
201 224 255
201 224 255
201 224 255
201 224 255
201 224 255
201 224 255
201 224 255
201 224 255
201 225 255
201 225 255
201 225 255
201 225 255
201 225 255
201 225 255
202 225 255
202 225 255
202 225 255
202 225 255
202 225 255
202 225 255
202 225 255
202 225 255
202 225 255
202 225 255
202 225 255
202 225 255
202 225 255
202 225 255
202 225 255
202 225 255
203 225 255
203 225 255
203 225 255
203 225 255
203 225 255
203 225 255
203 225 255
203 225 255
203 225 255
203 225 255
203 226 255
203 226 255
203 226 255
203 226 255
203 226 255
203 226 255
203 226 255
204 226 255
204 226 255
204 226 255
204 226 255
204 226 255
204 226 255
204 226 255
204 226 255
204 226 255
204 226 255
204 226 255
204 226 255
204 226 255
204 226 255
204 226 255
204 226 255
205 226 255
205 226 255
205 226 255
205 226 255
205 226 255
205 226 255
205 226 255
205 227 255
205 227 255
205 227 255
205 227 255
205 227 255
205 227 255
205 227 255
205 227 255
205 227 255
206 227 255
206 227 255
206 227 255
206 227 255
206 227 255
206 227 255
206 227 255
206 227 255
206 227 255
206 227 255
206 227 255
206 227 255
206 227 255
206 227 255
206 227 255
206 227 255
206 227 255
206 227 255
207 227 255
207 227 255
207 227 255
207 227 255
207 228 255
207 228 255
207 228 255
207 228 255
207 228 255
207 228 255
207 228 255
207 228 255
207 228 255
207 228 255
207 228 255
207 228 255
207 228 255
207 228 255
208 228 255
208 228 255
208 228 255
208 228 255
208 228 255
208 228 255
208 228 255
208 228 255
208 228 255
208 228 255
208 228 255
208 228 255
208 228 255
208 228 255
208 228 255
208 228 255
208 228 255
208 228 255
208 228 255
208 228 255
209 228 255
209 229 255
209 229 255
209 229 255
209 229 255
209 229 255
209 229 255
209 229 255
209 229 255
209 229 255
209 229 255
209 229 255
209 229 255
209 229 255
209 229 255
209 229 255
209 229 255
209 229 255
209 229 255
209 229 255
209 229 255
209 229 255
210 229 255
210 229 255
210 229 255
210 229 255
210 229 255
210 229 255
210 229 255
209 229 255
209 229 255
209 229 255
209 229 255
209 229 255
209 229 255
209 229 255
209 229 255
209 229 255
209 229 255
209 229 255
209 229 255
209 229 255
209 229 255
209 229 255
209 229 255
209 229 255
209 229 255
209 229 255
209 229 255
209 229 255
209 228 255
209 228 255
208 228 255
208 228 255
208 228 255
208 228 255
208 228 255
208 228 255
208 228 255
208 228 255
208 228 255
208 228 255
208 228 255
208 228 255
208 228 255
208 228 255
208 228 255
208 228 255
208 228 255
208 228 255
208 228 255
207 228 255
207 228 255
207 228 255
207 228 255
207 228 255
207 228 255
207 228 255
207 228 255
207 228 255
207 228 255
207 228 255
207 228 255
207 228 255
207 228 255
207 227 255
207 227 255
207 227 255
207 227 255
207 227 255
206 227 255
206 227 255
206 227 255
206 227 255
206 227 255
206 227 255
206 227 255
206 227 255
206 227 255
206 227 255
206 227 255
206 227 255
206 227 255
206 227 255
206 227 255
206 227 255
206 227 255
205 227 255
205 227 255
205 227 255
205 227 255
205 227 255
205 227 255
205 227 255
205 227 255
205 227 255
205 227 255
205 226 255
205 226 255
205 226 255
205 226 255
205 226 255
205 226 255
204 226 255
204 226 255
204 226 255
204 226 255
204 226 255
204 226 255
204 226 255
204 226 255
204 226 255
204 226 255
204 226 255
204 226 255
204 226 255
204 226 255
204 226 255
204 226 255
203 226 255
203 226 255
203 226 255
203 226 255
203 226 255
203 226 255
203 226 255
203 226 255
203 225 255
203 225 255
203 225 255
203 225 255
203 225 255
203 225 255
203 225 255
203 225 255
203 225 255
202 225 255
202 225 255
202 225 255
202 225 255
202 225 255
202 225 255
202 225 255
202 225 255
202 225 255
202 225 255
202 225 255
202 225 255
202 225 255
202 225 255
202 225 255
202 225 255
202 225 255
202 225 255
201 225 255
201 225 255
201 225 255
201 225 255
201 225 255
201 225 255
201 224 255
201 224 255
201 224 255
201 224 255
201 224 255
201 224 255
201 224 255
201 224 255
201 224 255
201 224 255
201 224 255
201 224 255
201 224 255
201 224 255
201 224 255
201 224 255
201 224 255
201 224 255
201 224 255
200 224 255
200 224 255
200 224 255
200 224 255
200 224 255
200 224 255
200 224 255
200 224 255
200 224 255
200 224 255
200 224 255
200 224 255
200 224 255
200 224 255
200 224 255
200 224 255
200 224 255
200 224 255
200 224 255
200 224 255
200 224 255
200 224 255
200 224 255
200 224 255
200 224 255
200 224 255
200 224 255
200 224 255
200 224 255
200 224 255
200 224 255
200 224 255
200 224 255
200 224 255
200 224 255
200 224 255
200 224 255
200 224 255
200 224 255
200 224 255
200 224 255
200 224 255
200 224 255
200 224 255
200 224 255
200 224 255
200 224 255
200 224 255
200 224 255
200 224 255
200 224 255
200 224 255
201 224 255
201 224 255
201 224 255
201 224 255
201 224 255
201 224 255
201 224 255
201 224 255
201 224 255
201 224 255
201 224 255
201 224 255
201 224 255
201 224 255
201 224 255
201 224 255
201 224 255
201 225 255
201 225 255
201 225 255
201 225 255
201 225 255
201 225 255
201 225 255
202 225 255
202 225 255
202 225 255
202 225 255
202 225 255
202 225 255
202 225 255
202 225 255
202 225 255
202 225 255
202 225 255
202 225 255
202 225 255
202 225 255
202 225 255
202 225 255
202 225 255
203 225 255
203 225 255
203 225 255
203 225 255
203 225 255
203 225 255
203 225 255
203 225 255
203 225 255
203 225 255
203 226 255
203 226 255
203 226 255
203 226 255
203 226 255
203 226 255
203 226 255
204 226 255
204 226 255
204 226 255
204 226 255
204 226 255
204 226 255
204 226 255
204 226 255
204 226 255
204 226 255
204 226 255
204 226 255
204 226 255
204 226 255
204 226 255
204 226 255
205 226 255
205 226 255
205 226 255
205 226 255
205 226 255
205 226 255
205 227 255
205 227 255
205 227 255
205 227 255
205 227 255
205 227 255
205 227 255
205 227 255
205 227 255
205 227 255
206 227 255
206 227 255
206 227 255
206 227 255
206 227 255
206 227 255
206 227 255
206 227 255
206 227 255
206 227 255
206 227 255
206 227 255
206 227 255
206 227 255
206 227 255
206 227 255
206 227 255
207 227 255
207 227 255
207 227 255
207 227 255
207 227 255
207 228 255
207 228 255
207 228 255
207 228 255
207 228 255
207 228 255
207 228 255
207 228 255
207 228 255
207 228 255
207 228 255
207 228 255
207 228 255
208 228 255
208 228 255
208 228 255
208 228 255
208 228 255
208 228 255
208 228 255
208 228 255
208 228 255
208 228 255
208 228 255
208 228 255
208 228 255
208 228 255
208 228 255
208 228 255
208 228 255
208 228 255
208 228 255
208 228 255
209 228 255
209 228 255
209 228 255
209 229 255
209 229 255
209 229 255
209 229 255
209 229 255
209 229 255
209 229 255
209 229 255
209 229 255
209 229 255
209 229 255
209 229 255
209 229 255
209 229 255
209 229 255
209 229 255
209 229 255
209 229 255
209 229 255
209 229 255
210 229 255
210 229 255
210 229 255
210 229 255
210 229 255
210 229 255
210 229 255
210 229 255
210 229 255
210 229 255
210 229 255
210 229 255
210 229 255
209 229 255
209 229 255
209 229 255
209 229 255
209 229 255
209 229 255
209 229 255
209 229 255
209 229 255
209 229 255
209 229 255
209 229 255
209 229 255
209 229 255
209 229 255
209 229 255
209 229 255
209 229 255
209 229 255
209 229 255
209 229 255
209 228 255
208 228 255
208 228 255
208 228 255
208 228 255
208 228 255
208 228 255
208 228 255
208 228 255
208 228 255
208 228 255
208 228 255
208 228 255
208 228 255
208 228 255
208 228 255
208 228 255
208 228 255
208 228 255
208 228 255
208 228 255
208 228 255
207 228 255
207 228 255
207 228 255
207 228 255
207 228 255
207 228 255
207 228 255
207 228 255
207 228 255
207 228 255
207 228 255
207 228 255
207 228 255
207 227 255
207 227 255
207 227 255
207 227 255
207 227 255
206 227 255
206 227 255
206 227 255
206 227 255
206 227 255
206 227 255
206 227 255
206 227 255
206 227 255
206 227 255
206 227 255
206 227 255
206 227 255
206 227 255
206 227 255
206 227 255
206 227 255
205 227 255
205 227 255
205 227 255
205 227 255
205 227 255
205 227 255
205 227 255
205 227 255
205 227 255
205 227 255
205 226 255
205 226 255
205 226 255
205 226 255
205 226 255
205 226 255
204 226 255
204 226 255
204 226 255
204 226 255
204 226 255
204 226 255
204 226 255
204 226 255
204 226 255
204 226 255
204 226 255
204 226 255
204 226 255
204 226 255
204 226 255
204 226 255
203 226 255
203 226 255
203 226 255
203 226 255
203 226 255
203 226 255
203 226 255
203 225 255
203 225 255
203 225 255
203 225 255
203 225 255
203 225 255
203 225 255
203 225 255
203 225 255
203 225 255
202 225 255
202 225 255
202 225 255
202 225 255
202 225 255
202 225 255
202 225 255
202 225 255
202 225 255
202 225 255
202 225 255
202 225 255
202 225 255
202 225 255
202 225 255
202 225 255
202 225 255
202 225 255
201 225 255
201 225 255
201 225 255
201 225 255
201 225 255
201 225 255
201 225 255
201 225 255
201 224 255
201 224 255
201 224 255
201 224 255
201 224 255
201 224 255
201 224 255
201 224 255
201 224 255
201 224 255
201 224 255
201 224 255
201 224 255
201 224 255
201 224 255
201 224 255
201 224 255
201 224 255
201 224 255
201 224 255
201 224 255
200 224 255
200 224 255
200 224 255
200 224 255
200 224 255
200 224 255
200 224 255
200 224 255
200 224 255
200 224 255
200 224 255
200 224 255
200 224 255
200 224 255
200 224 255
200 224 255
200 224 255
200 224 255
200 224 255
200 224 255
200 224 255
200 224 255
200 224 255
200 224 255
200 224 255
200 224 255
200 224 255
200 224 255
200 224 255
200 224 255
200 224 255
200 224 255
200 224 255
200 224 255
200 224 255
200 224 255
200 224 255
201 224 255
201 224 255
201 224 255
201 224 255
201 224 255
201 224 255
201 224 255
201 224 255
201 224 255
201 224 255
201 224 255
201 224 255
201 224 255
201 224 255
201 224 255
201 224 255
201 224 255
201 224 255
201 224 255
201 224 255
201 224 255
201 225 255
201 225 255
201 225 255
201 225 255
201 225 255
201 225 255
202 225 255
202 225 255
202 225 255
202 225 255
202 225 255
202 225 255
202 225 255
202 225 255
202 225 255
202 225 255
202 225 255
202 225 255
202 225 255
202 225 255
202 225 255
202 225 255
202 225 255
202 225 255
202 225 255
203 225 255
203 225 255
203 225 255
203 225 255
203 225 255
203 225 255
203 225 255
203 225 255
203 225 255
203 225 255
203 226 255
203 226 255
203 226 255
203 226 255
203 226 255
203 226 255
203 226 255
204 226 255
204 226 255
204 226 255
204 226 255
204 226 255
204 226 255
204 226 255
204 226 255
204 226 255
204 226 255
204 226 255
204 226 255
204 226 255
204 226 255
204 226 255
204 226 255
205 226 255
205 226 255
205 226 255
205 226 255
205 226 255
205 226 255
205 226 255
205 227 255
205 227 255
205 227 255
205 227 255
205 227 255
205 227 255
205 227 255
205 227 255
206 227 255
206 227 255
206 227 255
206 227 255
206 227 255
206 227 255
206 227 255
206 227 255
206 227 255
206 227 255
206 227 255
206 227 255
206 227 255
206 227 255
206 227 255
206 227 255
206 227 255
206 227 255
206 227 255
207 227 255
207 227 255
207 227 255
207 228 255
207 228 255
207 228 255
207 228 255
207 228 255
207 228 255
207 228 255
207 228 255
207 228 255
207 228 255
207 228 255
207 228 255
207 228 255
207 228 255
208 228 255
208 228 255
208 228 255
208 228 255
208 228 255
208 228 255
208 228 255
208 228 255
208 228 255
208 228 255
208 228 255
208 228 255
208 228 255
208 228 255
208 228 255
208 228 255
208 228 255
208 228 255
208 228 255
208 228 255
209 228 255
209 229 255
209 229 255
209 229 255
209 229 255
209 229 255
209 229 255
209 229 255
209 229 255
209 229 255
209 229 255
209 229 255
209 229 255
209 229 255
209 229 255
209 229 255
209 229 255
209 229 255
209 229 255
209 229 255
209 229 255
209 229 255
209 229 255
210 229 255
210 229 255
210 229 255
210 229 255
210 229 255
210 229 255
210 229 255
210 229 255
210 229 255
210 229 255
210 229 255
210 229 255
210 229 255
210 229 255
210 229 255
210 229 255
210 229 255
210 229 255
210 229 255
209 229 255
209 229 255
209 229 255
209 229 255
209 229 255
209 229 255
209 229 255
209 229 255
209 229 255
209 229 255
209 229 255
209 229 255
209 229 255
209 229 255
209 229 255
209 229 255
209 229 255
209 229 255
209 229 255
209 229 255
209 229 255
209 229 255
209 228 255
208 228 255
208 228 255
208 228 255
208 228 255
208 228 255
208 228 255
208 228 255
208 228 255
208 228 255
208 228 255
208 228 255
208 228 255
208 228 255
208 228 255
208 228 255
208 228 255
208 228 255
208 228 255
208 228 255
208 228 255
207 228 255
207 228 255
207 228 255
207 228 255
207 228 255
207 228 255
207 228 255
207 228 255
207 228 255
207 228 255
207 228 255
207 228 255
207 228 255
207 228 255
207 227 255
207 227 255
207 227 255
207 227 255
206 227 255
206 227 255
206 227 255
206 227 255
206 227 255
206 227 255
206 227 255
206 227 255
206 227 255
206 227 255
206 227 255
206 227 255
206 227 255
206 227 255
206 227 255
206 227 255
206 227 255
205 227 255
205 227 255
205 227 255
205 227 255
205 227 255
205 227 255
205 227 255
205 227 255
205 227 255
205 227 255
205 226 255
205 226 255
205 226 255
205 226 255
205 226 255
205 226 255
205 226 255
204 226 255
204 226 255
204 226 255
204 226 255
204 226 255
204 226 255
204 226 255
204 226 255
204 226 255
204 226 255
204 226 255
204 226 255
204 226 255
204 226 255
204 226 255
204 226 255
203 226 255
203 226 255
203 226 255
203 226 255
203 226 255
203 226 255
203 226 255
203 225 255
203 225 255
203 225 255
203 225 255
203 225 255
203 225 255
203 225 255
203 225 255
203 225 255
203 225 255
202 225 255
202 225 255
202 225 255
202 225 255
202 225 255
202 225 255
202 225 255
202 225 255
202 225 255
202 225 255
202 225 255
202 225 255
202 225 255
202 225 255
202 225 255
202 225 255
202 225 255
202 225 255
202 225 255
202 225 255
201 225 255
201 225 255
201 225 255
201 225 255
201 225 255
201 225 255
201 225 255
201 224 255
201 224 255
201 224 255
201 224 255
201 224 255
201 224 255
201 224 255
201 224 255
201 224 255
201 224 255
201 224 255
201 224 255
201 224 255
201 224 255
201 224 255
201 224 255
201 224 255
201 224 255
201 224 255
201 224 255
201 224 255
201 224 255
201 224 255
201 224 255
201 224 255
201 224 255
201 224 255
201 224 255
201 224 255
201 224 255
201 224 255
201 224 255
201 224 255
201 224 255
201 224 255
201 224 255
201 224 255
201 224 255
201 224 255
201 224 255
201 224 255
201 224 255
201 224 255
201 224 255
201 224 255
201 224 255
201 224 255
201 224 255
201 224 255
201 224 255
201 224 255
201 224 255
201 224 255
201 224 255
201 224 255
201 224 255
201 224 255
201 224 255
201 224 255
201 224 255
201 224 255
201 224 255
201 224 255
201 224 255
201 224 255
201 224 255
201 224 255
201 224 255
201 225 255
201 225 255
201 225 255
201 225 255
201 225 255
201 225 255
201 225 255
201 225 255
202 225 255
202 225 255
202 225 255
202 225 255
202 225 255
202 225 255
202 225 255
202 225 255
202 225 255
202 225 255
202 225 255
202 225 255
202 225 255
202 225 255
202 225 255
202 225 255
202 225 255
202 225 255
202 225 255
203 225 255
203 225 255
203 225 255
203 225 255
203 225 255
203 225 255
203 225 255
203 225 255
203 225 255
203 225 255
203 226 255
203 226 255
203 226 255
203 226 255
203 226 255
203 226 255
203 226 255
204 226 255
204 226 255
204 226 255
204 226 255
204 226 255
204 226 255
204 226 255
204 226 255
204 226 255
204 226 255
204 226 255
204 226 255
204 226 255
204 226 255
204 226 255
204 226 255
204 226 255
205 226 255
205 226 255
205 226 255
205 226 255
205 226 255
205 226 255
205 227 255
205 227 255
205 227 255
205 227 255
205 227 255
205 227 255
205 227 255
205 227 255
205 227 255
205 227 255
206 227 255
206 227 255
206 227 255
206 227 255
206 227 255
206 227 255
206 227 255
206 227 255
206 227 255
206 227 255
206 227 255
206 227 255
206 227 255
206 227 255
206 227 255
206 227 255
206 227 255
207 227 255
207 227 255
207 227 255
207 227 255
207 228 255
207 228 255
207 228 255
207 228 255
207 228 255
207 228 255
207 228 255
207 228 255
207 228 255
207 228 255
207 228 255
207 228 255
207 228 255
207 228 255
208 228 255
208 228 255
208 228 255
208 228 255
208 228 255
208 228 255
208 228 255
208 228 255
208 228 255
208 228 255
208 228 255
208 228 255
208 228 255
208 228 255
208 228 255
208 228 255
208 228 255
208 228 255
208 228 255
208 228 255
209 228 255
209 228 255
209 229 255
209 229 255
209 229 255
209 229 255
209 229 255
209 229 255
209 229 255
209 229 255
209 229 255
209 229 255
209 229 255
209 229 255
209 229 255
209 229 255
209 229 255
209 229 255
209 229 255
209 229 255
209 229 255
210 229 255
210 229 255
210 229 255
210 229 255
210 229 255
210 229 255
210 229 255
210 229 255
210 229 255
210 229 255
210 229 255
210 229 255
210 229 255
210 229 255
210 229 255
210 229 255
210 229 255
210 229 255
210 229 255
210 229 255
210 229 255
210 229 255
210 229 255
210 229 255
210 229 255
210 229 255
210 229 255
210 229 255
209 229 255
209 229 255
209 229 255
209 229 255
209 229 255
209 229 255
209 229 255
209 229 255
209 229 255
209 229 255
209 229 255
209 229 255
209 229 255
209 229 255
209 229 255
209 229 255
209 229 255
209 229 255
209 229 255
209 229 255
209 229 255
209 228 255
209 228 255
208 228 255
208 228 255
208 228 255
208 228 255
208 228 255
208 228 255
208 228 255
208 228 255
208 228 255
208 228 255
208 228 255
208 228 255
208 228 255
208 228 255
208 228 255
208 228 255
208 228 255
208 228 255
208 228 255
207 228 255
207 228 255
207 228 255
207 228 255
207 228 255
207 228 255
207 228 255
207 228 255
207 228 255
207 228 255
207 228 255
207 228 255
207 228 255
207 228 255
207 227 255
207 227 255
207 227 255
207 227 255
207 227 255
206 227 255
206 227 255
206 227 255
206 227 255
206 227 255
206 227 255
206 227 255
206 227 255
206 227 255
206 227 255
206 227 255
206 227 255
206 227 255
206 227 255
206 227 255
206 227 255
205 227 255
205 227 255
205 227 255
205 227 255
205 227 255
205 227 255
205 227 255
205 227 255
205 227 255
205 227 255
205 226 255
205 226 255
205 226 255
205 226 255
205 226 255
205 226 255
205 226 255
204 226 255
204 226 255
204 226 255
204 226 255
204 226 255
204 226 255
204 226 255
204 226 255
204 226 255
204 226 255
204 226 255
204 226 255
204 226 255
204 226 255
204 226 255
204 226 255
203 226 255
203 226 255
203 226 255
203 226 255
203 226 255
203 226 255
203 226 255
203 225 255
203 225 255
203 225 255
203 225 255
203 225 255
203 225 255
203 225 255
203 225 255
203 225 255
203 225 255
203 225 255
202 225 255
202 225 255
202 225 255
202 225 255
202 225 255
202 225 255
202 225 255
202 225 255
202 225 255
202 225 255
202 225 255
202 225 255
202 225 255
202 225 255
202 225 255
202 225 255
202 225 255
202 225 255
202 225 255
202 225 255
202 225 255
201 225 255
201 225 255
201 225 255
201 225 255
201 225 255
201 225 255
201 225 255
201 224 255
201 224 255
201 224 255
201 224 255
201 224 255
201 224 255
201 224 255
201 224 255
201 224 255
201 224 255
201 224 255
201 224 255
201 224 255
201 224 255
201 224 255
201 224 255
201 224 255
201 224 255
201 224 255
201 224 255
201 224 255
201 224 255
201 224 255
201 224 255
201 224 255
201 224 255
201 224 255
201 224 255
201 224 255
201 224 255
201 224 255
201 224 255
201 224 255
201 224 255
201 224 255
201 224 255
201 224 255
201 224 255
201 224 255
201 224 255
201 224 255
201 224 255
201 224 255
201 224 255
201 224 255
201 224 255
201 224 255
201 224 255
201 224 255
201 224 255
201 224 255
201 224 255
201 224 255
201 224 255
201 224 255
201 224 255
201 224 255
201 224 255
201 225 255
201 225 255
201 225 255
201 225 255
201 225 255
201 225 255
201 225 255
202 225 255
202 225 255
202 225 255
202 225 255
202 225 255
202 225 255
202 225 255
202 225 255
202 225 255
202 225 255
202 225 255
202 225 255
202 225 255
202 225 255
202 225 255
202 225 255
202 225 255
202 225 255
202 225 255
202 225 255
202 225 255
203 225 255
203 225 255
203 225 255
203 225 255
203 225 255
203 225 255
203 225 255
203 225 255
203 225 255
203 225 255
203 226 255
203 226 255
203 226 255
203 226 255
203 226 255
203 226 255
203 226 255
203 226 255
204 226 255
204 226 255
204 226 255
204 226 255
204 226 255
204 226 255
204 226 255
204 226 255
204 226 255
204 226 255
204 226 255
204 226 255
204 226 255
204 226 255
204 226 255
204 226 255
205 226 255
205 226 255
205 226 255
205 226 255
205 226 255
205 226 255
205 226 255
205 227 255
205 227 255
205 227 255
205 227 255
205 227 255
205 227 255
205 227 255
205 227 255
205 227 255
205 227 255
206 227 255
206 227 255
206 227 255
206 227 255
206 227 255
206 227 255
206 227 255
206 227 255
206 227 255
206 227 255
206 227 255
206 227 255
206 227 255
206 227 255
206 227 255
206 227 255
206 227 255
207 227 255
207 227 255
207 227 255
207 227 255
207 228 255
207 228 255
207 228 255
207 228 255
207 228 255
207 228 255
207 228 255
207 228 255
207 228 255
207 228 255
207 228 255
207 228 255
207 228 255
207 228 255
208 228 255
208 228 255
208 228 255
208 228 255
208 228 255
208 228 255
208 228 255
208 228 255
208 228 255
208 228 255
208 228 255
208 228 255
208 228 255
208 228 255
208 228 255
208 228 255
208 228 255
208 228 255
208 228 255
209 228 255
209 228 255
209 229 255
209 229 255
209 229 255
209 229 255
209 229 255
209 229 255
209 229 255
209 229 255
209 229 255
209 229 255
209 229 255
209 229 255
209 229 255
209 229 255
209 229 255
209 229 255
209 229 255
209 229 255
209 229 255
209 229 255
209 229 255
210 229 255
210 229 255
210 229 255
210 229 255
210 229 255
210 229 255
210 229 255
210 229 255
210 229 255
210 229 255
210 229 255
210 229 255
210 229 255
210 229 255
210 229 255
210 229 255
210 229 255
210 229 255
210 229 255
210 229 255
210 229 255
210 229 255
210 229 255
210 229 255
210 229 255
210 229 255
210 229 255
210 229 255
210 229 255
210 229 255
210 229 255
210 229 255
210 229 255
210 229 255
209 229 255
209 229 255
209 229 255
209 229 255
209 229 255
209 229 255
209 229 255
209 229 255
209 229 255
209 229 255
209 229 255
209 229 255
209 229 255
209 229 255
209 229 255
209 229 255
209 229 255
209 229 255
209 229 255
209 229 255
209 228 255
209 228 255
209 228 255
208 228 255
208 228 255
208 228 255
208 228 255
208 228 255
208 228 255
208 228 255
208 228 255
208 228 255
208 228 255
208 228 255
208 228 255
208 228 255
208 228 255
208 228 255
208 228 255
208 228 255
208 228 255
208 228 255
207 228 255
207 228 255
207 228 255
207 228 255
207 228 255
207 228 255
207 228 255
207 228 255
207 228 255
207 228 255
207 228 255
207 228 255
207 228 255
207 228 255
207 227 255
207 227 255
207 227 255
206 227 255
206 227 255
206 227 255
206 227 255
206 227 255
206 227 255
206 227 255
206 227 255
206 227 255
206 227 255
206 227 255
206 227 255
206 227 255
206 227 255
206 227 255
206 227 255
206 227 255
205 227 255
205 227 255
205 227 255
205 227 255
205 227 255
205 227 255
205 227 255
205 227 255
205 227 255
205 227 255
205 227 255
205 226 255
205 226 255
205 226 255
205 226 255
205 226 255
205 226 255
204 226 255
204 226 255
204 226 255
204 226 255
204 226 255
204 226 255
204 226 255
204 226 255
204 226 255
204 226 255
204 226 255
204 226 255
204 226 255
204 226 255
204 226 255
204 226 255
204 226 255
203 226 255
203 226 255
203 226 255
203 226 255
203 226 255
203 226 255
203 226 255
203 225 255
203 225 255
203 225 255
203 225 255
203 225 255
203 225 255
203 225 255
203 225 255
203 225 255
203 225 255
203 225 255
202 225 255
202 225 255
202 225 255
202 225 255
202 225 255
202 225 255
202 225 255
202 225 255
202 225 255
202 225 255
202 225 255
202 225 255
202 225 255
202 225 255
202 225 255
202 225 255
202 225 255
202 225 255
202 225 255
202 225 255
202 225 255
202 225 255
202 225 255
201 225 255
201 225 255
201 225 255
201 225 255
201 225 255
201 225 255
201 225 255
201 225 255
201 225 255
201 225 255
201 225 255
201 224 255
201 224 255
201 224 255
201 224 255
201 224 255
201 224 255
201 224 255
201 224 255
201 224 255
201 224 255
201 224 255
201 224 255
201 224 255
201 224 255
201 224 255
201 224 255
201 224 255
201 224 255
201 224 255
201 224 255
201 224 255
201 224 255
201 224 255
201 224 255
201 224 255
201 224 255
201 224 255
201 224 255
201 224 255
201 224 255
201 224 255
201 224 255
201 224 255
201 224 255
201 224 255
201 224 255
201 224 255
201 224 255
201 224 255
201 225 255
201 225 255
201 225 255
201 225 255
201 225 255
201 225 255
201 225 255
201 225 255
201 225 255
201 225 255
202 225 255
202 225 255
202 225 255
202 225 255
202 225 255
202 225 255
202 225 255
202 225 255
202 225 255
202 225 255
202 225 255
202 225 255
202 225 255
202 225 255
202 225 255
202 225 255
202 225 255
202 225 255
202 225 255
202 225 255
202 225 255
202 225 255
202 225 255
203 225 255
203 225 255
203 225 255
203 225 255
203 225 255
203 225 255
203 225 255
203 225 255
203 225 255
203 225 255
203 225 255
203 226 255
203 226 255
203 226 255
203 226 255
203 226 255
203 226 255
203 226 255
204 226 255
204 226 255
204 226 255
204 226 255
204 226 255
204 226 255
204 226 255
204 226 255
204 226 255
204 226 255
204 226 255
204 226 255
204 226 255
204 226 255
204 226 255
204 226 255
204 226 255
205 226 255
205 226 255
205 226 255
205 226 255
205 226 255
205 226 255
205 226 255
205 227 255
205 227 255
205 227 255
205 227 255
205 227 255
205 227 255
205 227 255
205 227 255
205 227 255
206 227 255
206 227 255
206 227 255
206 227 255
206 227 255
206 227 255
206 227 255
206 227 255
206 227 255
206 227 255
206 227 255
206 227 255
206 227 255
206 227 255
206 227 255
206 227 255
206 227 255
206 227 255
207 227 255
207 227 255
207 227 255
207 227 255
207 228 255
207 228 255
207 228 255
207 228 255
207 228 255
207 228 255
207 228 255
207 228 255
207 228 255
207 228 255
207 228 255
207 228 255
207 228 255
208 228 255
208 228 255
208 228 255
208 228 255
208 228 255
208 228 255
208 228 255
208 228 255
208 228 255
208 228 255
208 228 255
208 228 255
208 228 255
208 228 255
208 228 255
208 228 255
208 228 255
208 228 255
208 228 255
208 228 255
209 228 255
209 229 255
209 229 255
209 229 255
209 229 255
209 229 255
209 229 255
209 229 255
209 229 255
209 229 255
209 229 255
209 229 255
209 229 255
209 229 255
209 229 255
209 229 255
209 229 255
209 229 255
209 229 255
209 229 255
209 229 255
209 229 255
210 229 255
210 229 255
210 229 255
210 229 255
210 229 255
210 229 255
210 229 255
210 229 255
210 229 255
210 229 255
210 229 255
210 229 255
210 229 255
210 229 255
210 229 255
210 229 255
210 229 255
210 229 255
210 229 255
210 230 255
210 230 255
210 229 255
210 229 255
210 229 255
210 229 255
210 229 255
210 229 255
210 229 255
210 229 255
210 229 255
210 229 255
210 229 255
210 229 255
210 229 255
210 229 255
210 229 255
210 229 255
210 229 255
210 229 255
210 229 255
210 229 255
210 229 255
209 229 255
209 229 255
209 229 255
209 229 255
209 229 255
209 229 255
209 229 255
209 229 255
209 229 255
209 229 255
209 229 255
209 229 255
209 229 255
209 229 255
209 229 255
209 229 255
209 229 255
209 229 255
209 229 255
209 229 255
209 228 255
209 228 255
208 228 255
208 228 255
208 228 255
208 228 255
208 228 255
208 228 255
208 228 255
208 228 255
208 228 255
208 228 255
208 228 255
208 228 255
208 228 255
208 228 255
208 228 255
208 228 255
208 228 255
208 228 255
208 228 255
207 228 255
207 228 255
207 228 255
207 228 255
207 228 255
207 228 255
207 228 255
207 228 255
207 228 255
207 228 255
207 228 255
207 228 255
207 228 255
207 228 255
207 227 255
207 227 255
207 227 255
207 227 255
206 227 255
206 227 255
206 227 255
206 227 255
206 227 255
206 227 255
206 227 255
206 227 255
206 227 255
206 227 255
206 227 255
206 227 255
206 227 255
206 227 255
206 227 255
206 227 255
206 227 255
205 227 255
205 227 255
205 227 255
205 227 255
205 227 255
205 227 255
205 227 255
205 227 255
205 227 255
205 227 255
205 226 255
205 226 255
205 226 255
205 226 255
205 226 255
205 226 255
204 226 255
204 226 255
204 226 255
204 226 255
204 226 255
204 226 255
204 226 255
204 226 255
204 226 255
204 226 255
204 226 255
204 226 255
204 226 255
204 226 255
204 226 255
204 226 255
204 226 255
203 226 255
203 226 255
203 226 255
203 226 255
203 226 255
203 226 255
203 226 255
203 226 255
203 226 255
203 225 255
203 225 255
203 225 255
203 225 255
203 225 255
203 225 255
203 225 255
203 225 255
203 225 255
203 225 255
202 225 255
202 225 255
202 225 255
202 225 255
202 225 255
202 225 255
202 225 255
202 225 255
202 225 255
202 225 255
202 225 255
202 225 255
202 225 255
202 225 255
202 225 255
202 225 255
202 225 255
202 225 255
202 225 255
202 225 255
202 225 255
202 225 255
202 225 255
202 225 255
202 225 255
202 225 255
201 225 255
201 225 255
201 225 255
201 225 255
201 225 255
201 225 255
201 225 255
201 225 255
201 225 255
201 225 255
201 225 255
201 225 255
201 225 255
201 225 255
201 225 255
201 225 255
201 225 255
201 224 255
201 224 255
201 225 255
201 224 255
201 224 255
201 224 255
201 225 255
201 224 255
201 225 255
201 224 255
201 224 255
201 224 255
201 225 255
201 225 255
201 225 255
201 225 255
201 225 255
201 225 255
201 225 255
201 225 255
201 225 255
201 225 255
201 225 255
201 225 255
201 225 255
201 225 255
201 225 255
201 225 255
201 225 255
202 225 255
202 225 255
202 225 255
202 225 255
202 225 255
202 225 255
202 225 255
202 225 255
202 225 255
202 225 255
202 225 255
202 225 255
202 225 255
202 225 255
202 225 255
202 225 255
202 225 255
202 225 255
202 225 255
202 225 255
202 225 255
202 225 255
202 225 255
202 225 255
202 225 255
202 225 255
203 225 255
203 225 255
203 225 255
203 225 255
203 225 255
203 225 255
203 225 255
203 225 255
203 225 255
203 225 255
203 225 255
203 226 255
203 226 255
203 226 255
203 226 255
203 226 255
203 226 255
203 226 255
203 226 255
204 226 255
204 226 255
204 226 255
204 226 255
204 226 255
204 226 255
204 226 255
204 226 255
204 226 255
204 226 255
204 226 255
204 226 255
204 226 255
204 226 255
204 226 255
204 226 255
204 226 255
205 226 255
205 226 255
205 226 255
205 226 255
205 226 255
205 226 255
205 227 255
205 227 255
205 227 255
205 227 255
205 227 255
205 227 255
205 227 255
205 227 255
205 227 255
205 227 255
206 227 255
206 227 255
206 227 255
206 227 255
206 227 255
206 227 255
206 227 255
206 227 255
206 227 255
206 227 255
206 227 255
206 227 255
206 227 255
206 227 255
206 227 255
206 227 255
206 227 255
207 227 255
207 227 255
207 227 255
207 227 255
207 228 255
207 228 255
207 228 255
207 228 255
207 228 255
207 228 255
207 228 255
207 228 255
207 228 255
207 228 255
207 228 255
207 228 255
207 228 255
207 228 255
208 228 255
208 228 255
208 228 255
208 228 255
208 228 255
208 228 255
208 228 255
208 228 255
208 228 255
208 228 255
208 228 255
208 228 255
208 228 255
208 228 255
208 228 255
208 228 255
208 228 255
208 228 255
208 228 255
209 228 255
209 229 255
209 229 255
209 229 255
209 229 255
209 229 255
209 229 255
209 229 255
209 229 255
209 229 255
209 229 255
209 229 255
209 229 255
209 229 255
209 229 255
209 229 255
209 229 255
209 229 255
209 229 255
209 229 255
209 229 255
209 229 255
210 229 255
210 229 255
210 229 255
210 229 255
210 229 255
210 229 255
210 229 255
210 229 255
210 229 255
210 229 255
210 229 255
210 229 255
210 229 255
210 229 255
210 229 255
210 229 255
210 229 255
210 229 255
210 229 255
210 229 255
210 229 255
210 230 255
210 230 255
211 230 255
211 230 255
210 230 255
210 230 255
210 230 255
210 229 255
210 229 255
210 229 255
210 229 255
210 229 255
210 229 255
210 229 255
210 229 255
210 229 255
210 229 255
210 229 255
210 229 255
210 229 255
210 229 255
210 229 255
210 229 255
210 229 255
210 229 255
210 229 255
210 229 255
210 229 255
209 229 255
209 229 255
209 229 255
209 229 255
209 229 255
209 229 255
209 229 255
209 229 255
209 229 255
209 229 255
209 229 255
209 229 255
209 229 255
209 229 255
209 229 255
209 229 255
209 229 255
209 229 255
209 229 255
209 229 255
209 228 255
209 228 255
208 228 255
208 228 255
208 228 255
208 228 255
208 228 255
208 228 255
208 228 255
208 228 255
208 228 255
208 228 255
208 228 255
208 228 255
208 228 255
208 228 255
208 228 255
208 228 255
208 228 255
208 228 255
208 228 255
207 228 255
207 228 255
207 228 255
207 228 255
207 228 255
207 228 255
207 228 255
207 228 255
207 228 255
207 228 255
207 228 255
207 228 255
207 228 255
207 228 255
207 227 255
207 227 255
207 227 255
207 227 255
206 227 255
206 227 255
206 227 255
206 227 255
206 227 255
206 227 255
206 227 255
206 227 255
206 227 255
206 227 255
206 227 255
206 227 255
206 227 255
206 227 255
206 227 255
206 227 255
206 227 255
205 227 255
205 227 255
205 227 255
205 227 255
205 227 255
205 227 255
205 227 255
205 227 255
205 227 255
205 227 255
205 226 255
205 226 255
205 226 255
205 226 255
205 226 255
205 226 255
205 226 255
204 226 255
204 226 255
204 226 255
204 226 255
204 226 255
204 226 255
204 226 255
204 226 255
204 226 255
204 226 255
204 226 255
204 226 255
204 226 255
204 226 255
204 226 255
204 226 255
204 226 255
203 226 255
203 226 255
203 226 255
203 226 255
203 226 255
203 226 255
203 226 255
203 226 255
203 225 255
203 225 255
203 225 255
203 225 255
203 225 255
203 225 255
203 225 255
203 225 255
203 225 255
203 225 255
203 225 255
203 225 255
202 225 255
202 225 255
202 225 255
202 225 255
202 225 255
202 225 255
202 225 255
202 225 255
202 225 255
202 225 255
202 225 255
202 225 255
202 225 255
202 225 255
202 225 255
202 225 255
202 225 255
202 225 255
202 225 255
202 225 255
202 225 255
202 225 255
202 225 255
202 225 255
202 225 255
202 225 255
202 225 255
202 225 255
202 225 255
202 225 255
201 225 255
202 225 255
201 225 255
201 225 255
201 225 255
201 225 255
201 225 255
201 225 255
201 225 255
201 225 255
201 225 255
201 225 255
201 225 255
201 225 255
201 225 255
201 225 255
201 225 255
201 225 255
201 225 255
201 225 255
201 225 255
201 225 255
201 225 255
201 225 255
201 225 255
201 225 255
202 225 255
202 225 255
202 225 255
202 225 255
202 225 255
202 225 255
202 225 255
202 225 255
202 225 255
202 225 255
202 225 255
202 225 255
202 225 255
202 225 255
202 225 255
202 225 255
202 225 255
202 225 255
202 225 255
202 225 255
202 225 255
202 225 255
202 225 255
202 225 255
202 225 255
202 225 255
202 225 255
202 225 255
202 225 255
202 225 255
202 225 255
202 225 255
203 225 255
203 225 255
203 225 255
203 225 255
203 225 255
203 225 255
203 225 255
203 225 255
203 225 255
203 225 255
203 225 255
203 225 255
203 226 255
203 226 255
203 226 255
203 226 255
203 226 255
203 226 255
203 226 255
203 226 255
204 226 255
204 226 255
204 226 255
204 226 255
204 226 255
204 226 255
204 226 255
204 226 255
204 226 255
204 226 255
204 226 255
204 226 255
204 226 255
204 226 255
204 226 255
204 226 255
204 226 255
204 226 255
205 226 255
205 226 255
205 226 255
205 226 255
205 226 255
205 226 255
205 227 255
205 227 255
205 227 255
205 227 255
205 227 255
205 227 255
205 227 255
205 227 255
205 227 255
205 227 255
206 227 255
206 227 255
206 227 255
206 227 255
206 227 255
206 227 255
206 227 255
206 227 255
206 227 255
206 227 255
206 227 255
206 227 255
206 227 255
206 227 255
206 227 255
206 227 255
206 227 255
207 227 255
207 227 255
207 227 255
207 227 255
207 228 255
207 228 255
207 228 255
207 228 255
207 228 255
207 228 255
207 228 255
207 228 255
207 228 255
207 228 255
207 228 255
207 228 255
207 228 255
207 228 255
208 228 255
208 228 255
208 228 255
208 228 255
208 228 255
208 228 255
208 228 255
208 228 255
208 228 255
208 228 255
208 228 255
208 228 255
208 228 255
208 228 255
208 228 255
208 228 255
208 228 255
208 228 255
208 228 255
209 228 255
209 229 255
209 229 255
209 229 255
209 229 255
209 229 255
209 229 255
209 229 255
209 229 255
209 229 255
209 229 255
209 229 255
209 229 255
209 229 255
209 229 255
209 229 255
209 229 255
209 229 255
209 229 255
209 229 255
209 229 255
210 229 255
210 229 255
210 229 255
210 229 255
210 229 255
210 229 255
210 229 255
210 229 255
210 229 255
210 229 255
210 229 255
210 229 255
210 229 255
210 229 255
210 229 255
210 229 255
210 229 255
210 229 255
210 229 255
210 229 255
210 229 255
210 229 255
210 230 255
210 230 255
210 230 255
211 230 255
211 230 255
211 230 255
211 230 255
211 230 255
211 230 255
211 230 255
211 230 255
211 230 255
210 230 255
210 230 255
210 229 255
210 229 255
210 229 255
210 229 255
210 229 255
210 229 255
210 229 255
210 229 255
210 229 255
210 229 255
210 229 255
210 229 255
210 229 255
210 229 255
210 229 255
210 229 255
210 229 255
210 229 255
210 229 255
210 229 255
210 229 255
210 229 255
209 229 255
209 229 255
209 229 255
209 229 255
209 229 255
209 229 255
209 229 255
209 229 255
209 229 255
209 229 255
209 229 255
209 229 255
209 229 255
209 229 255
209 229 255
209 229 255
209 229 255
209 229 255
209 229 255
209 228 255
209 228 255
208 228 255
208 228 255
208 228 255
208 228 255
208 228 255
208 228 255
208 228 255
208 228 255
208 228 255
208 228 255
208 228 255
208 228 255
208 228 255
208 228 255
208 228 255
208 228 255
208 228 255
208 228 255
208 228 255
207 228 255
207 228 255
207 228 255
207 228 255
207 228 255
207 228 255
207 228 255
207 228 255
207 228 255
207 228 255
207 228 255
207 228 255
207 228 255
207 227 255
207 227 255
207 227 255
207 227 255
207 227 255
206 227 255
206 227 255
206 227 255
206 227 255
206 227 255
206 227 255
206 227 255
206 227 255
206 227 255
206 227 255
206 227 255
206 227 255
206 227 255
206 227 255
206 227 255
206 227 255
206 227 255
205 227 255
205 227 255
205 227 255
205 227 255
205 227 255
205 227 255
205 227 255
205 227 255
205 227 255
205 227 255
205 226 255
205 226 255
205 226 255
205 226 255
205 226 255
205 226 255
204 226 255
204 226 255
204 226 255
204 226 255
204 226 255
204 226 255
204 226 255
204 226 255
204 226 255
204 226 255
204 226 255
204 226 255
204 226 255
204 226 255
204 226 255
204 226 255
204 226 255
204 226 255
204 226 255
203 226 255
203 226 255
203 226 255
203 226 255
203 226 255
203 226 255
203 226 255
203 226 255
203 225 255
203 225 255
203 225 255
203 225 255
203 225 255
203 225 255
203 225 255
203 225 255
203 225 255
203 225 255
203 225 255
203 225 255
203 225 255
202 225 255
202 225 255
202 225 255
202 225 255
202 225 255
202 225 255
202 225 255
202 225 255
202 225 255
202 225 255
202 225 255
202 225 255
202 225 255
202 225 255
202 225 255
202 225 255
202 225 255
202 225 255
202 225 255
202 225 255
202 225 255
202 225 255
202 225 255
202 225 255
202 225 255
202 225 255
202 225 255
202 225 255
202 225 255
202 225 255
202 225 255
202 225 255
202 225 255
202 225 255
202 225 255
202 225 255
202 225 255
202 225 255
202 225 255
202 225 255
202 225 255
202 225 255
202 225 255
202 225 255
202 225 255
202 225 255
202 225 255
202 225 255
202 225 255
202 225 255
202 225 255
202 225 255
202 225 255
202 225 255
202 225 255
202 225 255
202 225 255
202 225 255
202 225 255
202 225 255
202 225 255
202 225 255
202 225 255
202 225 255
202 225 255
202 225 255
202 225 255
202 225 255
202 225 255
202 225 255
202 225 255
202 225 255
202 225 255
202 225 255
202 225 255
202 225 255
202 225 255
203 225 255
203 225 255
203 225 255
203 225 255
203 225 255
203 225 255
203 225 255
203 225 255
203 225 255
203 225 255
203 225 255
203 225 255
203 225 255
203 226 255
203 226 255
203 226 255
203 226 255
203 226 255
203 226 255
203 226 255
204 226 255
204 226 255
204 226 255
204 226 255
204 226 255
204 226 255
204 226 255
204 226 255
204 226 255
204 226 255
204 226 255
204 226 255
204 226 255
204 226 255
204 226 255
204 226 255
204 226 255
204 226 255
205 226 255
205 226 255
205 226 255
205 226 255
205 226 255
205 226 255
205 226 255
205 227 255
205 227 255
205 227 255
205 227 255
205 227 255
205 227 255
205 227 255
205 227 255
205 227 255
205 227 255
205 227 255
206 227 255
206 227 255
206 227 255
206 227 255
206 227 255
206 227 255
206 227 255
206 227 255
206 227 255
206 227 255
206 227 255
206 227 255
206 227 255
206 227 255
206 227 255
206 227 255
206 227 255
207 227 255
207 227 255
207 227 255
207 228 255
207 228 255
207 228 255
207 228 255
207 228 255
207 228 255
207 228 255
207 228 255
207 228 255
207 228 255
207 228 255
207 228 255
207 228 255
207 228 255
207 228 255
208 228 255
208 228 255
208 228 255
208 228 255
208 228 255
208 228 255
208 228 255
208 228 255
208 228 255
208 228 255
208 228 255
208 228 255
208 228 255
208 228 255
208 228 255
208 228 255
208 228 255
208 228 255
209 228 255
209 228 255
209 229 255
209 229 255
209 229 255
209 229 255
209 229 255
209 229 255
209 229 255
209 229 255
209 229 255
209 229 255
209 229 255
209 229 255
209 229 255
209 229 255
209 229 255
209 229 255
209 229 255
209 229 255
209 229 255
209 229 255
210 229 255
210 229 255
210 229 255
210 229 255
210 229 255
210 229 255
210 229 255
210 229 255
210 229 255
210 229 255
210 229 255
210 229 255
210 229 255
210 229 255
210 229 255
210 229 255
210 229 255
210 229 255
210 229 255
210 229 255
210 229 255
210 230 255
210 230 255
210 230 255
211 230 255
211 230 255
211 230 255
211 230 255
211 230 255
211 230 255
211 230 255
211 230 255
211 230 255
211 230 255
211 230 255
211 230 255
211 230 255
211 230 255
211 230 255
211 230 255
210 230 255
210 230 255
210 230 255
210 229 255
210 229 255
210 229 255
210 229 255
210 229 255
210 229 255
210 229 255
210 229 255
210 229 255
210 229 255
210 229 255
210 229 255
210 229 255
210 229 255
210 229 255
210 229 255
210 229 255
210 229 255
210 229 255
210 229 255
210 229 255
209 229 255
209 229 255
209 229 255
209 229 255
207 227 253
205 224 250
207 226 253
202 221 248
207 226 253
207 226 253
209 229 255
204 224 250
200 219 245
199 219 245
199 219 245
202 221 248
199 219 245
196 216 242
199 219 245
193 213 240
193 213 240
196 216 242
206 226 253
199 218 245
203 223 250
204 224 250
206 226 253
208 228 255
208 228 255
208 228 255
208 228 255
208 228 255
208 228 255
208 228 255
208 228 255
208 228 255
208 228 255
208 228 255
208 228 255
208 228 255
207 228 255
207 228 255
207 228 255
207 228 255
207 228 255
207 228 255
207 228 255
207 228 255
207 228 255
207 228 255
207 228 255
207 228 255
207 228 255
207 228 255
207 227 255
207 227 255
207 227 255
207 227 255
206 227 255
206 227 255
206 227 255
206 227 255
206 227 255
206 227 255
206 227 255
206 227 255
206 227 255
206 227 255
206 227 255
206 227 255
206 227 255
206 227 255
206 227 255
206 227 255
206 227 255
206 227 255
205 227 255
205 227 255
205 227 255
205 227 255
205 227 255
205 227 255
205 227 255
205 227 255
205 227 255
205 226 255
205 226 255
205 226 255
205 226 255
205 226 255
205 226 255
205 226 255
204 226 255
204 226 255
204 226 255
204 226 255
204 226 255
204 226 255
204 226 255
204 226 255
204 226 255
204 226 255
204 226 255
204 226 255
204 226 255
204 226 255
204 226 255
204 226 255
204 226 255
204 226 255
204 226 255
203 226 255
203 226 255
203 226 255
203 226 255
203 226 255
203 226 255
203 226 255
203 226 255
203 225 255
203 225 255
203 225 255
203 225 255
203 225 255
203 225 255
203 225 255
203 225 255
203 225 255
203 225 255
203 225 255
203 225 255
203 225 255
202 225 255
202 225 255
202 225 255
202 225 255
202 225 255
202 225 255
202 225 255
202 225 255
202 225 255
202 225 255
202 225 255
202 225 255
202 225 255
202 225 255
202 225 255
202 225 255
202 225 255
202 225 255
202 225 255
202 225 255
202 225 255
202 225 255
202 225 255
202 225 255
202 225 255
202 225 255
202 225 255
202 225 255
202 225 255
202 225 255
202 225 255
202 225 255
202 225 255
202 225 255
202 225 255
202 225 255
202 225 255
202 225 255
202 225 255
202 225 255
202 225 255
202 225 255
202 225 255
202 225 255
202 225 255
202 225 255
202 225 255
202 225 255
202 225 255
202 225 255
202 225 255
202 225 255
202 225 255
202 225 255
202 225 255
202 225 255
202 225 255
202 225 255
202 225 255
202 225 255
202 225 255
202 225 255
202 225 255
202 225 255
202 225 255
202 225 255
202 225 255
203 225 255
203 225 255
203 225 255
203 225 255
203 225 255
203 225 255
203 225 255
203 225 255
203 225 255
203 225 255
203 225 255
203 225 255
203 225 255
203 226 255
203 226 255
203 226 255
203 226 255
203 226 255
203 226 255
203 226 255
203 226 255
203 226 255
203 226 255
204 226 255
204 226 255
204 226 255
204 226 255
204 226 255
204 226 255
204 226 255
204 226 255
204 226 255
204 226 255
204 226 255
204 226 255
204 226 255
204 226 255
204 226 255
204 226 255
204 226 255
204 226 255
205 226 255
205 226 255
205 226 255
205 226 255
205 226 255
205 226 255
205 226 255
205 227 255
205 227 255
205 227 255
205 227 255
205 227 255
205 227 255
205 227 255
205 227 255
205 227 255
205 227 255
206 227 255
206 227 255
206 227 255
206 227 255
206 227 255
206 227 255
206 227 255
206 227 255
206 227 255
206 227 255
206 227 255
206 227 255
206 227 255
206 227 255
206 227 255
206 227 255
206 227 255
207 227 255
207 227 255
207 227 255
207 227 255
207 228 255
207 228 255
207 228 255
207 228 255
207 228 255
207 228 255
207 228 255
207 228 255
207 228 255
207 228 255
207 228 255
207 228 255
207 228 255
207 228 255
208 228 255
208 228 255
208 228 255
208 228 255
208 228 255
208 228 255
208 228 255
208 228 255
208 228 255
208 228 255
208 228 255
208 228 255
208 228 255
199 209 211
203 219 234
201 214 223
198 209 211
201 214 223
196 203 198
201 214 223
196 203 198
201 214 223
202 214 223
194 198 184
199 209 211
196 204 198
202 214 223
202 214 223
202 214 223
201 214 223
202 214 223
204 219 234
205 219 234
207 224 245
209 229 255
209 229 255
209 229 255
209 229 255
209 229 255
209 229 255
210 229 255
210 229 255
210 229 255
210 229 255
210 229 255
210 229 255
210 229 255
210 229 255
210 229 255
210 229 255
210 229 255
210 229 255
210 229 255
210 229 255
210 229 255
210 229 255
210 229 255
210 229 255
210 229 255
210 229 255
210 229 255
210 230 255
210 230 255
210 230 255
211 230 255
211 230 255
211 230 255
211 230 255
211 230 255
211 230 255
211 230 255
211 230 255
211 230 255
211 230 255
211 230 255
211 230 255
211 230 255
211 230 255
211 230 255
211 230 255
211 230 255
211 230 255
211 230 255
211 230 255
211 230 255
211 230 255
211 230 255
211 230 255
210 230 255
210 230 255
210 230 255
210 229 255
210 229 255
210 229 255
210 229 255
210 229 255
210 229 255
210 229 255
210 229 255
210 229 255
210 229 255
210 229 255
210 229 255
210 229 255
205 224 250
205 224 250
195 214 240
194 214 240
192 211 237
192 211 237
191 211 237
181 202 228
182 202 228
181 201 228
180 201 228
180 201 228
180 201 228
180 201 228
179 200 228
179 200 228
179 200 228
179 200 228
179 200 228
178 200 228
178 200 228
178 200 228
179 200 228
178 200 228
178 200 228
178 200 228
179 200 228
179 200 228
179 200 228
179 200 228
178 200 228
179 200 228
183 204 231
184 204 231
189 209 237
195 215 242
195 215 242
195 215 242
203 223 250
198 218 245
206 226 253
208 228 255
208 228 255
208 228 255
208 228 255
208 228 255
208 228 255
208 228 255
207 228 255
207 228 255
207 228 255
207 228 255
207 228 255
207 228 255
207 228 255
207 228 255
207 228 255
207 228 255
207 228 255
207 228 255
207 228 255
207 227 255
207 227 255
207 227 255
207 227 255
206 227 255
206 227 255
206 227 255
206 227 255
206 227 255
206 227 255
206 227 255
206 227 255
206 227 255
206 227 255
206 227 255
206 227 255
206 227 255
206 227 255
206 227 255
206 227 255
206 227 255
206 227 255
205 227 255
205 227 255
205 227 255
205 227 255
205 227 255
205 227 255
205 227 255
205 227 255
205 227 255
205 227 255
205 226 255
205 226 255
205 226 255
205 226 255
205 226 255
205 226 255
204 226 255
205 226 255
204 226 255
204 226 255
204 226 255
204 226 255
204 226 255
204 226 255
204 226 255
204 226 255
204 226 255
204 226 255
204 226 255
204 226 255
204 226 255
204 226 255
204 226 255
204 226 255
204 226 255
204 226 255
203 226 255
203 226 255
203 226 255
203 226 255
203 226 255
203 226 255
203 226 255
203 226 255
203 226 255
203 226 255
203 225 255
203 225 255
203 225 255
203 225 255
203 225 255
203 225 255
203 225 255
203 225 255
203 225 255
203 225 255
203 225 255
203 225 255
203 225 255
203 225 255
203 225 255
202 225 255
203 225 255
202 225 255
202 225 255
202 225 255
202 225 255
202 225 255
202 225 255
202 225 255
202 225 255
202 225 255
202 225 255
202 225 255
202 225 255
202 225 255
202 225 255
202 225 255
202 225 255
202 225 255
202 225 255
202 225 255
202 225 255
202 225 255
202 225 255
202 225 255
202 225 255
202 225 255
202 225 255
202 225 255
202 225 255
202 225 255
202 225 255
202 225 255
202 225 255
202 225 255
202 225 255
202 225 255
202 225 255
202 225 255
202 225 255
202 225 255
202 225 255
202 225 255
202 225 255
202 225 255
202 225 255
202 225 255
202 225 255
202 225 255
202 225 255
202 225 255
202 225 255
203 225 255
203 225 255
203 225 255
203 225 255
203 225 255
203 225 255
203 225 255
203 225 255
203 225 255
203 225 255
203 225 255
203 225 255
203 225 255
203 225 255
203 225 255
203 225 255
203 226 255
203 226 255
203 226 255
203 226 255
203 226 255
203 226 255
203 226 255
203 226 255
203 226 255
204 226 255
204 226 255
204 226 255
204 226 255
204 226 255
204 226 255
204 226 255
204 226 255
204 226 255
204 226 255
204 226 255
204 226 255
204 226 255
204 226 255
204 226 255
204 226 255
204 226 255
204 226 255
204 226 255
205 226 255
205 226 255
205 226 255
205 226 255
205 226 255
205 226 255
205 226 255
205 227 255
205 227 255
205 227 255
205 227 255
205 227 255
205 227 255
205 227 255
205 227 255
205 227 255
205 227 255
206 227 255
206 227 255
206 227 255
206 227 255
206 227 255
206 227 255
206 227 255
206 227 255
206 227 255
206 227 255
206 227 255
206 227 255
206 227 255
206 227 255
206 227 255
206 227 255
206 227 255
206 227 255
207 227 255
207 227 255
207 227 255
207 227 255
207 228 255
207 228 255
207 228 255
207 228 255
207 228 255
207 228 255
207 228 255
207 228 255
207 228 255
207 228 255
207 228 255
207 228 255
207 228 255
208 228 255
208 228 255
208 228 255
208 228 255
208 228 255
208 228 255
208 228 255
208 228 255
208 228 255
203 218 234
203 218 234
193 198 184
186 186 153
186 186 153
180 174 114
185 186 153
180 174 114
180 174 114
179 173 114
179 173 114
179 173 114
178 173 114
179 173 114
178 173 114
178 173 114
178 173 114
178 173 114
178 173 114
179 173 114
179 173 114
178 173 114
179 173 114
179 173 114
179 173 114
180 174 114
180 174 114
181 174 114
181 174 114
181 174 114
183 175 114
185 181 135
185 181 135
197 204 198
195 199 184
199 209 211
202 214 223
205 220 234
203 215 223
210 229 255
210 229 255
210 229 255
210 229 255
210 229 255
210 229 255
210 229 255
210 229 255
210 229 255
210 229 255
210 229 255
210 229 255
210 229 255
210 230 255
210 230 255
211 230 255
211 230 255
211 230 255
211 230 255
211 230 255
211 230 255
211 230 255
211 230 255
211 230 255
211 230 255
211 230 255
211 230 255
211 230 255
211 230 255
211 230 255
211 230 255
211 230 255
211 230 255
211 230 255
211 230 255
211 230 255
211 230 255
211 230 255
211 230 255
211 230 255
211 230 255
211 230 255
211 230 255
211 230 255
211 230 255
211 230 255
211 230 255
211 230 255
210 230 255
210 230 255
210 229 255
210 229 255
210 229 255
210 229 255
203 222 248
195 214 240
187 206 231
186 205 231
185 205 231
183 202 228
182 202 228
181 201 228
180 201 228
180 201 228
179 200 228
179 200 228
179 200 228
179 200 228
178 200 228
177 199 228
178 199 228
177 199 228
177 199 228
176 199 228
176 199 228
176 199 228
176 198 228
176 198 228
175 198 228
175 198 228
175 198 228
175 198 228
174 198 228
175 198 228
175 198 228
175 198 228
175 198 228
174 198 228
175 198 228
175 198 228
175 198 228
175 198 228
175 198 228
176 198 228
176 199 228
176 199 228
176 199 228
177 199 228
178 200 228
178 200 228
179 200 228
180 201 228
186 206 234
190 210 237
195 215 242
203 223 250
206 226 253
208 228 255
208 228 255
208 228 255
208 228 255
207 228 255
207 228 255
207 228 255
207 228 255
207 228 255
207 228 255
207 228 255
207 228 255
207 228 255
207 228 255
207 228 255
207 228 255
207 228 255
207 228 255
207 227 255
207 227 255
207 227 255
207 227 255
206 227 255
206 227 255
206 227 255
206 227 255
206 227 255
206 227 255
206 227 255
206 227 255
206 227 255
206 227 255
206 227 255
206 227 255
206 227 255
206 227 255
206 227 255
206 227 255
206 227 255
206 227 255
205 227 255
205 227 255
205 227 255
205 227 255
205 227 255
205 227 255
205 227 255
205 227 255
205 227 255
205 227 255
205 226 255
205 226 255
205 226 255
205 226 255
205 226 255
205 226 255
205 226 255
204 226 255
204 226 255
204 226 255
204 226 255
204 226 255
204 226 255
204 226 255
204 226 255
204 226 255
204 226 255
204 226 255
204 226 255
204 226 255
204 226 255
204 226 255
204 226 255
204 226 255
204 226 255
204 226 255
204 226 255
203 226 255
203 226 255
203 226 255
203 226 255
203 226 255
203 226 255
203 226 255
203 226 255
203 226 255
203 226 255
203 226 255
203 225 255
203 225 255
203 225 255
203 225 255
203 225 255
203 225 255
203 225 255
203 225 255
203 225 255
203 225 255
203 225 255
203 225 255
203 225 255
203 225 255
203 225 255
203 225 255
203 225 255
203 225 255
202 225 255
203 225 255
202 225 255
202 225 255
202 225 255
202 225 255
202 225 255
202 225 255
202 225 255
202 225 255
202 225 255
202 225 255
202 225 255
202 225 255
202 225 255
202 225 255
202 225 255
202 225 255
202 225 255
202 225 255
202 225 255
202 225 255
202 225 255
202 225 255
202 225 255
202 225 255
202 225 255
202 225 255
202 225 255
202 225 255
202 225 255
202 225 255
203 225 255
202 225 255
203 225 255
203 225 255
203 225 255
203 225 255
203 225 255
203 225 255
203 225 255
203 225 255
203 225 255
203 225 255
203 225 255
203 225 255
203 225 255
203 225 255
203 225 255
203 225 255
203 225 255
203 225 255
203 226 255
203 225 255
203 226 255
203 226 255
203 226 255
203 226 255
203 226 255
203 226 255
203 226 255
203 226 255
203 226 255
204 226 255
204 226 255
204 226 255
204 226 255
204 226 255
204 226 255
204 226 255
204 226 255
204 226 255
204 226 255
204 226 255
204 226 255
204 226 255
204 226 255
204 226 255
204 226 255
204 226 255
204 226 255
204 226 255
204 226 255
205 226 255
205 226 255
205 226 255
205 226 255
205 226 255
205 226 255
205 226 255
205 227 255
205 227 255
205 227 255
205 227 255
205 227 255
205 227 255
205 227 255
205 227 255
205 227 255
205 227 255
205 227 255
206 227 255
206 227 255
206 227 255
206 227 255
206 227 255
206 227 255
206 227 255
206 227 255
206 227 255
206 227 255
206 227 255
206 227 255
206 227 255
206 227 255
206 227 255
206 227 255
206 227 255
207 227 255
207 227 255
207 227 255
207 227 255
207 227 255
207 228 255
207 228 255
207 228 255
207 228 255
207 228 255
207 228 255
207 228 255
207 228 255
207 228 255
207 228 255
207 228 255
207 228 255
207 228 255
208 228 255
208 228 255
208 228 255
208 228 255
208 228 255
200 213 223
203 218 234
198 208 211
183 180 135
186 186 153
180 174 114
179 173 114
176 172 114
176 172 114
176 172 114
176 172 114
176 172 114
175 172 114
175 172 114
175 171 114
175 171 114
175 172 114
175 172 114
174 171 114
174 171 114
174 171 114
174 171 114
175 171 114
175 172 114
175 171 114
175 171 114
175 171 114
175 172 114
176 172 114
176 172 114
176 172 114
176 172 114
177 172 114
177 172 114
177 172 114
177 172 114
177 173 114
178 173 114
178 173 114
179 173 114
179 173 114
179 173 114
180 174 114
181 174 114
181 174 114
181 174 114
183 175 114
187 182 135
195 199 184
187 182 135
195 199 184
203 215 223
203 215 223
210 229 255
210 229 255
210 230 255
210 230 255
210 230 255
211 230 255
211 230 255
211 230 255
211 230 255
211 230 255
211 230 255
211 230 255
211 230 255
211 230 255
211 230 255
211 230 255
211 230 255
211 230 255
211 230 255
211 230 255
211 230 255
211 230 255
211 230 255
211 230 255
211 230 255
211 230 255
211 230 255
211 230 255
211 230 255
211 230 255
211 230 255
211 230 255
211 230 255
211 230 255
211 230 255
211 230 255
211 230 255
211 230 255
211 230 255
211 230 255
211 230 255
208 227 253
198 217 242
201 220 245
198 217 242
187 206 231
184 203 228
182 202 228
181 201 228
180 201 228
180 201 228
179 200 228
179 200 228
179 200 228
178 200 228
178 200 228
177 199 228
177 199 228
177 199 228
176 199 228
176 199 228
175 198 228
175 198 228
175 198 228
175 198 228
174 198 228
174 198 228
174 198 228
174 197 228
174 197 228
173 197 228
173 197 228
173 197 228
173 197 228
173 197 228
173 197 228
172 197 228
172 197 228
172 197 228
172 197 228
172 197 228
172 197 228
172 197 228
172 197 228
172 197 228
172 197 228
173 197 228
173 197 228
173 197 228
173 197 228
173 197 228
173 197 228
174 197 228
174 198 228
174 198 228
175 198 228
175 198 228
177 199 228
177 199 228
178 199 228
182 203 231
194 215 242
192 212 240
202 223 250
205 226 253
208 228 255
208 228 255
208 228 255
207 228 255
207 228 255
207 228 255
207 228 255
207 228 255
207 228 255
207 228 255
207 228 255
207 228 255
207 228 255
207 228 255
207 228 255
207 228 255
207 227 255
207 227 255
207 227 255
207 227 255
207 227 255
206 227 255
206 227 255
206 227 255
206 227 255
206 227 255
206 227 255
206 227 255
206 227 255
206 227 255
206 227 255
206 227 255
206 227 255
206 227 255
206 227 255
206 227 255
206 227 255
206 227 255
205 227 255
205 227 255
205 227 255
205 227 255
205 227 255
205 227 255
205 227 255
205 227 255
205 227 255
205 227 255
205 226 255
205 226 255
205 226 255
205 226 255
205 226 255
205 226 255
205 226 255
205 226 255
205 226 255
204 226 255
204 226 255
204 226 255
204 226 255
204 226 255
204 226 255
204 226 255
204 226 255
204 226 255
204 226 255
204 226 255
204 226 255
204 226 255
204 226 255
204 226 255
204 226 255
204 226 255
204 226 255
204 226 255
204 226 255
203 226 255
203 226 255
203 226 255
203 226 255
203 226 255
203 226 255
203 226 255
203 226 255
203 226 255
203 226 255
203 226 255
203 226 255
203 226 255
203 225 255
203 225 255
203 225 255
203 225 255
203 225 255
203 225 255
203 225 255
203 225 255
203 225 255
203 225 255
203 225 255
203 225 255
203 225 255
203 225 255
203 225 255
203 225 255
203 225 255
203 225 255
203 225 255
203 225 255
203 225 255
203 225 255
203 225 255
203 225 255
203 225 255
203 225 255
203 225 255
203 225 255
203 225 255
203 225 255
203 225 255
203 225 255
203 225 255
203 225 255
203 225 255
203 225 255
203 225 255
203 225 255
203 225 255
203 225 255
203 225 255
203 225 255
203 225 255
203 225 255
203 225 255
203 225 255
203 225 255
203 225 255
203 225 255
203 225 255
203 225 255
203 225 255
203 225 255
203 225 255
203 225 255
203 225 255
203 226 255
203 225 255
203 226 255
203 226 255
203 226 255
203 226 255
203 226 255
203 226 255
203 226 255
203 226 255
203 226 255
203 226 255
204 226 255
204 226 255
204 226 255
204 226 255
204 226 255
204 226 255
204 226 255
204 226 255
204 226 255
204 226 255
204 226 255
204 226 255
204 226 255
204 226 255
204 226 255
204 226 255
204 226 255
204 226 255
204 226 255
204 226 255
204 226 255
204 226 255
205 226 255
205 226 255
205 226 255
205 226 255
205 226 255
205 226 255
205 226 255
205 227 255
205 227 255
205 227 255
205 227 255
205 227 255
205 227 255
205 227 255
205 227 255
205 227 255
205 227 255
205 227 255
206 227 255
206 227 255
206 227 255
206 227 255
206 227 255
206 227 255
206 227 255
206 227 255
206 227 255
206 227 255
206 227 255
206 227 255
206 227 255
206 227 255
206 227 255
206 227 255
206 227 255
207 227 255
207 227 255
207 227 255
207 227 255
207 227 255
207 228 255
207 228 255
207 228 255
207 228 255
207 228 255
207 228 255
207 228 255
207 228 255
207 228 255
207 228 255
207 228 255
207 228 255
207 228 255
208 228 255
208 228 255
208 228 255
205 223 245
200 213 223
200 213 223
181 174 114
182 180 135
178 173 114
178 173 114
177 173 114
176 172 114
175 171 114
174 171 114
174 171 114
173 171 114
174 171 114
173 171 114
173 171 114
173 170 114
172 170 114
172 170 114
172 170 114
172 170 114
172 170 114
173 170 114
172 170 114
172 170 114
172 170 114
173 170 114
172 170 114
172 170 114
172 170 114
173 171 114
173 171 114
173 171 114
173 171 114
173 171 114
173 171 114
174 171 114
174 171 114
174 171 114
175 171 114
175 171 114
175 172 114
175 172 114
176 172 114
176 172 114
176 172 114
177 172 114
177 172 114
178 173 114
178 173 114
178 173 114
179 173 114
179 173 114
180 174 114
180 174 114
181 174 114
181 175 114
183 175 114
183 175 114
187 182 135
190 188 153
204 215 223
201 210 211
208 225 245
211 230 255
211 230 255
211 230 255
211 230 255
211 230 255
211 230 255
211 230 255
211 230 255
211 230 255
211 230 255
211 230 255
211 230 255
211 230 255
211 230 255
211 230 255
211 230 255
211 230 255
211 230 255
211 230 255
211 230 255
211 230 255
211 230 255
211 230 255
211 230 255
211 230 255
211 230 255
211 230 255
211 230 255
211 230 255
211 230 255
211 230 255
211 230 255
211 230 255
206 225 250
188 206 231
187 206 231
184 203 228
183 202 228
182 202 228
181 201 228
181 201 228
180 201 228
179 200 228
179 200 228
178 200 228
178 200 228
177 199 228
177 199 228
177 199 228
176 199 228
176 199 228
175 198 228
175 198 228
175 198 228
175 198 228
174 198 228
174 198 228
174 197 228
173 197 228
173 197 228
173 197 228
173 197 228
172 197 228
172 197 228
172 197 228
172 196 228
172 196 228
171 196 228
171 196 228
171 196 228
171 196 228
171 196 228
171 196 228
171 196 228
171 196 228
170 196 228
170 196 228
171 196 228
170 196 228
171 196 228
170 196 228
170 195 228
170 196 228
170 196 228
171 196 228
171 196 228
171 196 228
171 196 228
171 196 228
171 196 228
172 197 228
172 197 228
172 197 228
173 197 228
173 197 228
174 198 228
175 198 228
175 198 228
176 198 228
179 200 228
186 206 234
191 212 240
200 220 248
205 226 253
208 228 255
208 228 255
208 228 255
207 228 255
207 228 255
207 228 255
207 228 255
207 228 255
207 228 255
207 228 255
207 228 255
207 228 255
207 228 255
207 228 255
207 228 255
207 228 255
207 227 255
207 227 255
207 227 255
207 227 255
206 227 255
206 227 255
206 227 255
206 227 255
206 227 255
206 227 255
206 227 255
206 227 255
206 227 255
206 227 255
206 227 255
206 227 255
206 227 255
206 227 255
206 227 255
206 227 255
206 227 255
206 227 255
205 227 255
205 227 255
205 227 255
205 227 255
205 227 255
205 227 255
205 227 255
205 227 255
205 227 255
205 227 255
205 227 255
205 226 255
205 226 255
205 226 255
205 226 255
205 226 255
205 226 255
205 226 255
204 226 255
204 226 255
204 226 255
204 226 255
204 226 255
204 226 255
204 226 255
204 226 255
204 226 255
204 226 255
204 226 255
204 226 255
204 226 255
204 226 255
204 226 255
204 226 255
204 226 255
204 226 255
204 226 255
204 226 255
204 226 255
204 226 255
203 226 255
203 226 255
203 226 255
203 226 255
203 226 255
203 226 255
203 226 255
203 226 255
203 226 255
203 226 255
203 226 255
203 226 255
203 226 255
203 226 255
203 226 255
203 226 255
203 225 255
203 225 255
203 225 255
203 225 255
203 225 255
203 225 255
203 225 255
203 225 255
203 225 255
203 225 255
203 225 255
203 225 255
203 225 255
203 225 255
203 225 255
203 225 255
203 225 255
203 225 255
203 225 255
203 225 255
203 225 255
203 225 255
203 225 255
203 225 255
203 225 255
203 225 255
203 225 255
203 225 255
203 225 255
203 225 255
203 225 255
203 225 255
203 225 255
203 225 255
203 225 255
203 225 255
203 225 255
203 225 255
203 225 255
203 225 255
203 226 255
203 226 255
203 226 255
203 226 255
203 226 255
203 226 255
203 226 255
203 226 255
203 226 255
203 226 255
203 226 255
203 226 255
203 226 255
203 226 255
204 226 255
204 226 255
204 226 255
204 226 255
204 226 255
204 226 255
204 226 255
204 226 255
204 226 255
204 226 255
204 226 255
204 226 255
204 226 255
204 226 255
204 226 255
204 226 255
204 226 255
204 226 255
204 226 255
204 226 255
204 226 255
204 226 255
204 226 255
205 226 255
205 226 255
205 226 255
205 226 255
205 226 255
205 226 255
205 226 255
205 226 255
205 226 255
205 227 255
205 227 255
205 227 255
205 227 255
205 227 255
205 227 255
205 227 255
205 227 255
205 227 255
205 227 255
206 227 255
206 227 255
206 227 255
206 227 255
206 227 255
206 227 255
206 227 255
206 227 255
206 227 255
206 227 255
206 227 255
206 227 255
206 227 255
206 227 255
206 227 255
206 227 255
206 227 255
206 227 255
207 227 255
207 227 255
207 227 255
207 227 255
207 228 255
207 228 255
207 228 255
207 228 255
207 228 255
207 228 255
207 228 255
207 228 255
207 228 255
207 228 255
207 228 255
207 228 255
207 228 255
207 228 255
208 228 255
208 228 255
208 228 255
197 208 211
183 180 135
179 173 114
178 173 114
177 172 114
175 172 114
175 171 114
173 171 114
174 171 114
173 171 114
172 170 114
172 170 114
172 170 114
171 170 114
171 170 114
171 170 114
171 170 114
171 170 114
171 170 114
171 169 114
171 170 114
170 169 114
171 169 114
170 169 114
170 169 114
171 170 114
170 169 114
170 169 114
170 169 114
171 170 114
171 170 114
171 170 114
171 170 114
171 170 114
171 170 114
172 170 114
172 170 114
172 170 114
172 170 114
172 170 114
173 170 114
173 170 114
173 171 114
173 171 114
173 171 114
174 171 114
174 171 114
174 171 114
175 171 114
175 171 114
175 172 114
175 172 114
176 172 114
176 172 114
177 172 114
177 173 114
177 173 114
178 173 114
178 173 114
179 173 114
179 174 114
180 174 114
180 174 114
181 174 114
182 175 114
182 175 114
183 175 114
187 182 135
204 215 223
201 210 211
211 230 255
211 230 255
211 230 255
211 230 255
211 230 255
211 230 255
211 230 255
211 230 255
211 230 255
211 230 255
211 230 255
211 230 255
211 230 255
211 230 255
212 230 255
212 230 255
212 230 255
212 230 255
212 230 255
212 230 255
211 230 255
211 230 255
211 230 255
211 230 255
211 230 255
211 230 255
197 215 240
192 210 234
187 206 231
184 203 228
183 202 228
182 202 228
181 202 228
181 201 228
180 201 228
179 200 228
179 200 228
178 200 228
178 200 228
178 200 228
177 199 228
177 199 228
176 199 228
176 199 228
176 198 228
175 198 228
175 198 228
174 198 228
174 198 228
174 198 228
174 197 228
173 197 228
173 197 228
173 197 228
173 197 228
172 197 228
172 197 228
172 196 228
171 196 228
171 196 228
171 196 228
171 196 228
170 196 228
170 196 228
170 196 228
170 196 228
170 195 228
170 195 228
169 195 228
169 195 228
169 195 228
169 195 228
169 195 228
169 195 228
169 195 228
169 195 228
169 195 228
169 195 228
169 195 228
169 195 228
169 195 228
169 195 228
169 195 228
169 195 228
169 195 228
169 195 228
169 195 228
169 195 228
170 195 228
170 195 228
170 196 228
170 196 228
171 196 228
171 196 228
172 196 228
173 197 228
172 197 228
174 197 228
175 198 228
176 199 228
178 200 228
180 201 228
186 207 234
200 220 248
203 223 250
208 228 255
208 228 255
207 228 255
207 228 255
207 228 255
207 228 255
207 228 255
207 228 255
207 228 255
207 228 255
207 228 255
207 228 255
207 228 255
207 228 255
207 228 255
207 228 255
207 227 255
207 227 255
207 227 255
207 227 255
207 227 255
206 227 255
206 227 255
206 227 255
206 227 255
206 227 255
206 227 255
206 227 255
206 227 255
206 227 255
206 227 255
206 227 255
206 227 255
206 227 255
206 227 255
206 227 255
206 227 255
206 227 255
205 227 255
205 227 255
205 227 255
205 227 255
205 227 255
205 227 255
205 227 255
205 227 255
205 227 255
205 227 255
205 227 255
205 227 255
205 226 255
205 226 255
205 226 255
205 226 255
205 226 255
205 226 255
205 226 255
204 226 255
204 226 255
204 226 255
204 226 255
204 226 255
204 226 255
204 226 255
204 226 255
204 226 255
204 226 255
204 226 255
204 226 255
204 226 255
204 226 255
204 226 255
204 226 255
204 226 255
204 226 255
204 226 255
204 226 255
204 226 255
204 226 255
204 226 255
204 226 255
204 226 255
203 226 255
203 226 255
203 226 255
203 226 255
203 226 255
203 226 255
203 226 255
203 226 255
203 226 255
203 226 255
203 226 255
203 226 255
203 226 255
203 226 255
203 226 255
203 226 255
203 226 255
203 226 255
203 226 255
203 226 255
203 226 255
203 226 255
203 226 255
203 226 255
203 226 255
203 225 255
203 226 255
203 226 255
203 225 255
203 226 255
203 226 255
203 225 255
203 226 255
203 226 255
203 226 255
203 226 255
203 226 255
203 226 255
203 226 255
203 226 255
203 226 255
203 226 255
203 226 255
203 226 255
203 226 255
203 226 255
203 226 255
203 226 255
203 226 255
203 226 255
203 226 255
203 226 255
203 226 255
203 226 255
203 226 255
204 226 255
204 226 255
204 226 255
204 226 255
204 226 255
204 226 255
204 226 255
204 226 255
204 226 255
204 226 255
204 226 255
204 226 255
204 226 255
204 226 255
204 226 255
204 226 255
204 226 255
204 226 255
204 226 255
204 226 255
204 226 255
204 226 255
204 226 255
204 226 255
204 226 255
205 226 255
205 226 255
205 226 255
205 226 255
205 226 255
205 226 255
205 226 255
205 226 255
205 226 255
205 227 255
205 227 255
205 227 255
205 227 255
205 227 255
205 227 255
205 227 255
205 227 255
205 227 255
205 227 255
205 227 255
206 227 255
206 227 255
206 227 255
206 227 255
206 227 255
206 227 255
206 227 255
206 227 255
206 227 255
206 227 255
206 227 255
206 227 255
206 227 255
206 227 255
206 227 255
206 227 255
206 227 255
206 227 255
207 227 255
207 227 255
207 227 255
207 227 255
207 228 255
207 228 255
207 228 255
207 228 255
207 228 255
207 228 255
207 228 255
207 228 255
207 228 255
207 228 255
207 228 255
207 228 255
207 228 255
207 228 255
208 228 255
208 228 255
205 223 245
195 203 198
197 208 211
180 174 114
177 173 114
176 172 114
175 172 114
174 171 114
173 171 114
173 170 114
172 170 114
172 170 114
171 170 114
171 170 114
170 169 114
170 169 114
170 169 114
170 169 114
170 169 114
169 169 114
169 169 114
169 169 114
169 169 114
169 169 114
169 169 114
169 169 114
169 169 114
169 169 114
169 169 114
169 169 114
169 169 114
169 169 114
169 169 114
169 169 114
169 169 114
170 169 114
170 169 114
170 169 114
170 169 114
170 169 114
170 169 114
170 169 114
170 169 114
171 170 114
171 170 114
171 170 114
172 170 114
172 170 114
172 170 114
172 170 114
173 170 114
173 170 114
173 171 114
173 171 114
174 171 114
174 171 114
174 171 114
175 171 114
175 172 114
175 172 114
175 172 114
176 172 114
176 172 114
177 172 114
177 173 114
178 173 114
178 173 114
179 173 114
179 174 114
180 174 114
180 174 114
181 174 114
181 175 114
182 175 114
183 175 114
183 175 114
193 194 169
194 194 169
202 210 211
209 225 245
211 230 255
211 230 255
211 230 255
211 230 255
211 230 255
211 230 255
212 230 255
212 230 255
212 230 255
212 230 255
212 230 255
212 230 255
212 230 255
212 230 255
212 230 255
212 230 255
212 230 255
205 223 248
202 220 245
189 207 231
185 203 228
184 203 228
183 202 228
182 202 228
182 202 228
181 201 228
180 201 228
179 201 228
179 200 228
178 200 228
178 200 228
177 199 228
177 199 228
177 199 228
176 199 228
176 199 228
176 198 228
175 198 228
175 198 228
175 198 228
174 198 228
174 198 228
173 197 228
173 197 228
173 197 228
173 197 228
172 197 228
172 197 228
172 196 228
171 196 228
171 196 228
171 196 228
171 196 228
170 196 228
170 196 228
170 195 228
170 195 228
169 195 228
169 195 228
169 195 228
169 195 228
169 195 228
169 195 228
168 195 228
168 195 228
168 195 228
168 194 228
168 194 228
168 194 228
168 194 228
168 194 228
168 194 228
167 194 228
168 194 228
167 194 228
167 194 228
168 194 228
167 194 228
167 194 228
168 194 228
168 194 228
168 194 228
168 194 228
168 194 228
168 194 228
168 194 228
168 195 228
169 195 228
169 195 228
170 195 228
170 195 228
170 196 228
171 196 228
171 196 228
172 197 228
173 197 228
173 197 228
175 198 228
175 198 228
179 200 228
182 203 231
200 220 248
196 215 242
208 228 255
208 228 255
208 228 255
207 228 255
207 228 255
207 228 255
207 228 255
207 228 255
207 228 255
207 228 255
207 228 255
207 228 255
207 228 255
207 228 255
207 228 255
207 228 255
207 228 255
207 227 255
207 227 255
207 227 255
207 227 255
206 227 255
206 227 255
206 227 255
206 227 255
206 227 255
206 227 255
206 227 255
206 227 255
206 227 255
206 227 255
206 227 255
206 227 255
206 227 255
206 227 255
206 227 255
206 227 255
206 227 255
206 227 255
205 227 255
205 227 255
205 227 255
205 227 255
205 227 255
205 227 255
205 227 255
205 227 255
205 227 255
205 227 255
205 227 255
205 227 255
205 226 255
205 226 255
205 226 255
205 226 255
205 226 255
205 226 255
205 226 255
205 226 255
205 226 255
204 226 255
204 226 255
204 226 255
204 226 255
204 226 255
204 226 255
204 226 255
204 226 255
204 226 255
204 226 255
204 226 255
204 226 255
204 226 255
204 226 255
204 226 255
204 226 255
204 226 255
204 226 255
204 226 255
204 226 255
204 226 255
204 226 255
204 226 255
204 226 255
204 226 255
204 226 255
204 226 255
204 226 255
204 226 255
203 226 255
203 226 255
203 226 255
203 226 255
203 226 255
203 226 255
203 226 255
203 226 255
203 226 255
203 226 255
203 226 255
203 226 255
203 226 255
203 226 255
203 226 255
203 226 255
203 226 255
203 226 255
203 226 255
203 226 255
203 226 255
203 226 255
203 226 255
203 226 255
203 226 255
203 226 255
203 226 255
203 226 255
203 226 255
203 226 255
203 226 255
203 226 255
203 226 255
203 226 255
203 226 255
203 226 255
204 226 255
204 226 255
204 226 255
204 226 255
204 226 255
204 226 255
204 226 255
204 226 255
204 226 255
204 226 255
204 226 255
204 226 255
204 226 255
204 226 255
204 226 255
204 226 255
204 226 255
204 226 255
204 226 255
204 226 255
204 226 255
204 226 255
204 226 255
204 226 255
204 226 255
204 226 255
204 226 255
204 226 255
204 226 255
204 226 255
205 226 255
205 226 255
205 226 255
205 226 255
205 226 255
205 226 255
205 226 255
205 226 255
205 227 255
205 227 255
205 227 255
205 227 255
205 227 255
205 227 255
205 227 255
205 227 255
205 227 255
205 227 255
205 227 255
206 227 255
206 227 255
206 227 255
206 227 255
206 227 255
206 227 255
206 227 255
206 227 255
206 227 255
206 227 255
206 227 255
206 227 255
206 227 255
206 227 255
206 227 255
206 227 255
206 227 255
206 227 255
207 227 255
207 227 255
207 227 255
207 227 255
207 227 255
207 228 255
207 228 255
207 228 255
207 228 255
207 228 255
207 228 255
207 228 255
207 228 255
207 228 255
207 228 255
207 228 255
207 228 255
207 228 255
207 228 255
208 228 255
208 228 255
208 228 255
203 218 234
198 208 211
188 192 169
179 174 114
176 172 114
175 171 114
174 171 114
173 170 114
172 170 114
172 170 114
171 170 114
170 169 114
170 169 114
169 169 114
169 169 114
169 169 114
168 169 114
168 168 114
168 169 114
168 168 114
168 168 114
168 168 114
167 168 114
167 168 114
167 168 114
167 168 114
167 168 114
167 168 114
167 168 114
168 168 114
168 168 114
168 168 114
168 168 114
168 168 114
168 168 114
168 168 114
168 168 114
168 168 114
168 169 114
169 169 114
169 169 114
169 169 114
169 169 114
169 169 114
169 169 114
170 169 114
170 169 114
170 169 114
170 169 114
170 169 114
171 169 114
171 170 114
171 170 114
172 170 114
172 170 114
172 170 114
172 170 114
173 170 114
173 171 114
173 171 114
174 171 114
174 171 114
174 171 114
174 171 114
175 171 114
175 172 114
176 172 114
176 172 114
176 172 114
177 172 114
177 173 114
178 173 114
178 173 114
179 173 114
179 173 114
180 174 114
180 174 114
181 174 114
182 175 114
182 175 114
183 175 114
184 176 114
185 176 114
191 188 153
195 194 169
204 216 223
212 230 255
212 230 255
212 230 255
212 230 255
212 230 255
212 230 255
212 230 255
212 230 255
212 230 255
212 230 255
212 230 255
205 223 248
205 223 248
188 207 231
185 203 228
183 203 228
183 202 228
182 202 228
181 202 228
181 201 228
180 201 228
180 201 228
179 200 228
178 200 228
178 200 228
178 200 228
177 199 228
177 199 228
177 199 228
176 199 228
176 199 228
175 198 228
175 198 228
174 198 228
174 198 228
174 198 228
174 197 228
173 197 228
173 197 228
173 197 228
172 197 228
172 197 228
172 196 228
171 196 228
171 196 228
171 196 228
171 196 228
170 196 228
170 195 228
170 195 228
170 195 228
169 195 228
169 195 228
169 195 228
169 195 228
169 195 228
168 195 228
168 195 228
168 194 228
168 194 228
168 194 228
167 194 228
167 194 228
167 194 228
167 194 228
167 194 228
167 194 228
167 194 228
167 194 228
167 194 228
167 194 228
166 194 228
166 194 228
166 194 228
166 194 228
166 194 228
166 194 228
166 194 228
166 194 228
166 194 228
166 194 228
167 194 228
167 194 228
167 194 228
167 194 228
167 194 228
167 194 228
168 194 228
168 195 228
168 195 228
169 195 228
169 195 228
170 196 228
171 196 228
171 196 228
172 197 228
173 197 228
175 198 228
175 198 228
178 200 228
180 201 228
192 212 240
205 225 253
208 228 255
208 228 255
208 228 255
207 228 255
207 228 255
207 228 255
207 228 255
207 228 255
207 228 255
207 228 255
207 228 255
207 228 255
207 228 255
207 228 255
207 228 255
207 228 255
207 228 255
207 228 255
207 227 255
207 227 255
207 227 255
207 227 255
207 227 255
206 227 255
206 227 255
206 227 255
206 227 255
206 227 255
206 227 255
206 227 255
206 227 255
206 227 255
206 227 255
206 227 255
206 227 255
206 227 255
206 227 255
206 227 255
206 227 255
206 227 255
206 227 255
205 227 255
205 227 255
205 227 255
205 227 255
205 227 255
205 227 255
205 227 255
205 227 255
205 227 255
205 227 255
205 227 255
205 226 255
205 227 255
205 226 255
205 226 255
205 226 255
205 226 255
205 226 255
205 226 255
205 226 255
204 226 255
204 226 255
204 226 255
204 226 255
204 226 255
204 226 255
204 226 255
204 226 255
204 226 255
204 226 255
204 226 255
204 226 255
204 226 255
204 226 255
204 226 255
204 226 255
204 226 255
204 226 255
204 226 255
204 226 255
204 226 255
204 226 255
204 226 255
204 226 255
204 226 255
204 226 255
204 226 255
204 226 255
204 226 255
204 226 255
204 226 255
204 226 255
204 226 255
204 226 255
204 226 255
204 226 255
204 226 255
204 226 255
204 226 255
204 226 255
204 226 255
204 226 255
204 226 255
204 226 255
204 226 255
204 226 255
204 226 255
204 226 255
204 226 255
204 226 255
204 226 255
204 226 255
204 226 255
204 226 255
204 226 255
204 226 255
204 226 255
204 226 255
204 226 255
204 226 255
204 226 255
204 226 255
204 226 255
204 226 255
204 226 255
204 226 255
204 226 255
204 226 255
204 226 255
204 226 255
204 226 255
204 226 255
204 226 255
204 226 255
204 226 255
204 226 255
204 226 255
204 226 255
204 226 255
204 226 255
204 226 255
204 226 255
204 226 255
204 226 255
204 226 255
205 226 255
205 226 255
205 226 255
205 226 255
205 226 255
205 226 255
205 226 255
205 226 255
205 226 255
205 226 255
205 227 255
205 227 255
205 227 255
205 227 255
205 227 255
205 227 255
205 227 255
205 227 255
205 227 255
205 227 255
205 227 255
206 227 255
206 227 255
206 227 255
206 227 255
206 227 255
206 227 255
206 227 255
206 227 255
206 227 255
206 227 255
206 227 255
206 227 255
206 227 255
206 227 255
206 227 255
206 227 255
206 227 255
206 227 255
206 227 255
206 227 255
207 227 255
207 227 255
207 227 255
207 227 255
207 228 255
207 228 255
207 228 255
207 228 255
207 228 255
207 228 255
207 228 255
207 228 255
207 228 255
207 228 255
207 228 255
207 228 255
207 228 255
208 228 255
208 228 255
208 228 255
208 228 255
205 223 245
198 208 211
185 186 153
178 173 114
175 172 114
175 171 114
173 171 114
172 170 114
171 170 114
170 169 114
170 169 114
170 169 114
169 169 114
169 169 114
168 168 114
168 168 114
167 168 114
167 168 114
167 168 114
167 168 114
167 168 114
167 168 114
166 168 114
166 168 114
166 168 114
167 168 114
166 168 114
166 168 114
166 168 114
166 168 114
166 168 114
166 168 114
166 168 114
167 168 114
167 168 114
167 168 114
167 168 114
167 168 114
167 168 114
167 168 114
167 168 114
167 168 114
168 168 114
168 168 114
168 168 114
168 168 114
168 168 114
169 169 114
169 169 114
169 169 114
169 169 114
169 169 114
170 169 114
170 169 114
170 169 114
170 169 114
171 170 114
171 170 114
171 170 114
171 170 114
172 170 114
172 170 114
172 170 114
173 170 114
173 171 114
173 171 114
174 171 114
174 171 114
174 171 114
175 171 114
175 172 114
175 172 114
176 172 114
176 172 114
177 172 114
177 172 114
177 173 114
178 173 114
178 173 114
179 173 114
179 173 114
180 174 114
180 174 114
181 174 114
182 175 114
182 175 114
183 175 114
184 176 114
184 176 114
192 189 153
195 195 169
205 216 223
212 230 255
212 230 255
212 230 255
212 230 255
212 230 255
207 226 250
198 215 240
186 204 228
185 203 228
184 203 228
183 202 228
182 202 228
182 202 228
181 201 228
181 201 228
180 201 228
180 201 228
179 200 228
179 200 228
178 200 228
178 200 228
177 199 228
177 199 228
176 199 228
176 199 228
176 198 228
175 198 228
175 198 228
175 198 228
174 198 228
174 197 228
174 197 228
173 197 228
173 197 228
173 197 228
172 197 228
172 196 228
172 196 228
171 196 228
171 196 228
171 196 228
171 196 228
170 196 228
170 195 228
170 195 228
170 195 228
169 195 228
169 195 228
169 195 228
169 195 228
168 195 228
168 194 228
168 194 228
168 194 228
168 194 228
167 194 228
167 194 228
167 194 228
167 194 228
167 194 228
167 194 228
166 194 228
166 194 228
166 193 228
166 193 228
166 193 228
166 193 228
166 193 228
166 193 228
165 193 228
165 193 228
165 193 228
165 193 228
165 193 228
165 193 228
165 193 228
165 193 228
165 193 228
165 193 228
165 193 228
166 193 228
166 193 228
166 193 228
166 193 228
166 194 228
167 194 228
167 194 228
167 194 228
168 194 228
168 194 228
168 194 228
169 195 228
170 195 228
170 195 228
171 196 228
171 196 228
173 197 228
174 198 228
176 198 228
177 199 228
179 200 228
194 215 242
205 226 253
208 228 255
208 228 255
208 228 255
208 228 255
208 228 255
207 228 255
207 228 255
207 228 255
207 228 255
207 228 255
207 228 255
207 228 255
207 228 255
207 228 255
207 228 255
207 228 255
207 228 255
207 228 255
207 228 255
207 227 255
207 227 255
207 227 255
207 227 255
207 227 255
206 227 255
206 227 255
206 227 255
206 227 255
206 227 255
206 227 255
206 227 255
206 227 255
206 227 255
206 227 255
206 227 255
206 227 255
206 227 255
206 227 255
206 227 255
206 227 255
206 227 255
206 227 255
206 227 255
205 227 255
205 227 255
205 227 255
205 227 255
205 227 255
205 227 255
205 227 255
205 227 255
205 227 255
205 227 255
205 227 255
205 227 255
205 226 255
205 226 255
205 226 255
205 226 255
205 226 255
205 226 255
205 226 255
205 226 255
205 226 255
205 226 255
205 226 255
204 226 255
204 226 255
204 226 255
204 226 255
204 226 255
204 226 255
204 226 255
204 226 255
204 226 255
204 226 255
204 226 255
204 226 255
204 226 255
204 226 255
204 226 255
204 226 255
204 226 255
204 226 255
204 226 255
204 226 255
204 226 255
204 226 255
204 226 255
204 226 255
204 226 255
204 226 255
204 226 255
204 226 255
204 226 255
204 226 255
204 226 255
204 226 255
204 226 255
204 226 255
204 226 255
204 226 255
204 226 255
204 226 255
204 226 255
204 226 255
204 226 255
204 226 255
204 226 255
204 226 255
204 226 255
204 226 255
204 226 255
204 226 255
204 226 255
204 226 255
204 226 255
204 226 255
204 226 255
204 226 255
204 226 255
204 226 255
204 226 255
204 226 255
204 226 255
204 226 255
204 226 255
204 226 255
204 226 255
204 226 255
204 226 255
204 226 255
204 226 255
204 226 255
204 226 255
204 226 255
204 226 255
205 226 255
205 226 255
205 226 255
205 226 255
205 226 255
205 226 255
205 226 255
205 226 255
205 226 255
205 226 255
205 227 255
205 227 255
205 227 255
205 227 255
205 227 255
205 227 255
205 227 255
205 227 255
205 227 255
205 227 255
205 227 255
205 227 255
206 227 255
206 227 255
206 227 255
206 227 255
206 227 255
206 227 255
206 227 255
206 227 255
206 227 255
206 227 255
206 227 255
206 227 255
206 227 255
206 227 255
206 227 255
206 227 255
206 227 255
206 227 255
206 227 255
207 227 255
207 227 255
207 227 255
207 227 255
207 227 255
207 228 255
207 228 255
207 228 255
207 228 255
207 228 255
207 228 255
207 228 255
207 228 255
207 228 255
207 228 255
207 228 255
207 228 255
207 228 255
207 228 255
208 228 255
208 228 255
208 228 255
208 228 255
208 228 255
208 228 255
195 203 198
182 179 135
177 173 114
175 171 114
174 171 114
173 170 114
172 170 114
171 170 114
170 169 114
169 169 114
169 169 114
168 168 114
168 168 114
167 168 114
167 168 114
167 168 114
167 168 114
166 168 114
166 167 114
166 167 114
166 167 114
166 167 114
166 167 114
165 167 114
165 167 114
165 167 114
165 167 114
165 167 114
165 167 114
165 167 114
165 167 114
165 167 114
166 167 114
166 167 114
166 167 114
166 167 114
166 167 114
166 167 114
166 167 114
166 168 114
166 168 114
167 168 114
167 168 114
167 168 114
167 168 114
167 168 114
167 168 114
168 168 114
168 168 114
168 168 114
168 168 114
168 168 114
169 169 114
169 169 114
169 169 114
169 169 114
170 169 114
170 169 114
170 169 114
170 169 114
171 169 114
171 170 114
171 170 114
171 170 114
172 170 114
172 170 114
172 170 114
173 170 114
173 171 114
173 171 114
174 171 114
174 171 114
174 171 114
175 171 114
175 171 114
175 172 114
176 172 114
176 172 114
177 172 114
177 172 114
177 173 114
178 173 114
178 173 114
179 173 114
179 173 114
180 174 114
180 174 114
180 174 114
181 174 114
182 175 114
183 175 114
183 175 114
184 176 114
185 176 114
189 183 135
205 216 223
207 221 234
212 230 255
192 210 234
186 204 228
185 203 228
184 203 228
183 202 228
182 202 228
182 202 228
181 201 228
181 201 228
180 201 228
179 200 228
179 200 228
179 200 228
178 200 228
178 200 228
177 199 228
177 199 228
176 199 228
176 199 228
176 199 228
175 198 228
175 198 228
175 198 228
174 198 228
174 198 228
174 197 228
173 197 228
173 197 228
173 197 228
172 197 228
172 197 228
172 196 228
171 196 228
171 196 228
171 196 228
171 196 228
170 196 228
170 196 228
170 195 228
170 195 228
169 195 228
169 195 228
169 195 228
169 195 228
168 195 228
168 195 228
168 194 228
168 194 228
167 194 228
167 194 228
167 194 228
167 194 228
167 194 228
166 194 228
166 194 228
166 193 228
166 193 228
166 193 228
166 193 228
166 193 228
165 193 228
165 193 228
165 193 228
165 193 228
165 193 228
165 193 228
165 193 228
165 193 228
165 193 228
165 193 228
164 193 228
164 193 228
164 193 228
164 193 228
164 193 228
164 193 228
165 193 228
165 193 228
165 193 228
165 193 228
165 193 228
165 193 228
165 193 228
166 193 228
166 193 228
166 193 228
167 194 228
167 194 228
167 194 228
168 194 228
168 194 228
169 195 228
170 196 228
170 196 228
171 196 228
172 197 228
174 197 228
175 198 228
178 199 228
186 207 234
192 213 240
208 228 255
208 228 255
208 228 255
208 228 255
208 228 255
208 228 255
208 228 255
207 228 255
207 228 255
207 228 255
207 228 255
207 228 255
207 228 255
207 228 255
207 228 255
207 228 255
207 228 255
207 228 255
207 228 255
207 228 255
207 228 255
207 227 255
207 227 255
207 227 255
207 227 255
206 227 255
206 227 255
206 227 255
206 227 255
206 227 255
206 227 255
206 227 255
206 227 255
206 227 255
206 227 255
206 227 255
206 227 255
206 227 255
206 227 255
206 227 255
206 227 255
206 227 255
206 227 255
206 227 255
206 227 255
206 227 255
205 227 255
205 227 255
205 227 255
205 227 255
205 227 255
205 227 255
205 227 255
205 227 255
205 227 255
205 227 255
205 227 255
205 227 255
205 227 255
205 227 255
205 226 255
205 226 255
205 226 255
205 226 255
205 226 255
205 226 255
205 226 255
205 226 255
205 226 255
205 226 255
205 226 255
204 226 255
204 226 255
204 226 255
204 226 255
204 226 255
204 226 255
204 226 255
204 226 255
204 226 255
204 226 255
204 226 255
204 226 255
204 226 255
204 226 255
204 226 255
204 226 255
204 226 255
204 226 255
204 226 255
204 226 255
204 226 255
204 226 255
204 226 255
204 226 255
204 226 255
204 226 255
204 226 255
204 226 255
204 226 255
204 226 255
204 226 255
204 226 255
204 226 255
204 226 255
204 226 255
204 226 255
204 226 255
204 226 255
204 226 255
204 226 255
204 226 255
204 226 255
204 226 255
204 226 255
204 226 255
204 226 255
204 226 255
204 226 255
204 226 255
204 226 255
204 226 255
204 226 255
204 226 255
204 226 255
204 226 255
204 226 255
205 226 255
205 226 255
205 226 255
205 226 255
205 226 255
205 226 255
205 226 255
205 226 255
205 226 255
205 226 255
205 226 255
205 226 255
205 227 255
205 227 255
205 227 255
205 227 255
205 227 255
205 227 255
205 227 255
205 227 255
205 227 255
205 227 255
205 227 255
205 227 255
205 227 255
205 227 255
206 227 255
206 227 255
206 227 255
206 227 255
206 227 255
206 227 255
206 227 255
206 227 255
206 227 255
206 227 255
206 227 255
206 227 255
206 227 255
206 227 255
206 227 255
206 227 255
206 227 255
206 227 255
206 227 255
206 227 255
207 227 255
207 227 255
207 227 255
207 227 255
207 228 255
207 228 255
207 228 255
207 228 255
207 228 255
207 228 255
207 228 255
207 228 255
207 228 255
207 228 255
207 228 255
207 228 255
207 228 255
207 228 255
208 228 255
208 228 255
208 228 255
208 228 255
208 228 255
208 228 255
208 228 255
198 209 211
185 186 153
177 172 114
175 172 114
173 171 114
172 170 114
172 170 114
170 169 114
170 169 114
169 169 114
169 169 114
168 168 114
167 168 114
167 168 114
166 168 114
166 167 114
166 167 114
165 167 114
165 167 114
165 167 114
165 167 114
165 167 114
165 167 114
165 167 114
165 167 114
164 167 114
165 167 114
164 167 114
165 167 114
164 167 114
164 167 114
165 167 114
165 167 114
165 167 114
165 167 114
165 167 114
165 167 114
165 167 114
165 167 114
165 167 114
165 167 114
166 167 114
166 167 114
166 167 114
166 167 114
166 168 114
166 168 114
166 168 114
167 168 114
167 168 114
167 168 114
167 168 114
167 168 114
168 168 114
168 168 114
168 168 114
168 168 114
169 169 114
169 169 114
169 169 114
169 169 114
170 169 114
170 169 114
170 169 114
170 169 114
171 170 114
171 170 114
171 170 114
171 170 114
172 170 114
172 170 114
172 170 114
173 170 114
173 171 114
173 171 114
174 171 114
174 171 114
174 171 114
175 171 114
175 171 114
175 172 114
176 172 114
176 172 114
177 172 114
177 172 114
177 173 114
178 173 114
178 173 114
179 173 114
179 173 114
180 174 114
180 174 114
181 174 114
181 174 114
181 174 114
182 175 114
183 175 114
184 175 114
184 176 114
186 177 114
193 189 153
185 203 228
183 203 228
183 202 228
182 202 228
182 202 228
181 201 228
181 201 228
180 201 228
179 201 228
179 200 228
179 200 228
178 200 228
178 200 228
177 199 228
177 199 228
177 199 228
176 199 228
176 199 228
176 198 228
175 198 228
175 198 228
174 198 228
174 198 228
174 198 228
174 197 228
173 197 228
173 197 228
173 197 228
172 197 228
172 196 228
172 196 228
171 196 228
171 196 228
171 196 228
171 196 228
170 196 228
170 195 228
170 195 228
169 195 228
169 195 228
169 195 228
169 195 228
168 195 228
168 195 228
168 194 228
168 194 228
167 194 228
167 194 228
167 194 228
167 194 228
167 194 228
167 194 228
166 194 228
166 193 228
166 193 228
166 193 228
166 193 228
165 193 228
165 193 228
165 193 228
165 193 228
165 193 228
165 193 228
165 193 228
164 193 228
164 193 228
164 192 228
164 192 228
164 192 228
164 192 228
164 192 228
164 192 228
164 192 228
164 192 228
164 192 228
164 192 228
164 192 228
164 192 228
164 192 228
164 192 228
164 192 228
164 192 228
164 193 228
165 193 228
165 193 228
165 193 228
165 193 228
166 193 228
166 193 228
166 194 228
167 194 228
167 194 228
168 194 228
168 194 228
169 195 228
170 195 228
171 196 228
171 196 228
173 197 228
174 198 228
175 198 228
187 209 237
197 218 245
205 226 253
208 228 255
208 228 255
208 228 255
208 228 255
208 228 255
208 228 255
208 228 255
208 228 255
207 228 255
207 228 255
207 228 255
207 228 255
207 228 255
207 228 255
207 228 255
207 228 255
207 228 255
207 228 255
207 228 255
207 228 255
207 228 255
207 228 255
207 228 255
207 227 255
207 227 255
207 227 255
207 227 255
206 227 255
206 227 255
206 227 255
206 227 255
206 227 255
206 227 255
206 227 255
206 227 255
206 227 255
206 227 255
206 227 255
206 227 255
206 227 255
206 227 255
206 227 255
206 227 255
206 227 255
206 227 255
206 227 255
205 227 255
206 227 255
205 227 255
205 227 255
205 227 255
205 227 255
205 227 255
205 227 255
205 227 255
205 227 255
205 227 255
205 227 255
205 227 255
205 227 255
205 227 255
205 227 255
205 227 255
205 227 255
205 226 255
205 226 255
205 226 255
205 226 255
205 226 255
205 226 255
205 226 255
205 226 255
205 226 255
205 226 255
205 226 255
205 226 255
205 226 255
204 226 255
204 226 255
204 226 255
204 226 255
204 226 255
204 226 255
204 226 255
204 226 255
204 226 255
204 226 255
204 226 255
204 226 255
204 226 255
204 226 255
204 226 255
204 226 255
204 226 255
204 226 255
204 226 255
204 226 255
204 226 255
204 226 255
204 226 255
204 226 255
204 226 255
204 226 255
204 226 255
204 226 255
204 226 255
204 226 255
204 226 255
204 226 255
204 226 255
204 226 255
204 226 255
204 226 255
204 226 255
205 226 255
205 226 255
205 226 255
205 226 255
205 226 255
205 226 255
205 226 255
205 226 255
205 226 255
205 226 255
205 226 255
205 226 255
205 226 255
205 226 255
205 226 255
205 227 255
205 227 255
205 227 255
205 227 255
205 227 255
205 227 255
205 227 255
205 227 255
205 227 255
205 227 255
205 227 255
205 227 255
205 227 255
205 227 255
205 227 255
206 227 255
206 227 255
206 227 255
206 227 255
206 227 255
206 227 255
206 227 255
206 227 255
206 227 255
206 227 255
206 227 255
206 227 255
206 227 255
206 227 255
206 227 255
206 227 255
206 227 255
206 227 255
206 227 255
206 227 255
206 227 255
207 227 255
207 227 255
207 227 255
207 227 255
207 227 255
207 228 255
207 228 255
207 228 255
207 228 255
207 228 255
207 228 255
207 228 255
207 228 255
207 228 255
207 228 255
207 228 255
207 228 255
207 228 255
207 228 255
208 228 255
208 228 255
208 228 255
208 228 255
208 228 255
208 228 255
208 228 255
208 228 255
198 208 211
189 192 169
180 179 135
176 172 114
174 171 114
173 170 114
172 170 114
171 169 114
169 169 114
169 169 114
168 168 114
168 168 114
167 168 114
167 168 114
167 168 114
166 167 114
166 167 114
165 167 114
165 167 114
165 167 114
165 167 114
164 167 114
164 167 114
164 167 114
164 167 114
164 167 114
164 166 114
164 166 114
164 166 114
164 166 114
164 166 114
164 166 114
164 166 114
164 166 114
164 167 114
164 167 114
164 167 114
164 167 114
164 167 114
164 167 114
164 167 114
165 167 114
165 167 114
165 167 114
165 167 114
165 167 114
165 167 114
166 167 114
166 167 114
166 167 114
166 167 114
166 168 114
166 168 114
167 168 114
167 168 114
167 168 114
167 168 114
168 168 114
168 168 114
168 168 114
168 168 114
168 169 114
169 169 114
169 169 114
169 169 114
169 169 114
170 169 114
170 169 114
170 169 114
171 170 114
171 170 114
171 170 114
171 170 114
172 170 114
172 170 114
172 170 114
172 170 114
173 171 114
173 171 114
173 171 114
174 171 114
174 171 114
174 171 114
175 171 114
175 172 114
175 172 114
176 172 114
176 172 114
177 172 114
177 172 114
177 173 114
178 173 114
178 173 114
179 173 114
179 173 114
180 174 114
180 174 114
181 174 114
181 174 114
181 174 114
182 175 114
183 175 114
184 176 114
184 176 114
183 202 228
182 202 228
182 202 228
181 202 228
181 201 228
180 201 228
180 201 228
179 200 228
179 200 228
178 200 228
178 200 228
178 199 228
177 199 228
177 199 228
176 199 228
176 199 228
176 199 228
175 198 228
175 198 228
175 198 228
174 198 228
174 198 228
174 197 228
173 197 228
173 197 228
173 197 228
173 197 228
172 197 228
172 196 228
172 196 228
171 196 228
171 196 228
171 196 228
170 196 228
170 196 228
170 195 228
170 195 228
169 195 228
169 195 228
169 195 228
169 195 228
168 195 228
168 195 228
168 194 228
168 194 228
167 194 228
167 194 228
167 194 228
167 194 228
167 194 228
166 194 228
166 193 228
166 193 228
166 193 228
166 193 228
165 193 228
165 193 228
165 193 228
165 193 228
165 193 228
165 193 228
164 193 228
164 193 228
164 192 228
164 192 228
164 192 228
164 192 228
164 192 228
164 192 228
163 192 228
163 192 228
163 192 228
163 192 228
163 192 228
163 192 228
163 192 228
163 192 228
163 192 228
163 192 228
163 192 228
163 192 228
163 192 228
164 192 228
164 192 228
164 192 228
164 192 228
164 192 228
164 193 228
165 193 228
165 193 228
165 193 228
166 193 228
166 193 228
166 194 228
167 194 228
168 194 228
168 195 228
169 195 228
170 195 228
171 196 228
172 196 228
173 197 228
175 198 228
177 199 228
192 212 240
200 220 248
208 228 255
208 228 255
208 228 255
208 228 255
208 228 255
208 228 255
208 228 255
208 228 255
208 228 255
208 228 255
207 228 255
207 228 255
207 228 255
207 228 255
207 228 255
207 228 255
207 228 255
207 228 255
207 228 255
207 228 255
207 228 255
207 228 255
207 228 255
207 228 255
207 227 255
207 227 255
207 227 255
207 227 255
207 227 255
207 227 255
206 227 255
206 227 255
206 227 255
206 227 255
206 227 255
206 227 255
206 227 255
206 227 255
206 227 255
206 227 255
206 227 255
206 227 255
206 227 255
206 227 255
206 227 255
206 227 255
206 227 255
206 227 255
206 227 255
206 227 255
206 227 255
205 227 255
205 227 255
205 227 255
205 227 255
205 227 255
205 227 255
205 227 255
205 227 255
205 227 255
205 227 255
205 227 255
205 227 255
205 227 255
205 227 255
205 227 255
205 227 255
205 227 255
205 227 255
205 227 255
205 226 255
205 226 255
205 226 255
205 226 255
205 226 255
205 226 255
205 226 255
205 226 255
205 226 255
205 226 255
205 226 255
205 226 255
205 226 255
205 226 255
205 226 255
205 226 255
205 226 255
205 226 255
205 226 255
205 226 255
205 226 255
205 226 255
205 226 255
205 226 255
205 226 255
205 226 255
205 226 255
205 226 255
205 226 255
205 226 255
205 226 255
205 226 255
205 226 255
205 226 255
205 226 255
205 226 255
205 226 255
205 226 255
205 226 255
205 226 255
205 226 255
205 226 255
205 226 255
205 226 255
205 226 255
205 226 255
205 226 255
205 227 255
205 226 255
205 227 255
205 227 255
205 227 255
205 227 255
205 227 255
205 227 255
205 227 255
205 227 255
205 227 255
205 227 255
205 227 255
205 227 255
205 227 255
205 227 255
205 227 255
205 227 255
205 227 255
206 227 255
206 227 255
206 227 255
206 227 255
206 227 255
206 227 255
206 227 255
206 227 255
206 227 255
206 227 255
206 227 255
206 227 255
206 227 255
206 227 255
206 227 255
206 227 255
206 227 255
206 227 255
206 227 255
206 227 255
206 227 255
206 227 255
206 227 255
207 227 255
207 227 255
207 227 255
207 227 255
207 228 255
207 228 255
207 228 255
207 228 255
207 228 255
207 228 255
207 228 255
207 228 255
207 228 255
207 228 255
207 228 255
207 228 255
207 228 255
207 228 255
207 228 255
208 228 255
208 228 255
208 228 255
208 228 255
208 228 255
208 228 255
208 228 255
208 228 255
208 228 255
208 228 255
195 203 198
194 203 198
177 172 114
175 171 114
174 171 114
172 170 114
171 170 114
170 169 114
169 169 114
168 168 114
168 168 114
167 168 114
166 168 114
166 167 114
165 167 114
165 167 114
165 167 114
165 167 114
164 167 114
164 167 114
164 167 114
164 166 114
164 166 114
163 166 114
164 166 114
163 166 114
163 166 114
163 166 114
163 166 114
163 166 114
163 166 114
163 166 114
163 166 114
163 166 114
163 166 114
163 166 114
163 166 114
164 166 114
164 166 114
164 166 114
164 166 114
164 167 114
164 167 114
164 167 114
164 167 114
165 167 114
165 167 114
165 167 114
165 167 114
165 167 114
165 167 114
166 167 114
166 167 114
166 167 114
166 168 114
166 168 114
167 168 114
167 168 114
167 168 114
167 168 114
167 168 114
168 168 114
168 168 114
168 168 114
168 169 114
169 169 114
169 169 114
169 169 114
169 169 114
170 169 114
170 169 114
170 169 114
171 169 114
171 170 114
171 170 114
171 170 114
172 170 114
172 170 114
172 170 114
172 170 114
173 170 114
173 171 114
173 171 114
174 171 114
174 171 114
174 171 114
175 171 114
175 172 114
175 172 114
176 172 114
176 172 114
176 172 114
177 172 114
177 173 114
178 173 114
178 173 114
178 173 114
179 173 114
179 173 114
180 174 114
180 174 114
181 174 114
181 174 114
182 175 114
182 175 114
183 175 114
182 202 228
181 202 228
181 201 228
180 201 228
180 201 228
180 201 228
179 200 228
179 200 228
178 200 228
178 200 228
177 199 228
177 199 228
177 199 228
176 199 228
176 199 228
176 198 228
175 198 228
175 198 228
175 198 228
174 198 228
174 198 228
174 197 228
173 197 228
173 197 228
173 197 228
173 197 228
172 197 228
172 196 228
172 196 228
171 196 228
171 196 228
171 196 228
170 196 228
170 196 228
170 196 228
170 195 228
169 195 228
169 195 228
169 195 228
169 195 228
169 195 228
168 195 228
168 194 228
168 194 228
168 194 228
167 194 228
167 194 228
167 194 228
167 194 228
166 194 228
166 194 228
166 193 228
166 193 228
166 193 228
165 193 228
165 193 228
165 193 228
165 193 228
165 193 228
164 193 228
164 193 228
164 192 228
164 192 228
164 192 228
164 192 228
164 192 228
163 192 228
163 192 228
163 192 228
163 192 228
163 192 228
163 192 228
163 192 228
163 192 228
163 192 228
163 192 228
163 192 228
163 192 228
163 192 228
163 192 228
163 192 228
163 192 228
163 192 228
163 192 228
163 192 228
163 192 228
163 192 228
163 192 228
164 192 228
164 192 228
164 192 228
164 193 228
165 193 228
165 193 228
165 193 228
166 194 228
167 194 228
167 194 228
168 194 228
168 195 228
170 195 228
170 196 228
171 196 228
172 197 228
174 198 228
177 199 228
180 201 228
196 215 242
208 228 255
208 228 255
208 228 255
208 228 255
208 228 255
208 228 255
208 228 255
208 228 255
208 228 255
208 228 255
208 228 255
208 228 255
208 228 255
207 228 255
207 228 255
207 228 255
207 228 255
207 228 255
207 228 255
207 228 255
207 228 255
207 228 255
207 228 255
207 228 255
207 228 255
207 228 255
207 228 255
207 228 255
207 227 255
207 227 255
207 227 255
207 227 255
207 227 255
206 227 255
206 227 255
206 227 255
206 227 255
206 227 255
206 227 255
206 227 255
206 227 255
206 227 255
206 227 255
206 227 255
206 227 255
206 227 255
206 227 255
206 227 255
206 227 255
206 227 255
206 227 255
206 227 255
206 227 255
206 227 255
206 227 255
205 227 255
206 227 255
205 227 255
205 227 255
205 227 255
205 227 255
205 227 255
205 227 255
205 227 255
205 227 255
205 227 255
205 227 255
205 227 255
205 227 255
205 227 255
205 227 255
205 227 255
205 227 255
205 227 255
205 227 255
205 227 255
205 227 255
205 227 255
205 227 255
205 227 255
205 226 255
205 227 255
205 226 255
205 227 255
205 226 255
205 226 255
205 226 255
205 226 255
205 226 255
205 226 255
205 226 255
205 226 255
205 226 255
205 226 255
205 226 255
205 226 255
205 226 255
205 226 255
205 226 255
205 227 255
205 226 255
205 226 255
205 227 255
205 227 255
205 226 255
205 227 255
205 227 255
205 227 255
205 227 255
205 227 255
205 227 255
205 227 255
205 227 255
205 227 255
205 227 255
205 227 255
205 227 255
205 227 255
205 227 255
205 227 255
205 227 255
205 227 255
205 227 255
205 227 255
205 227 255
205 227 255
206 227 255
206 227 255
206 227 255
206 227 255
206 227 255
206 227 255
206 227 255
206 227 255
206 227 255
206 227 255
206 227 255
206 227 255
206 227 255
206 227 255
206 227 255
206 227 255
206 227 255
206 227 255
206 227 255
206 227 255
206 227 255
206 227 255
206 227 255
206 227 255
206 227 255
206 227 255
207 227 255
207 227 255
207 227 255
207 227 255
207 228 255
207 228 255
207 228 255
207 228 255
207 228 255
207 228 255
207 228 255
207 228 255
207 228 255
207 228 255
207 228 255
207 228 255
207 228 255
207 228 255
207 228 255
208 228 255
208 228 255
208 228 255
208 228 255
208 228 255
208 228 255
208 228 255
208 228 255
208 228 255
208 228 255
208 228 255
208 228 255
206 224 245
200 213 223
185 186 153
176 172 114
174 171 114
173 171 114
171 170 114
171 170 114
170 169 114
168 169 114
168 168 114
167 168 114
167 168 114
166 167 114
166 167 114
165 167 114
165 167 114
164 167 114
164 167 114
164 166 114
164 166 114
163 166 114
163 166 114
163 166 114
163 166 114
163 166 114
163 166 114
163 166 114
163 166 114
163 166 114
163 166 114
163 166 114
163 166 114
163 166 114
163 166 114
163 166 114
163 166 114
163 166 114
163 166 114
163 166 114
163 166 114
163 166 114
163 166 114
164 166 114
164 166 114
164 166 114
164 167 114
164 167 114
164 167 114
164 167 114
165 167 114
165 167 114
165 167 114
165 167 114
165 167 114
166 167 114
166 167 114
166 167 114
166 168 114
166 168 114
167 168 114
167 168 114
167 168 114
167 168 114
168 168 114
168 168 114
168 168 114
168 168 114
168 169 114
169 169 114
169 169 114
169 169 114
169 169 114
170 169 114
170 169 114
170 169 114
171 169 114
171 170 114
171 170 114
171 170 114
172 170 114
172 170 114
172 170 114
173 170 114
173 171 114
173 171 114
173 171 114
174 171 114
174 171 114
174 171 114
175 171 114
175 172 114
175 172 114
176 172 114
176 172 114
176 172 114
177 172 114
177 172 114
177 173 114
178 173 114
178 173 114
179 173 114
179 173 114
179 174 114
180 174 114
180 174 114
181 174 114
181 174 114
182 175 114
181 201 228
181 201 228
180 201 228
180 201 228
179 201 228
179 200 228
179 200 228
178 200 228
178 200 228
177 199 228
177 199 228
177 199 228
176 199 228
176 199 228
176 199 228
175 198 228
175 198 228
175 198 228
174 198 228
174 198 228
174 198 228
174 197 228
173 197 228
173 197 228
173 197 228
172 197 228
172 197 228
172 196 228
171 196 228
171 196 228
171 196 228
171 196 228
170 196 228
170 196 228
170 195 228
170 195 228
169 195 228
169 195 228
169 195 228
169 195 228
168 195 228
168 195 228
168 194 228
168 194 228
167 194 228
167 194 228
167 194 228
167 194 228
166 194 228
166 194 228
166 193 228
166 193 228
166 193 228
165 193 228
165 193 228
165 193 228
165 193 228
165 193 228
165 193 228
164 193 228
164 192 228
164 192 228
164 192 228
164 192 228
163 192 228
163 192 228
163 192 228
163 192 228
163 192 228
163 192 228
163 192 228
163 192 228
163 192 228
163 192 228
162 192 228
162 192 228
162 192 228
162 192 228
162 191 228
162 191 228
162 192 228
162 192 228
162 192 228
163 192 228
163 192 228
163 192 228
163 192 228
163 192 228
163 192 228
163 192 228
163 192 228
164 192 228
164 192 228
164 192 228
164 193 228
165 193 228
165 193 228
166 193 228
166 194 228
167 194 228
167 194 228
168 195 228
169 195 228
170 195 228
171 196 228
173 197 228
174 198 228
176 199 228
184 206 234
190 210 237
208 228 255
208 228 255
208 228 255
208 228 255
208 228 255
208 228 255
208 228 255
208 228 255
208 228 255
208 228 255
208 228 255
208 228 255
208 228 255
208 228 255
208 228 255
208 228 255
207 228 255
207 228 255
207 228 255
207 228 255
207 228 255
207 228 255
207 228 255
207 228 255
207 228 255
207 228 255
207 228 255
207 228 255
207 228 255
207 228 255
207 227 255
207 227 255
207 227 255
207 227 255
207 227 255
206 227 255
207 227 255
206 227 255
206 227 255
206 227 255
206 227 255
206 227 255
206 227 255
206 227 255
206 227 255
206 227 255
206 227 255
206 227 255
206 227 255
206 227 255
206 227 255
206 227 255
206 227 255
206 227 255
206 227 255
206 227 255
206 227 255
206 227 255
206 227 255
206 227 255
206 227 255
206 227 255
205 227 255
205 227 255
205 227 255
205 227 255
205 227 255
205 227 255
205 227 255
205 227 255
205 227 255
205 227 255
205 227 255
205 227 255
205 227 255
205 227 255
205 227 255
205 227 255
205 227 255
205 227 255
205 227 255
205 227 255
205 227 255
205 227 255
205 227 255
205 227 255
205 227 255
205 227 255
196 217 249
205 227 255
196 217 249
196 217 249
205 227 255
205 227 255
205 227 255
205 227 255
205 227 255
205 227 255
205 227 255
205 227 255
205 227 255
205 227 255
205 227 255
205 227 255
205 227 255
205 227 255
205 227 255
205 227 255
205 227 255
205 227 255
205 227 255
205 227 255
205 227 255
205 227 255
205 227 255
205 227 255
205 227 255
206 227 255
206 227 255
206 227 255
206 227 255
206 227 255
206 227 255
206 227 255
206 227 255
206 227 255
206 227 255
206 227 255
206 227 255
206 227 255
206 227 255
206 227 255
206 227 255
206 227 255
206 227 255
206 227 255
206 227 255
206 227 255
206 227 255
206 227 255
206 227 255
206 227 255
206 227 255
206 227 255
207 227 255
207 227 255
207 227 255
207 227 255
207 227 255
207 228 255
207 228 255
207 228 255
207 228 255
207 228 255
207 228 255
207 228 255
207 228 255
207 228 255
207 228 255
207 228 255
207 228 255
207 228 255
207 228 255
207 228 255
207 228 255
208 228 255
208 228 255
208 228 255
208 228 255
208 228 255
208 228 255
208 228 255
208 228 255
208 228 255
208 228 255
208 228 255
208 228 255
208 228 255
208 228 255
203 219 234
187 186 153
182 180 135
177 172 114
174 171 114
173 170 114
171 170 114
170 169 114
170 169 114
168 168 114
168 168 114
167 168 114
166 168 114
166 167 114
165 167 114
165 167 114
164 167 114
164 167 114
164 166 114
163 166 114
163 166 114
163 166 114
163 166 114
163 166 114
163 166 114
163 166 114
162 166 114
162 166 114
162 166 114
162 166 114
162 166 114
162 166 114
162 166 114
162 166 114
162 166 114
162 166 114
162 166 114
162 166 114
163 166 114
163 166 114
163 166 114
163 166 114
163 166 114
163 166 114
163 166 114
163 166 114
164 166 114
164 166 114
164 166 114
164 167 114
164 167 114
164 167 114
164 167 114
165 167 114
165 167 114
165 167 114
165 167 114
165 167 114
166 167 114
166 167 114
166 167 114
166 168 114
166 168 114
167 168 114
167 168 114
167 168 114
167 168 114
168 168 114
168 168 114
168 168 114
168 168 114
169 169 114
169 169 114
169 169 114
169 169 114
170 169 114
170 169 114
170 169 114
170 169 114
171 170 114
171 170 114
171 170 114
171 170 114
172 170 114
172 170 114
172 170 114
173 170 114
173 171 114
173 171 114
174 171 114
174 171 114
174 171 114
175 171 114
175 171 114
175 172 114
175 172 114
176 172 114
176 172 114
176 172 114
177 172 114
177 172 114
178 173 114
178 173 114
178 173 114
179 173 114
179 173 114
180 174 114
180 174 114
180 174 114
181 174 114
181 174 114
181 201 228
180 201 228
180 201 228
179 200 228
179 200 228
179 200 228
178 200 228
178 200 228
178 200 228
177 199 228
177 199 228
176 199 228
176 199 228
176 199 228
175 198 228
175 198 228
175 198 228
175 198 228
174 198 228
174 198 228
174 197 228
173 197 228
173 197 228
173 197 228
173 197 228
172 197 228
172 197 228
172 196 228
171 196 228
171 196 228
171 196 228
171 196 228
170 196 228
170 196 228
170 195 228
170 195 228
169 195 228
169 195 228
169 195 228
169 195 228
168 195 228
168 194 228
168 194 228
168 194 228
167 194 228
167 194 228
167 194 228
167 194 228
166 194 228
166 194 228
166 193 228
166 193 228
166 193 228
165 193 228
165 193 228
165 193 228
165 193 228
165 193 228
164 193 228
164 193 228
164 192 228
164 192 228
164 192 228
164 192 228
163 192 228
163 192 228
163 192 228
163 192 228
163 192 228
163 192 228
163 192 228
163 192 228
162 192 228
162 192 228
162 191 228
162 191 228
162 191 228
162 191 228
162 191 228
162 191 228
162 191 228
162 191 228
162 191 228
162 191 228
162 191 228
162 191 228
162 191 228
162 191 228
162 192 228
162 192 228
163 192 228
163 192 228
163 192 228
163 192 228
163 192 228
164 192 228
164 192 228
164 193 228
165 193 228
165 193 228
166 193 228
167 194 228
167 194 228
168 194 228
169 195 228
170 196 228
171 196 228
172 197 228
174 198 228
175 198 228
182 203 231
198 218 245
208 228 255
208 228 255
208 228 255
208 228 255
208 228 255
208 228 255
208 228 255
208 228 255
208 228 255
208 228 255
208 228 255
208 228 255
208 228 255
208 228 255
208 228 255
208 228 255
208 228 255
208 228 255
207 228 255
207 228 255
207 228 255
207 228 255
207 228 255
207 228 255
207 228 255
207 228 255
207 228 255
207 228 255
207 228 255
207 228 255
207 228 255
207 228 255
207 228 255
207 228 255
207 227 255
207 227 255
207 227 255
207 227 255
207 227 255
207 227 255
207 227 255
206 227 255
206 227 255
206 227 255
206 227 255
206 227 255
206 227 255
206 227 255
206 227 255
206 227 255
206 227 255
206 227 255
206 227 255
206 227 255
206 227 255
206 227 255
206 227 255
206 227 255
206 227 255
206 227 255
206 227 255
206 227 255
206 227 255
206 227 255
206 227 255
206 227 255
206 227 255
206 227 255
206 227 255
206 227 255
206 227 255
206 227 255
206 227 255
205 227 255
205 227 255
205 227 255
205 227 255
205 227 255
205 227 255
164 187 228
124 149 204
124 150 206
124 150 206
107 135 198
108 135 198
62 99 181
63 100 181
61 98 181
63 100 181
63 100 181
61 98 181
87 118 189
108 135 198
152 176 221
151 175 221
164 186 228
164 187 228
175 197 236
205 227 255
205 227 255
205 227 255
205 227 255
205 227 255
206 227 255
206 227 255
206 227 255
206 227 255
206 227 255
206 227 255
206 227 255
206 227 255
206 227 255
206 227 255
206 227 255
206 227 255
206 227 255
206 227 255
206 227 255
206 227 255
206 227 255
206 227 255
206 227 255
206 227 255
206 227 255
206 227 255
206 227 255
206 227 255
206 227 255
206 227 255
206 227 255
206 227 255
206 227 255
206 227 255
206 227 255
206 227 255
206 227 255
207 227 255
207 227 255
207 227 255
207 227 255
207 227 255
207 228 255
207 227 255
207 228 255
207 228 255
207 228 255
207 228 255
207 228 255
207 228 255
207 228 255
207 228 255
207 228 255
207 228 255
207 228 255
207 228 255
207 228 255
207 228 255
207 228 255
208 228 255
208 228 255
208 228 255
208 228 255
208 228 255
208 228 255
208 228 255
208 228 255
208 228 255
208 228 255
208 228 255
208 228 255
208 228 255
208 228 255
208 228 255
208 228 255
208 228 255
208 228 255
195 203 198
186 186 153
177 172 114
174 171 114
173 171 114
172 170 114
170 169 114
169 169 114
168 168 114
167 168 114
167 168 114
166 167 114
166 167 114
165 167 114
164 167 114
164 167 114
164 166 114
163 166 114
163 166 114
163 166 114
163 166 114
163 166 114
162 166 114
162 166 114
162 166 114
162 166 114
162 166 114
162 166 114
162 166 114
162 166 114
162 166 114
162 166 114
162 166 114
162 166 114
162 166 114
162 166 114
162 166 114
162 166 114
162 166 114
162 166 114
163 166 114
163 166 114
163 166 114
163 166 114
163 166 114
163 166 114
163 166 114
163 166 114
164 166 114
164 166 114
164 167 114
164 167 114
164 167 114
164 167 114
165 167 114
165 167 114
165 167 114
165 167 114
165 167 114
166 167 114
166 167 114
166 167 114
166 168 114
166 168 114
167 168 114
167 168 114
167 168 114
167 168 114
168 168 114
168 168 114
168 168 114
168 168 114
169 169 114
169 169 114
169 169 114
169 169 114
170 169 114
170 169 114
170 169 114
170 169 114
171 170 114
171 170 114
171 170 114
171 170 114
172 170 114
172 170 114
172 170 114
172 170 114
173 171 114
173 171 114
173 171 114
174 171 114
174 171 114
174 171 114
175 171 114
175 171 114
175 172 114
175 172 114
176 172 114
176 172 114
177 172 114
177 172 114
177 173 114
178 173 114
178 173 114
178 173 114
179 173 114
179 173 114
179 174 114
180 174 114
180 174 114
181 174 114
180 201 228
180 201 228
179 200 228
179 200 228
179 200 228
178 200 228
178 200 228
178 200 228
177 199 228
177 199 228
177 199 228
176 199 228
176 199 228
176 198 228
175 198 228
175 198 228
175 198 228
174 198 228
174 198 228
174 198 228
174 197 228
173 197 228
173 197 228
173 197 228
172 197 228
172 197 228
172 197 228
172 196 228
171 196 228
171 196 228
171 196 228
171 196 228
170 196 228
170 196 228
170 195 228
170 195 228
169 195 228
169 195 228
169 195 228
169 195 228
168 195 228
168 194 228
168 194 228
168 194 228
167 194 228
167 194 228
167 194 228
167 194 228
167 194 228
166 194 228
166 193 228
166 193 228
166 193 228
165 193 228
165 193 228
165 193 228
165 193 228
165 193 228
164 193 228
164 193 228
164 192 228
164 192 228
164 192 228
164 192 228
163 192 228
163 192 228
163 192 228
163 192 228
163 192 228
163 192 228
163 192 228
162 192 228
162 192 228
162 191 228
162 191 228
162 191 228
162 191 228
162 191 228
162 191 228
162 191 228
162 191 228
162 191 228
162 191 228
162 191 228
162 191 228
162 191 228
162 191 228
162 191 228
162 191 228
162 191 228
162 191 228
162 191 228
162 192 228
163 192 228
163 192 228
163 192 228
163 192 228
164 192 228
164 192 228
164 193 228
165 193 228
165 193 228
166 193 228
167 194 228
168 194 228
168 194 228
169 195 228
170 195 228
171 196 228
173 197 228
174 198 228
177 199 228
186 206 234
191 210 237
209 228 255
208 228 255
208 228 255
208 228 255
208 228 255
208 228 255
208 228 255
208 228 255
208 228 255
208 228 255
208 228 255
208 228 255
208 228 255
208 228 255
208 228 255
208 228 255
208 228 255
208 228 255
208 228 255
208 228 255
208 228 255
207 228 255
207 228 255
207 228 255
207 228 255
207 228 255
207 228 255
207 228 255
207 228 255
207 228 255
207 228 255
207 228 255
207 228 255
207 228 255
207 228 255
207 228 255
207 228 255
207 228 255
207 227 255
207 227 255
207 227 255
207 227 255
207 227 255
207 227 255
206 227 255
206 227 255
206 227 255
206 227 255
206 227 255
206 227 255
206 227 255
206 227 255
206 227 255
206 227 255
206 227 255
206 227 255
206 227 255
206 227 255
206 227 255
206 227 255
206 227 255
206 227 255
206 227 255
206 227 255
206 227 255
206 227 255
206 227 255
206 227 255
206 227 255
206 227 255
206 227 255
206 227 255
175 197 236
107 134 198
87 117 179
87 117 181
63 100 171
60 97 171
63 100 181
63 100 181
63 100 181
61 99 181
63 100 181
64 101 181
63 100 171
60 96 161
65 101 171
63 99 171
61 98 171
63 100 181
59 97 171
62 99 181
61 99 181
63 100 181
63 100 181
61 98 181
88 118 189
151 174 214
151 175 221
186 208 242
206 227 255
206 227 255
206 227 255
206 227 255
206 227 255
206 227 255
206 227 255
206 227 255
206 227 255
206 227 255
206 227 255
206 227 255
206 227 255
206 227 255
206 227 255
206 227 255
206 227 255
206 227 255
206 227 255
206 227 255
206 227 255
206 227 255
206 227 255
206 227 255
206 227 255
206 227 255
206 227 255
207 227 255
207 227 255
207 227 255
207 227 255
207 227 255
207 227 255
207 227 255
207 227 255
207 228 255
207 228 255
207 228 255
207 228 255
207 228 255
207 228 255
207 228 255
207 228 255
207 228 255
207 228 255
207 228 255
207 228 255
207 228 255
207 228 255
207 228 255
207 228 255
208 228 255
208 228 255
208 228 255
208 228 255
208 228 255
208 228 255
208 228 255
208 228 255
208 228 255
208 228 255
208 228 255
208 228 255
208 228 255
208 228 255
208 228 255
208 228 255
208 228 255
208 228 255
208 228 255
208 228 255
209 228 255
195 203 198
185 186 153
177 173 114
175 172 114
173 171 114
171 170 114
170 169 114
169 169 114
168 168 114
167 168 114
167 168 114
166 167 114
165 167 114
165 167 114
165 167 114
164 167 114
164 166 114
164 166 114
163 166 114
163 166 114
163 166 114
162 166 114
162 166 114
162 166 114
162 166 114
162 166 114
162 166 114
162 166 114
162 166 114
162 166 114
162 166 114
162 166 114
162 166 114
162 166 114
162 166 114
162 166 114
162 166 114
162 166 114
162 166 114
162 166 114
162 166 114
162 166 114
162 166 114
163 166 114
163 166 114
163 166 114
163 166 114
163 166 114
163 166 114
163 166 114
164 166 114
164 166 114
164 167 114
164 167 114
164 167 114
164 167 114
165 167 114
165 167 114
165 167 114
165 167 114
165 167 114
166 167 114
166 167 114
166 167 114
166 168 114
166 168 114
167 168 114
167 168 114
167 168 114
167 168 114
168 168 114
168 168 114
168 168 114
168 168 114
169 169 114
169 169 114
169 169 114
169 169 114
170 169 114
170 169 114
170 169 114
170 169 114
171 169 114
171 170 114
171 170 114
171 170 114
172 170 114
172 170 114
172 170 114
172 170 114
173 170 114
173 171 114
173 171 114
174 171 114
174 171 114
174 171 114
174 171 114
175 171 114
175 172 114
175 172 114
176 172 114
176 172 114
176 172 114
177 172 114
177 172 114
177 173 114
178 173 114
178 173 114
178 173 114
179 173 114
179 173 114
179 174 114
180 174 114
180 174 114
180 201 228
180 201 228
179 200 228
179 200 228
178 200 228
178 200 228
178 200 228
177 199 228
177 199 228
177 199 228
177 199 228
176 199 228
176 199 228
176 198 228
175 198 228
175 198 228
175 198 228
174 198 228
174 198 228
174 198 228
174 197 228
173 197 228
173 197 228
173 197 228
172 197 228
172 197 228
172 196 228
172 196 228
171 196 228
171 196 228
171 196 228
171 196 228
170 196 228
170 196 228
170 195 228
170 195 228
169 195 228
169 195 228
169 195 228
169 195 228
168 195 228
168 195 228
168 194 228
168 194 228
167 194 228
167 194 228
167 194 228
167 194 228
167 194 228
166 194 228
166 193 228
166 193 228
166 193 228
166 193 228
165 193 228
165 193 228
165 193 228
165 193 228
164 193 228
164 193 228
164 192 228
164 192 228
164 192 228
164 192 228
163 192 228
163 192 228
163 192 228
163 192 228
163 192 228
163 192 228
163 192 228
162 192 228
162 192 228
162 191 228
162 191 228
162 191 228
162 191 228
162 191 228
162 191 228
162 191 228
162 191 228
162 191 228
162 191 228
162 191 228
162 191 228
162 191 228
162 191 228
162 191 228
162 191 228
162 191 228
162 191 228
162 191 228
162 191 228
162 191 228
162 192 228
163 192 228
163 192 228
163 192 228
163 192 228
164 192 228
164 192 228
164 193 228
165 193 228
165 193 228
166 193 228
166 194 228
167 194 228
168 195 228
169 195 228
170 195 228
172 196 228
173 197 228
175 198 228
177 199 228
183 204 231
209 229 255
209 229 255
209 229 255
209 228 255
208 228 255
208 228 255
208 228 255
208 228 255
208 228 255
208 228 255
208 228 255
208 228 255
208 228 255
208 228 255
208 228 255
208 228 255
208 228 255
208 228 255
208 228 255
208 228 255
208 228 255
208 228 255
208 228 255
208 228 255
208 228 255
208 228 255
207 228 255
207 228 255
207 228 255
207 228 255
207 228 255
207 228 255
207 228 255
207 228 255
207 228 255
207 228 255
207 228 255
207 228 255
207 228 255
207 228 255
207 228 255
207 228 255
207 228 255
207 228 255
207 227 255
207 227 255
207 227 255
207 227 255
207 227 255
207 227 255
207 227 255
206 227 255
206 227 255
206 227 255
206 227 255
206 227 255
206 227 255
206 227 255
206 227 255
206 227 255
206 227 255
206 227 255
206 227 255
206 227 255
206 227 255
206 227 255
206 227 255
206 227 255
164 186 221
164 187 228
61 99 181
62 98 169
64 101 181
63 100 181
62 99 171
60 96 151
62 99 171
60 98 181
62 99 171
62 99 181
64 101 181
62 98 171
63 99 171
60 97 171
62 99 181
64 101 181
60 96 173
63 100 181
63 100 171
62 99 171
64 100 181
63 100 181
59 97 171
64 100 171
61 96 171
61 97 173
62 99 181
62 98 173
60 97 171
62 99 171
125 151 206
152 175 221
206 227 255
206 227 255
206 227 255
206 227 255
206 227 255
206 227 255
206 227 255
206 227 255
206 227 255
206 227 255
206 227 255
206 227 255
206 227 255
206 227 255
206 227 255
206 227 255
206 227 255
207 227 255
207 227 255
207 227 255
207 227 255
207 227 255
207 227 255
207 228 255
207 228 255
207 228 255
207 228 255
207 228 255
207 228 255
207 228 255
207 228 255
207 228 255
207 228 255
207 228 255
207 228 255
207 228 255
207 228 255
207 228 255
207 228 255
207 228 255
207 228 255
207 228 255
207 228 255
208 228 255
208 228 255
208 228 255
208 228 255
208 228 255
208 228 255
208 228 255
208 228 255
208 228 255
208 228 255
208 228 255
208 228 255
208 228 255
208 228 255
208 228 255
208 228 255
208 228 255
208 228 255
208 228 255
208 228 255
209 228 255
209 228 255
209 229 255
209 229 255
206 224 245
189 192 169
177 173 114
175 171 114
173 170 114
171 170 114
171 169 114
169 169 114
168 168 114
168 168 114
167 168 114
166 168 114
165 167 114
165 167 114
164 167 114
164 167 114
164 166 114
163 166 114
163 166 114
163 166 114
163 166 114
162 166 114
162 166 114
162 166 114
162 166 114
162 166 114
162 166 114
162 166 114
162 165 114
162 165 114
162 165 114
162 165 114
162 165 114
162 165 114
162 165 114
162 166 114
162 166 114
162 166 114
162 166 114
162 166 114
162 166 114
162 166 114
162 166 114
162 166 114
162 166 114
163 166 114
163 166 114
163 166 114
163 166 114
163 166 114
163 166 114
163 166 114
164 166 114
164 166 114
164 167 114
164 167 114
164 167 114
165 167 114
165 167 114
165 167 114
165 167 114
165 167 114
166 167 114
166 167 114
166 167 114
166 167 114
166 168 114
167 168 114
167 168 114
167 168 114
167 168 114
167 168 114
168 168 114
168 168 114
168 168 114
168 169 114
169 169 114
169 169 114
169 169 114
169 169 114
170 169 114
170 169 114
170 169 114
170 169 114
171 170 114
171 170 114
171 170 114
171 170 114
172 170 114
172 170 114
172 170 114
172 170 114
173 170 114
173 171 114
173 171 114
174 171 114
174 171 114
174 171 114
174 171 114
175 171 114
175 172 114
175 172 114
176 172 114
176 172 114
176 172 114
176 172 114
177 172 114
177 173 114
177 173 114
178 173 114
178 173 114
178 173 114
179 173 114
179 173 114
180 174 114
180 174 114
180 201 228
179 200 228
179 200 228
179 200 228
178 200 228
178 200 228
178 200 228
177 199 228
177 199 228
177 199 228
176 199 228
176 199 228
176 199 228
176 198 228
175 198 228
175 198 228
175 198 228
174 198 228
174 198 228
174 198 228
174 197 228
173 197 228
173 197 228
173 197 228
173 197 228
172 197 228
172 197 228
172 196 228
172 196 228
171 196 228
171 196 228
171 196 228
170 196 228
170 196 228
170 195 228
170 195 228
169 195 228
169 195 228
169 195 228
169 195 228
169 195 228
168 195 228
168 194 228
168 194 228
168 194 228
167 194 228
167 194 228
167 194 228
167 194 228
167 194 228
166 194 228
166 193 228
166 193 228
166 193 228
165 193 228
165 193 228
165 193 228
165 193 228
165 193 228
164 193 228
164 193 228
164 192 228
164 192 228
164 192 228
164 192 228
163 192 228
163 192 228
163 192 228
163 192 228
163 192 228
163 192 228
163 192 228
162 192 228
162 192 228
162 191 228
162 191 228
162 191 228
162 191 228
162 191 228
162 191 228
162 191 228
162 191 228
162 191 228
161 191 228
161 191 228
161 191 228
161 191 228
161 191 228
161 191 228
162 191 228
162 191 228
162 191 228
162 191 228
162 191 228
162 191 228
162 191 228
162 192 228
163 192 228
163 192 228
163 192 228
163 192 228
164 192 228
164 192 228
165 193 228
165 193 228
166 193 228
166 194 228
167 194 228
167 194 228
168 195 228
169 195 228
170 196 228
172 197 228
173 197 228
175 198 228
178 200 228
185 205 231
204 224 250
209 229 255
209 229 255
209 229 255
209 229 255
209 228 255
209 228 255
208 228 255
208 228 255
208 228 255
208 228 255
208 228 255
208 228 255
208 228 255
208 228 255
208 228 255
208 228 255
208 228 255
208 228 255
208 228 255
208 228 255
208 228 255
208 228 255
208 228 255
208 228 255
208 228 255
208 228 255
208 228 255
207 228 255
207 228 255
207 228 255
207 228 255
207 228 255
207 228 255
207 228 255
207 228 255
207 228 255
207 228 255
207 228 255
207 228 255
207 228 255
207 228 255
207 228 255
207 228 255
207 228 255
207 228 255
207 228 255
207 228 255
207 228 255
207 228 255
207 227 255
207 227 255
207 227 255
207 227 255
207 227 255
207 227 255
207 227 255
207 227 255
207 227 255
206 227 255
206 227 255
206 227 255
206 227 255
187 208 242
139 163 214
60 97 171
62 99 181
64 100 181
60 96 151
61 98 171
64 100 171
60 97 171
62 99 181
63 99 171
62 99 181
61 98 171
61 98 179
62 99 181
65 101 181
64 100 171
61 98 161
63 100 171
61 98 181
59 96 171
63 99 171
63 99 171
62 99 181
61 98 181
63 99 171
61 98 161
59 96 161
61 97 161
60 97 171
61 98 171
60 96 163
62 99 171
60 97 171
60 98 181
62 98 161
62 99 181
60 95 163
87 116 173
164 186 221
206 227 255
206 227 255
206 227 255
206 227 255
207 227 255
207 227 255
207 227 255
207 227 255
207 227 255
207 227 255
207 227 255
207 227 255
207 227 255
207 227 255
207 228 255
207 228 255
207 228 255
207 228 255
207 228 255
207 228 255
207 228 255
207 228 255
207 228 255
207 228 255
207 228 255
207 228 255
207 228 255
207 228 255
207 228 255
207 228 255
207 228 255
207 228 255
207 228 255
207 228 255
208 228 255
208 228 255
208 228 255
208 228 255
208 228 255
208 228 255
208 228 255
208 228 255
208 228 255
208 228 255
208 228 255
208 228 255
208 228 255
208 228 255
208 228 255
208 228 255
208 228 255
208 228 255
208 228 255
208 228 255
208 228 255
209 228 255
209 228 255
209 229 255
209 229 255
209 229 255
209 229 255
209 229 255
209 229 255
189 192 169
178 173 114
175 172 114
173 171 114
171 170 114
171 170 114
169 169 114
169 169 114
168 168 114
167 168 114
166 167 114
166 167 114
165 167 114
165 167 114
164 167 114
164 166 114
163 166 114
163 166 114
163 166 114
163 166 114
162 166 114
162 166 114
162 166 114
162 166 114
162 166 114
162 166 114
162 165 114
162 165 114
161 165 114
161 165 114
161 165 114
161 165 114
161 165 114
161 165 114
162 165 114
162 165 114
162 166 114
162 166 114
162 166 114
162 166 114
162 166 114
162 166 114
162 166 114
162 166 114
162 166 114
163 166 114
163 166 114
163 166 114
163 166 114
163 166 114
163 166 114
163 166 114
164 166 114
164 166 114
164 167 114
164 167 114
164 167 114
164 167 114
165 167 114
165 167 114
165 167 114
165 167 114
165 167 114
166 167 114
166 167 114
166 167 114
166 168 114
166 168 114
167 168 114
167 168 114
167 168 114
167 168 114
168 168 114
168 168 114
168 168 114
168 168 114
169 169 114
169 169 114
169 169 114
169 169 114
169 169 114
170 169 114
170 169 114
170 169 114
170 169 114
171 170 114
171 170 114
171 170 114
171 170 114
172 170 114
172 170 114
172 170 114
173 170 114
173 171 114
173 171 114
173 171 114
174 171 114
174 171 114
174 171 114
174 171 114
175 171 114
175 171 114
175 172 114
176 172 114
176 172 114
176 172 114
176 172 114
177 172 114
177 172 114
177 173 114
178 173 114
178 173 114
178 173 114
179 173 114
179 173 114
179 174 114
180 174 114
180 201 228
179 200 228
179 200 228
179 200 228
178 200 228
178 200 228
178 200 228
177 199 228
177 199 228
177 199 228
176 199 228
176 199 228
176 199 228
176 198 228
175 198 228
175 198 228
175 198 228
174 198 228
174 198 228
174 198 228
174 197 228
173 197 228
173 197 228
173 197 228
173 197 228
172 197 228
172 197 228
172 196 228
172 196 228
171 196 228
171 196 228
171 196 228
171 196 228
170 196 228
170 196 228
170 195 228
170 195 228
169 195 228
169 195 228
169 195 228
169 195 228
168 195 228
168 195 228
168 194 228
168 194 228
168 194 228
167 194 228
167 194 228
167 194 228
167 194 228
166 194 228
166 194 228
166 193 228
166 193 228
166 193 228
165 193 228
165 193 228
165 193 228
165 193 228
165 193 228
165 193 228
164 193 228
164 192 228
164 192 228
164 192 228
164 192 228
163 192 228
163 192 228
163 192 228
163 192 228
163 192 228
163 192 228
163 192 228
162 192 228
162 191 228
162 191 228
162 191 228
162 191 228
162 191 228
162 191 228
162 191 228
162 191 228
162 191 228
162 191 228
161 191 228
161 191 228
161 191 228
161 191 228
161 191 228
161 191 228
161 191 228
162 191 228
162 191 228
162 191 228
162 191 228
162 191 228
162 191 228
162 191 228
162 192 228
163 192 228
163 192 228
163 192 228
164 192 228
164 192 228
164 192 228
165 193 228
165 193 228
166 193 228
166 194 228
167 194 228
168 195 228
169 195 228
170 195 228
171 196 228
173 197 228
174 198 228
177 199 228
183 203 231
201 221 248
209 229 255
209 229 255
209 229 255
209 229 255
209 229 255
209 229 255
209 229 255
209 229 255
209 229 255
209 228 255
208 228 255
208 228 255
208 228 255
208 228 255
208 228 255
208 228 255
208 228 255
208 228 255
208 228 255
208 228 255
208 228 255
208 228 255
208 228 255
208 228 255
208 228 255
208 228 255
208 228 255
208 228 255
208 228 255
208 228 255
208 228 255
208 228 255
208 228 255
208 228 255
207 228 255
207 228 255
207 228 255
207 228 255
207 228 255
207 228 255
207 228 255
207 228 255
207 228 255
207 228 255
207 228 255
207 228 255
207 228 255
207 228 255
207 228 255
207 228 255
207 228 255
207 228 255
207 228 255
207 228 255
207 228 255
207 228 255
207 228 255
207 227 255
207 227 255
197 218 249
89 119 189
61 98 181
64 100 181
58 94 151
61 98 171
62 99 181
60 97 171
64 101 181
64 100 171
61 98 181
62 99 181
60 97 169
64 100 171
63 99 171
63 100 181
64 101 181
60 97 161
62 98 171
62 99 181
63 100 181
62 99 171
62 99 171
61 97 161
62 98 171
63 100 181
62 98 151
65 101 181
63 100 181
62 99 171
63 99 171
63 100 181
63 100 181
63 99 161
62 98 161
61 98 171
61 98 171
62 99 181
59 97 171
62 99 181
64 100 181
59 97 171
89 120 189
187 208 242
207 227 255
207 227 255
207 228 255
207 228 255
207 228 255
207 228 255
207 228 255
207 228 255
207 228 255
207 228 255
207 228 255
207 228 255
207 228 255
207 228 255
207 228 255
207 228 255
207 228 255
207 228 255
207 228 255
207 228 255
207 228 255
207 228 255
207 228 255
207 228 255
207 228 255
208 228 255
208 228 255
208 228 255
208 228 255
208 228 255
208 228 255
208 228 255
208 228 255
208 228 255
208 228 255
208 228 255
208 228 255
208 228 255
208 228 255
208 228 255
208 228 255
208 228 255
208 228 255
208 228 255
208 228 255
208 228 255
208 228 255
208 228 255
209 228 255
209 228 255
209 229 255
209 229 255
209 229 255
209 229 255
209 229 255
209 229 255
209 229 255
209 229 255
209 229 255
201 214 223
179 173 114
177 172 114
175 171 114
172 170 114
171 170 114
170 169 114
169 169 114
168 168 114
167 168 114
166 168 114
166 167 114
165 167 114
165 167 114
164 167 114
164 167 114
163 166 114
163 166 114
163 166 114
163 166 114
162 166 114
162 166 114
162 166 114
162 166 114
162 166 114
162 166 114
162 165 114
162 165 114
161 165 114
161 165 114
161 165 114
161 165 114
161 165 114
161 165 114
161 165 114
162 165 114
162 165 114
162 166 114
162 166 114
162 166 114
162 166 114
162 166 114
162 166 114
162 166 114
162 166 114
162 166 114
163 166 114
163 166 114
163 166 114
163 166 114
163 166 114
163 166 114
163 166 114
164 166 114
164 166 114
164 167 114
164 167 114
164 167 114
164 167 114
165 167 114
165 167 114
165 167 114
165 167 114
165 167 114
166 167 114
166 167 114
166 167 114
166 168 114
166 168 114
167 168 114
167 168 114
167 168 114
167 168 114
168 168 114
168 168 114
168 168 114
168 168 114
168 169 114
169 169 114
169 169 114
169 169 114
169 169 114
170 169 114
170 169 114
170 169 114
170 169 114
171 170 114
171 170 114
171 170 114
171 170 114
172 170 114
172 170 114
172 170 114
172 170 114
173 170 114
173 171 114
173 171 114
173 171 114
174 171 114
174 171 114
174 171 114
174 171 114
175 171 114
175 172 114
175 172 114
176 172 114
176 172 114
176 172 114
176 172 114
177 172 114
177 172 114
177 173 114
178 173 114
178 173 114
178 173 114
179 173 114
179 173 114
179 173 114
180 174 114
179 200 228
179 200 228
179 200 228
179 200 228
178 200 228
178 200 228
178 199 228
177 199 228
177 199 228
177 199 228
176 199 228
176 199 228
176 199 228
176 198 228
175 198 228
175 198 228
175 198 228
175 198 228
174 198 228
174 198 228
174 197 228
174 197 228
173 197 228
173 197 228
173 197 228
173 197 228
172 197 228
172 197 228
172 196 228
171 196 228
171 196 228
171 196 228
171 196 228
171 196 228
170 196 228
170 196 228
170 195 228
170 195 228
169 195 228
169 195 228
169 195 228
169 195 228
168 195 228
168 195 228
168 194 228
168 194 228
168 194 228
167 194 228
167 194 228
167 194 228
167 194 228
167 194 228
166 194 228
166 193 228
166 193 228
166 193 228
165 193 228
165 193 228
165 193 228
165 193 228
165 193 228
165 193 228
164 193 228
164 192 228
164 192 228
164 192 228
164 192 228
164 192 228
163 192 228
163 192 228
163 192 228
163 192 228
163 192 228
163 192 228
162 192 228
162 192 228
162 192 228
162 191 228
162 191 228
162 191 228
162 191 228
162 191 228
162 191 228
162 191 228
162 191 228
162 191 228
161 191 228
161 191 228
161 191 228
161 191 228
161 191 228
161 191 228
162 191 228
162 191 228
162 191 228
162 191 228
162 191 228
162 191 228
162 191 228
162 192 228
163 192 228
163 192 228
163 192 228
163 192 228
164 192 228
164 192 228
165 193 228
165 193 228
165 193 228
166 194 228
167 194 228
168 194 228
169 195 228
169 195 228
170 196 228
172 197 228
173 197 228
175 198 228
177 199 228
190 210 237
204 224 250
209 229 255
209 229 255
209 229 255
209 229 255
209 229 255
209 229 255
209 229 255
209 229 255
209 229 255
209 229 255
209 229 255
209 229 255
209 229 255
209 228 255
208 228 255
208 228 255
208 228 255
208 228 255
208 228 255
208 228 255
208 228 255
208 228 255
208 228 255
208 228 255
208 228 255
208 228 255
208 228 255
208 228 255
208 228 255
208 228 255
208 228 255
208 228 255
208 228 255
208 228 255
208 228 255
208 228 255
208 228 255
208 228 255
207 228 255
207 228 255
207 228 255
207 228 255
207 228 255
207 228 255
207 228 255
207 228 255
207 228 255
207 228 255
207 228 255
207 228 255
207 228 255
207 228 255
207 228 255
207 228 255
197 218 249
152 175 206
88 118 181
63 100 181
61 99 181
62 98 171
63 100 171
63 99 171
65 101 181
61 98 181
62 99 171
62 98 171
62 99 181
62 99 181
61 97 161
64 100 171
62 99 181
61 97 161
62 98 161
63 100 181
63 100 181
63 99 171
62 99 171
65 101 181
62 98 161
61 98 171
60 97 171
64 99 173
62 98 161
61 98 161
65 101 181
61 96 140
62 99 171
61 98 171
63 100 181
61 96 140
64 101 181
63 100 181
61 98 181
65 101 181
61 97 151
64 101 181
61 96 151
63 100 181
63 99 161
64 101 181
61 99 181
108 134 191
187 208 242
207 228 255
207 228 255
207 228 255
207 228 255
207 228 255
207 228 255
207 228 255
207 228 255
207 228 255
207 228 255
207 228 255
207 228 255
207 228 255
207 228 255
207 228 255
207 228 255
208 228 255
208 228 255
208 228 255
208 228 255
208 228 255
208 228 255
208 228 255
208 228 255
208 228 255
208 228 255
208 228 255
208 228 255
208 228 255
208 228 255
208 228 255
208 228 255
208 228 255
208 228 255
208 228 255
208 228 255
208 228 255
208 228 255
208 228 255
208 228 255
208 228 255
209 228 255
209 229 255
209 229 255
209 229 255
209 229 255
209 229 255
209 229 255
209 229 255
209 229 255
209 229 255
209 229 255
209 229 255
209 229 255
209 229 255
194 198 184
183 180 135
177 173 114
175 171 114
173 171 114
172 170 114
171 169 114
169 169 114
168 168 114
168 168 114
167 168 114
166 167 114
165 167 114
165 167 114
164 167 114
164 167 114
164 166 114
163 166 114
163 166 114
163 166 114
163 166 114
162 166 114
162 166 114
162 166 114
162 166 114
162 166 114
162 166 114
162 165 114
162 165 114
161 165 114
161 165 114
161 165 114
161 165 114
161 165 114
161 165 114
162 165 114
162 165 114
162 166 114
162 166 114
162 166 114
162 166 114
162 166 114
162 166 114
162 166 114
162 166 114
162 166 114
162 166 114
163 166 114
163 166 114
163 166 114
163 166 114
163 166 114
163 166 114
163 166 114
164 166 114
164 166 114
164 167 114
164 167 114
164 167 114
164 167 114
165 167 114
165 167 114
165 167 114
165 167 114
165 167 114
166 167 114
166 167 114
166 167 114
166 168 114
166 168 114
167 168 114
167 168 114
167 168 114
167 168 114
168 168 114
168 168 114
168 168 114
168 168 114
168 169 114
169 169 114
169 169 114
169 169 114
169 169 114
170 169 114
170 169 114
170 169 114
170 169 114
171 169 114
171 170 114
171 170 114
171 170 114
172 170 114
172 170 114
172 170 114
172 170 114
173 170 114
173 170 114
173 171 114
173 171 114
173 171 114
174 171 114
174 171 114
174 171 114
175 171 114
175 171 114
175 172 114
175 172 114
176 172 114
176 172 114
176 172 114
176 172 114
177 172 114
177 172 114
177 173 114
178 173 114
178 173 114
178 173 114
179 173 114
179 173 114
179 173 114
179 174 114
179 200 228
179 200 228
179 200 228
179 200 228
178 200 228
178 200 228
178 200 228
177 199 228
177 199 228
177 199 228
177 199 228
176 199 228
176 199 228
176 199 228
175 198 228
175 198 228
175 198 228
175 198 228
174 198 228
174 198 228
174 198 228
174 197 228
173 197 228
173 197 228
173 197 228
173 197 228
172 197 228
172 197 228
172 197 228
172 196 228
171 196 228
171 196 228
171 196 228
171 196 228
171 196 228
170 196 228
170 196 228
170 195 228
170 195 228
169 195 228
169 195 228
169 195 228
169 195 228
168 195 228
168 195 228
168 194 228
168 194 228
168 194 228
167 194 228
167 194 228
167 194 228
167 194 228
167 194 228
166 194 228
166 193 228
166 193 228
166 193 228
166 193 228
165 193 228
165 193 228
165 193 228
165 193 228
165 193 228
164 193 228
164 193 228
164 192 228
164 192 228
164 192 228
164 192 228
163 192 228
163 192 228
163 192 228
163 192 228
163 192 228
163 192 228
163 192 228
162 192 228
162 192 228
162 191 228
162 191 228
162 191 228
162 191 228
162 191 228
162 191 228
162 191 228
162 191 228
162 191 228
162 191 228
162 191 228
162 191 228
162 191 228
162 191 228
162 191 228
162 191 228
162 191 228
162 191 228
162 191 228
162 191 228
162 191 228
162 191 228
162 192 228
163 192 228
163 192 228
163 192 228
163 192 228
164 192 228
164 192 228
164 193 228
165 193 228
165 193 228
166 193 228
167 194 228
167 194 228
168 194 228
169 195 228
170 196 228
171 196 228
173 197 228
174 198 228
177 199 228
179 200 228
193 213 240
209 229 255
209 229 255
209 229 255
209 229 255
209 229 255
209 229 255
209 229 255
209 229 255
209 229 255
209 229 255
209 229 255
209 229 255
209 229 255
209 229 255
209 229 255
209 229 255
209 229 255
209 228 255
208 228 255
208 228 255
208 228 255
208 228 255
208 228 255
208 228 255
208 228 255
208 228 255
208 228 255
208 228 255
208 228 255
208 228 255
208 228 255
208 228 255
208 228 255
208 228 255
208 228 255
208 228 255
208 228 255
208 228 255
208 228 255
208 228 255
208 228 255
208 228 255
208 228 255
208 228 255
208 228 255
208 228 255
207 228 255
207 228 255
207 228 255
207 228 255
207 228 255
207 228 255
198 218 249
62 100 181
61 98 171
60 96 149
61 98 171
64 100 181
63 100 181
63 100 181
62 98 171
60 96 151
62 98 161
61 98 181
63 99 161
60 97 161
61 98 171
62 99 171
60 97 171
62 99 181
63 99 171
63 99 171
63 99 171
61 98 181
61 97 161
65 101 181
62 99 181
62 98 161
62 98 161
62 99 171
61 97 161
64 101 181
62 98 161
62 98 161
60 96 151
64 99 173
64 100 171
62 99 171
63 99 171
63 100 181
61 97 171
62 99 181
61 99 181
62 100 181
65 101 181
63 100 171
61 97 161
61 95 155
61 99 181
61 95 165
61 98 171
60 98 181
107 134 198
166 188 228
207 228 255
207 228 255
207 228 255
207 228 255
207 228 255
207 228 255
207 228 255
208 228 255
208 228 255
208 228 255
208 228 255
208 228 255
208 228 255
208 228 255
208 228 255
208 228 255
208 228 255
208 228 255
208 228 255
208 228 255
208 228 255
208 228 255
208 228 255
208 228 255
208 228 255
208 228 255
208 228 255
208 228 255
208 228 255
208 228 255
208 228 255
208 228 255
209 228 255
209 228 255
209 228 255
209 229 255
209 229 255
209 229 255
209 229 255
209 229 255
209 229 255
209 229 255
209 229 255
209 229 255
209 229 255
209 229 255
209 229 255
209 229 255
209 229 255
209 229 255
209 229 255
209 229 255
193 198 184
180 174 114
177 172 114
174 171 114
172 170 114
171 170 114
170 169 114
169 169 114
168 168 114
167 168 114
167 168 114
166 167 114
165 167 114
165 167 114
165 167 114
164 167 114
164 166 114
163 166 114
163 166 114
163 166 114
163 166 114
162 166 114
162 166 114
162 166 114
162 166 114
162 166 114
162 166 114
162 166 114
162 165 114
162 165 114
162 165 114
162 165 114
162 165 114
162 165 114
162 165 114
162 165 114
162 166 114
162 166 114
162 166 114
162 166 114
162 166 114
162 166 114
162 166 114
162 166 114
162 166 114
162 166 114
163 166 114
163 166 114
163 166 114
163 166 114
163 166 114
163 166 114
163 166 114
164 166 114
164 166 114
164 167 114
164 167 114
164 167 114
164 167 114
165 167 114
165 167 114
165 167 114
165 167 114
165 167 114
166 167 114
166 167 114
166 167 114
166 168 114
166 168 114
166 168 114
167 168 114
167 168 114
167 168 114
167 168 114
168 168 114
168 168 114
168 168 114
168 168 114
168 169 114
169 169 114
169 169 114
169 169 114
169 169 114
170 169 114
170 169 114
170 169 114
170 169 114
171 169 114
171 170 114
171 170 114
171 170 114
171 170 114
172 170 114
172 170 114
172 170 114
172 170 114
173 170 114
173 171 114
173 171 114
173 171 114
174 171 114
174 171 114
174 171 114
174 171 114
175 171 114
175 172 114
175 172 114
175 172 114
176 172 114
176 172 114
176 172 114
176 172 114
177 172 114
177 172 114
177 173 114
178 173 114
178 173 114
178 173 114
179 173 114
179 173 114
179 173 114
179 174 114
179 200 228
179 200 228
179 200 228
179 200 228
178 200 228
178 200 228
178 200 228
177 199 228
177 199 228
177 199 228
177 199 228
176 199 228
176 199 228
176 199 228
176 198 228
175 198 228
175 198 228
175 198 228
175 198 228
174 198 228
174 198 228
174 198 228
174 197 228
173 197 228
173 197 228
173 197 228
173 197 228
172 197 228
172 197 228
172 197 228
172 196 228
172 196 228
171 196 228
171 196 228
171 196 228
171 196 228
170 196 228
170 196 228
170 195 228
170 195 228
169 195 228
169 195 228
169 195 228
169 195 228
169 195 228
168 195 228
168 195 228
168 194 228
168 194 228
168 194 228
167 194 228
167 194 228
167 194 228
167 194 228
166 194 228
166 194 228
166 193 228
166 193 228
166 193 228
166 193 228
165 193 228
165 193 228
165 193 228
165 193 228
165 193 228
164 193 228
164 193 228
164 192 228
164 192 228
164 192 228
164 192 228
163 192 228
163 192 228
163 192 228
163 192 228
163 192 228
163 192 228
163 192 228
163 192 228
162 192 228
162 192 228
162 191 228
162 191 228
162 191 228
162 191 228
162 191 228
162 191 228
162 191 228
162 191 228
162 191 228
162 191 228
162 191 228
162 191 228
162 191 228
162 191 228
162 191 228
162 191 228
162 191 228
162 191 228
162 191 228
162 192 228
162 192 228
163 192 228
163 192 228
163 192 228
163 192 228
164 192 228
164 192 228
164 193 228
165 193 228
165 193 228
166 193 228
166 194 228
167 194 228
168 194 228
169 195 228
170 195 228
171 196 228
172 197 228
173 197 228
175 198 228
179 200 228
184 204 231
210 229 255
209 229 255
209 229 255
209 229 255
209 229 255
209 229 255
209 229 255
209 229 255
209 229 255
209 229 255
209 229 255
209 229 255
209 229 255
209 229 255
209 229 255
209 229 255
209 229 255
209 229 255
209 229 255
209 229 255
209 229 255
209 229 255
209 229 255
208 228 255
209 228 255
208 228 255
208 228 255
208 228 255
208 228 255
208 228 255
208 228 255
208 228 255
208 228 255
208 228 255
208 228 255
208 228 255
208 228 255
208 228 255
208 228 255
208 228 255
208 228 255
208 228 255
208 228 255
208 228 255
208 228 255
208 228 255
208 228 255
208 228 255
208 228 255
198 218 249
107 133 179
64 101 181
63 100 181
62 99 171
62 99 181
63 99 169
62 99 181
62 97 161
62 99 171
62 99 181
60 96 149
63 99 169
64 100 171
65 101 181
65 101 181
61 98 181
64 100 161
60 97 161
63 99 171
60 97 171
62 99 171
61 98 171
61 97 161
64 100 171
63 100 171
63 100 181
61 98 171
62 99 171
64 100 171
62 98 171
62 99 171
60 97 171
61 98 171
63 100 181
63 100 181
62 99 181
62 99 171
63 100 181
62 97 173
65 101 181
61 98 181
60 97 161
63 100 181
62 98 171
59 96 161
64 99 173
58 93 151
63 100 171
64 101 181
61 98 181
64 100 171
64 100 171
63 99 171
108 135 189
177 198 236
208 228 255
208 228 255
208 228 255
208 228 255
208 228 255
208 228 255
208 228 255
208 228 255
208 228 255
208 228 255
208 228 255
208 228 255
208 228 255
208 228 255
208 228 255
208 228 255
208 228 255
208 228 255
208 228 255
208 228 255
208 228 255
208 228 255
208 228 255
208 228 255
208 228 255
208 228 255
209 229 255
209 229 255
209 229 255
209 229 255
209 229 255
209 229 255
209 229 255
209 229 255
209 229 255
209 229 255
209 229 255
209 229 255
209 229 255
209 229 255
209 229 255
209 229 255
209 229 255
209 229 255
209 229 255
209 229 255
209 229 255
209 229 255
202 215 223
194 198 184
178 173 114
176 172 114
174 171 114
172 170 114
171 170 114
170 169 114
169 169 114
168 168 114
167 168 114
166 168 114
166 167 114
165 167 114
165 167 114
164 167 114
164 167 114
164 166 114
163 166 114
163 166 114
163 166 114
163 166 114
162 166 114
162 166 114
162 166 114
162 166 114
162 166 114
162 166 114
162 166 114
162 166 114
162 166 114
162 166 114
162 166 114
162 166 114
162 166 114
162 166 114
162 166 114
162 166 114
162 166 114
162 166 114
162 166 114
162 166 114
162 166 114
162 166 114
162 166 114
162 166 114
163 166 114
163 166 114
163 166 114
163 166 114
163 166 114
163 166 114
163 166 114
164 166 114
164 166 114
164 167 114
164 167 114
164 167 114
164 167 114
165 167 114
165 167 114
165 167 114
165 167 114
165 167 114
165 167 114
166 167 114
166 167 114
166 167 114
166 168 114
167 168 114
167 168 114
167 168 114
167 168 114
167 168 114
167 168 114
168 168 114
168 168 114
168 168 114
168 168 114
169 169 114
169 169 114
169 169 114
169 169 114
169 169 114
170 169 114
170 169 114
170 169 114
170 169 114
171 169 114
171 170 114
171 170 114
171 170 114
172 170 114
172 170 114
172 170 114
172 170 114
172 170 114
173 170 114
173 171 114
173 171 114
173 171 114
174 171 114
174 171 114
174 171 114
174 171 114
175 171 114
175 171 114
175 172 114
175 172 114
176 172 114
176 172 114
176 172 114
176 172 114
177 172 114
177 172 114
177 173 114
177 173 114
178 173 114
178 173 114
178 173 114
179 173 114
179 173 114
179 173 114
179 174 114
179 201 228
179 200 228
179 200 228
179 200 228
178 200 228
178 200 228
178 200 228
178 199 228
177 199 228
177 199 228
177 199 228
177 199 228
176 199 228
176 199 228
176 199 228
176 198 228
175 198 228
175 198 228
175 198 228
175 198 228
174 198 228
174 198 228
174 198 228
174 197 228
173 197 228
173 197 228
173 197 228
173 197 228
172 197 228
172 197 228
172 197 228
172 196 228
172 196 228
171 196 228
171 196 228
171 196 228
171 196 228
170 196 228
170 196 228
170 195 228
170 195 228
170 195 228
169 195 228
169 195 228
169 195 228
169 195 228
169 195 228
168 195 228
168 194 228
168 194 228
168 194 228
167 194 228
167 194 228
167 194 228
167 194 228
167 194 228
167 194 228
166 194 228
166 193 228
166 193 228
166 193 228
165 193 228
165 193 228
165 193 228
165 193 228
165 193 228
165 193 228
164 193 228
164 193 228
164 192 228
164 192 228
164 192 228
164 192 228
164 192 228
163 192 228
163 192 228
163 192 228
163 192 228
163 192 228
163 192 228
163 192 228
163 192 228
162 192 228
162 192 228
162 191 228
162 191 228
162 191 228
162 191 228
162 191 228
162 191 228
162 191 228
162 191 228
162 191 228
162 191 228
162 191 228
162 191 228
162 191 228
162 191 228
162 191 228
162 191 228
162 192 228
162 192 228
163 192 228
163 192 228
163 192 228
163 192 228
164 192 228
164 192 228
164 192 228
165 193 228
165 193 228
165 193 228
166 193 228
166 194 228
167 194 228
168 194 228
168 195 228
170 195 228
170 196 228
172 197 228
173 197 228
174 198 228
177 199 228
181 202 228
202 221 248
210 229 255
210 229 255
210 229 255
210 229 255
210 229 255
209 229 255
209 229 255
209 229 255
209 229 255
209 229 255
209 229 255
209 229 255
209 229 255
209 229 255
209 229 255
209 229 255
209 229 255
209 229 255
209 229 255
209 229 255
209 229 255
209 229 255
209 229 255
209 229 255
209 229 255
209 229 255
209 229 255
209 229 255
209 228 255
208 228 255
208 228 255
208 228 255
208 228 255
208 228 255
208 228 255
208 228 255
208 228 255
208 228 255
208 228 255
208 228 255
208 228 255
208 228 255
208 228 255
208 228 255
208 228 255
208 228 255
139 161 204
62 99 181
61 97 169
60 97 171
62 98 171
62 99 171
63 99 171
60 98 181
64 100 179
62 99 181
61 98 181
63 100 181
62 99 171
62 98 161
61 98 169
65 101 181
59 97 171
65 101 181
63 99 171
63 99 171
64 100 171
62 98 151
60 96 151
63 99 171
62 99 171
63 100 181
64 100 171
62 100 181
62 98 161
62 98 171
62 98 161
64 101 181
61 98 171
62 98 161
63 99 171
59 95 163
59 96 161
62 98 161
62 98 171
63 100 181
63 100 181
63 98 171
63 100 171
63 97 153
62 98 161
61 98 161
59 94 153
60 97 161
65 100 173
57 91 153
62 98 171
60 97 171
59 97 171
61 97 173
63 98 173
62 98 173
60 97 171
153 175 206
208 228 255
208 228 255
208 228 255
208 228 255
208 228 255
208 228 255
208 228 255
208 228 255
208 228 255
208 228 255
208 228 255
208 228 255
208 228 255
208 228 255
208 228 255
208 228 255
208 228 255
209 228 255
209 229 255
209 229 255
209 229 255
209 229 255
209 229 255
209 229 255
209 229 255
209 229 255
209 229 255
209 229 255
209 229 255
209 229 255
209 229 255
209 229 255
209 229 255
209 229 255
209 229 255
209 229 255
209 229 255
209 229 255
209 229 255
209 229 255
209 229 255
210 229 255
210 229 255
210 229 255
210 229 255
210 229 255
205 219 234
185 181 135
177 172 114
176 172 114
173 171 114
172 170 114
170 169 114
169 169 114
169 169 114
168 168 114
167 168 114
166 168 114
166 167 114
165 167 114
165 167 114
164 167 114
164 167 114
164 166 114
164 166 114
163 166 114
163 166 114
163 166 114
163 166 114
162 166 114
162 166 114
162 166 114
162 166 114
162 166 114
162 166 114
162 166 114
162 166 114
162 166 114
162 166 114
162 166 114
162 166 114
162 166 114
162 166 114
162 166 114
162 166 114
162 166 114
162 166 114
162 166 114
162 166 114
163 166 114
163 166 114
163 166 114
163 166 114
163 166 114
163 166 114
163 166 114
163 166 114
163 166 114
164 166 114
164 166 114
164 167 114
164 167 114
164 167 114
165 167 114
165 167 114
165 167 114
165 167 114
165 167 114
165 167 114
165 167 114
166 167 114
166 167 114
166 167 114
166 168 114
166 168 114
167 168 114
167 168 114
167 168 114
167 168 114
167 168 114
168 168 114
168 168 114
168 168 114
168 168 114
168 169 114
169 169 114
169 169 114
169 169 114
169 169 114
170 169 114
170 169 114
170 169 114
170 169 114
170 169 114
171 170 114
171 170 114
171 170 114
171 170 114
172 170 114
172 170 114
172 170 114
172 170 114
172 170 114
173 170 114
173 171 114
173 171 114
173 171 114
174 171 114
174 171 114
174 171 114
174 171 114
175 171 114
175 171 114
175 172 114
175 172 114
176 172 114
176 172 114
176 172 114
176 172 114
177 172 114
177 172 114
177 172 114
177 173 114
178 173 114
178 173 114
178 173 114
178 173 114
179 173 114
179 173 114
179 173 114
179 174 114
180 201 228
179 200 228
179 200 228
179 200 228
179 200 228
178 200 228
178 200 228
178 200 228
177 199 228
177 199 228
177 199 228
177 199 228
177 199 228
176 199 228
176 199 228
176 199 228
175 198 228
175 198 228
175 198 228
175 198 228
175 198 228
174 198 228
174 198 228
174 198 228
174 197 228
173 197 228
173 197 228
173 197 228
173 197 228
173 197 228
172 197 228
172 197 228
172 196 228
172 196 228
171 196 228
171 196 228
171 196 228
171 196 228
171 196 228
170 196 228
170 196 228
170 195 228
170 195 228
170 195 228
169 195 228
169 195 228
169 195 228
169 195 228
168 195 228
168 195 228
168 194 228
168 194 228
168 194 228
167 194 228
167 194 228
167 194 228
167 194 228
167 194 228
166 194 228
166 194 228
166 193 228
166 193 228
166 193 228
166 193 228
165 193 228
165 193 228
165 193 228
165 193 228
165 193 228
165 193 228
164 193 228
164 192 228
164 192 228
164 192 228
164 192 228
164 192 228
163 192 228
163 192 228
163 192 228
163 192 228
163 192 228
163 192 228
163 192 228
163 192 228
163 192 228
162 192 228
162 192 228
162 192 228
162 192 228
162 191 228
162 191 228
162 191 228
162 191 228
162 191 228
162 191 228
162 191 228
162 191 228
162 191 228
162 192 228
162 192 228
162 192 228
163 192 228
163 192 228
163 192 228
163 192 228
163 192 228
163 192 228
164 192 228
164 192 228
164 193 228
165 193 228
165 193 228
165 193 228
166 193 228
166 194 228
167 194 228
168 194 228
168 195 228
169 195 228
171 196 228
172 196 228
173 197 228
174 198 228
176 199 228
180 201 228
192 211 237
210 229 255
210 229 255
210 229 255
210 229 255
210 229 255
210 229 255
210 229 255
210 229 255
210 229 255
209 229 255
209 229 255
209 229 255
209 229 255
209 229 255
209 229 255
209 229 255
209 229 255
209 229 255
209 229 255
209 229 255
209 229 255
209 229 255
209 229 255
209 229 255
209 229 255
209 229 255
209 229 255
209 229 255
209 229 255
209 229 255
209 229 255
209 229 255
209 229 255
209 228 255
209 228 255
209 228 255
209 228 255
208 228 255
208 228 255
208 228 255
208 228 255
208 228 255
208 228 255
188 209 242
107 134 196
60 97 171
64 100 171
61 98 181
58 92 114
60 97 171
62 98 171
62 99 181
63 100 181
63 99 171
61 99 181
63 99 179
60 95 140
62 98 171
62 99 181
60 96 169
61 99 181
62 99 181
61 97 161
62 99 181
60 97 171
61 98 161
62 100 181
65 101 171
61 98 171
66 102 181
63 100 181
63 99 161
61 97 161
62 99 171
63 100 181
61 97 151
63 100 181
63 100 171
62 98 171
62 99 171
61 98 171
61 98 171
59 95 151
62 98 161
63 98 173
62 99 181
61 98 181
62 98 151
64 100 161
62 98 161
64 100 181
61 96 163
62 98 161
62 98 161
63 100 181
63 99 171
62 99 181
60 96 161
65 102 181
59 95 153
61 98 171
63 100 181
62 98 171
140 164 214
198 218 244
208 228 255
208 228 255
208 228 255
208 228 255
208 228 255
209 228 255
209 228 255
209 228 255
209 229 255
209 229 255
209 229 255
209 229 255
209 229 255
209 229 255
209 229 255
209 229 255
209 229 255
209 229 255
209 229 255
209 229 255
209 229 255
209 229 255
209 229 255
209 229 255
209 229 255
209 229 255
209 229 255
209 229 255
209 229 255
209 229 255
209 229 255
209 229 255
209 229 255
210 229 255
210 229 255
210 229 255
210 229 255
210 229 255
210 229 255
210 229 255
210 229 255
210 229 255
210 229 255
189 187 153
180 174 114
177 172 114
175 171 114
172 170 114
171 170 114
171 170 114
169 169 114
169 169 114
168 168 114
167 168 114
166 168 114
166 167 114
165 167 114
165 167 114
165 167 114
164 167 114
164 167 114
164 166 114
163 166 114
163 166 114
163 166 114
163 166 114
163 166 114
163 166 114
162 166 114
162 166 114
162 166 114
162 166 114
162 166 114
162 166 114
162 166 114
162 166 114
162 166 114
162 166 114
162 166 114
162 166 114
162 166 114
162 166 114
162 166 114
162 166 114
163 166 114
163 166 114
163 166 114
163 166 114
163 166 114
163 166 114
163 166 114
163 166 114
164 166 114
164 166 114
164 166 114
164 167 114
164 167 114
164 167 114
164 167 114
165 167 114
165 167 114
165 167 114
165 167 114
165 167 114
165 167 114
166 167 114
166 167 114
166 167 114
166 167 114
166 168 114
166 168 114
167 168 114
167 168 114
167 168 114
167 168 114
167 168 114
168 168 114
168 168 114
168 168 114
168 168 114
168 169 114
169 169 114
169 169 114
169 169 114
169 169 114
170 169 114
170 169 114
170 169 114
170 169 114
170 169 114
171 169 114
171 170 114
171 170 114
171 170 114
171 170 114
172 170 114
172 170 114
172 170 114
172 170 114
173 170 114
173 170 114
173 171 114
173 171 114
173 171 114
174 171 114
174 171 114
174 171 114
174 171 114
175 171 114
175 171 114
175 172 114
175 172 114
175 172 114
176 172 114
176 172 114
176 172 114
177 172 114
177 172 114
177 172 114
177 173 114
178 173 114
178 173 114
178 173 114
178 173 114
178 173 114
179 173 114
179 173 114
179 173 114
180 174 114
180 201 228
179 201 228
179 200 228
179 200 228
179 200 228
178 200 228
178 200 228
178 200 228
178 200 228
177 199 228
177 199 228
177 199 228
177 199 228
176 199 228
176 199 228
176 199 228
176 199 228
176 198 228
175 198 228
175 198 228
175 198 228
175 198 228
174 198 228
174 198 228
174 198 228
174 197 228
174 197 228
173 197 228
173 197 228
173 197 228
173 197 228
172 197 228
172 197 228
172 197 228
172 196 228
172 196 228
171 196 228
171 196 228
171 196 228
171 196 228
171 196 228
170 196 228
170 196 228
170 195 228
170 195 228
169 195 228
169 195 228
169 195 228
169 195 228
169 195 228
168 195 228
168 195 228
168 194 228
168 194 228
168 194 228
168 194 228
167 194 228
167 194 228
167 194 228
167 194 228
167 194 228
166 194 228
166 194 228
166 193 228
166 193 228
166 193 228
165 193 228
165 193 228
165 193 228
165 193 228
165 193 228
165 193 228
164 193 228
164 193 228
164 192 228
164 192 228
164 192 228
164 192 228
164 192 228
164 192 228
163 192 228
163 192 228
163 192 228
163 192 228
163 192 228
163 192 228
163 192 228
163 192 228
163 192 228
163 192 228
163 192 228
163 192 228
162 192 228
162 192 228
162 192 228
162 192 228
162 192 228
162 192 228
162 192 228
163 192 228
163 192 228
163 192 228
163 192 228
163 192 228
163 192 228
163 192 228
163 192 228
164 192 228
164 192 228
164 192 228
164 193 228
165 193 228
165 193 228
166 193 228
166 193 228
167 194 228
167 194 228
168 194 228
169 195 228
169 195 228
171 196 228
171 196 228
173 197 228
174 198 228
176 199 228
179 200 228
181 202 228
210 229 255
210 229 255
210 229 255
210 229 255
210 229 255
210 229 255
210 229 255
210 229 255
210 229 255
210 229 255
210 229 255
210 229 255
210 229 255
210 229 255
210 229 255
210 229 255
209 229 255
209 229 255
209 229 255
209 229 255
209 229 255
209 229 255
209 229 255
209 229 255
209 229 255
209 229 255
209 229 255
209 229 255
209 229 255
209 229 255
209 229 255
209 229 255
209 229 255
209 229 255
209 229 255
209 229 255
209 229 255
209 229 255
209 229 255
209 229 255
209 229 255
177 198 228
63 99 169
61 98 179
61 98 171
63 100 181
62 98 161
60 97 171
65 101 179
61 97 169
61 99 181
59 95 151
61 96 149
63 99 171
63 99 171
62 98 171
60 97 169
61 98 161
61 98 171
64 101 181
61 98 181
63 100 181
63 99 171
61 97 161
61 97 140
64 101 181
59 96 161
64 100 181
62 99 171
61 97 151
62 99 171
58 92 140
63 99 171
61 98 171
59 95 161
60 97 161
63 99 171
61 97 161
65 101 171
61 99 181
58 93 161
59 96 161
64 101 181
63 99 171
61 98 171
61 97 161
62 99 171
60 97 161
62 98 161
60 95 163
60 94 153
65 101 181
64 100 171
62 99 181
61 98 161
58 93 151
64 101 181
60 93 140
62 99 181
60 95 163
62 97 173
64 100 171
60 96 163
89 118 181
188 209 242
209 229 255
209 229 255
209 229 255
209 229 255
209 229 255
209 229 255
209 229 255
209 229 255
209 229 255
209 229 255
209 229 255
209 229 255
209 229 255
209 229 255
209 229 255
209 229 255
209 229 255
209 229 255
209 229 255
209 229 255
209 229 255
209 229 255
209 229 255
209 229 255
209 229 255
209 229 255
209 229 255
210 229 255
210 229 255
210 229 255
210 229 255
210 229 255
210 229 255
210 229 255
210 229 255
210 229 255
210 229 255
210 229 255
210 229 255
210 229 255
208 225 245
194 198 184
178 173 114
175 172 114
174 171 114
173 170 114
171 170 114
170 169 114
170 169 114
169 169 114
168 168 114
167 168 114
167 168 114
166 167 114
166 167 114
165 167 114
165 167 114
164 167 114
164 167 114
164 167 114
164 166 114
163 166 114
163 166 114
163 166 114
163 166 114
163 166 114
163 166 114
163 166 114
163 166 114
163 166 114
162 166 114
162 166 114
162 166 114
162 166 114
162 166 114
162 166 114
162 166 114
162 166 114
163 166 114
163 166 114
163 166 114
163 166 114
163 166 114
163 166 114
163 166 114
163 166 114
163 166 114
163 166 114
164 166 114
164 166 114
164 166 114
164 167 114
164 167 114
164 167 114
164 167 114
165 167 114
165 167 114
165 167 114
165 167 114
165 167 114
165 167 114
165 167 114
166 167 114
166 167 114
166 167 114
166 168 114
166 168 114
167 168 114
167 168 114
167 168 114
167 168 114
167 168 114
167 168 114
168 168 114
168 168 114
168 168 114
168 168 114
168 169 114
169 169 114
169 169 114
169 169 114
169 169 114
170 169 114
170 169 114
170 169 114
170 169 114
170 169 114
171 169 114
171 170 114
171 170 114
171 170 114
171 170 114
172 170 114
172 170 114
172 170 114
172 170 114
172 170 114
173 170 114
173 171 114
173 171 114
173 171 114
174 171 114
174 171 114
174 171 114
174 171 114
175 171 114
175 171 114
175 171 114
175 172 114
175 172 114
176 172 114
176 172 114
176 172 114
176 172 114
176 172 114
177 172 114
177 172 114
177 173 114
177 173 114
178 173 114
178 173 114
178 173 114
178 173 114
179 173 114
179 173 114
179 173 114
179 174 114
180 174 114
180 201 228
180 201 228
179 200 228
179 200 228
179 200 228
179 200 228
178 200 228
178 200 228
178 200 228
178 200 228
177 199 228
177 199 228
177 199 228
177 199 228
177 199 228
176 199 228
176 199 228
176 199 228
176 198 228
175 198 228
175 198 228
175 198 228
175 198 228
175 198 228
174 198 228
174 198 228
174 197 228
174 197 228
173 197 228
173 197 228
173 197 228
173 197 228
173 197 228
172 197 228
172 197 228
172 197 228
172 196 228
172 196 228
171 196 228
171 196 228
171 196 228
171 196 228
171 196 228
170 196 228
170 196 228
170 195 228
170 195 228
169 195 228
169 195 228
169 195 228
169 195 228
169 195 228
168 195 228
168 195 228
168 195 228
168 194 228
168 194 228
168 194 228
167 194 228
167 194 228
167 194 228
167 194 228
167 194 228
166 194 228
166 194 228
166 193 228
166 193 228
166 193 228
166 193 228
165 193 228
165 193 228
165 193 228
165 193 228
165 193 228
165 193 228
165 193 228
164 193 228
164 193 228
164 192 228
164 192 228
164 192 228
164 192 228
164 192 228
164 192 228
163 192 228
163 192 228
163 192 228
163 192 228
163 192 228
163 192 228
163 192 228
163 192 228
163 192 228
163 192 228
163 192 228
163 192 228
163 192 228
163 192 228
163 192 228
163 192 228
163 192 228
163 192 228
163 192 228
163 192 228
163 192 228
163 192 228
164 192 228
164 192 228
164 192 228
164 192 228
164 193 228
165 193 228
165 193 228
165 193 228
166 193 228
166 194 228
167 194 228
167 194 228
168 195 228
169 195 228
170 195 228
170 196 228
172 196 228
173 197 228
174 198 228
176 199 228
177 199 228
185 205 231
203 222 248
210 229 255
210 229 255
210 229 255
210 229 255
210 229 255
210 229 255
210 229 255
210 229 255
210 229 255
210 229 255
210 229 255
210 229 255
210 229 255
210 229 255
210 229 255
210 229 255
210 229 255
210 229 255
210 229 255
210 229 255
209 229 255
209 229 255
209 229 255
209 229 255
209 229 255
209 229 255
209 229 255
209 229 255
209 229 255
209 229 255
209 229 255
209 229 255
209 229 255
209 229 255
209 229 255
209 229 255
209 229 255
209 229 255
178 199 234
60 97 177
61 98 181
60 96 159
60 96 161
61 97 161
63 99 161
62 98 171
62 99 171
63 99 171
59 96 159
63 100 181
62 97 151
64 100 171
61 97 151
63 99 161
62 98 161
64 100 171
59 95 159
65 101 171
61 98 161
62 98 161
62 99 171
63 100 171
61 96 151
63 99 171
63 99 171
61 97 161
64 101 181
62 99 181
61 98 171
64 101 181
59 95 151
60 95 140
61 96 171
63 99 171
64 100 171
61 98 171
61 97 161
62 98 161
62 99 181
64 101 181
61 97 151
60 97 161
61 98 171
61 98 171
62 99 181
61 97 161
61 97 161
59 94 151
60 95 161
63 97 163
61 98 181
61 98 171
62 98 161
60 97 171
61 98 171
62 98 173
61 98 171
62 99 171
62 98 173
63 99 171
63 100 171
61 98 161
64 100 171
166 186 215
209 229 255
209 229 255
209 229 255
209 229 255
209 229 255
209 229 255
209 229 255
209 229 255
209 229 255
209 229 255
209 229 255
209 229 255
209 229 255
209 229 255
209 229 255
209 229 255
209 229 255
210 229 255
210 229 255
210 229 255
210 229 255
210 229 255
210 229 255
210 229 255
210 229 255
210 229 255
210 229 255
210 229 255
210 229 255
210 229 255
210 229 255
210 229 255
210 229 255
210 229 255
210 229 255
210 229 255
210 229 255
210 229 255
210 229 255
185 181 135
178 173 114
176 172 114
174 171 114
173 171 114
171 170 114
170 169 114
169 169 114
169 169 114
168 168 114
167 168 114
167 168 114
166 168 114
166 167 114
165 167 114
165 167 114
165 167 114
164 167 114
164 167 114
164 167 114
164 166 114
164 166 114
163 166 114
163 166 114
163 166 114
163 166 114
163 166 114
163 166 114
163 166 114
163 166 114
163 166 114
163 166 114
163 166 114
163 166 114
163 166 114
163 166 114
163 166 114
163 166 114
163 166 114
163 166 114
163 166 114
163 166 114
163 166 114
163 166 114
164 166 114
164 166 114
164 166 114
164 166 114
164 167 114
164 167 114
164 167 114
164 167 114
165 167 114
165 167 114
165 167 114
165 167 114
165 167 114
165 167 114
165 167 114
166 167 114
166 167 114
166 167 114
166 168 114
166 168 114
166 168 114
167 168 114
167 168 114
167 168 114
167 168 114
167 168 114
167 168 114
168 168 114
168 168 114
168 168 114
168 168 114
169 169 114
169 169 114
169 169 114
169 169 114
169 169 114
170 169 114
170 169 114
170 169 114
170 169 114
170 169 114
171 169 114
171 170 114
171 170 114
171 170 114
171 170 114
172 170 114
172 170 114
172 170 114
172 170 114
172 170 114
173 170 114
173 171 114
173 171 114
173 171 114
173 171 114
174 171 114
174 171 114
174 171 114
174 171 114
175 171 114
175 171 114
175 172 114
175 172 114
175 172 114
176 172 114
176 172 114
176 172 114
176 172 114
177 172 114
177 172 114
177 172 114
177 173 114
177 173 114
178 173 114
178 173 114
178 173 114
178 173 114
179 173 114
179 173 114
179 173 114
179 174 114
180 174 114
180 174 114
180 201 228
180 201 228
180 201 228
179 200 228
179 200 228
179 200 228
179 200 228
178 200 228
178 200 228
178 200 228
178 200 228
178 199 228
177 199 228
177 199 228
177 199 228
177 199 228
176 199 228
176 199 228
176 199 228
176 199 228
176 198 228
175 198 228
175 198 228
175 198 228
175 198 228
174 198 228
174 198 228
174 198 228
174 197 228
174 197 228
174 197 228
173 197 228
173 197 228
173 197 228
173 197 228
172 197 228
172 197 228
172 196 228
172 196 228
172 196 228
171 196 228
171 196 228
171 196 228
171 196 228
171 196 228
170 196 228
170 196 228
170 196 228
170 195 228
170 195 228
169 195 228
169 195 228
169 195 228
169 195 228
169 195 228
169 195 228
168 195 228
168 194 228
168 194 228
168 194 228
167 194 228
167 194 228
167 194 228
167 194 228
167 194 228
167 194 228
166 194 228
166 194 228
166 194 228
166 193 228
166 193 228
166 193 228
166 193 228
165 193 228
165 193 228
165 193 228
165 193 228
165 193 228
165 193 228
165 193 228
164 193 228
164 193 228
164 192 228
164 192 228
164 192 228
164 192 228
164 192 228
164 192 228
164 192 228
163 192 228
163 192 228
163 192 228
163 192 228
163 192 228
163 192 228
163 192 228
163 192 228
163 192 228
163 192 228
163 192 228
163 192 228
163 192 228
163 192 228
163 192 228
163 192 228
164 192 228
164 192 228
164 192 228
164 192 228
164 193 228
165 193 228
165 193 228
165 193 228
165 193 228
166 193 228
166 193 228
167 194 228
167 194 228
168 194 228
168 195 228
169 195 228
170 195 228
170 196 228
172 196 228
173 197 228
174 198 228
177 199 228
178 200 228
182 202 228
208 227 253
210 230 255
210 230 255
210 230 255
210 229 255
210 229 255
210 229 255
210 229 255
210 229 255
210 229 255
210 229 255
210 229 255
210 229 255
210 229 255
210 229 255
210 229 255
210 229 255
210 229 255
210 229 255
210 229 255
210 229 255
210 229 255
210 229 255
210 229 255
210 229 255
210 229 255
210 229 255
210 229 255
210 229 255
209 229 255
209 229 255
209 229 255
209 229 255
209 229 255
209 229 255
209 229 255
209 229 255
108 135 196
62 99 171
59 94 173
62 99 171
63 100 179
61 98 161
63 99 171
60 98 181
63 100 179
61 97 169
61 98 169
61 98 169
58 94 140
63 99 171
62 98 171
62 98 171
64 101 181
60 97 169
62 97 151
63 98 161
65 101 181
58 92 140
60 95 140
65 101 171
65 101 171
65 101 181
63 99 169
60 95 128
62 99 171
59 95 151
62 98 161
62 99 181
58 95 159
64 100 171
59 96 161
61 97 151
66 102 171
62 99 171
61 99 181
64 100 161
57 91 117
63 98 163
61 98 171
63 100 181
64 99 161
64 100 171
64 99 173
62 99 171
61 97 161
64 101 181
61 98 171
64 100 171
61 98 171
64 99 173
58 93 161
63 99 171
59 96 161
62 97 163
62 98 161
63 98 140
63 100 181
63 100 181
61 98 171
62 96 165
61 97 161
61 97 161
61 96 153
167 188 228
209 229 255
209 229 255
209 229 255
209 229 255
209 229 255
209 229 255
209 229 255
209 229 255
209 229 255
210 229 255
210 229 255
210 229 255
210 229 255
210 229 255
210 229 255
210 229 255
210 229 255
210 229 255
210 229 255
210 229 255
210 229 255
210 229 255
210 229 255
210 229 255
210 229 255
210 229 255
210 229 255
210 229 255
210 229 255
210 229 255
210 229 255
210 229 255
210 229 255
210 230 255
210 230 255
210 230 255
201 210 211
182 175 114
179 173 114
176 172 114
175 171 114
173 171 114
172 170 114
170 169 114
170 169 114
169 169 114
168 168 114
168 168 114
167 168 114
167 168 114
166 167 114
166 167 114
165 167 114
165 167 114
165 167 114
164 167 114
164 167 114
164 167 114
164 166 114
164 166 114
164 166 114
164 166 114
163 166 114
163 166 114
163 166 114
163 166 114
163 166 114
163 166 114
163 166 114
163 166 114
163 166 114
163 166 114
163 166 114
163 166 114
163 166 114
163 166 114
163 166 114
164 166 114
164 166 114
164 166 114
164 166 114
164 167 114
164 167 114
164 167 114
164 167 114
164 167 114
165 167 114
165 167 114
165 167 114
165 167 114
165 167 114
165 167 114
165 167 114
165 167 114
166 167 114
166 167 114
166 167 114
166 168 114
166 168 114
167 168 114
167 168 114
167 168 114
167 168 114
167 168 114
167 168 114
167 168 114
168 168 114
168 168 114
168 168 114
168 168 114
168 169 114
169 169 114
169 169 114
169 169 114
169 169 114
169 169 114
170 169 114
170 169 114
170 169 114
170 169 114
170 169 114
171 170 114
171 170 114
171 170 114
171 170 114
171 170 114
172 170 114
172 170 114
172 170 114
172 170 114
172 170 114
173 170 114
173 171 114
173 171 114
173 171 114
173 171 114
174 171 114
174 171 114
174 171 114
174 171 114
175 171 114
175 171 114
175 171 114
175 172 114
175 172 114
176 172 114
176 172 114
176 172 114
176 172 114
176 172 114
177 172 114
177 172 114
177 172 114
177 173 114
178 173 114
178 173 114
178 173 114
178 173 114
178 173 114
179 173 114
179 173 114
179 173 114
179 174 114
180 174 114
180 174 114
180 174 114
180 201 228
180 201 228
180 201 228
180 201 228
179 200 228
179 200 228
179 200 228
179 200 228
178 200 228
178 200 228
178 200 228
178 200 228
178 199 228
177 199 228
177 199 228
177 199 228
177 199 228
177 199 228
176 199 228
176 199 228
176 199 228
176 199 228
176 198 228
175 198 228
175 198 228
175 198 228
175 198 228
174 198 228
174 198 228
174 198 228
174 198 228
174 197 228
173 197 228
173 197 228
173 197 228
173 197 228
173 197 228
172 197 228
172 197 228
172 197 228
172 196 228
172 196 228
171 196 228
171 196 228
171 196 228
171 196 228
171 196 228
170 196 228
170 196 228
170 196 228
170 195 228
170 195 228
169 195 228
169 195 228
169 195 228
169 195 228
169 195 228
169 195 228
168 195 228
168 195 228
168 194 228
168 194 228
168 194 228
168 194 228
167 194 228
167 194 228
167 194 228
167 194 228
167 194 228
167 194 228
166 194 228
166 193 228
166 193 228
166 193 228
166 193 228
166 193 228
165 193 228
165 193 228
165 193 228
165 193 228
165 193 228
165 193 228
165 193 228
165 193 228
164 193 228
164 193 228
164 193 228
164 192 228
164 192 228
164 192 228
164 192 228
164 192 228
164 192 228
164 192 228
164 192 228
164 192 228
164 192 228
164 192 228
164 192 228
164 192 228
164 192 228
164 192 228
164 192 228
164 192 228
164 192 228
164 192 228
164 192 228
164 192 228
164 193 228
164 193 228
165 193 228
165 193 228
165 193 228
165 193 228
166 193 228
166 193 228
166 194 228
167 194 228
167 194 228
168 194 228
169 195 228
169 195 228
170 195 228
171 196 228
172 196 228
173 197 228
174 198 228
176 199 228
178 200 228
181 202 228
198 217 242
211 230 255
211 230 255
211 230 255
211 230 255
210 230 255
211 230 255
210 230 255
210 230 255
210 230 255
210 229 255
210 229 255
210 229 255
210 229 255
210 229 255
210 229 255
210 229 255
210 229 255
210 229 255
210 229 255
210 229 255
210 229 255
210 229 255
210 229 255
210 229 255
210 229 255
210 229 255
210 229 255
210 229 255
210 229 255
210 229 255
210 229 255
210 229 255
210 229 255
210 229 255
88 117 171
59 96 167
60 96 151
61 97 175
62 99 171
64 101 181
62 97 159
62 98 151
62 98 159
62 97 149
63 100 171
63 99 171
63 99 161
62 100 181
61 97 151
59 96 161
60 96 149
65 101 181
61 97 169
63 99 171
61 98 171
65 100 161
60 97 171
61 97 151
64 100 171
60 96 151
61 98 171
60 94 151
64 100 161
63 99 171
62 98 161
63 99 171
63 100 171
62 99 171
63 99 171
60 96 161
62 99 181
61 96 171
58 93 128
61 98 171
65 101 171
61 96 151
63 99 171
60 96 161
65 101 171
59 96 151
59 96 171
62 98 161
63 100 181
63 100 171
63 99 171
61 95 155
58 93 163
64 98 161
64 99 173
63 99 171
62 97 173
58 93 161
58 94 140
62 97 151
61 97 151
63 99 173
61 97 151
61 97 151
58 87 122
62 99 181
60 96 163
62 97 171
60 96 163
109 135 189
200 219 249
210 229 255
210 229 255
210 229 255
210 229 255
210 229 255
210 229 255
210 229 255
210 229 255
210 229 255
210 229 255
210 229 255
210 229 255
210 229 255
210 229 255
210 229 255
210 229 255
210 229 255
210 229 255
210 229 255
210 229 255
210 229 255
210 229 255
210 229 255
210 229 255
210 229 255
210 230 255
210 230 255
210 230 255
211 230 255
211 230 255
211 230 255
211 230 255
211 230 255
201 210 211
181 174 114
178 173 114
176 172 114
174 171 114
173 171 114
172 170 114
171 170 114
170 169 114
169 169 114
169 169 114
168 168 114
167 168 114
167 168 114
166 168 114
166 167 114
166 167 114
165 167 114
165 167 114
165 167 114
165 167 114
165 167 114
164 167 114
164 167 114
164 167 114
164 167 114
164 166 114
164 166 114
164 166 114
164 166 114
164 166 114
164 166 114
164 166 114
164 166 114
164 166 114
164 166 114
164 166 114
164 166 114
164 166 114
164 166 114
164 167 114
164 167 114
164 167 114
164 167 114
164 167 114
164 167 114
164 167 114
165 167 114
165 167 114
165 167 114
165 167 114
165 167 114
165 167 114
165 167 114
165 167 114
166 167 114
166 167 114
166 167 114
166 167 114
166 168 114
166 168 114
167 168 114
167 168 114
167 168 114
167 168 114
167 168 114
167 168 114
168 168 114
168 168 114
168 168 114
168 168 114
168 168 114
168 169 114
169 169 114
169 169 114
169 169 114
169 169 114
169 169 114
170 169 114
170 169 114
170 169 114
170 169 114
170 169 114
171 169 114
171 170 114
171 170 114
171 170 114
171 170 114
171 170 114
172 170 114
172 170 114
172 170 114
172 170 114
172 170 114
173 170 114
173 171 114
173 171 114
173 171 114
173 171 114
174 171 114
174 171 114
174 171 114
174 171 114
174 171 114
175 171 114
175 171 114
175 172 114
175 172 114
176 172 114
176 172 114
176 172 114
176 172 114
176 172 114
177 172 114
177 172 114
177 172 114
177 173 114
177 173 114
178 173 114
178 173 114
178 173 114
178 173 114
178 173 114
179 173 114
179 173 114
179 173 114
179 174 114
180 174 114
180 174 114
180 174 114
180 174 114
181 201 228
180 201 228
180 201 228
180 201 228
180 201 228
179 201 228
179 200 228
179 200 228
179 200 228
179 200 228
178 200 228
178 200 228
178 200 228
178 200 228
178 199 228
177 199 228
177 199 228
177 199 228
177 199 228
177 199 228
176 199 228
176 199 228
176 199 228
176 198 228
176 198 228
175 198 228
175 198 228
175 198 228
175 198 228
175 198 228
174 198 228
174 198 228
174 198 228
174 197 228
174 197 228
173 197 228
173 197 228
173 197 228
173 197 228
173 197 228
172 197 228
172 197 228
172 197 228
172 196 228
172 196 228
171 196 228
171 196 228
171 196 228
171 196 228
171 196 228
170 196 228
170 196 228
170 195 228
170 195 228
170 195 228
169 195 228
169 195 228
169 195 228
169 195 228
169 195 228
169 195 228
168 195 228
168 195 228
168 194 228
168 194 228
168 194 228
168 194 228
167 194 228
167 194 228
167 194 228
167 194 228
167 194 228
167 194 228
166 194 228
166 194 228
166 193 228
166 193 228
166 193 228
166 193 228
166 193 228
166 193 228
165 193 228
165 193 228
165 193 228
165 193 228
165 193 228
165 193 228
165 193 228
165 193 228
165 193 228
164 193 228
164 193 228
164 193 228
164 193 228
164 193 228
164 192 228
164 192 228
164 192 228
164 192 228
164 192 228
164 192 228
164 192 228
164 192 228
164 193 228
164 192 228
164 193 228
164 193 228
164 193 228
165 193 228
165 193 228
165 193 228
165 193 228
165 193 228
166 193 228
166 193 228
166 193 228
166 194 228
167 194 228
167 194 228
168 194 228
168 195 228
169 195 228
169 195 228
170 196 228
171 196 228
172 197 228
173 197 228
174 198 228
176 199 228
178 200 228
181 201 228
204 222 248
211 230 255
211 230 255
211 230 255
211 230 255
211 230 255
211 230 255
211 230 255
211 230 255
211 230 255
211 230 255
211 230 255
211 230 255
210 230 255
210 230 255
210 230 255
210 230 255
210 229 255
210 229 255
210 229 255
210 229 255
210 229 255
210 229 255
210 229 255
210 229 255
210 229 255
210 229 255
210 229 255
210 229 255
210 229 255
210 229 255
210 229 255
210 229 255
87 116 184
62 99 181
59 94 135
65 101 171
63 99 179
59 95 149
61 98 181
63 99 179
60 96 151
57 93 157
62 98 169
64 101 181
63 99 171
61 96 157
62 99 171
63 99 169
62 98 161
62 98 151
65 101 179
63 100 171
61 97 161
61 96 140
63 99 171
62 98 161
63 99 179
62 98 171
62 98 161
65 101 181
64 100 181
62 99 171
65 101 171
62 98 171
58 91 114
60 97 161
64 101 181
64 100 171
57 94 151
61 97 161
62 99 171
61 97 151
60 96 151
60 96 151
61 97 151
62 98 161
60 97 161
62 99 171
62 99 171
62 98 161
62 98 161
62 99 171
63 99 161
62 98 171
64 100 171
63 99 161
60 94 142
63 98 173
64 100 171
61 96 163
62 98 161
60 96 161
62 98 171
60 95 153
63 99 171
61 96 161
62 98 173
61 96 153
62 98 171
60 93 157
55 86 117
64 101 181
61 95 165
60 94 155
200 220 249
210 229 255
210 229 255
210 229 255
210 229 255
210 229 255
210 229 255
210 229 255
210 229 255
210 229 255
210 229 255
210 229 255
210 229 255
210 229 255
210 229 255
210 229 255
210 229 255
210 230 255
210 230 255
210 230 255
211 230 255
211 230 255
211 230 255
211 230 255
211 230 255
211 230 255
211 230 255
211 230 255
211 230 255
211 230 255
211 230 255
211 230 255
203 215 223
182 175 114
178 173 114
176 172 114
175 171 114
173 171 114
172 170 114
171 170 114
170 169 114
170 169 114
169 169 114
168 168 114
168 168 114
167 168 114
167 168 114
166 168 114
166 168 114
166 167 114
166 167 114
165 167 114
165 167 114
165 167 114
165 167 114
165 167 114
165 167 114
164 167 114
164 167 114
164 167 114
164 167 114
164 167 114
164 167 114
164 167 114
164 167 114
164 167 114
164 167 114
164 167 114
164 167 114
164 167 114
164 167 114
164 167 114
164 167 114
164 167 114
165 167 114
165 167 114
165 167 114
165 167 114
165 167 114
165 167 114
165 167 114
165 167 114
165 167 114
166 167 114
166 167 114
166 167 114
166 167 114
166 167 114
166 168 114
166 168 114
166 168 114
167 168 114
167 168 114
167 168 114
167 168 114
167 168 114
167 168 114
168 168 114
168 168 114
168 168 114
168 168 114
168 168 114
168 169 114
169 169 114
169 169 114
169 169 114
169 169 114
169 169 114
169 169 114
170 169 114
170 169 114
170 169 114
170 169 114
170 169 114
171 170 114
171 170 114
171 170 114
171 170 114
171 170 114
172 170 114
172 170 114
172 170 114
172 170 114
172 170 114
173 170 114
173 170 114
173 171 114
173 171 114
173 171 114
173 171 114
174 171 114
174 171 114
174 171 114
174 171 114
175 171 114
175 171 114
175 171 114
175 172 114
175 172 114
175 172 114
176 172 114
176 172 114
176 172 114
176 172 114
176 172 114
177 172 114
177 172 114
177 173 114
177 173 114
178 173 114
178 173 114
178 173 114
178 173 114
178 173 114
179 173 114
179 173 114
179 173 114
179 173 114
179 174 114
180 174 114
180 174 114
180 174 114
180 174 114
181 174 114
181 201 228
181 201 228
180 201 228
180 201 228
180 201 228
180 201 228
179 201 228
179 200 228
179 200 228
179 200 228
179 200 228
178 200 228
178 200 228
178 200 228
178 200 228
178 200 228
178 199 228
177 199 228
177 199 228
177 199 228
177 199 228
177 199 228
176 199 228
176 199 228
176 199 228
176 198 228
176 198 228
175 198 228
175 198 228
175 198 228
175 198 228
175 198 228
174 198 228
174 198 228
174 198 228
174 198 228
174 197 228
173 197 228
173 197 228
173 197 228
173 197 228
173 197 228
173 197 228
172 197 228
172 197 228
172 196 228
172 196 228
172 196 228
171 196 228
171 196 228
171 196 228
171 196 228
171 196 228
170 196 228
170 196 228
170 196 228
170 195 228
170 195 228
170 195 228
169 195 228
169 195 228
169 195 228
169 195 228
169 195 228
168 195 228
168 195 228
168 195 228
168 194 228
168 194 228
168 194 228
168 194 228
167 194 228
167 194 228
167 194 228
167 194 228
167 194 228
167 194 228
166 194 228
166 194 228
166 194 228
166 193 228
166 193 228
166 193 228
166 193 228
166 193 228
166 193 228
165 193 228
165 193 228
165 193 228
165 193 228
165 193 228
165 193 228
165 193 228
165 193 228
165 193 228
165 193 228
165 193 228
165 193 228
165 193 228
165 193 228
165 193 228
165 193 228
165 193 228
165 193 228
165 193 228
165 193 228
165 193 228
165 193 228
165 193 228
165 193 228
165 193 228
165 193 228
166 193 228
166 193 228
166 193 228
166 194 228
167 194 228
167 194 228
167 194 228
168 194 228
168 195 228
169 195 228
169 195 228
170 196 228
171 196 228
172 196 228
173 197 228
174 197 228
175 198 228
177 199 228
179 200 228
181 202 228
203 222 248
211 230 255
211 230 255
211 230 255
211 230 255
211 230 255
211 230 255
211 230 255
211 230 255
211 230 255
211 230 255
211 230 255
211 230 255
211 230 255
211 230 255
211 230 255
211 230 255
211 230 255
211 230 255
211 230 255
211 230 255
210 230 255
210 230 255
210 230 255
210 229 255
210 229 255
210 229 255
210 229 255
210 229 255
210 229 255
190 210 242
88 117 181
62 98 177
63 99 179
60 95 169
63 98 169
61 98 181
60 95 157
62 98 179
61 97 159
60 96 169
59 95 140
60 97 171
62 97 151
59 95 140
63 99 161
59 94 161
63 100 181
62 98 169
61 97 151
63 98 151
62 98 161
65 101 181
62 98 161
62 98 171
64 100 171
64 100 171
65 101 171
64 100 181
61 96 128
63 99 171
61 97 151
63 99 171
60 96 151
62 97 151
63 99 161
63 99 161
61 98 171
64 101 181
61 99 181
56 90 114
61 97 161
62 98 151
64 100 171
56 91 128
65 101 171
62 98 161
61 97 161
63 99 151
62 97 151
63 99 161
57 92 151
64 98 163
62 99 171
62 98 161
61 98 171
59 95 171
60 97 161
58 93 161
61 96 163
58 91 142
59 94 140
63 98 151
61 98 181
62 97 163
61 95 155
64 99 173
62 99 181
61 97 161
58 90 135
60 96 163
61 98 171
59 96 173
58 91 144
108 132 175
200 220 249
210 229 255
210 229 255
210 229 255
210 229 255
210 229 255
210 229 255
210 229 255
210 230 255
210 230 255
211 230 255
210 230 255
211 230 255
211 230 255
211 230 255
211 230 255
211 230 255
211 230 255
211 230 255
211 230 255
211 230 255
211 230 255
211 230 255
211 230 255
211 230 255
211 230 255
211 230 255
211 230 255
211 230 255
211 230 255
199 205 198
182 175 114
179 173 114
177 172 114
175 172 114
174 171 114
172 170 114
172 170 114
171 170 114
170 169 114
169 169 114
169 169 114
168 168 114
168 168 114
167 168 114
167 168 114
167 168 114
166 168 114
166 167 114
166 167 114
166 167 114
165 167 114
165 167 114
165 167 114
165 167 114
165 167 114
165 167 114
165 167 114
165 167 114
165 167 114
165 167 114
165 167 114
165 167 114
165 167 114
165 167 114
165 167 114
165 167 114
165 167 114
165 167 114
165 167 114
165 167 114
165 167 114
165 167 114
165 167 114
165 167 114
165 167 114
165 167 114
165 167 114
166 167 114
166 167 114
166 167 114
166 167 114
166 168 114
166 168 114
166 168 114
167 168 114
167 168 114
167 168 114
167 168 114
167 168 114
167 168 114
167 168 114
168 168 114
168 168 114
168 168 114
168 168 114
168 168 114
168 168 114
168 169 114
169 169 114
169 169 114
169 169 114
169 169 114
169 169 114
170 169 114
170 169 114
170 169 114
170 169 114
170 169 114
170 169 114
171 170 114
171 170 114
171 170 114
171 170 114
171 170 114
171 170 114
172 170 114
172 170 114
172 170 114
172 170 114
172 170 114
173 170 114
173 171 114
173 171 114
173 171 114
173 171 114
174 171 114
174 171 114
174 171 114
174 171 114
174 171 114
175 171 114
175 171 114
175 171 114
175 172 114
175 172 114
176 172 114
176 172 114
176 172 114
176 172 114
176 172 114
177 172 114
177 172 114
177 172 114
177 172 114
177 173 114
178 173 114
178 173 114
178 173 114
178 173 114
178 173 114
179 173 114
179 173 114
179 173 114
179 173 114
179 174 114
180 174 114
180 174 114
180 174 114
180 174 114
180 174 114
181 174 114
181 174 114
181 201 228
181 201 228
181 201 228
180 201 228
180 201 228
180 201 228
180 201 228
180 201 228
180 201 228
179 200 228
179 200 228
179 200 228
179 200 228
178 200 228
178 200 228
178 200 228
178 200 228
178 200 228
178 199 228
177 199 228
177 199 228
177 199 228
177 199 228
177 199 228
176 199 228
176 199 228
176 199 228
176 199 228
176 198 228
175 198 228
175 198 228
175 198 228
175 198 228
175 198 228
174 198 228
174 198 228
174 198 228
174 198 228
174 197 228
174 197 228
173 197 228
173 197 228
173 197 228
173 197 228
173 197 228
172 197 228
172 197 228
172 197 228
172 197 228
172 196 228
172 196 228
171 196 228
171 196 228
171 196 228
171 196 228
171 196 228
171 196 228
170 196 228
170 196 228
170 195 228
170 195 228
170 195 228
170 195 228
169 195 228
169 195 228
169 195 228
169 195 228
169 195 228
169 195 228
168 195 228
168 195 228
168 194 228
168 194 228
168 194 228
168 194 228
168 194 228
167 194 228
167 194 228
167 194 228
167 194 228
167 194 228
167 194 228
166 194 228
166 194 228
166 194 228
166 193 228
166 193 228
166 193 228
166 193 228
166 193 228
166 193 228
166 193 228
166 193 228
165 193 228
165 193 228
165 193 228
165 193 228
165 193 228
165 193 228
165 193 228
165 193 228
165 193 228
165 193 228
165 193 228
165 193 228
165 193 228
165 193 228
165 193 228
165 193 228
166 193 228
166 193 228
166 193 228
166 193 228
166 194 228
166 194 228
167 194 228
167 194 228
167 194 228
167 194 228
168 194 228
168 195 228
169 195 228
169 195 228
170 195 228
170 196 228
171 196 228
172 197 228
173 197 228
174 197 228
175 198 228
177 199 228
179 200 228
181 202 228
199 217 242
211 230 255
211 230 255
211 230 255
211 230 255
211 230 255
211 230 255
211 230 255
211 230 255
211 230 255
211 230 255
211 230 255
211 230 255
211 230 255
211 230 255
211 230 255
211 230 255
211 230 255
211 230 255
211 230 255
211 230 255
211 230 255
211 230 255
211 230 255
211 230 255
211 230 255
211 230 255
211 230 255
210 230 255
108 133 191
61 98 171
60 97 169
60 96 165
61 97 169
61 98 171
63 98 159
61 97 175
61 97 161
62 99 171
64 99 161
63 99 171
62 98 161
62 98 161
63 99 161
58 94 157
62 98 169
61 97 161
60 96 151
59 96 161
63 99 171
57 92 128
59 94 135
63 100 181
61 96 128
63 98 159
60 97 161
63 99 159
57 91 128
62 97 151
62 98 161
64 100 171
61 98 171
61 96 140
61 97 151
61 96 151
64 99 173
63 100 181
64 100 171
61 98 161
60 96 151
63 100 171
61 97 161
59 95 140
63 98 163
64 100 171
63 98 161
61 98 161
60 96 151
60 96 140
61 97 151
62 98 161
62 96 151
64 100 181
60 97 161
62 98 161
59 96 161
65 101 171
63 99 173
59 94 128
60 95 140
62 98 151
62 97 173
61 97 173
61 97 151
61 95 153
61 96 163
62 98 161
62 95 144
61 96 163
62 98 171
61 96 163
61 98 171
60 94 155
61 96 153
86 112 167
211 230 255
210 230 255
211 230 255
211 230 255
211 230 255
211 230 255
211 230 255
211 230 255
211 230 255
211 230 255
211 230 255
211 230 255
211 230 255
211 230 255
211 230 255
211 230 255
211 230 255
211 230 255
211 230 255
211 230 255
211 230 255
211 230 255
211 230 255
211 230 255
211 230 255
211 230 255
211 230 255
211 230 255
199 205 198
181 175 114
179 173 114
177 172 114
176 172 114
174 171 114
173 170 114
172 170 114
171 170 114
171 169 114
170 169 114
169 169 114
169 169 114
168 168 114
168 168 114
168 168 114
167 168 114
167 168 114
167 168 114
166 168 114
166 168 114
166 167 114
166 167 114
166 167 114
166 167 114
165 167 114
165 167 114
165 167 114
165 167 114
165 167 114
165 167 114
165 167 114
165 167 114
165 167 114
165 167 114
165 167 114
165 167 114
165 167 114
165 167 114
165 167 114
165 167 114
166 167 114
166 167 114
166 167 114
166 167 114
166 167 114
166 167 114
166 167 114
166 168 114
166 168 114
166 168 114
167 168 114
167 168 114
167 168 114
167 168 114
167 168 114
167 168 114
167 168 114
167 168 114
168 168 114
168 168 114
168 168 114
168 168 114
168 168 114
168 168 114
169 169 114
169 169 114
169 169 114
169 169 114
169 169 114
169 169 114
170 169 114
170 169 114
170 169 114
170 169 114
170 169 114
170 169 114
170 169 114
171 170 114
171 170 114
171 170 114
171 170 114
171 170 114
172 170 114
172 170 114
172 170 114
172 170 114
172 170 114
172 170 114
173 170 114
173 170 114
173 171 114
173 171 114
173 171 114
174 171 114
174 171 114
174 171 114
174 171 114
174 171 114
174 171 114
175 171 114
175 171 114
175 172 114
175 172 114
175 172 114
176 172 114
176 172 114
176 172 114
176 172 114
176 172 114
177 172 114
177 172 114
177 172 114
177 173 114
177 173 114
178 173 114
178 173 114
178 173 114
178 173 114
178 173 114
179 173 114
179 173 114
179 173 114
179 173 114
179 173 114
180 174 114
180 174 114
180 174 114
180 174 114
180 174 114
180 174 114
181 174 114
181 174 114
181 174 114
181 202 228
181 201 228
181 201 228
181 201 228
181 201 228
180 201 228
180 201 228
180 201 228
180 201 228
180 201 228
179 200 228
179 200 228
179 200 228
179 200 228
179 200 228
178 200 228
178 200 228
178 200 228
178 200 228
178 200 228
178 199 228
177 199 228
177 199 228
177 199 228
177 199 228
177 199 228
176 199 228
176 199 228
176 199 228
176 199 228
176 199 228
176 198 228
175 198 228
175 198 228
175 198 228
175 198 228
175 198 228
174 198 228
174 198 228
174 198 228
174 197 228
174 197 228
174 197 228
174 197 228
173 197 228
173 197 228
173 197 228
173 197 228
172 197 228
172 197 228
172 197 228
172 197 228
172 196 228
172 196 228
172 196 228
171 196 228
171 196 228
171 196 228
171 196 228
171 196 228
171 196 228
170 196 228
170 196 228
170 195 228
170 195 228
170 195 228
169 195 228
169 195 228
169 195 228
169 195 228
169 195 228
169 195 228
169 195 228
168 195 228
168 195 228
168 194 228
168 194 228
168 194 228
168 194 228
167 194 228
167 194 228
167 194 228
167 194 228
167 194 228
167 194 228
167 194 228
167 194 228
167 194 228
167 194 228
166 194 228
166 194 228
166 194 228
166 193 228
166 193 228
166 193 228
166 193 228
166 193 228
166 193 228
166 193 228
166 193 228
166 193 228
166 193 228
166 193 228
166 193 228
166 193 228
166 193 228
166 193 228
166 193 228
166 193 228
166 193 228
166 194 228
166 194 228
167 194 228
167 194 228
167 194 228
167 194 228
167 194 228
167 194 228
168 194 228
168 194 228
168 195 228
169 195 228
169 195 228
170 195 228
170 196 228
171 196 228
172 196 228
172 197 228
174 197 228
174 198 228
176 198 228
178 200 228
179 200 228
183 202 228
194 212 237
212 230 255
212 230 255
212 230 255
212 230 255
211 230 255
211 230 255
211 230 255
211 230 255
211 230 255
211 230 255
211 230 255
211 230 255
211 230 255
211 230 255
211 230 255
211 230 255
211 230 255
211 230 255
211 230 255
211 230 255
211 230 255
211 230 255
211 230 255
211 230 255
211 230 255
211 230 255
126 150 198
60 96 165
61 96 165
61 97 177
61 97 169
60 95 159
64 100 169
60 96 177
57 92 125
62 98 171
63 99 159
62 98 161
59 95 151
61 97 161
58 92 137
61 96 140
63 99 169
63 99 179
62 98 169
61 97 161
63 98 140
61 98 161
60 97 161
63 100 171
61 98 161
63 100 181
63 99 169
63 99 161
63 99 179
60 95 128
62 99 181
62 97 151
61 98 161
61 98 171
62 99 171
61 97 151
65 101 161
60 95 161
60 95 128
63 99 171
61 98 171
62 98 161
62 98 161
62 98 161
59 94 151
65 101 171
68 104 181
61 98 171
61 98 171
64 100 171
60 94 144
66 101 171
63 99 161
63 99 161
63 100 171
62 98 161
63 100 181
60 96 161
62 98 173
61 96 153
59 95 153
60 95 151
63 99 161
60 94 130
64 101 171
60 96 171
60 95 142
62 96 151
60 95 153
62 98 161
59 95 161
62 98 171
60 96 173
60 94 164
60 92 144
63 97 163
58 91 142
141 162 199
201 220 249
211 230 255
211 230 255
211 230 255
211 230 255
211 230 255
211 230 255
211 230 255
211 230 255
211 230 255
211 230 255
211 230 255
211 230 255
211 230 255
211 230 255
211 230 255
211 230 255
211 230 255
211 230 255
211 230 255
211 230 255
211 230 255
211 230 255
212 230 255
212 230 255
212 230 255
202 210 211
182 175 114
179 173 114
177 173 114
175 172 114
175 171 114
173 171 114
172 170 114
172 170 114
171 170 114
170 169 114
170 169 114
169 169 114
169 169 114
168 169 114
168 168 114
168 168 114
167 168 114
167 168 114
167 168 114
167 168 114
167 168 114
166 168 114
166 168 114
166 168 114
166 167 114
166 167 114
166 167 114
166 167 114
166 167 114
166 167 114
166 167 114
166 167 114
166 167 114
166 167 114
166 167 114
166 167 114
166 167 114
166 167 114
166 167 114
166 167 114
166 167 114
166 167 114
166 167 114
166 168 114
166 168 114
167 168 114
167 168 114
167 168 114
167 168 114
167 168 114
167 168 114
167 168 114
167 168 114
167 168 114
167 168 114
168 168 114
168 168 114
168 168 114
168 168 114
168 168 114
168 168 114
168 169 114
169 169 114
169 169 114
169 169 114
169 169 114
169 169 114
169 169 114
170 169 114
170 169 114
170 169 114
170 169 114
170 169 114
170 169 114
171 170 114
171 170 114
171 170 114
171 170 114
171 170 114
171 170 114
172 170 114
172 170 114
172 170 114
172 170 114
172 170 114
173 170 114
173 170 114
173 171 114
173 171 114
173 171 114
173 171 114
174 171 114
174 171 114
174 171 114
174 171 114
174 171 114
175 171 114
175 171 114
175 171 114
175 172 114
175 172 114
175 172 114
175 172 114
176 172 114
176 172 114
176 172 114
176 172 114
176 172 114
177 172 114
177 172 114
177 172 114
177 173 114
177 173 114
178 173 114
178 173 114
178 173 114
178 173 114
178 173 114
179 173 114
179 173 114
179 173 114
179 173 114
179 174 114
179 174 114
180 174 114
180 174 114
180 174 114
180 174 114
180 174 114
181 174 114
181 174 114
181 174 114
181 174 114
181 174 114
182 202 228
182 202 228
181 202 228
181 201 228
181 201 228
181 201 228
181 201 228
180 201 228
180 201 228
180 201 228
180 201 228
180 201 228
179 201 228
179 200 228
179 200 228
179 200 228
179 200 228
179 200 228
178 200 228
178 200 228
178 200 228
178 200 228
178 200 228
177 199 228
177 199 228
177 199 228
177 199 228
177 199 228
177 199 228
176 199 228
176 199 228
176 199 228
176 199 228
176 199 228
176 198 228
175 198 228
175 198 228
175 198 228
175 198 228
175 198 228
175 198 228
174 198 228
174 198 228
174 198 228
174 198 228
174 197 228
173 197 228
173 197 228
173 197 228
173 197 228
173 197 228
173 197 228
172 197 228
172 197 228
172 197 228
172 197 228
172 196 228
171 196 228
171 196 228
171 196 228
171 196 228
171 196 228
171 196 228
171 196 228
170 196 228
170 196 228
170 196 228
170 196 228
170 195 228
170 195 228
170 195 228
169 195 228
169 195 228
169 195 228
169 195 228
169 195 228
169 195 228
168 195 228
168 195 228
168 195 228
168 195 228
168 194 228
168 194 228
168 194 228
168 194 228
168 194 228
167 194 228
167 194 228
167 194 228
167 194 228
167 194 228
167 194 228
167 194 228
167 194 228
167 194 228
167 194 228
167 194 228
167 194 228
167 194 228
166 194 228
166 194 228
166 194 228
166 194 228
166 194 228
166 194 228
166 194 228
166 194 228
167 194 228
167 194 228
167 194 228
167 194 228
167 194 228
167 194 228
167 194 228
167 194 228
167 194 228
168 194 228
168 194 228
168 195 228
168 195 228
169 195 228
169 195 228
169 195 228
170 195 228
170 196 228
171 196 228
172 196 228
172 197 228
173 197 228
174 198 228
175 198 228
176 199 228
178 200 228
180 201 228
182 202 228
202 220 245
212 230 255
212 230 255
212 230 255
212 230 255
212 230 255
212 230 255
212 230 255
212 230 255
212 230 255
212 230 255
212 230 255
212 230 255
211 230 255
211 230 255
211 230 255
211 230 255
211 230 255
211 230 255
211 230 255
211 230 255
211 230 255
211 230 255
211 230 255
211 230 255
191 210 242
61 97 167
60 96 167
63 99 179
61 97 167
60 94 140
59 94 153
60 95 173
60 97 179
59 94 169
61 97 161
61 97 151
62 98 169
59 94 151
57 93 140
63 99 169
64 100 171
62 98 177
60 97 169
63 98 151
64 100 171
65 101 181
60 96 159
61 97 151
60 96 151
63 100 171
62 98 161
62 98 169
63 99 169
63 98 161
61 98 161
60 96 151
63 99 161
64 100 171
61 96 151
63 99 161
62 98 161
62 97 171
63 99 179
61 96 161
61 96 140
64 99 171
60 97 161
62 98 161
64 99 161
62 98 151
65 101 171
60 95 140
61 95 153
58 93 140
63 100 171
64 100 161
63 98 171
60 97 161
62 98 171
63 100 181
62 98 161
65 102 181
65 101 171
60 97 161
62 96 151
65 102 181
64 100 171
62 98 161
64 100 171
61 97 151
61 98 181
62 98 151
64 99 173
64 100 171
63 98 163
61 93 130
62 99 181
61 96 153
58 94 151
61 98 171
62 95 155
60 94 144
59 89 133
126 149 191
211 230 255
211 230 255
211 230 255
211 230 255
211 230 255
211 230 255
211 230 255
211 230 255
211 230 255
211 230 255
211 230 255
211 230 255
211 230 255
212 230 255
212 230 255
212 230 255
212 230 255
212 230 255
212 230 255
212 230 255
212 230 255
212 230 255
212 230 255
212 230 255
207 221 234
183 175 114
180 174 114
178 173 114
176 172 114
175 172 114
174 171 114
173 171 114
172 170 114
172 170 114
171 170 114
170 169 114
170 169 114
169 169 114
169 169 114
169 169 114
168 168 114
168 168 114
168 168 114
168 168 114
167 168 114
167 168 114
167 168 114
167 168 114
167 168 114
167 168 114
167 168 114
167 168 114
166 168 114
166 168 114
166 168 114
166 168 114
166 168 114
166 168 114
166 168 114
166 168 114
166 168 114
166 168 114
166 168 114
167 168 114
167 168 114
167 168 114
167 168 114
167 168 114
167 168 114
167 168 114
167 168 114
167 168 114
167 168 114
168 168 114
168 168 114
168 168 114
168 168 114
168 168 114
168 168 114
168 168 114
168 168 114
169 169 114
168 169 114
169 169 114
169 169 114
169 169 114
169 169 114
169 169 114
169 169 114
170 169 114
170 169 114
170 169 114
170 169 114
170 169 114
170 169 114
170 169 114
171 170 114
171 170 114
171 170 114
171 170 114
171 170 114
171 170 114
172 170 114
172 170 114
172 170 114
172 170 114
172 170 114
172 170 114
173 170 114
173 171 114
173 171 114
173 171 114
173 171 114
174 171 114
174 171 114
174 171 114
174 171 114
174 171 114
174 171 114
175 171 114
175 171 114
175 171 114
175 172 114
175 172 114
175 172 114
176 172 114
176 172 114
176 172 114
176 172 114
176 172 114
176 172 114
177 172 114
177 172 114
177 172 114
177 172 114
177 173 114
177 173 114
178 173 114
178 173 114
178 173 114
178 173 114
178 173 114
179 173 114
179 173 114
179 173 114
179 173 114
179 174 114
180 174 114
180 174 114
180 174 114
180 174 114
180 174 114
180 174 114
181 174 114
181 174 114
181 174 114
181 174 114
181 174 114
182 175 114
182 175 114
182 202 228
182 202 228
182 202 228
182 202 228
181 202 228
181 201 228
181 201 228
181 201 228
181 201 228
180 201 228
180 201 228
180 201 228
180 201 228
180 201 228
180 201 228
179 200 228
179 200 228
179 200 228
179 200 228
179 200 228
178 200 228
178 200 228
178 200 228
178 200 228
178 200 228
178 200 228
178 199 228
177 199 228
177 199 228
177 199 228
177 199 228
177 199 228
176 199 228
176 199 228
176 199 228
176 199 228
176 199 228
176 198 228
175 198 228
175 198 228
175 198 228
175 198 228
175 198 228
175 198 228
174 198 228
174 198 228
174 198 228
174 198 228
174 197 228
174 197 228
173 197 228
173 197 228
173 197 228
173 197 228
173 197 228
173 197 228
172 197 228
172 197 228
172 197 228
172 197 228
172 196 228
172 196 228
172 196 228
171 196 228
171 196 228
171 196 228
171 196 228
171 196 228
170 196 228
170 196 228
170 196 228
170 196 228
170 195 228
170 195 228
170 195 228
169 195 228
169 195 228
169 195 228
169 195 228
169 195 228
169 195 228
169 195 228
169 195 228
169 195 228
168 195 228
168 195 228
168 194 228
168 194 228
168 194 228
168 194 228
168 194 228
168 194 228
168 194 228
167 194 228
168 194 228
167 194 228
167 194 228
167 194 228
167 194 228
167 194 228
167 194 228
167 194 228
167 194 228
167 194 228
167 194 228
167 194 228
167 194 228
167 194 228
167 194 228
167 194 228
167 194 228
167 194 228
167 194 228
167 194 228
168 194 228
168 194 228
168 194 228
168 195 228
169 195 228
169 195 228
169 195 228
169 195 228
170 195 228
170 196 228
171 196 228
171 196 228
172 196 228
172 197 228
173 197 228
174 197 228
175 198 228
176 198 228
177 199 228
178 200 228
181 201 228
183 203 228
205 223 248
212 230 255
212 230 255
212 230 255
212 230 255
212 230 255
212 230 255
212 230 255
212 230 255
212 230 255
212 230 255
212 230 255
212 230 255
212 230 255
212 230 255
212 230 255
212 230 255
212 230 255
212 230 255
211 230 255
212 230 255
211 230 255
211 230 255
141 163 204
63 99 179
58 94 163
61 97 159
59 95 159
58 93 147
60 97 169
61 97 169
62 99 181
66 102 181
62 98 169
62 98 161
62 98 161
63 99 171
66 103 181
59 94 159
57 90 140
64 100 171
59 96 151
60 96 151
62 98 169
64 100 169
61 97 159
63 98 151
60 96 140
63 100 181
60 96 161
61 96 140
60 96 167
62 99 181
62 98 161
61 97 151
61 97 159
60 97 161
62 97 151
62 97 140
61 97 161
61 98 171
63 99 161
63 99 171
58 93 151
62 97 151
63 99 171
61 96 151
64 100 171
60 95 142
59 94 140
65 101 181
63 99 171
60 97 161
62 99 171
63 99 171
64 100 161
64 100 171
56 91 140
62 97 153
60 97 161
61 97 161
60 95 151
63 100 181
61 98 171
61 97 161
63 99 161
63 100 171
61 97 151
63 99 161
61 98 171
60 97 161
61 94 153
61 95 151
64 101 181
59 95 161
62 97 163
61 95 142
62 97 151
63 98 173
63 99 173
59 96 161
61 96 163
60 97 161
59 95 163
180 200 236
211 230 255
212 230 255
212 230 255
212 230 255
212 230 255
212 230 255
212 230 255
212 230 255
212 230 255
212 230 255
212 230 255
212 230 255
212 230 255
212 230 255
212 230 255
212 230 255
212 230 255
212 230 255
212 230 255
212 230 255
212 230 255
212 230 255
205 216 223
183 175 114
181 174 114
178 173 114
177 172 114
176 172 114
175 171 114
174 171 114
173 171 114
172 170 114
172 170 114
171 170 114
170 169 114
170 169 114
170 169 114
169 169 114
169 169 114
169 169 114
168 169 114
168 168 114
168 168 114
168 168 114
168 168 114
167 168 114
167 168 114
167 168 114
167 168 114
167 168 114
167 168 114
167 168 114
167 168 114
167 168 114
167 168 114
167 168 114
167 168 114
167 168 114
167 168 114
167 168 114
167 168 114
167 168 114
167 168 114
167 168 114
167 168 114
167 168 114
168 168 114
168 168 114
168 168 114
168 168 114
168 168 114
168 168 114
168 168 114
168 168 114
168 168 114
168 169 114
169 169 114
169 169 114
169 169 114
169 169 114
169 169 114
169 169 114
169 169 114
169 169 114
170 169 114
170 169 114
170 169 114
170 169 114
170 169 114
170 169 114
171 169 114
171 170 114
171 170 114
171 170 114
171 170 114
171 170 114
171 170 114
172 170 114
172 170 114
172 170 114
172 170 114
172 170 114
172 170 114
173 170 114
173 171 114
173 171 114
173 171 114
173 171 114
173 171 114
173 171 114
174 171 114
174 171 114
174 171 114
174 171 114
174 171 114
175 171 114
175 171 114
175 171 114
175 172 114
175 172 114
175 172 114
176 172 114
176 172 114
176 172 114
176 172 114
176 172 114
176 172 114
177 172 114
177 172 114
177 172 114
177 173 114
177 173 114
178 173 114
178 173 114
178 173 114
178 173 114
178 173 114
178 173 114
179 173 114
179 173 114
179 173 114
179 173 114
179 173 114
179 174 114
180 174 114
180 174 114
180 174 114
180 174 114
180 174 114
181 174 114
181 174 114
181 174 114
181 174 114
181 174 114
181 174 114
181 175 114
182 175 114
182 175 114
182 175 114
182 202 228
182 202 228
182 202 228
182 202 228
182 202 228
182 202 228
181 202 228
181 201 228
181 201 228
181 201 228
181 201 228
181 201 228
180 201 228
180 201 228
180 201 228
180 201 228
180 201 228
180 201 228
179 200 228
179 200 228
179 200 228
179 200 228
179 200 228
179 200 228
178 200 228
178 200 228
178 200 228
178 200 228
178 200 228
178 199 228
177 199 228
177 199 228
177 199 228
177 199 228
177 199 228
176 199 228
176 199 228
176 199 228
176 199 228
176 199 228
176 199 228
175 198 228
175 198 228
175 198 228
175 198 228
175 198 228
175 198 228
174 198 228
174 198 228
174 198 228
174 198 228
174 198 228
174 198 228
174 197 228
173 197 228
173 197 228
173 197 228
173 197 228
173 197 228
173 197 228
173 197 228
172 197 228
172 197 228
172 197 228
172 196 228
172 196 228
171 196 228
172 196 228
171 196 228
171 196 228
171 196 228
171 196 228
171 196 228
170 196 228
170 196 228
170 196 228
170 195 228
170 195 228
170 195 228
170 195 228
170 195 228
169 195 228
169 195 228
169 195 228
169 195 228
169 195 228
169 195 228
169 195 228
169 195 228
169 195 228
168 195 228
168 195 228
168 195 228
168 195 228
168 195 228
168 194 228
168 194 228
168 194 228
168 194 228
168 194 228
168 194 228
168 194 228
168 194 228
168 194 228
168 194 228
168 194 228
168 194 228
168 194 228
168 194 228
168 194 228
168 194 228
168 194 228
168 194 228
168 195 228
168 195 228
168 195 228
169 195 228
169 195 228
169 195 228
169 195 228
169 195 228
170 195 228
170 196 228
170 196 228
171 196 228
171 196 228
172 196 228
172 197 228
173 197 228
174 197 228
174 198 228
175 198 228
176 199 228
178 200 228
179 200 228
181 202 228
185 203 228
202 220 245
212 231 255
212 231 255
212 231 255
212 231 255
212 231 255
212 231 255
212 230 255
212 230 255
212 230 255
212 230 255
212 230 255
212 230 255
212 230 255
212 230 255
212 230 255
212 230 255
212 230 255
212 230 255
212 230 255
212 230 255
191 210 241
59 93 163
62 98 177
63 96 157
58 93 155
56 90 128
62 98 161
61 97 159
63 100 171
57 92 114
60 95 157
61 97 177
60 96 151
63 98 151
66 102 179
63 98 159
64 100 171
65 101 171
61 97 161
62 99 171
63 99 171
59 94 140
61 96 151
63 98 140
60 96 151
64 100 181
61 97 151
65 101 171
60 96 151
63 100 181
64 100 171
63 99 161
64 100 171
61 97 151
60 95 128
60 96 161
63 100 181
61 98 171
63 99 161
64 101 181
67 103 181
63 99 171
59 94 140
65 100 161
62 98 161
60 96 151
60 95 140
60 96 140
59 94 128
62 98 161
58 93 114
63 99 161
62 96 153
61 96 173
61 96 153
65 100 161
61 96 140
64 100 181
62 94 133
65 102 181
64 99 173
62 97 153
63 97 163
63 97 142
60 96 151
58 91 130
57 91 117
59 94 153
61 94 144
65 101 171
61 95 142
65 101 181
60 96 173
58 89 120
61 96 153
61 98 171
62 98 161
63 98 171
61 90 137
54 85 124
62 99 171
56 87 122
61 93 144
202 221 249
212 230 255
212 230 255
212 230 255
212 230 255
212 230 255
212 230 255
212 230 255
212 230 255
212 230 255
212 230 255
212 230 255
212 230 255
212 230 255
212 230 255
212 230 255
212 231 255
212 231 255
212 231 255
212 231 255
212 231 255
205 216 223
191 188 153
181 174 114
179 173 114
178 173 114
176 172 114
175 172 114
174 171 114
174 171 114
173 171 114
172 170 114
172 170 114
171 170 114
171 170 114
170 169 114
170 169 114
170 169 114
169 169 114
169 169 114
169 169 114
169 169 114
169 169 114
168 169 114
168 168 114
168 168 114
168 168 114
168 168 114
168 168 114
168 168 114
168 168 114
168 168 114
168 168 114
168 168 114
168 168 114
168 168 114
168 168 114
168 168 114
168 168 114
168 168 114
168 168 114
168 168 114
168 168 114
168 168 114
168 168 114
168 168 114
168 168 114
168 168 114
168 168 114
169 169 114
169 169 114
169 169 114
169 169 114
169 169 114
169 169 114
169 169 114
169 169 114
169 169 114
169 169 114
170 169 114
170 169 114
170 169 114
170 169 114
170 169 114
170 169 114
170 169 114
171 170 114
171 170 114
171 170 114
171 170 114
171 170 114
171 170 114
172 170 114
172 170 114
172 170 114
172 170 114
172 170 114
172 170 114
173 170 114
173 170 114
173 171 114
173 171 114
173 171 114
173 171 114
174 171 114
174 171 114
174 171 114
174 171 114
174 171 114
174 171 114
174 171 114
175 171 114
175 171 114
175 171 114
175 172 114
175 172 114
175 172 114
176 172 114
176 172 114
176 172 114
176 172 114
176 172 114
176 172 114
176 172 114
177 172 114
177 172 114
177 172 114
177 172 114
177 173 114
178 173 114
178 173 114
178 173 114
178 173 114
178 173 114
178 173 114
179 173 114
179 173 114
179 173 114
179 173 114
179 173 114
179 174 114
180 174 114
180 174 114
180 174 114
180 174 114
180 174 114
180 174 114
181 174 114
181 174 114
181 174 114
181 174 114
181 174 114
181 174 114
182 175 114
182 175 114
182 175 114
182 175 114
182 175 114
182 175 114
183 202 228
183 202 228
183 202 228
182 202 228
182 202 228
182 202 228
182 202 228
182 202 228
182 202 228
181 201 228
181 201 228
181 201 228
181 201 228
181 201 228
180 201 228
180 201 228
180 201 228
180 201 228
180 201 228
180 201 228
180 201 228
179 200 228
179 200 228
179 200 228
179 200 228
179 200 228
179 200 228
178 200 228
178 200 228
178 200 228
178 200 228
178 200 228
178 200 228
177 199 228
177 199 228
177 199 228
177 199 228
177 199 228
177 199 228
176 199 228
176 199 228
176 199 228
176 199 228
176 199 228
176 198 228
175 198 228
175 198 228
175 198 228
175 198 228
175 198 228
175 198 228
175 198 228
174 198 228
174 198 228
174 198 228
174 198 228
174 197 228
174 197 228
173 197 228
173 197 228
173 197 228
173 197 228
173 197 228
173 197 228
173 197 228
172 197 228
172 197 228
172 197 228
172 197 228
172 196 228
172 196 228
172 196 228
171 196 228
171 196 228
171 196 228
171 196 228
171 196 228
171 196 228
171 196 228
170 196 228
170 196 228
170 196 228
170 196 228
170 195 228
170 195 228
170 195 228
170 195 228
169 195 228
170 195 228
169 195 228
169 195 228
169 195 228
169 195 228
169 195 228
169 195 228
169 195 228
169 195 228
169 195 228
169 195 228
169 195 228
168 195 228
168 195 228
168 195 228
168 195 228
168 195 228
168 195 228
169 195 228
168 195 228
169 195 228
168 195 228
169 195 228
169 195 228
169 195 228
169 195 228
169 195 228
169 195 228
169 195 228
169 195 228
169 195 228
170 195 228
170 195 228
170 196 228
170 196 228
171 196 228
171 196 228
171 196 228
172 197 228
173 197 228
173 197 228
174 197 228
174 198 228
175 198 228
176 199 228
177 199 228
178 200 228
180 201 228
182 202 228
185 204 228
210 228 253
213 231 255
213 231 255
212 231 255
212 231 255
212 231 255
212 231 255
212 231 255
212 231 255
212 231 255
212 231 255
212 231 255
212 231 255
212 231 255
212 230 255
212 230 255
212 230 255
212 230 255
212 230 255
202 221 242
108 132 181
60 95 165
61 97 177
60 95 169
59 94 147
62 98 159
61 98 171
60 95 149
62 98 169
60 96 149
64 99 169
62 99 171
64 99 167
60 96 167
61 97 151
61 96 140
59 94 144
61 96 149
60 96 159
62 98 161
61 97 161
62 98 171
63 99 161
60 97 171
58 94 140
62 97 151
61 96 128
61 95 161
62 99 171
63 99 171
61 98 161
60 95 128
61 97 161
64 100 171
59 95 140
62 98 161
62 98 161
62 98 161
59 94 151
62 98 161
63 100 181
64 100 171
62 98 151
63 99 171
59 94 140
61 97 161
63 99 171
65 101 171
65 101 181
58 93 161
64 99 151
59 94 128
61 97 151
60 95 161
62 98 161
62 95 153
61 96 161
59 95 140
62 98 161
63 97 153
64 100 171
59 93 151
59 92 144
58 95 151
65 101 181
58 93 140
58 93 128
61 95 153
60 94 155
62 98 151
60 93 142
61 97 151
64 98 163
59 92 130
60 98 181
64 99 151
61 92 144
63 97 151
58 91 142
57 89 133
58 93 155
65 98 155
61 94 164
109 135 189
212 230 255
212 230 255
212 230 255
212 230 255
212 230 255
212 230 255
212 231 255
212 231 255
212 231 255
212 231 255
212 231 255
212 231 255
212 231 255
212 231 255
212 231 255
212 231 255
212 231 255
213 231 255
213 231 255
213 231 255
186 177 114
182 175 114
180 174 114
178 173 114
177 172 114
176 172 114
175 171 114
174 171 114
174 171 114
173 171 114
173 170 114
172 170 114
172 170 114
171 170 114
171 170 114
170 169 114
170 169 114
170 169 114
170 169 114
169 169 114
169 169 114
169 169 114
169 169 114
169 169 114
169 169 114
169 169 114
169 169 114
169 169 114
169 169 114
168 169 114
168 169 114
168 168 114
168 169 114
168 169 114
168 169 114
169 169 114
168 168 114
169 169 114
169 169 114
169 169 114
169 169 114
169 169 114
169 169 114
169 169 114
169 169 114
169 169 114
169 169 114
169 169 114
169 169 114
169 169 114
170 169 114
170 169 114
170 169 114
170 169 114
170 169 114
170 169 114
170 169 114
170 169 114
170 169 114
171 170 114
171 170 114
171 170 114
171 170 114
171 170 114
171 170 114
171 170 114
171 170 114
172 170 114
172 170 114
172 170 114
172 170 114
172 170 114
173 170 114
173 170 114
173 170 114
173 171 114
173 171 114
173 171 114
173 171 114
173 171 114
174 171 114
174 171 114
174 171 114
174 171 114
174 171 114
174 171 114
175 171 114
175 171 114
175 171 114
175 171 114
175 172 114
175 172 114
176 172 114
176 172 114
176 172 114
176 172 114
176 172 114
176 172 114
176 172 114
177 172 114
177 172 114
177 172 114
177 173 114
177 173 114
177 173 114
178 173 114
178 173 114
178 173 114
178 173 114
178 173 114
178 173 114
179 173 114
179 173 114
179 173 114
179 173 114
179 173 114
179 174 114
180 174 114
180 174 114
180 174 114
180 174 114
180 174 114
180 174 114
181 174 114
181 174 114
181 174 114
181 174 114
181 174 114
181 174 114
181 174 114
182 175 114
182 175 114
182 175 114
182 175 114
182 175 114
182 175 114
183 175 114
183 175 114
183 203 228
183 202 228
183 202 228
183 202 228
183 202 228
182 202 228
182 202 228
182 202 228
182 202 228
182 202 228
182 202 228
181 202 228
181 202 228
181 201 228
181 201 228
181 201 228
181 201 228
181 201 228
180 201 228
180 201 228
180 201 228
180 201 228
180 201 228
180 201 228
179 201 228
179 200 228
179 200 228
179 200 228
179 200 228
179 200 228
178 200 228
178 200 228
178 200 228
178 200 228
178 200 228
178 200 228
177 199 228
177 199 228
177 199 228
177 199 228
177 199 228
177 199 228
177 199 228
177 199 228
176 199 228
176 199 228
176 199 228
176 199 228
176 198 228
175 198 228
175 198 228
175 198 228
175 198 228
175 198 228
175 198 228
175 198 228
174 198 228
174 198 228
174 198 228
174 198 228
174 198 228
174 197 228
174 197 228
173 197 228
173 197 228
173 197 228
173 197 228
173 197 228
173 197 228
173 197 228
173 197 228
172 197 228
172 197 228
172 197 228
172 197 228
172 196 228
172 196 228
171 196 228
171 196 228
171 196 228
171 196 228
171 196 228
171 196 228
171 196 228
171 196 228
171 196 228
170 196 228
170 196 228
170 196 228
170 196 228
170 195 228
170 196 228
170 195 228
170 195 228
170 195 228
170 195 228
170 195 228
170 195 228
169 195 228
169 195 228
170 195 228
169 195 228
169 195 228
169 195 228
169 195 228
169 195 228
169 195 228
169 195 228
169 195 228
169 195 228
169 195 228
169 195 228
169 195 228
169 195 228
169 195 228
170 195 228
170 195 228
170 195 228
170 196 228
170 196 228
170 196 228
171 196 228
171 196 228
171 196 228
172 196 228
172 196 228
172 197 228
173 197 228
173 197 228
174 197 228
174 198 228
175 198 228
176 199 228
177 199 228
178 200 228
179 200 228
180 201 228
183 203 228
195 213 237
213 231 255
213 231 255
213 231 255
213 231 255
213 231 255
213 231 255
213 231 255
213 231 255
213 231 255
213 231 255
213 231 255
213 231 255
212 231 255
212 231 255
212 231 255
212 231 255
212 231 255
212 231 255
126 149 196
65 101 181
59 94 153
60 96 157
58 94 157
61 96 165
61 97 169
61 98 171
58 94 149
60 96 159
60 95 137
59 96 151
61 97 159
60 97 169
62 98 159
62 98 161
59 94 137
62 97 159
62 98 161
62 98 169
61 98 171
62 97 169
60 96 149
61 97 151
59 94 137
60 96 149
57 91 125
60 96 167
61 98 171
62 98 161
63 98 161
61 98 171
63 99 161
62 99 171
62 97 161
63 100 181
62 97 140
61 96 140
63 100 171
62 98 161
64 100 181
59 95 140
62 98 171
65 101 171
64 100 161
63 99 171
58 94 140
62 98 151
63 99 161
62 98 151
63 100 171
62 97 140
61 96 140
63 100 181
64 99 171
63 99 161
62 98 151
61 96 153
63 99 161
61 96 140
61 95 142
60 95 153
61 97 151
63 99 161
61 96 161
64 100 171
62 97 163
65 101 171
61 98 161
63 98 161
63 98 161
61 96 153
60 92 135
65 101 171
60 94 140
60 95 153
59 95 151
62 96 153
59 92 140
62 96 155
61 96 163
61 97 163
59 94 142
59 94 162
61 93 133
143 165 214
212 231 255
212 231 255
212 231 255
212 231 255
212 231 255
213 231 255
213 231 255
213 231 255
213 231 255
213 231 255
213 231 255
213 231 255
213 231 255
213 231 255
213 231 255
213 231 255
213 231 255
213 231 255
189 183 135
183 175 114
181 174 114
179 173 114
178 173 114
177 172 114
176 172 114
175 172 114
174 171 114
174 171 114
173 171 114
173 170 114
172 170 114
172 170 114
172 170 114
171 170 114
171 170 114
171 170 114
170 169 114
170 169 114
170 169 114
170 169 114
170 169 114
170 169 114
170 169 114
170 169 114
169 169 114
169 169 114
169 169 114
169 169 114
169 169 114
169 169 114
169 169 114
169 169 114
169 169 114
169 169 114
169 169 114
169 169 114
169 169 114
169 169 114
169 169 114
169 169 114
170 169 114
170 169 114
170 169 114
170 169 114
170 169 114
170 169 114
170 169 114
170 169 114
170 169 114
170 169 114
170 169 114
171 169 114
171 170 114
171 170 114
171 170 114
171 170 114
171 170 114
171 170 114
171 170 114
172 170 114
172 170 114
172 170 114
172 170 114
172 170 114
172 170 114
172 170 114
172 170 114
173 170 114
173 170 114
173 171 114
173 171 114
173 171 114
173 171 114
173 171 114
174 171 114
174 171 114
174 171 114
174 171 114
174 171 114
174 171 114
174 171 114
175 171 114
175 171 114
175 171 114
175 172 114
175 172 114
175 172 114
175 172 114
176 172 114
176 172 114
176 172 114
176 172 114
176 172 114
176 172 114
177 172 114
177 172 114
177 172 114
177 173 114
177 173 114
177 173 114
178 173 114
178 173 114
178 173 114
178 173 114
178 173 114
178 173 114
179 173 114
179 173 114
179 173 114
179 173 114
179 173 114
179 173 114
179 174 114
180 174 114
180 174 114
180 174 114
180 174 114
180 174 114
180 174 114
181 174 114
181 174 114
181 174 114
181 174 114
181 174 114
181 174 114
182 175 114
182 175 114
182 175 114
182 175 114
182 175 114
182 175 114
182 175 114
183 175 114
183 175 114
183 175 114
183 175 114
183 175 114
184 203 228
184 203 228
183 203 228
183 202 228
183 202 228
183 202 228
183 202 228
183 202 228
182 202 228
182 202 228
182 202 228
182 202 228
182 202 228
182 202 228
181 202 228
181 201 228
181 201 228
181 201 228
181 201 228
181 201 228
181 201 228
180 201 228
180 201 228
180 201 228
180 201 228
180 201 228
180 201 228
180 201 228
179 200 228
179 200 228
179 200 228
179 200 228
179 200 228
179 200 228
178 200 228
178 200 228
178 200 228
178 200 228
178 200 228
178 200 228
178 200 228
177 199 228
177 199 228
177 199 228
177 199 228
177 199 228
177 199 228
176 199 228
176 199 228
176 199 228
176 199 228
176 199 228
176 199 228
176 198 228
175 198 228
175 198 228
175 198 228
175 198 228
175 198 228
175 198 228
175 198 228
174 198 228
174 198 228
174 198 228
174 198 228
174 198 228
174 197 228
174 197 228
173 197 228
173 197 228
173 197 228
173 197 228
173 197 228
173 197 228
173 197 228
173 197 228
172 197 228
172 197 228
172 197 228
172 197 228
172 197 228
172 196 228
172 196 228
172 196 228
171 196 228
171 196 228
171 196 228
171 196 228
171 196 228
171 196 228
171 196 228
171 196 228
171 196 228
171 196 228
171 196 228
171 196 228
171 196 228
170 196 228
170 196 228
170 196 228
170 196 228
170 195 228
170 195 228
170 196 228
170 195 228
170 196 228
170 195 228
170 196 228
170 195 228
170 196 228
170 196 228
170 196 228
170 196 228
170 196 228
170 196 228
170 196 228
170 196 228
170 196 228
171 196 228
171 196 228
171 196 228
171 196 228
171 196 228
172 196 228
172 197 228
172 197 228
173 197 228
173 197 228
174 197 228
174 198 228
175 198 228
175 198 228
176 199 228
177 199 228
178 199 228
179 200 228
180 201 228
182 202 228
184 203 228
203 221 245
213 231 255
213 231 255
213 231 255
213 231 255
213 231 255
213 231 255
213 231 255
213 231 255
213 231 255
213 231 255
213 231 255
213 231 255
213 231 255
213 231 255
213 231 255
213 231 255
181 200 228
59 95 167
59 95 175
61 97 159
59 93 155
62 98 161
63 99 177
60 97 169
59 95 165
60 96 151
61 96 149
65 101 171
61 95 161
61 97 159
61 97 161
63 99 169
58 93 140
62 98 171
60 97 161
62 99 181
62 97 159
63 99 171
62 98 159
62 97 140
58 93 128
64 101 181
61 97 169
64 100 171
60 95 149
63 98 151
64 100 171
60 96 151
61 95 151
57 90 140
62 98 161
62 97 151
63 99 161
62 98 161
62 97 151
59 96 151
60 94 161
64 100 181
57 91 128
62 98 161
62 98 161
64 99 161
63 98 140
59 93 140
62 95 130
61 96 153
61 97 151
61 96 140
62 97 151
63 100 181
61 97 161
66 101 171
61 98 171
60 95 128
60 97 161
58 93 140
60 94 140
66 100 173
59 94 128
65 101 171
60 97 161
64 99 151
60 94 161
60 95 140
61 97 161
63 98 161
60 95 128
62 97 163
62 98 161
61 97 151
63 99 171
64 99 173
58 91 140
62 96 161
57 92 140
61 95 155
60 93 144
59 87 128
62 94 147
59 94 142
61 98 171
60 93 144
58 89 130
181 199 224
213 231 255
213 231 255
213 231 255
213 231 255
213 231 255
213 231 255
213 231 255
213 231 255
213 231 255
213 231 255
213 231 255
213 231 255
213 231 255
213 231 255
213 231 255
213 231 255
195 195 169
184 176 114
182 175 114
180 174 114
179 173 114
178 173 114
177 172 114
176 172 114
175 172 114
175 171 114
174 171 114
173 171 114
173 171 114
173 171 114
172 170 114
172 170 114
172 170 114
171 170 114
171 170 114
171 170 114
171 170 114
171 170 114
171 170 114
170 169 114
170 169 114
170 169 114
170 169 114
170 169 114
170 169 114
170 169 114
170 169 114
170 169 114
170 169 114
170 169 114
170 169 114
170 169 114
170 169 114
170 169 114
170 169 114
170 169 114
170 169 114
170 169 114
170 169 114
170 169 114
170 169 114
171 169 114
171 169 114
171 170 114
171 170 114
171 170 114
171 170 114
171 170 114
171 170 114
171 170 114
171 170 114
171 170 114
172 170 114
172 170 114
172 170 114
172 170 114
172 170 114
172 170 114
172 170 114
172 170 114
173 170 114
173 170 114
173 171 114
173 171 114
173 171 114
173 171 114
173 171 114
173 171 114
174 171 114
174 171 114
174 171 114
174 171 114
174 171 114
174 171 114
175 171 114
175 171 114
175 171 114
175 171 114
175 172 114
175 172 114
175 172 114
175 172 114
176 172 114
176 172 114
176 172 114
176 172 114
176 172 114
176 172 114
177 172 114
177 172 114
177 172 114
177 172 114
177 173 114
177 173 114
177 173 114
178 173 114
178 173 114
178 173 114
178 173 114
178 173 114
178 173 114
179 173 114
179 173 114
179 173 114
179 173 114
179 173 114
179 173 114
179 174 114
180 174 114
180 174 114
180 174 114
180 174 114
180 174 114
180 174 114
180 174 114
181 174 114
181 174 114
181 174 114
181 174 114
181 174 114
181 174 114
181 175 114
182 175 114
182 175 114
182 175 114
182 175 114
182 175 114
182 175 114
183 175 114
183 175 114
183 175 114
183 175 114
183 175 114
183 175 114
183 175 114
184 176 114
184 203 228
184 203 228
184 203 228
184 203 228
184 203 228
183 203 228
183 203 228
183 202 228
183 202 228
183 202 228
182 202 228
182 202 228
182 202 228
182 202 228
182 202 228
182 202 228
182 202 228
181 202 228
181 202 228
181 202 228
181 201 228
181 201 228
181 201 228
181 201 228
181 201 228
180 201 228
180 201 228
180 201 228
180 201 228
180 201 228
180 201 228
180 201 228
179 200 228
179 200 228
179 200 228
179 200 228
179 200 228
179 200 228
178 200 228
178 200 228
178 200 228
178 200 228
178 200 228
178 200 228
178 200 228
178 199 228
177 199 228
177 199 228
177 199 228
177 199 228
177 199 228
177 199 228
176 199 228
176 199 228
176 199 228
176 199 228
176 199 228
176 199 228
176 199 228
175 198 228
175 198 228
175 198 228
175 198 228
175 198 228
175 198 228
175 198 228
175 198 228
174 198 228
174 198 228
174 198 228
174 198 228
174 197 228
174 197 228
174 197 228
173 197 228
173 197 228
173 197 228
173 197 228
173 197 228
173 197 228
173 197 228
173 197 228
172 197 228
172 197 228
172 197 228
172 197 228
172 197 228
172 197 228
172 197 228
172 196 228
172 196 228
172 196 228
171 196 228
171 196 228
171 196 228
171 196 228
171 196 228
171 196 228
171 196 228
171 196 228
171 196 228
171 196 228
171 196 228
171 196 228
171 196 228
171 196 228
171 196 228
171 196 228
171 196 228
171 196 228
171 196 228
171 196 228
171 196 228
171 196 228
171 196 228
171 196 228
171 196 228
171 196 228
171 196 228
172 196 228
172 196 228
172 197 228
172 197 228
172 197 228
172 197 228
173 197 228
173 197 228
173 197 228
174 198 228
174 198 228
175 198 228
175 198 228
176 199 228
177 199 228
177 199 228
178 200 228
180 201 228
181 201 228
183 203 228
186 204 228
211 229 253
213 231 255
213 231 255
213 231 255
213 231 255
213 231 255
213 231 255
213 231 255
213 231 255
213 231 255
213 231 255
213 231 255
213 231 255
213 231 255
213 231 255
203 221 249
88 115 170
60 96 167
53 85 135
62 98 171
61 97 159
58 92 151
61 96 159
60 95 159
59 94 157
60 95 149
63 97 128
62 97 151
60 95 140
58 90 114
63 98 167
60 96 159
61 97 159
57 90 128
61 96 140
62 97 161
59 95 149
61 97 159
61 98 161
59 94 137
59 93 111
60 95 140
60 96 151
54 88 128
62 97 161
62 99 171
58 94 128
62 98 161
63 99 161
59 95 140
62 97 151
60 96 140
60 95 128
62 98 161
55 87 80
62 98 151
62 98 161
63 99 171
62 98 161
63 98 140
63 99 179
60 94 151
63 99 151
62 97 140
64 100 171
59 94 151
58 92 161
62 97 159
60 96 140
65 101 171
61 98 171
62 98 151
59 93 140
63 98 163
61 95 153
62 98 161
63 99 161
63 98 163
60 97 171
61 95 163
61 95 151
62 99 171
62 99 171
61 97 151
59 94 140
62 97 151
60 94 114
60 96 151
62 96 165
63 97 153
60 97 161
61 97 161
60 96 161
61 95 155
60 95 153
63 98 163
59 93 155
59 94 140
60 96 163
60 94 161
59 95 163
59 92 155
61 96 163
111 137 198
213 231 255
213 231 255
213 231 255
213 231 255
213 231 255
213 231 255
213 231 255
213 231 255
213 231 255
213 231 255
213 231 255
213 231 255
213 231 255
213 231 255
213 231 255
206 216 223
186 176 114
183 175 114
181 174 114
180 174 114
178 173 114
178 173 114
177 172 114
176 172 114
175 172 114
175 171 114
174 171 114
174 171 114
173 171 114
173 171 114
173 171 114
172 170 114
172 170 114
172 170 114
172 170 114
172 170 114
171 170 114
171 170 114
171 170 114
171 170 114
171 170 114
171 170 114
171 170 114
171 170 114
171 170 114
171 170 114
171 170 114
171 170 114
171 170 114
171 170 114
171 170 114
171 170 114
171 170 114
171 170 114
171 170 114
171 170 114
171 170 114
171 170 114
171 170 114
171 170 114
171 170 114
171 170 114
171 170 114
172 170 114
172 170 114
172 170 114
172 170 114
172 170 114
172 170 114
172 170 114
172 170 114
172 170 114
173 170 114
173 170 114
173 170 114
173 170 114
173 171 114
173 171 114
173 171 114
173 171 114
173 171 114
174 171 114
174 171 114
174 171 114
174 171 114
174 171 114
174 171 114
174 171 114
174 171 114
175 171 114
175 171 114
175 171 114
175 172 114
175 171 114
175 172 114
175 172 114
176 172 114
176 172 114
176 172 114
176 172 114
176 172 114
176 172 114
176 172 114
177 172 114
177 172 114
177 172 114
177 172 114
177 173 114
177 173 114
177 173 114
177 173 114
178 173 114
178 173 114
178 173 114
178 173 114
178 173 114
178 173 114
179 173 114
179 173 114
179 173 114
179 173 114
179 173 114
179 173 114
179 174 114
180 174 114
180 174 114
180 174 114
180 174 114
180 174 114
180 174 114
180 174 114
181 174 114
181 174 114
181 174 114
181 174 114
181 174 114
181 174 114
181 174 114
182 175 114
182 175 114
182 175 114
182 175 114
182 175 114
182 175 114
182 175 114
183 175 114
183 175 114
183 175 114
183 175 114
183 175 114
183 175 114
183 175 114
184 175 114
184 176 114
184 176 114
184 176 114
185 203 228
184 203 228
184 203 228
184 203 228
184 203 228
184 203 228
184 203 228
184 203 228
183 203 228
183 203 228
183 202 228
183 202 228
183 202 228
183 202 228
182 202 228
182 202 228
182 202 228
182 202 228
182 202 228
182 202 228
182 202 228
181 202 228
181 202 228
181 201 228
181 201 228
181 201 228
181 201 228
181 201 228
181 201 228
180 201 228
180 201 228
180 201 228
180 201 228
180 201 228
180 201 228
180 201 228
179 200 228
179 200 228
179 200 228
179 200 228
179 200 228
179 200 228
179 200 228
179 200 228
178 200 228
178 200 228
178 200 228
178 200 228
178 200 228
178 200 228
178 199 228
177 199 228
177 199 228
177 199 228
177 199 228
177 199 228
177 199 228
177 199 228
176 199 228
176 199 228
176 199 228
176 199 228
176 199 228
176 199 228
176 198 228
176 198 228
175 198 228
175 198 228
175 198 228
175 198 228
175 198 228
175 198 228
175 198 228
174 198 228
174 198 228
174 198 228
174 198 228
174 198 228
174 197 228
174 197 228
174 197 228
173 197 228
173 197 228
173 197 228
173 197 228
173 197 228
173 197 228
173 197 228
173 197 228
173 197 228
173 197 228
172 197 228
172 197 228
172 197 228
172 197 228
172 197 228
172 197 228
172 197 228
172 196 228
172 197 228
172 196 228
172 196 228
172 196 228
172 196 228
172 196 228
172 196 228
172 196 228
172 196 228
172 196 228
172 196 228
172 196 228
172 196 228
172 196 228
172 196 228
172 196 228
172 196 228
172 196 228
172 197 228
172 197 228
172 197 228
172 197 228
173 197 228
173 197 228
173 197 228
173 197 228
173 197 228
174 197 228
174 198 228
174 198 228
175 198 228
175 198 228
176 199 228
176 199 228
177 199 228
178 200 228
178 200 228
179 200 228
180 201 228
182 202 228
185 203 228
190 208 231
214 231 255
214 231 255
214 231 255
214 231 255
214 231 255
214 231 255
213 231 255
213 231 255
213 231 255
213 231 255
213 231 255
213 231 255
213 231 255
213 231 255
157 177 206
60 95 171
62 99 171
62 97 165
58 92 161
64 100 161
63 99 177
62 98 177
61 97 167
64 101 181
61 98 169
61 97 169
60 95 147
62 97 151
62 98 161
59 93 128
61 97 161
61 97 167
61 97 161
60 96 159
60 96 140
60 96 151
58 92 151
57 91 140
61 96 149
60 94 125
65 101 171
63 99 161
62 98 161
61 98 171
62 98 161
61 96 140
60 96 151
59 92 114
62 98 161
59 96 151
58 94 128
61 96 151
60 97 161
62 98 151
65 101 171
59 95 149
60 95 140
61 96 128
64 101 181
63 99 161
65 100 161
63 100 171
61 97 161
65 101 181
63 99 161
60 96 151
60 95 128
61 96 153
62 98 161
63 100 181
62 98 161
57 90 151
60 96 151
62 97 140
62 98 161
60 95 142
59 94 128
62 96 151
57 90 114
60 93 142
59 94 128
60 94 114
59 92 120
61 96 151
64 99 151
63 99 171
59 96 161
61 96 151
61 93 133
61 97 161
58 91 117
59 91 122
60 93 157
59 92 133
59 95 163
61 98 161
64 95 147
59 91 120
57 88 117
60 92 130
59 89 125
65 100 173
62 95 163
128 151 199
213 231 255
213 231 255
213 231 255
213 231 255
213 231 255
213 231 255
213 231 255
213 231 255
213 231 255
214 231 255
214 231 255
214 231 255
214 231 255
211 227 245
190 183 135
184 176 114
182 175 114
181 174 114
179 174 114
178 173 114
178 173 114
177 172 114
176 172 114
176 172 114
175 172 114
175 171 114
174 171 114
174 171 114
174 171 114
173 171 114
173 171 114
173 171 114
173 171 114
173 170 114
173 170 114
172 170 114
172 170 114
172 170 114
172 170 114
172 170 114
172 170 114
172 170 114
172 170 114
172 170 114
172 170 114
172 170 114
172 170 114
172 170 114
172 170 114
172 170 114
172 170 114
172 170 114
172 170 114
172 170 114
172 170 114
172 170 114
172 170 114
172 170 114
172 170 114
172 170 114
172 170 114
172 170 114
173 170 114
173 170 114
173 170 114
173 170 114
173 171 114
173 171 114
173 171 114
173 171 114
173 171 114
173 171 114
173 171 114
173 171 114
174 171 114
174 171 114
174 171 114
174 171 114
174 171 114
174 171 114
174 171 114
174 171 114
174 171 114
175 171 114
175 171 114
175 172 114
175 172 114
175 172 114
175 172 114
175 172 114
176 172 114
176 172 114
176 172 114
176 172 114
176 172 114
176 172 114
176 172 114
177 172 114
177 172 114
177 172 114
177 172 114
177 172 114
177 173 114
177 173 114
177 173 114
178 173 114
178 173 114
178 173 114
178 173 114
178 173 114
178 173 114
179 173 114
179 173 114
179 173 114
179 173 114
179 173 114
179 173 114
179 173 114
179 174 114
180 174 114
180 174 114
180 174 114
180 174 114
180 174 114
180 174 114
180 174 114
181 174 114
181 174 114
181 174 114
181 174 114
181 174 114
181 174 114
181 174 114
181 175 114
182 175 114
182 175 114
182 175 114
182 175 114
182 175 114
182 175 114
182 175 114
183 175 114
183 175 114
183 175 114
183 175 114
183 175 114
183 175 114
184 176 114
184 176 114
184 176 114
184 176 114
184 176 114
184 176 114
184 176 114
185 176 114
185 203 228
185 203 228
185 203 228
185 203 228
184 203 228
184 203 228
184 203 228
184 203 228
184 203 228
184 203 228
184 203 228
183 203 228
183 203 228
183 203 228
183 202 228
183 202 228
183 202 228
183 202 228
183 202 228
182 202 228
182 202 228
182 202 228
182 202 228
182 202 228
182 202 228
182 202 228
181 202 228
181 202 228
181 201 228
181 201 228
181 201 228
181 201 228
180 201 228
180 201 228
180 201 228
180 201 228
180 201 228
180 201 228
180 201 228
180 201 228
179 201 228
179 200 228
179 200 228
179 200 228
179 200 228
179 200 228
179 200 228
179 200 228
178 200 228
178 200 228
178 200 228
178 200 228
178 200 228
178 200 228
178 200 228
178 200 228
177 199 228
177 199 228
177 199 228
177 199 228
177 199 228
177 199 228
177 199 228
176 199 228
177 199 228
176 199 228
176 199 228
176 199 228
176 199 228
176 199 228
176 199 228
175 198 228
175 198 228
175 198 228
175 198 228
175 198 228
175 198 228
175 198 228
175 198 228
175 198 228
174 198 228
174 198 228
174 198 228
174 198 228
174 198 228
174 198 228
174 197 228
174 197 228
174 197 228
173 197 228
174 197 228
173 197 228
173 197 228
173 197 228
173 197 228
173 197 228
173 197 228
173 197 228
173 197 228
173 197 228
173 197 228
173 197 228
173 197 228
173 197 228
173 197 228
173 197 228
173 197 228
173 197 228
172 197 228
172 197 228
173 197 228
172 197 228
173 197 228
172 197 228
173 197 228
173 197 228
173 197 228
173 197 228
173 197 228
173 197 228
173 197 228
173 197 228
174 197 228
174 197 228
174 197 228
174 198 228
174 198 228
175 198 228
175 198 228
175 198 228
176 198 228
176 199 228
177 199 228
177 199 228
178 200 228
179 200 228
179 200 228
180 201 228
182 202 228
183 202 228
185 204 228
204 221 245
214 231 255
214 231 255
214 231 255
214 231 255
214 231 255
214 231 255
214 231 255
214 231 255
214 231 255
214 231 255
214 231 255
214 231 255
214 231 255
58 93 147
60 95 157
58 93 167
58 93 159
58 93 159
60 96 161
59 94 137
60 96 159
61 96 159
61 98 171
66 102 181
62 97 149
59 94 114
60 97 171
63 99 171
63 100 181
62 99 171
61 97 151
61 97 151
65 100 161
62 98 161
63 100 179
62 98 151
57 92 159
62 97 151
62 97 171
62 98 151
63 99 171
60 96 140
61 98 161
61 97 161
63 98 151
61 98 161
60 96 151
63 99 161
62 97 151
60 95 140
62 98 169
64 100 171
64 99 161
65 100 169
63 99 161
62 98 161
62 98 161
63 98 151
63 99 171
60 95 140
61 96 128
62 98 151
62 97 153
56 92 114
64 100 171
60 94 151
64 100 171
59 94 151
63 98 151
59 93 140
60 94 130
63 99 161
64 101 181
60 95 128
65 101 171
61 97 151
62 97 140
63 99 161
61 95 161
63 99 161
61 97 161
61 96 153
58 93 130
60 95 140
64 99 161
64 100 171
61 92 144
61 96 153
61 96 161
61 95 140
60 93 144
57 90 102
59 90 133
61 98 161
57 91 129
62 95 153
60 92 147
59 87 125
59 92 140
60 94 153
62 97 163
59 90 147
56 85 136
193 212 242
214 231 255
214 231 255
214 231 255
214 231 255
214 231 255
214 231 255
214 231 255
214 231 255
214 231 255
214 231 255
214 231 255
214 231 255
199 201 184
185 176 114
183 175 114
182 175 114
180 174 114
179 174 114
178 173 114
178 173 114
177 173 114
177 172 114
176 172 114
176 172 114
175 172 114
175 171 114
174 171 114
174 171 114
174 171 114
174 171 114
174 171 114
173 171 114
173 171 114
173 171 114
173 171 114
173 171 114
173 170 114
173 170 114
173 170 114
173 170 114
173 170 114
172 170 114
172 170 114
172 170 114
173 170 114
172 170 114
172 170 114
173 170 114
172 170 114
173 170 114
173 170 114
173 170 114
173 170 114
173 171 114
173 170 114
173 171 114
173 171 114
173 171 114
173 171 114
173 171 114
173 171 114
173 171 114
173 171 114
173 171 114
173 171 114
174 171 114
174 171 114
174 171 114
174 171 114
174 171 114
174 171 114
174 171 114
174 171 114
175 171 114
175 171 114
175 171 114
175 171 114
175 171 114
175 171 114
175 172 114
175 172 114
175 172 114
176 172 114
176 172 114
176 172 114
176 172 114
176 172 114
176 172 114
176 172 114
176 172 114
176 172 114
177 172 114
177 172 114
177 172 114
177 172 114
177 173 114
177 173 114
177 173 114
178 173 114
178 173 114
178 173 114
178 173 114
178 173 114
178 173 114
178 173 114
178 173 114
179 173 114
179 173 114
179 173 114
179 173 114
179 173 114
179 173 114
179 174 114
180 174 114
180 174 114
180 174 114
180 174 114
180 174 114
180 174 114
180 174 114
180 174 114
181 174 114
181 174 114
181 174 114
181 174 114
181 174 114
181 174 114
181 174 114
182 175 114
182 175 114
182 175 114
182 175 114
182 175 114
182 175 114
182 175 114
183 175 114
183 175 114
183 175 114
183 175 114
183 175 114
183 175 114
183 175 114
183 175 114
184 175 114
184 176 114
184 176 114
184 176 114
184 176 114
184 176 114
184 176 114
184 176 114
185 176 114
185 176 114
185 176 114
185 204 228
185 204 228
185 204 228
185 203 228
185 203 228
185 203 228
185 203 228
184 203 228
184 203 228
184 203 228
184 203 228
184 203 228
184 203 228
184 203 228
184 203 228
183 203 228
183 203 228
183 203 228
183 202 228
183 202 228
183 202 228
183 202 228
183 202 228
183 202 228
182 202 228
182 202 228
182 202 228
182 202 228
182 202 228
182 202 228
181 202 228
181 202 228
181 201 228
181 201 228
181 201 228
181 201 228
181 201 228
181 201 228
181 201 228
180 201 228
180 201 228
180 201 228
180 201 228
180 201 228
180 201 228
179 201 228
179 201 228
179 200 228
179 200 228
179 200 228
179 200 228
179 200 228
179 200 228
179 200 228
178 200 228
178 200 228
178 200 228
178 200 228
178 200 228
178 200 228
178 200 228
178 200 228
177 199 228
177 199 228
177 199 228
177 199 228
177 199 228
177 199 228
177 199 228
177 199 228
176 199 228
176 199 228
176 199 228
176 199 228
176 199 228
176 199 228
176 199 228
176 198 228
176 198 228
175 198 228
175 198 228
175 198 228
175 198 228
175 198 228
175 198 228
175 198 228
175 198 228
175 198 228
174 198 228
174 198 228
174 198 228
174 198 228
174 198 228
174 198 228
174 198 228
174 198 228
174 197 228
174 197 228
174 197 228
174 197 228
174 197 228
174 197 228
173 197 228
173 197 228
173 197 228
174 197 228
173 197 228
173 197 228
173 197 228
173 197 228
173 197 228
173 197 228
173 197 228
173 197 228
173 197 228
174 197 228
174 197 228
174 197 228
174 197 228
174 197 228
174 198 228
174 198 228
174 198 228
174 198 228
174 198 228
175 198 228
175 198 228
175 198 228
176 198 228
176 199 228
176 199 228
177 199 228
177 199 228
178 199 228
178 200 228
179 200 228
179 200 228
180 201 228
181 202 228
183 202 228
184 203 228
187 205 228
207 224 248
214 232 255
214 232 255
214 232 255
214 232 255
214 232 255
214 232 255
214 232 255
214 231 255
214 231 255
214 231 255
214 231 255
143 164 203
60 95 163
61 97 167
58 92 153
60 96 167
60 96 140
61 97 151
62 99 171
60 96 159
58 92 133
64 99 169
62 97 159
59 94 137
61 97 151
58 92 114
63 99 169
60 96 140
59 95 149
63 99 171
61 96 140
58 92 111
63 99 161
62 98 161
63 99 179
64 100 161
62 97 159
62 97 149
57 91 114
60 95 128
62 98 161
62 98 159
62 98 161
59 94 151
63 99 161
61 97 161
60 97 171
61 96 140
62 97 151
60 95 140
62 98 161
62 97 151
65 101 171
60 92 140
62 97 159
56 91 140
53 86 140
60 96 151
63 99 171
60 94 128
62 98 151
60 96 151
62 97 140
63 99 161
62 97 161
59 93 140
61 97 151
58 93 114
59 93 140
63 98 151
62 98 151
58 91 142
63 99 161
58 94 128
61 96 161
62 98 161
59 91 133
59 94 151
59 93 140
62 98 161
63 99 161
58 91 161
64 99 173
59 94 114
59 90 114
59 93 151
59 92 120
58 91 133
62 96 151
61 97 151
63 100 181
62 98 161
61 95 128
60 93 144
63 96 144
59 91 128
60 93 142
57 90 142
53 83 130
61 94 144
58 91 147
61 97 161
126 147 192
214 231 255
214 231 255
214 231 255
214 231 255
214 232 255
214 232 255
214 232 255
214 232 255
214 232 255
214 232 255
214 232 255
212 227 245
187 177 114
184 176 114
183 175 114
181 174 114
181 174 114
179 174 114
179 173 114
178 173 114
178 173 114
177 172 114
177 172 114
176 172 114
176 172 114
175 172 114
175 172 114
175 172 114
175 171 114
175 171 114
174 171 114
174 171 114
174 171 114
174 171 114
174 171 114
174 171 114
174 171 114
174 171 114
173 171 114
173 171 114
173 171 114
173 171 114
173 171 114
173 171 114
173 171 114
173 171 114
173 171 114
174 171 114
173 171 114
173 171 114
173 171 114
173 171 114
174 171 114
174 171 114
174 171 114
174 171 114
174 171 114
174 171 114
174 171 114
174 171 114
174 171 114
174 171 114
174 171 114
174 171 114
174 171 114
175 171 114
175 171 114
175 171 114
175 171 114
175 171 114
175 172 114
175 172 114
175 172 114
175 172 114
175 172 114
176 172 114
176 172 114
176 172 114
176 172 114
176 172 114
176 172 114
176 172 114
176 172 114
176 172 114
177 172 114
177 172 114
177 172 114
177 172 114
177 172 114
177 172 114
177 173 114
177 173 114
178 173 114
178 173 114
178 173 114
178 173 114
178 173 114
178 173 114
178 173 114
178 173 114
179 173 114
179 173 114
179 173 114
179 173 114
179 173 114
179 173 114
179 174 114
179 174 114
180 174 114
180 174 114
180 174 114
180 174 114
180 174 114
180 174 114
180 174 114
180 174 114
181 174 114
181 174 114
181 174 114
181 174 114
181 174 114
181 174 114
181 175 114
181 174 114
182 175 114
182 175 114
182 175 114
182 175 114
182 175 114
182 175 114
182 175 114
182 175 114
183 175 114
183 175 114
183 175 114
183 175 114
183 175 114
183 175 114
184 175 114
184 175 114
184 176 114
184 176 114
184 176 114
184 176 114
184 176 114
184 176 114
184 176 114
185 176 114
185 176 114
185 176 114
185 176 114
185 176 114
185 176 114
185 176 114
186 204 228
186 204 228
186 204 228
185 204 228
185 204 228
185 204 228
185 204 228
185 204 228
185 203 228
185 203 228
185 203 228
184 203 228
184 203 228
184 203 228
184 203 228
184 203 228
184 203 228
184 203 228
184 203 228
183 203 228
183 203 228
183 203 228
183 202 228
183 202 228
183 202 228
183 202 228
183 202 228
183 202 228
182 202 228
182 202 228
182 202 228
182 202 228
182 202 228
182 202 228
182 202 228
182 202 228
181 201 228
181 201 228
181 201 228
181 201 228
181 201 228
181 201 228
181 201 228
181 201 228
180 201 228
180 201 228
180 201 228
180 201 228
180 201 228
180 201 228
180 201 228
180 201 228
180 201 228
179 200 228
179 200 228
179 200 228
179 200 228
179 200 228
179 200 228
179 200 228
178 200 228
178 200 228
178 200 228
178 200 228
178 200 228
178 200 228
178 200 228
178 199 228
178 199 228
177 199 228
177 199 228
177 199 228
177 199 228
177 199 228
177 199 228
177 199 228
177 199 228
176 199 228
176 199 228
176 199 228
176 199 228
176 199 228
176 199 228
176 199 228
176 199 228
176 198 228
176 198 228
176 198 228
175 198 228
175 198 228
175 198 228
175 198 228
175 198 228
175 198 228
175 198 228
175 198 228
175 198 228
175 198 228
175 198 228
175 198 228
175 198 228
174 198 228
174 198 228
174 198 228
174 198 228
174 198 228
174 198 228
174 198 228
174 198 228
174 198 228
174 198 228
174 198 228
174 198 228
174 198 228
174 198 228
174 198 228
174 198 228
174 198 228
174 198 228
175 198 228
175 198 228
175 198 228
175 198 228
175 198 228
175 198 228
175 198 228
176 199 228
176 199 228
176 199 228
177 199 228
177 199 228
177 199 228
178 200 228
178 200 228
178 200 228
179 200 228
180 201 228
180 201 228
181 201 228
182 202 228
184 203 228
186 204 228
191 208 231
214 232 255
214 232 255
214 232 255
214 232 255
214 232 255
214 232 255
214 232 255
214 232 255
214 232 255
214 232 255
203 220 245
58 92 144
61 97 169
59 93 151
58 92 137
62 97 159
58 94 169
57 91 165
62 98 159
62 97 157
61 96 157
59 93 114
64 100 171
63 99 169
58 92 140
59 93 149
59 94 137
63 98 161
62 99 179
60 96 140
61 97 161
61 97 151
59 93 149
58 92 114
62 98 161
63 98 159
61 97 151
60 94 140
65 101 171
57 92 114
61 97 159
61 97 151
65 101 181
62 99 181
62 97 140
59 95 140
60 96 151
61 96 140
64 100 171
63 98 140
64 100 161
58 94 128
64 100 179
61 96 140
58 93 140
62 99 171
60 95 140
63 98 151
59 92 128
58 94 140
61 97 151
61 98 171
62 98 161
62 97 140
61 97 140
61 97 151
63 99 161
59 94 151
62 98 161
56 90 128
60 95 140
67 103 181
61 96 153
60 97 161
58 90 130
60 96 151
63 99 161
61 96 153
62 98 161
58 91 130
61 98 171
62 97 163
64 99 151
64 98 161
63 97 163
59 93 130
65 100 161
61 96 161
61 96 151
59 95 140
62 96 153
59 91 135
62 97 163
61 97 161
62 95 142
62 96 165
62 98 171
62 96 153
60 92 155
57 84 125
62 94 144
61 94 142
58 88 111
204 222 249
214 232 255
214 232 255
214 232 255
214 232 255
214 232 255
214 232 255
214 232 255
214 232 255
214 232 255
214 232 255
200 201 184
185 176 114
184 176 114
182 175 114
182 175 114
180 174 114
180 174 114
179 173 114
178 173 114
178 173 114
177 173 114
177 172 114
177 172 114
177 172 114
176 172 114
176 172 114
176 172 114
176 172 114
175 172 114
175 172 114
175 171 114
175 171 114
175 171 114
175 171 114
174 171 114
175 171 114
174 171 114
174 171 114
174 171 114
174 171 114
174 171 114
174 171 114
174 171 114
174 171 114
174 171 114
174 171 114
174 171 114
174 171 114
174 171 114
174 171 114
174 171 114
175 171 114
175 171 114
174 171 114
175 171 114
175 171 114
175 171 114
175 171 114
175 172 114
175 171 114
175 172 114
175 172 114
175 172 114
175 172 114
175 172 114
176 172 114
176 172 114
176 172 114
176 172 114
176 172 114
176 172 114
176 172 114
176 172 114
176 172 114
176 172 114
177 172 114
177 172 114
177 172 114
177 172 114
177 172 114
177 173 114
177 173 114
177 173 114
177 173 114
177 173 114
178 173 114
178 173 114
178 173 114
178 173 114
178 173 114
178 173 114
178 173 114
178 173 114
179 173 114
179 173 114
179 173 114
179 173 114
179 173 114
179 173 114
179 173 114
179 174 114
179 174 114
180 174 114
180 174 114
180 174 114
180 174 114
180 174 114
180 174 114
180 174 114
181 174 114
181 174 114
181 174 114
181 174 114
181 174 114
181 174 114
181 174 114
181 174 114
181 175 114
182 175 114
182 175 114
182 175 114
182 175 114
182 175 114
182 175 114
182 175 114
183 175 114
183 175 114
183 175 114
183 175 114
183 175 114
183 175 114
183 175 114
183 175 114
184 175 114
184 176 114
184 176 114
184 176 114
184 176 114
184 176 114
184 176 114
184 176 114
185 176 114
185 176 114
185 176 114
185 176 114
185 176 114
185 176 114
185 176 114
185 176 114
186 176 114
186 176 114
186 177 114
186 177 114
186 204 228
186 204 228
186 204 228
186 204 228
186 204 228
186 204 228
186 204 228
185 204 228
185 204 228
185 204 228
185 204 228
185 204 228
185 203 228
185 203 228
185 203 228
185 203 228
184 203 228
184 203 228
184 203 228
184 203 228
184 203 228
184 203 228
184 203 228
184 203 228
184 203 228
183 203 228
183 203 228
183 203 228
183 202 228
183 202 228
183 202 228
183 202 228
183 202 228
182 202 228
182 202 228
182 202 228
182 202 228
182 202 228
182 202 228
182 202 228
182 202 228
181 202 228
181 202 228
181 201 228
181 201 228
181 201 228
181 201 228
181 201 228
181 201 228
181 201 228
180 201 228
180 201 228
180 201 228
180 201 228
180 201 228
180 201 228
180 201 228
180 201 228
180 201 228
179 200 228
179 200 228
179 200 228
179 200 228
179 200 228
179 200 228
179 200 228
179 200 228
179 200 228
178 200 228
178 200 228
178 200 228
178 200 228
178 200 228
178 200 228
178 200 228
178 200 228
178 199 228
177 199 228
177 199 228
177 199 228
177 199 228
177 199 228
177 199 228
177 199 228
177 199 228
177 199 228
177 199 228
176 199 228
176 199 228
176 199 228
176 199 228
176 199 228
176 199 228
176 199 228
176 199 228
176 199 228
176 199 228
176 198 228
175 198 228
176 198 228
175 198 228
175 198 228
175 198 228
175 198 228
175 198 228
175 198 228
175 198 228
175 198 228
175 198 228
175 198 228
175 198 228
175 198 228
175 198 228
175 198 228
175 198 228
175 198 228
175 198 228
175 198 228
175 198 228
175 198 228
176 198 228
176 198 228
176 198 228
176 199 228
176 199 228
176 199 228
176 199 228
177 199 228
177 199 228
177 199 228
177 199 228
178 200 228
178 200 228
178 200 228
179 200 228
179 200 228
180 201 228
181 201 228
181 202 228
182 202 228
184 203 228
185 204 228
187 205 228
208 225 248
215 232 255
215 232 255
215 232 255
215 232 255
215 232 255
215 232 255
215 232 255
215 232 255
215 232 255
157 176 215
60 95 172
52 83 140
60 95 173
62 98 179
60 96 167
58 92 161
63 98 159
59 94 149
62 99 171
58 94 147
61 98 169
63 98 157
58 92 159
63 99 171
60 95 149
59 94 140
63 100 171
59 94 128
59 94 128
64 100 171
61 97 151
61 96 149
64 100 161
57 92 114
63 99 169
61 98 171
58 91 140
57 92 128
64 101 181
59 96 151
63 99 161
63 100 171
65 101 171
60 96 171
64 101 181
59 95 149
59 93 114
63 100 181
63 98 151
64 99 161
60 95 140
62 98 161
62 98 161
60 96 151
61 97 151
56 90 140
58 93 114
63 97 140
66 101 161
63 100 181
60 96 151
62 98 161
61 98 171
60 95 128
63 99 171
63 98 161
60 96 140
61 95 140
65 100 161
61 96 140
64 101 181
63 98 151
62 98 161
62 98 161
65 101 181
61 95 140
60 95 128
59 95 151
61 98 171
59 92 114
61 98 161
63 99 161
62 96 153
62 99 171
59 94 151
58 93 114
60 95 151
64 99 161
59 91 117
63 96 130
58 91 129
60 96 151
59 93 151
61 94 144
59 95 140
60 92 135
52 83 140
61 94 155
60 91 137
59 89 135
57 87 107
58 88 136
157 178 214
215 232 255
215 232 255
215 232 255
215 232 255
215 232 255
215 232 255
215 232 255
215 232 255
215 232 255
205 212 211
187 177 114
185 176 114
184 175 114
182 175 114
181 174 114
181 174 114
180 174 114
179 174 114
179 173 114
178 173 114
178 173 114
178 173 114
177 173 114
177 172 114
177 172 114
177 172 114
177 172 114
176 172 114
176 172 114
176 172 114
176 172 114
176 172 114
176 172 114
176 172 114
175 172 114
175 172 114
175 172 114
175 172 114
175 172 114
175 172 114
175 172 114
175 172 114
175 172 114
175 172 114
175 172 114
175 172 114
175 172 114
175 172 114
175 172 114
175 172 114
175 172 114
175 172 114
176 172 114
176 172 114
176 172 114
176 172 114
176 172 114
176 172 114
176 172 114
176 172 114
176 172 114
176 172 114
176 172 114
176 172 114
176 172 114
177 172 114
177 172 114
177 172 114
177 172 114
177 172 114
177 172 114
177 172 114
177 172 114
177 172 114
177 173 114
177 173 114
178 173 114
178 173 114
178 173 114
178 173 114
178 173 114
178 173 114
178 173 114
178 173 114
178 173 114
178 173 114
179 173 114
179 173 114
179 173 114
179 173 114
179 173 114
179 173 114
179 174 114
179 174 114
180 174 114
180 174 114
180 174 114
180 174 114
180 174 114
180 174 114
180 174 114
180 174 114
180 174 114
181 174 114
181 174 114
181 174 114
181 174 114
181 174 114
181 174 114
181 174 114
181 175 114
181 175 114
182 175 114
182 175 114
182 175 114
182 175 114
182 175 114
182 175 114
182 175 114
182 175 114
183 175 114
183 175 114
183 175 114
183 175 114
183 175 114
183 175 114
183 175 114
183 175 114
183 175 114
184 175 114
184 176 114
184 176 114
184 176 114
184 176 114
184 176 114
184 176 114
184 176 114
185 176 114
185 176 114
185 176 114
185 176 114
185 176 114
185 176 114
185 176 114
185 176 114
186 176 114
186 176 114
186 177 114
186 177 114
186 177 114
186 177 114
186 177 114
186 177 114
187 204 228
187 204 228
186 204 228
187 204 228
186 204 228
186 204 228
186 204 228
186 204 228
186 204 228
186 204 228
186 204 228
186 204 228
185 204 228
185 204 228
185 204 228
185 204 228
185 204 228
185 203 228
185 203 228
185 203 228
184 203 228
184 203 228
184 203 228
184 203 228
184 203 228
184 203 228
184 203 228
184 203 228
184 203 228
183 203 228
183 203 228
183 203 228
183 203 228
183 202 228
183 202 228
183 202 228
183 202 228
183 202 228
183 202 228
182 202 228
182 202 228
182 202 228
182 202 228
182 202 228
182 202 228
182 202 228
182 202 228
182 202 228
182 202 228
181 202 228
181 202 228
181 201 228
181 201 228
181 201 228
181 201 228
181 201 228
181 201 228
180 201 228
180 201 228
180 201 228
180 201 228
180 201 228
180 201 228
180 201 228
180 201 228
180 201 228
180 201 228
179 201 228
179 200 228
179 200 228
179 200 228
179 200 228
179 200 228
179 200 228
179 200 228
178 200 228
179 200 228
178 200 228
178 200 228
178 200 228
178 200 228
178 200 228
178 200 228
178 200 228
178 200 228
178 200 228
177 199 228
177 199 228
177 199 228
177 199 228
177 199 228
177 199 228
177 199 228
177 199 228
177 199 228
177 199 228
177 199 228
177 199 228
176 199 228
176 199 228
177 199 228
177 199 228
176 199 228
176 199 228
176 199 228
176 199 228
176 199 228
176 199 228
176 199 228
176 199 228
176 199 228
176 199 228
176 199 228
176 199 228
176 199 228
176 199 228
176 199 228
176 199 228
176 199 228
176 199 228
176 199 228
176 199 228
177 199 228
177 199 228
177 199 228
177 199 228
177 199 228
169 191 223
169 191 223
131 154 198
142 164 204
142 164 203
133 155 198
162 183 217
171 192 223
180 201 228
180 201 228
181 201 228
182 202 228
183 202 228
184 203 228
184 203 228
186 204 228
191 208 231
213 230 253
215 232 255
215 232 255
215 232 255
215 232 255
215 232 255
215 232 255
215 232 255
215 232 255
56 90 137
56 89 147
58 92 140
59 94 169
56 89 137
63 98 159
61 97 169
62 97 157
56 92 137
56 91 149
59 94 155
59 93 137
60 94 151
61 95 169
63 99 169
62 97 140
61 96 140
63 98 151
61 96 140
60 96 159
60 95 137
61 96 159
58 93 128
63 100 181
59 93 159
63 98 151
62 97 140
59 94 114
59 93 140
62 98 161
60 96 169
65 102 181
60 95 128
60 95 128
61 95 140
63 98 151
62 97 140
58 93 161
64 100 171
63 100 171
58 94 140
60 96 171
56 89 128
60 96 140
63 100 171
65 101 171
58 93 128
64 100 161
62 99 171
63 99 171
62 98 151
62 98 151
63 99 161
59 94 140
62 95 140
61 97 151
64 100 171
65 101 181
65 100 173
60 96 151
62 96 142
62 98 171
62 97 161
64 99 161
56 90 140
58 91 142
63 100 181
59 93 151
62 98 171
59 94 128
60 95 142
63 100 171
63 98 163
62 97 151
60 93 117
62 98 161
61 97 140
59 92 117
62 96 155
58 90 117
53 82 62
62 97 163
58 92 140
62 96 151
63 98 173
54 85 131
58 90 133
59 93 144
62 98 161
62 95 163
59 90 135
62 95 155
56 88 133
54 81 118
183 200 228
215 232 255
215 232 255
215 232 255
215 232 255
215 232 255
215 232 255
215 232 255
211 223 234
189 178 114
186 177 114
185 176 114
183 175 114
183 175 114
182 175 114
181 174 114
180 174 114
180 174 114
171 166 109
143 143 102
132 133 96
121 125 95
131 133 96
132 134 99
169 166 111
177 173 114
177 173 114
177 172 114
177 172 114
177 172 114
176 172 114
177 172 114
176 172 114
176 172 114
176 172 114
176 172 114
176 172 114
176 172 114
176 172 114
176 172 114
176 172 114
176 172 114
176 172 114
176 172 114
176 172 114
176 172 114
176 172 114
176 172 114
176 172 114
176 172 114
176 172 114
177 172 114
176 172 114
176 172 114
176 172 114
177 172 114
177 172 114
177 172 114
177 172 114
177 172 114
177 172 114
177 172 114
177 172 114
177 172 114
177 173 114
177 173 114
177 173 114
178 173 114
178 173 114
178 173 114
178 173 114
178 173 114
178 173 114
178 173 114
178 173 114
178 173 114
178 173 114
179 173 114
179 173 114
179 173 114
179 173 114
179 173 114
179 173 114
179 173 114
179 173 114
179 174 114
180 174 114
180 174 114
180 174 114
180 174 114
180 174 114
180 174 114
180 174 114
180 174 114
180 174 114
180 174 114
180 174 114
181 174 114
181 174 114
181 174 114
181 174 114
181 174 114
181 174 114
181 175 114
181 174 114
182 175 114
182 175 114
182 175 114
182 175 114
182 175 114
182 175 114
182 175 114
182 175 114
182 175 114
183 175 114
183 175 114
183 175 114
183 175 114
183 175 114
183 175 114
183 175 114
183 175 114
183 175 114
184 175 114
184 176 114
184 176 114
184 176 114
184 176 114
184 176 114
184 176 114
184 176 114
184 176 114
185 176 114
185 176 114
185 176 114
185 176 114
185 176 114
185 176 114
185 176 114
185 176 114
186 176 114
186 176 114
186 176 114
186 177 114
186 177 114
186 177 114
186 177 114
186 177 114
186 177 114
187 177 114
187 177 114
187 177 114
187 177 114
187 205 228
187 205 228
187 205 228
187 205 228
187 205 228
187 204 228
187 204 228
187 204 228
186 204 228
186 204 228
186 204 228
186 204 228
186 204 228
186 204 228
186 204 228
186 204 228
186 204 228
186 204 228
185 204 228
185 204 228
185 204 228
185 204 228
185 203 228
185 203 228
185 203 228
185 203 228
185 203 228
184 203 228
184 203 228
184 203 228
184 203 228
184 203 228
184 203 228
184 203 228
184 203 228
183 203 228
183 203 228
183 203 228
183 203 228
183 202 228
183 202 228
183 202 228
183 202 228
183 202 228
183 202 228
183 202 228
182 202 228
182 202 228
182 202 228
182 202 228
182 202 228
182 202 228
182 202 228
182 202 228
182 202 228
181 202 228
181 202 228
181 201 228
181 201 228
181 201 228
181 201 228
181 201 228
181 201 228
181 201 228
180 201 228
180 201 228
180 201 228
180 201 228
180 201 228
180 201 228
180 201 228
180 201 228
180 201 228
180 201 228
180 201 228
179 200 228
179 200 228
179 200 228
179 200 228
179 200 228
179 200 228
179 200 228
179 200 228
179 200 228
178 200 228
178 200 228
178 200 228
178 200 228
178 200 228
178 200 228
178 200 228
178 200 228
178 200 228
178 200 228
178 200 228
178 200 228
178 200 228
178 199 228
177 199 228
177 199 228
177 199 228
177 199 228
177 199 228
177 199 228
177 199 228
177 199 228
177 199 228
177 199 228
177 199 228
177 199 228
177 199 228
177 199 228
177 199 228
177 199 228
177 199 228
177 199 228
177 199 228
177 199 228
177 199 228
177 199 228
177 199 228
177 199 228
177 199 228
178 200 228
178 200 228
152 174 211
120 143 191
77 104 165
54 86 151
55 88 158
56 88 158
56 89 160
55 86 156
56 88 150
76 104 166
94 119 169
144 165 203
182 202 228
182 202 228
183 202 228
184 203 228
185 203 228
186 204 228
188 205 228
201 217 240
215 232 255
215 232 255
215 232 255
215 232 255
215 232 255
215 232 255
215 232 255
170 187 221
59 96 159
62 97 167
51 83 148
58 91 159
62 98 167
56 90 135
54 86 95
61 94 157
52 84 92
59 93 140
64 100 161
59 94 149
60 94 125
62 96 137
61 94 157
60 96 151
60 96 149
62 97 149
55 88 137
59 94 137
62 98 169
63 99 161
61 98 171
63 98 151
61 96 140
59 94 161
62 99 171
62 97 151
64 100 161
63 99 171
62 98 151
61 97 169
60 95 140
60 95 140
63 99 161
61 98 169
58 93 114
60 97 161
60 95 128
62 97 140
61 97 161
62 97 171
58 92 114
61 95 140
60 96 151
60 95 140
62 97 149
60 95 140
60 95 140
60 96 151
64 101 181
62 97 151
61 96 128
62 97 140
55 89 99
62 97 140
62 98 171
61 97 151
62 98 161
61 95 161
58 92 99
60 93 153
63 97 161
57 89 140
62 98 161
61 96 151
65 101 171
58 91 142
60 95 140
58 93 140
63 97 161
60 96 140
61 96 151
65 101 181
56 87 105
58 94 128
62 95 155
60 94 142
61 94 155
60 95 140
63 100 171
59 94 128
63 95 130
59 92 151
64 99 173
59 95 140
63 97 165
57 89 145
62 93 144
61 97 163
63 96 155
60 92 152
59 88 125
54 83 121
183 200 224
215 232 255
215 232 255
215 232 255
215 232 255
215 232 255
215 232 255
215 232 255
203 207 198
188 178 114
186 177 114
184 176 114
184 175 114
183 175 114
182 175 114
181 175 114
172 167 111
120 121 89
54 76 80
53 73 76
53 73 74
56 75 74
55 75 72
52 70 65
53 73 73
77 90 77
120 123 93
169 166 111
178 173 114
178 173 114
177 173 114
177 173 114
177 173 114
177 173 114
177 173 114
177 173 114
177 173 114
177 172 114
177 172 114
177 172 114
177 172 114
177 172 114
177 172 114
177 172 114
177 172 114
177 173 114
177 173 114
177 172 114
177 172 114
177 173 114
177 173 114
177 173 114
177 173 114
177 173 114
177 173 114
177 173 114
178 173 114
178 173 114
178 173 114
178 173 114
178 173 114
178 173 114
178 173 114
178 173 114
178 173 114
178 173 114
178 173 114
178 173 114
179 173 114
179 173 114
179 173 114
179 173 114
179 173 114
179 173 114
179 173 114
179 173 114
179 174 114
179 174 114
180 174 114
180 174 114
180 174 114
180 174 114
180 174 114
180 174 114
180 174 114
180 174 114
180 174 114
180 174 114
180 174 114
181 174 114
181 174 114
181 174 114
181 174 114
181 174 114
181 174 114
181 174 114
181 174 114
181 174 114
182 175 114
182 175 114
182 175 114
182 175 114
182 175 114
182 175 114
182 175 114
182 175 114
183 175 114
183 175 114
183 175 114
183 175 114
183 175 114
183 175 114
183 175 114
183 175 114
183 175 114
183 175 114
183 175 114
184 175 114
184 176 114
184 176 114
184 176 114
184 176 114
184 176 114
184 176 114
184 176 114
184 176 114
184 176 114
185 176 114
185 176 114
185 176 114
185 176 114
185 176 114
185 176 114
185 176 114
185 176 114
185 176 114
186 176 114
186 176 114
186 177 114
186 177 114
186 177 114
186 177 114
186 177 114
186 177 114
186 177 114
186 177 114
187 177 114
187 177 114
187 177 114
187 177 114
187 177 114
187 177 114
187 177 114
188 205 228
188 205 228
188 205 228
188 205 228
187 205 228
187 205 228
187 205 228
187 205 228
187 205 228
187 204 228
187 204 228
187 204 228
187 204 228
186 204 228
186 204 228
186 204 228
186 204 228
186 204 228
186 204 228
186 204 228
186 204 228
186 204 228
185 204 228
185 204 228
185 204 228
185 204 228
185 204 228
185 204 228
185 203 228
185 203 228
185 203 228
185 203 228
185 203 228
184 203 228
184 203 228
184 203 228
184 203 228
184 203 228
184 203 228
184 203 228
184 203 228
184 203 228
184 203 228
183 203 228
183 203 228
183 203 228
183 202 228
183 202 228
183 202 228
183 202 228
183 202 228
183 202 228
183 202 228
182 202 228
182 202 228
182 202 228
182 202 228
182 202 228
182 202 228
182 202 228
182 202 228
182 202 228
182 202 228
181 201 228
181 201 228
181 201 228
181 201 228
181 201 228
181 201 228
181 201 228
181 201 228
181 201 228
181 201 228
180 201 228
180 201 228
180 201 228
180 201 228
180 201 228
180 201 228
180 201 228
180 201 228
180 201 228
180 201 228
180 201 228
179 200 228
179 200 228
179 200 228
179 200 228
179 200 228
179 200 228
179 200 228
179 200 228
179 200 228
179 200 228
179 200 228
179 200 228
179 200 228
179 200 228
178 200 228
178 200 228
178 200 228
178 200 228
178 200 228
178 200 228
178 200 228
178 200 228
178 200 228
178 200 228
178 200 228
178 200 228
178 200 228
178 200 228
178 200 228
178 200 228
178 200 228
178 200 228
178 200 228
178 200 228
178 200 228
178 200 228
178 200 228
178 200 228
178 200 228
179 200 228
132 154 191
56 89 161
55 87 158
54 86 150
54 87 160
51 81 142
55 87 156
55 87 151
56 88 144
54 86 156
55 87 156
53 84 152
52 83 153
95 119 172
165 185 217
183 203 228
184 203 228
185 203 228
186 204 228
187 205 228
195 212 234
216 232 255
216 232 255
216 232 255
216 232 255
215 232 255
215 232 255
215 232 255
58 92 157
50 82 128
61 97 167
57 93 140
60 95 157
60 95 155
59 95 151
61 96 173
61 96 151
62 99 179
61 96 159
62 98 169
56 91 128
61 97 171
57 89 137
63 99 169
60 97 169
60 95 149
59 94 151
61 96 140
60 95 161
62 97 159
63 99 161
61 97 151
63 99 161
62 97 151
60 95 140
59 94 114
60 95 151
62 97 151
59 93 151
62 98 161
59 94 128
56 92 128
59 94 140
56 88 137
58 93 151
61 97 159
60 93 140
60 96 140
61 96 140
62 99 171
61 96 140
65 101 179
61 96 140
58 92 99
58 93 151
58 91 151
62 98 161
62 97 161
60 97 161
61 96 149
64 100 161
60 95 140
65 101 181
59 93 140
57 90 151
61 97 151
60 95 128
60 94 140
61 97 161
64 100 171
62 97 151
58 92 130
59 91 99
63 97 142
64 98 163
58 91 142
56 90 128
55 88 99
62 98 161
61 95 140
61 96 140
60 96 151
63 97 151
62 96 161
62 98 171
59 96 151
59 93 130
59 93 128
59 91 105
60 95 140
60 88 135
62 97 161
62 97 151
60 94 144
57 86 92
60 93 142
61 96 171
56 87 121
62 95 151
59 91 145
61 92 135
60 91 120
58 88 122
52 81 105
216 232 255
215 232 255
216 232 255
216 232 255
216 232 255
216 232 255
216 232 255
198 196 169
187 177 114
186 177 114
185 176 114
184 176 114
183 175 114
174 168 111
109 115 88
56 76 77
52 71 70
52 69 66
54 74 73
53 74 73
51 67 60
54 73 74
52 72 69
55 73 70
54 73 74
54 73 69
56 76 77
107 112 88
178 173 114
178 173 114
178 173 114
178 173 114
178 173 114
178 173 114
178 173 114
178 173 114
178 173 114
178 173 114
178 173 114
178 173 114
178 173 114
178 173 114
178 173 114
178 173 114
178 173 114
178 173 114
178 173 114
178 173 114
178 173 114
178 173 114
178 173 114
178 173 114
178 173 114
179 173 114
178 173 114
179 173 114
179 173 114
179 173 114
179 173 114
179 173 114
179 173 114
179 173 114
179 173 114
179 174 114
179 173 114
179 173 114
179 174 114
179 173 114
180 174 114
180 174 114
180 174 114
180 174 114
180 174 114
180 174 114
180 174 114
180 174 114
180 174 114
180 174 114
180 174 114
181 174 114
181 174 114
181 174 114
181 174 114
181 174 114
181 174 114
181 174 114
181 174 114
181 174 114
181 175 114
182 175 114
182 175 114
182 175 114
182 175 114
182 175 114
182 175 114
182 175 114
182 175 114
182 175 114
182 175 114
183 175 114
183 175 114
183 175 114
183 175 114
183 175 114
183 175 114
183 175 114
183 175 114
183 175 114
184 175 114
184 176 114
184 176 114
184 176 114
184 176 114
184 176 114
184 176 114
184 176 114
184 176 114
184 176 114
184 176 114
184 176 114
185 176 114
185 176 114
185 176 114
185 176 114
185 176 114
185 176 114
185 176 114
185 176 114
186 176 114
186 176 114
186 176 114
186 177 114
186 177 114
186 177 114
186 177 114
186 177 114
186 177 114
186 177 114
186 177 114
187 177 114
187 177 114
187 177 114
187 177 114
187 177 114
187 177 114
187 177 114
187 177 114
187 177 114
187 177 114
188 177 114
188 177 114
188 178 114
188 205 228
188 205 228
188 205 228
188 205 228
188 205 228
188 205 228
188 205 228
188 205 228
188 205 228
187 205 228
187 205 228
187 205 228
187 205 228
187 205 228
187 205 228
187 205 228
187 204 228
187 204 228
187 204 228
187 204 228
186 204 228
186 204 228
186 204 228
186 204 228
186 204 228
186 204 228
186 204 228
186 204 228
186 204 228
186 204 228
185 204 228
185 204 228
185 204 228
185 204 228
185 203 228
185 203 228
185 203 228
185 203 228
185 203 228
184 203 228
184 203 228
184 203 228
184 203 228
184 203 228
184 203 228
184 203 228
184 203 228
184 203 228
184 203 228
183 203 228
183 203 228
183 203 228
183 203 228
183 203 228
183 203 228
183 202 228
183 202 228
183 202 228
183 202 228
183 202 228
183 202 228
182 202 228
182 202 228
182 202 228
182 202 228
182 202 228
182 202 228
182 202 228
182 202 228
182 202 228
182 202 228
182 202 228
181 202 228
181 202 228
181 202 228
181 201 228
181 201 228
181 201 228
181 201 228
181 201 228
181 201 228
181 201 228
180 201 228
180 201 228
180 201 228
180 201 228
180 201 228
180 201 228
180 201 228
180 201 228
180 201 228
180 201 228
180 201 228
180 201 228
180 201 228
179 201 228
179 200 228
180 201 228
179 201 228
180 201 228
179 200 228
179 200 228
179 200 228
179 200 228
179 200 228
179 200 228
179 200 228
179 200 228
179 200 228
179 200 228
179 200 228
179 200 228
179 200 228
179 200 228
179 200 228
179 200 228
179 200 228
179 200 228
179 200 228
179 200 228
179 200 228
179 200 228
162 184 217
55 88 160
53 86 151
52 84 148
56 88 153
55 88 160
50 81 149
54 86 155
55 88 160
52 82 151
56 88 151
55 88 160
54 87 160
49 80 148
55 87 151
49 79 147
54 86 156
156 176 211
184 203 228
185 204 228
186 204 228
187 205 228
189 206 228
211 228 250
216 233 255
216 233 255
216 232 255
216 233 255
216 232 255
195 213 242
52 84 135
58 92 163
59 93 144
60 95 157
61 96 157
60 95 149
60 95 157
60 95 137
59 94 147
58 93 128
59 95 157
61 96 149
57 91 128
58 93 128
60 95 140
62 98 161
64 98 149
63 99 171
60 95 149
61 96 140
59 95 140
62 97 151
54 87 114
62 98 151
64 100 179
56 89 128
58 93 128
59 95 151
57 92 151
63 97 171
59 95 137
62 97 140
58 94 140
63 99 161
62 98 151
64 100 169
59 93 125
59 94 128
61 98 161
64 101 181
61 97 151
60 95 149
57 92 149
61 96 151
63 100 171
61 97 151
63 99 171
63 98 161
59 92 114
62 97 151
62 97 140
60 96 140
58 92 140
59 92 128
60 94 130
64 101 171
56 90 80
61 96 128
61 97 151
62 98 151
62 98 161
61 96 128
60 96 151
62 97 140
61 97 151
57 91 117
60 94 155
58 92 151
61 95 142
63 99 161
62 97 151
61 96 140
60 94 151
58 92 151
61 96 151
58 93 140
58 91 142
62 95 144
63 93 147
63 99 151
59 91 114
59 92 151
59 92 153
63 99 161
55 88 117
60 93 144
61 94 144
63 94 147
62 98 151
59 94 128
59 88 108
54 86 114
62 90 137
59 92 147
59 88 135
60 89 140
183 200 223
216 232 255
216 233 255
216 233 255
216 233 255
216 233 255
209 218 223
189 178 114
187 177 114
186 177 114
185 176 114
184 176 114
145 142 97
52 69 56
51 68 65
50 67 64
52 69 65
50 68 64
52 67 61
53 72 69
52 66 52
54 74 76
52 69 63
55 73 64
54 73 68
55 74 74
54 74 73
53 73 67
94 104 88
179 174 114
179 173 114
179 173 114
179 173 114
179 173 114
179 173 114
179 173 114
179 173 114
179 173 114
179 173 114
179 173 114
179 173 114
179 173 114
179 173 114
179 173 114
179 173 114
179 173 114
179 173 114
179 173 114
179 174 114
179 173 114
179 173 114
179 173 114
179 174 114
179 174 114
179 174 114
179 174 114
180 174 114
180 174 114
180 174 114
180 174 114
180 174 114
180 174 114
180 174 114
180 174 114
180 174 114
180 174 114
181 174 114
180 174 114
180 174 114
181 174 114
181 174 114
181 174 114
181 174 114
181 174 114
181 174 114
181 174 114
181 174 114
181 174 114
181 174 114
181 174 114
182 175 114
182 175 114
182 175 114
182 175 114
182 175 114
182 175 114
182 175 114
182 175 114
182 175 114
182 175 114
182 175 114
182 175 114
183 175 114
183 175 114
183 175 114
183 175 114
183 175 114
183 175 114
183 175 114
183 175 114
184 175 114
183 175 114
184 176 114
184 176 114
184 176 114
184 176 114
184 176 114
184 176 114
184 176 114
184 176 114
184 176 114
184 176 114
185 176 114
185 176 114
185 176 114
185 176 114
185 176 114
185 176 114
185 176 114
185 176 114
185 176 114
185 176 114
186 176 114
186 176 114
186 176 114
186 176 114
186 177 114
186 177 114
186 177 114
186 177 114
186 177 114
186 177 114
186 177 114
187 177 114
187 177 114
187 177 114
187 177 114
187 177 114
187 177 114
187 177 114
187 177 114
187 177 114
187 177 114
187 177 114
188 177 114
188 177 114
188 178 114
188 178 114
188 178 114
188 178 114
188 178 114
188 178 114
189 206 228
189 206 228
189 205 228
189 205 228
188 205 228
188 205 228
188 205 228
188 205 228
188 205 228
188 205 228
188 205 228
188 205 228
188 205 228
188 205 228
188 205 228
187 205 228
187 205 228
187 205 228
187 205 228
187 205 228
187 205 228
187 205 228
187 205 228
187 204 228
187 204 228
187 204 228
186 204 228
186 204 228
186 204 228
186 204 228
186 204 228
186 204 228
186 204 228
186 204 228
186 204 228
186 204 228
186 204 228
185 204 228
185 204 228
185 204 228
185 204 228
185 204 228
185 204 228
185 203 228
185 203 228
185 203 228
185 203 228
185 203 228
185 203 228
184 203 228
184 203 228
184 203 228
184 203 228
184 203 228
184 203 228
184 203 228
184 203 228
184 203 228
184 203 228
184 203 228
183 203 228
183 202 228
183 203 228
183 202 228
183 202 228
183 202 228
183 202 228
183 202 228
183 202 228
183 202 228
183 202 228
183 202 228
182 202 228
182 202 228
182 202 228
182 202 228
182 202 228
182 202 228
182 202 228
182 202 228
182 202 228
182 202 228
181 202 228
181 202 228
181 202 228
181 201 228
181 202 228
181 201 228
181 201 228
181 201 228
181 201 228
181 201 228
181 201 228
180 201 228
181 201 228
181 201 228
181 201 228
181 201 228
180 201 228
180 201 228
180 201 228
181 201 228
180 201 228
180 201 228
180 201 228
180 201 228
180 201 228
180 201 228
180 201 228
180 201 228
180 201 228
180 201 228
180 201 228
180 201 228
180 201 228
180 201 228
180 201 228
180 201 228
180 201 228
180 201 228
180 201 228
163 184 217
77 104 151
57 89 160
53 85 142
57 89 153
52 83 144
54 85 146
54 86 155
54 86 150
55 87 150
52 83 147
53 85 155
53 84 139
50 81 144
52 84 156
53 85 155
46 76 145
50 80 136
51 82 151
156 174 199
185 204 228
186 204 228
187 205 228
189 205 228
201 217 240
216 233 255
216 233 255
216 233 255
216 233 255
216 233 255
142 161 203
50 82 142
58 92 161
60 95 157
60 94 157
55 89 137
57 91 143
56 90 95
61 98 171
54 86 133
57 89 114
58 91 128
55 90 142
62 97 161
61 95 161
59 95 149
57 91 137
61 97 151
62 97 151
61 96 140
62 97 151
59 95 140
62 97 140
61 97 161
59 93 151
58 94 128
56 89 128
63 99 169
62 98 161
61 96 151
59 93 114
62 97 149
64 99 161
60 95 140
65 100 161
62 98 161
63 99 161
56 88 128
60 94 114
62 98 151
61 96 140
57 91 128
60 95 128
63 99 161
60 95 151
60 93 114
62 97 161
60 96 140
64 99 151
61 97 161
59 94 128
60 95 140
64 100 161
61 96 161
60 96 140
62 98 151
60 94 128
60 95 128
60 95 128
62 98 161
60 94 114
61 96 140
61 94 142
59 94 140
63 99 161
59 93 117
58 92 128
60 95 161
61 97 140
62 96 142
60 95 161
57 92 114
58 92 128
62 96 161
64 99 171
61 95 142
60 97 161
62 97 163
61 94 117
63 99 171
61 97 151
58 91 128
59 92 140
61 95 140
64 99 151
61 94 133
60 93 153
58 89 135
57 91 140
60 90 135
57 87 120
58 91 140
60 94 142
57 87 142
55 86 134
59 90 144
61 95 155
107 124 144
216 233 255
216 233 255
216 233 255
216 233 255
216 233 255
196 191 153
189 178 114
187 177 114
186 177 114
185 176 114
124 124 90
51 69 66
52 70 69
43 58 54
46 59 44
50 65 51
50 68 64
52 67 60
54 71 60
50 67 61
49 65 61
51 69 70
52 72 69
48 65 56
56 75 68
53 75 76
52 71 59
54 72 72
77 90 80
163 159 108
180 174 114
180 174 114
180 174 114
180 174 114
180 174 114
180 174 114
180 174 114
180 174 114
180 174 114
180 174 114
180 174 114
180 174 114
180 174 114
180 174 114
180 174 114
180 174 114
180 174 114
180 174 114
180 174 114
180 174 114
180 174 114
180 174 114
180 174 114
180 174 114
180 174 114
181 174 114
181 174 114
181 174 114
181 174 114
181 174 114
181 174 114
181 174 114
181 174 114
181 174 114
181 174 114
181 174 114
181 174 114
182 175 114
182 175 114
181 175 114
182 175 114
182 175 114
182 175 114
182 175 114
182 175 114
182 175 114
182 175 114
182 175 114
182 175 114
182 175 114
182 175 114
183 175 114
183 175 114
183 175 114
183 175 114
183 175 114
183 175 114
183 175 114
183 175 114
183 175 114
183 175 114
183 175 114
184 175 114
184 176 114
184 176 114
184 176 114
184 176 114
184 176 114
184 176 114
184 176 114
184 176 114
184 176 114
185 176 114
185 176 114
185 176 114
185 176 114
185 176 114
185 176 114
185 176 114
185 176 114
185 176 114
185 176 114
185 176 114
185 176 114
186 176 114
186 176 114
186 177 114
186 177 114
186 177 114
186 177 114
186 177 114
186 177 114
186 177 114
186 177 114
186 177 114
187 177 114
187 177 114
187 177 114
187 177 114
187 177 114
187 177 114
187 177 114
187 177 114
187 177 114
187 177 114
187 177 114
188 177 114
188 177 114
188 177 114
188 177 114
188 178 114
188 178 114
188 178 114
188 178 114
188 178 114
188 178 114
188 178 114
189 178 114
189 178 114
189 178 114
189 178 114
189 206 228
189 206 228
189 206 228
189 206 228
189 206 228
189 206 228
189 206 228
189 206 228
189 206 228
188 205 228
188 205 228
188 205 228
188 205 228
188 205 228
188 205 228
188 205 228
188 205 228
188 205 228
188 205 228
188 205 228
188 205 228
187 205 228
187 205 228
187 205 228
187 205 228
187 205 228
187 205 228
187 205 228
187 205 228
187 205 228
187 204 228
187 204 228
187 204 228
186 204 228
186 204 228
186 204 228
186 204 228
186 204 228
186 204 228
186 204 228
186 204 228
186 204 228
186 204 228
186 204 228
186 204 228
185 204 228
185 204 228
185 204 228
185 204 228
185 204 228
185 203 228
185 203 228
185 203 228
185 203 228
185 203 228
185 203 228
185 203 228
185 203 228
184 203 228
184 203 228
184 203 228
184 203 228
184 203 228
184 203 228
184 203 228
184 203 228
184 203 228
184 203 228
184 203 228
183 203 228
183 203 228
183 203 228
183 203 228
183 203 228
183 202 228
183 202 228
183 202 228
183 202 228
183 202 228
183 202 228
183 202 228
183 202 228
182 202 228
182 202 228
182 202 228
182 202 228
182 202 228
182 202 228
182 202 228
182 202 228
182 202 228
182 202 228
182 202 228
182 202 228
182 202 228
182 202 228
182 202 228
181 202 228
181 202 228
181 202 228
181 201 228
181 201 228
181 201 228
181 201 228
181 202 228
181 201 228
181 201 228
181 201 228
181 201 228
181 201 228
181 201 228
181 201 228
181 201 228
181 201 228
181 201 228
181 201 228
181 201 228
181 201 228
181 201 228
181 201 228
181 201 228
94 119 175
52 84 141
54 87 160
54 84 144
56 88 153
55 86 155
52 83 146
55 87 151
51 84 142
56 87 150
53 85 148
51 82 144
51 81 134
51 83 151
50 81 150
52 83 154
50 80 148
52 83 142
52 83 137
45 74 139
125 146 190
186 204 228
187 205 228
188 205 228
191 207 228
214 230 253
216 233 255
216 233 255
216 233 255
216 233 255
57 92 147
61 96 157
56 90 157
50 81 95
56 89 137
60 96 157
59 95 157
57 91 153
60 94 128
58 92 135
63 98 149
59 95 151
60 95 157
60 95 155
58 92 114
61 96 140
60 94 137
60 95 149
61 97 151
60 96 140
57 92 125
58 91 128
64 100 171
62 97 149
60 94 128
58 93 151
55 88 140
62 97 157
63 99 161
64 100 171
60 95 128
62 97 151
63 99 161
61 97 151
60 95 128
61 96 128
61 97 159
57 91 128
60 96 140
63 98 159
63 99 171
63 99 161
62 97 140
60 95 128
64 99 151
62 97 151
63 100 171
59 92 140
58 94 128
63 99 161
63 98 151
62 98 161
63 99 171
63 98 140
64 100 161
62 98 151
61 97 151
59 94 114
58 93 130
61 97 161
62 96 151
56 89 99
63 98 151
61 97 151
57 89 117
63 99 171
59 93 130
59 95 140
61 96 140
56 89 130
63 99 161
61 97 151
63 99 161
60 93 128
60 95 128
59 91 130
63 98 161
62 95 144
62 97 151
64 100 161
60 96 151
57 88 120
59 91 114
58 92 140
62 97 151
63 98 163
57 90 120
59 89 102
58 91 117
61 94 144
62 97 151
56 86 133
58 86 122
63 95 155
59 92 155
60 93 142
52 80 110
53 83 105
206 223 249
216 233 255
216 233 255
216 233 255
216 233 255
191 179 114
188 178 114
187 177 114
187 177 114
147 143 94
53 71 70
54 72 70
48 62 56
45 59 55
45 61 54
47 62 56
48 66 65
52 71 73
47 64 60
52 67 61
56 74 70
54 75 76
51 67 57
55 73 70
53 71 64
53 74 76
55 74 73
54 71 65
55 72 70
95 104 88
173 167 111
181 174 114
181 174 114
181 174 114
181 174 114
181 174 114
181 174 114
181 174 114
181 174 114
181 174 114
181 174 114
181 174 114
181 174 114
181 174 114
181 174 114
181 174 114
181 174 114
181 174 114
181 174 114
181 174 114
181 174 114
181 174 114
181 174 114
182 175 114
182 175 114
182 175 114
182 175 114
182 175 114
182 175 114
182 175 114
182 175 114
182 175 114
182 175 114
182 175 114
182 175 114
182 175 114
182 175 114
182 175 114
183 175 114
183 175 114
183 175 114
183 175 114
183 175 114
183 175 114
183 175 114
183 175 114
183 175 114
183 175 114
183 175 114
183 175 114
183 175 114
183 175 114
184 175 114
184 176 114
184 176 114
184 176 114
184 176 114
184 176 114
184 176 114
184 176 114
184 176 114
184 176 114
184 176 114
184 176 114
184 176 114
185 176 114
185 176 114
185 176 114
185 176 114
185 176 114
185 176 114
185 176 114
185 176 114
185 176 114
185 176 114
185 176 114
186 176 114
186 176 114
186 177 114
186 177 114
186 177 114
186 177 114
186 177 114
186 177 114
186 177 114
186 177 114
186 177 114
187 177 114
187 177 114
187 177 114
187 177 114
187 177 114
187 177 114
187 177 114
187 177 114
187 177 114
187 177 114
187 177 114
187 177 114
187 177 114
188 177 114
188 177 114
188 177 114
188 178 114
188 178 114
188 178 114
188 178 114
188 178 114
188 178 114
188 178 114
188 178 114
189 178 114
189 178 114
189 178 114
189 178 114
189 178 114
189 178 114
189 178 114
189 178 114
189 178 114
189 178 114
190 206 228
190 206 228
190 206 228
190 206 228
189 206 228
190 206 228
189 206 228
189 206 228
189 206 228
189 206 228
189 206 228
189 206 228
189 206 228
189 206 228
189 205 228
189 206 228
189 205 228
188 205 228
188 205 228
188 205 228
188 205 228
188 205 228
188 205 228
188 205 228
188 205 228
188 205 228
188 205 228
188 205 228
188 205 228
188 205 228
187 205 228
187 205 228
187 205 228
187 205 228
187 205 228
187 205 228
187 205 228
187 205 228
187 204 228
187 204 228
187 204 228
187 204 228
187 204 228
186 204 228
186 204 228
186 204 228
186 204 228
186 204 228
186 204 228
186 204 228
186 204 228
186 204 228
186 204 228
186 204 228
186 204 228
185 204 228
185 204 228
185 204 228
185 204 228
185 203 228
185 204 228
185 204 228
185 203 228
185 203 228
185 203 228
185 203 228
184 203 228
185 203 228
184 203 228
184 203 228
184 203 228
184 203 228
184 203 228
184 203 228
184 203 228
184 203 228
184 203 228
184 203 228
184 203 228
184 203 228
183 203 228
184 203 228
183 203 228
183 203 228
183 203 228
183 203 228
183 203 228
183 202 228
183 202 228
183 202 228
183 202 228
183 202 228
183 202 228
183 202 228
183 202 228
183 202 228
182 202 228
183 202 228
182 202 228
183 202 228
182 202 228
182 202 228
182 202 228
182 202 228
182 202 228
182 202 228
182 202 228
182 202 228
182 202 228
182 202 228
182 202 228
182 202 228
182 202 228
182 202 228
182 202 228
182 202 228
182 202 228
182 202 228
182 202 228
182 202 228
135 156 191
57 90 161
55 88 161
54 86 135
55 87 156
55 86 123
54 86 141
55 86 148
52 85 142
49 79 129
48 78 140
50 81 149
49 80 147
49 80 112
50 81 144
46 76 137
52 84 148
47 77 145
44 71 125
47 78 147
48 78 139
46 73 138
124 143 184
188 205 228
189 205 228
190 206 228
197 213 234
217 233 255
217 233 255
217 233 255
195 212 240
51 83 145
59 95 149
57 90 133
47 76 125
58 92 144
61 96 149
61 97 165
59 95 137
57 90 144
63 98 159
61 96 140
57 91 147
61 96 140
60 96 149
57 92 151
63 99 171
63 99 171
52 85 95
61 96 159
60 96 151
60 93 140
59 93 128
63 98 175
66 102 181
60 95 140
61 96 140
62 98 151
59 94 128
58 92 137
62 97 151
63 98 157
59 93 140
61 97 151
61 98 161
63 99 161
62 98 161
60 95 128
58 93 140
63 99 161
58 93 128
59 94 137
65 100 161
65 100 171
62 98 151
63 97 171
63 98 159
63 98 171
63 99 161
60 95 128
65 101 161
59 94 140
62 97 140
64 99 151
61 97 161
63 97 153
57 90 128
58 93 128
58 91 161
62 97 151
62 96 155
63 99 161
62 98 161
60 94 142
64 99 163
62 98 151
61 97 140
62 97 151
58 91 142
58 89 130
61 96 128
58 90 102
63 98 171
60 96 140
62 97 151
61 96 140
62 99 171
63 99 161
62 96 151
60 93 163
65 100 161
60 94 140
64 98 153
62 95 155
56 88 130
60 93 117
58 88 120
59 90 144
59 89 120
60 93 155
60 94 155
59 94 128
59 89 130
58 91 153
61 96 163
63 97 161
48 75 57
58 92 140
52 78 108
172 189 217
217 233 255
217 233 255
217 233 255
205 208 198
190 179 114
189 178 114
188 177 114
124 122 86
45 59 52
39 52 45
51 68 65
48 64 60
48 64 55
46 58 45
52 70 69
48 60 46
51 66 49
52 69 61
53 71 65
49 67 64
54 73 69
52 66 52
56 75 74
50 65 59
53 70 65
54 73 64
56 75 73
53 72 58
56 77 76
122 125 92
182 175 114
182 175 114
182 175 114
182 175 114
182 175 114
182 175 114
182 175 114
182 175 114
182 175 114
182 175 114
182 175 114
182 175 114
182 175 114
182 175 114
182 175 114
182 175 114
182 175 114
182 175 114
182 175 114
182 175 114
182 175 114
182 175 114
182 175 114
183 175 114
182 175 114
183 175 114
183 175 114
183 175 114
183 175 114
183 175 114
183 175 114
183 175 114
183 175 114
183 175 114
183 175 114
183 175 114
184 175 114
183 175 114
183 175 114
184 175 114
184 175 114
184 176 114
184 176 114
184 176 114
184 176 114
184 176 114
184 176 114
184 176 114
184 176 114
184 176 114
184 176 114
184 176 114
185 176 114
185 176 114
185 176 114
185 176 114
185 176 114
185 176 114
185 176 114
185 176 114
185 176 114
185 176 114
185 176 114
185 176 114
186 176 114
186 176 114
186 176 114
186 176 114
186 177 114
186 177 114
186 177 114
186 177 114
186 177 114
186 177 114
186 177 114
186 177 114
186 177 114
186 177 114
187 177 114
187 177 114
187 177 114
187 177 114
187 177 114
187 177 114
187 177 114
187 177 114
187 177 114
187 177 114
187 177 114
187 177 114
188 177 114
188 177 114
188 177 114
188 178 114
188 178 114
188 178 114
188 178 114
188 178 114
188 178 114
188 178 114
188 178 114
188 178 114
188 178 114
188 178 114
189 178 114
189 178 114
189 178 114
189 178 114
189 178 114
189 178 114
189 178 114
189 178 114
189 178 114
189 178 114
189 178 114
190 178 114
190 178 114
190 178 114
190 178 114
190 178 114
190 206 228
190 206 228
190 206 228
190 206 228
190 206 228
190 206 228
190 206 228
190 206 228
190 206 228
190 206 228
190 206 228
190 206 228
189 206 228
189 206 228
189 206 228
189 206 228
189 206 228
189 206 228
189 206 228
189 206 228
189 206 228
189 206 228
189 206 228
189 205 228
189 205 228
188 205 228
188 205 228
188 205 228
188 205 228
188 205 228
188 205 228
188 205 228
188 205 228
188 205 228
188 205 228
188 205 228
188 205 228
188 205 228
188 205 228
188 205 228
187 205 228
187 205 228
187 205 228
187 205 228
187 205 228
187 205 228
187 205 228
187 204 228
187 204 228
187 205 228
187 204 228
186 204 228
187 204 228
186 204 228
186 204 228
186 204 228
186 204 228
186 204 228
186 204 228
186 204 228
186 204 228
186 204 228
186 204 228
186 204 228
186 204 228
186 204 228
185 204 228
185 204 228
185 204 228
185 204 228
185 204 228
185 204 228
185 204 228
185 204 228
185 203 228
185 203 228
185 203 228
185 203 228
185 203 228
185 203 228
184 203 228
185 203 228
184 203 228
184 203 228
184 203 228
184 203 228
184 203 228
184 203 228
184 203 228
184 203 228
184 203 228
184 203 228
184 203 228
184 203 228
184 203 228
184 203 228
184 203 228
184 203 228
184 203 228
183 203 228
183 203 228
183 203 228
183 203 228
183 203 228
183 202 228
183 203 228
183 202 228
183 202 228
183 202 228
183 202 228
183 203 228
183 202 228
183 202 228
183 202 228
183 202 228
183 202 228
183 202 228
183 202 228
183 202 228
147 167 204
57 89 160
54 85 125
56 88 160
57 89 158
56 88 158
52 84 131
55 87 156
53 84 141
51 82 144
54 84 125
53 84 141
48 78 130
48 78 138
47 76 131
43 69 124
51 82 153
49 80 141
44 71 130
47 76 134
45 73 130
52 83 152
48 79 147
51 82 151
149 166 199
189 206 228
190 206 228
195 210 231
217 233 255
217 233 255
217 233 255
157 174 198
54 87 133
54 87 137
59 93 147
58 92 135
57 92 144
61 97 161
58 93 147
57 91 114
59 95 140
57 91 114
63 100 179
58 91 132
59 95 140
60 94 125
61 96 147
65 100 161
58 93 140
59 93 167
58 92 140
63 99 169
56 91 111
56 90 128
60 96 140
62 96 151
66 101 171
59 94 140
60 95 128
60 96 151
67 102 171
60 96 159
60 95 151
63 97 149
64 100 171
64 99 151
61 96 137
60 96 140
64 100 171
61 98 161
66 102 171
57 89 114
63 99 161
60 97 161
61 97 151
62 96 128
59 93 151
62 97 149
61 97 151
56 90 140
62 98 151
54 88 114
62 96 140
63 98 151
62 96 161
62 97 151
56 89 99
63 99 161
62 97 161
59 94 128
58 92 114
59 95 151
59 93 153
62 98 151
60 95 128
64 99 161
62 97 140
56 90 102
57 91 114
65 101 161
61 95 142
60 94 128
57 91 130
55 88 140
61 98 161
63 98 161
59 92 161
60 93 133
57 90 117
65 101 171
62 93 144
55 87 88
63 96 142
57 89 102
61 97 151
60 93 161
63 97 163
62 97 151
59 92 140
63 99 173
62 94 155
62 98 151
59 88 125
60 95 151
66 102 171
56 89 102
56 87 142
59 92 133
57 81 102
60 89 137
127 145 174
217 233 255
217 233 255
215 228 245
194 185 135
190 179 114
189 178 114
170 162 106
41 57 55
46 61 56
39 51 43
48 60 47
49 62 52
49 65 60
52 72 68
48 62 56
47 61 49
53 69 62
53 70 60
49 66 64
48 63 55
53 73 72
47 64 61
53 73 73
53 72 64
52 69 63
55 74 69
55 74 68
55 74 73
55 74 67
54 75 72
145 143 99
183 175 114
183 175 114
183 175 114
183 175 114
183 175 114
183 175 114
183 175 114
183 175 114
183 175 114
183 175 114
183 175 114
183 175 114
183 175 114
183 175 114
183 175 114
183 175 114
183 175 114
183 175 114
183 175 114
183 175 114
183 175 114
184 175 114
183 175 114
183 175 114
184 176 114
184 176 114
184 176 114
184 176 114
184 176 114
184 176 114
184 176 114
184 176 114
184 176 114
184 176 114
184 176 114
184 176 114
184 176 114
184 176 114
184 176 114
185 176 114
185 176 114
185 176 114
185 176 114
185 176 114
185 176 114
185 176 114
185 176 114
185 176 114
185 176 114
185 176 114
185 176 114
185 176 114
186 176 114
186 176 114
186 176 114
186 176 114
186 177 114
186 177 114
186 177 114
186 177 114
186 177 114
186 177 114
186 177 114
186 177 114
186 177 114
186 177 114
187 177 114
187 177 114
187 177 114
187 177 114
187 177 114
187 177 114
187 177 114
187 177 114
187 177 114
187 177 114
187 177 114
187 177 114
187 177 114
187 177 114
187 177 114
188 177 114
188 177 114
188 177 114
188 178 114
188 178 114
188 178 114
188 178 114
188 178 114
188 178 114
188 178 114
188 178 114
188 178 114
188 178 114
189 178 114
189 178 114
189 178 114
189 178 114
189 178 114
189 178 114
189 178 114
189 178 114
189 178 114
189 178 114
189 178 114
189 178 114
189 178 114
189 178 114
190 178 114
190 178 114
190 178 114
190 178 114
190 179 114
190 179 114
190 179 114
190 179 114
190 179 114
190 179 114
190 179 114
191 207 228
191 207 228
191 207 228
191 207 228
191 207 228
191 207 228
190 207 228
190 206 228
190 206 228
190 206 228
190 206 228
190 206 228
190 206 228
190 206 228
190 206 228
190 206 228
190 206 228
190 206 228
190 206 228
190 206 228
189 206 228
189 206 228
189 206 228
189 206 228
189 206 228
189 206 228
189 206 228
189 206 228
189 206 228
189 206 228
189 206 228
189 206 228
189 206 228
189 205 228
189 205 228
189 205 228
188 205 228
188 205 228
188 205 228
188 205 228
188 205 228
188 205 228
188 205 228
188 205 228
188 205 228
188 205 228
188 205 228
188 205 228
188 205 228
187 205 228
188 205 228
187 205 228
187 205 228
187 205 228
187 205 228
187 205 228
187 205 228
187 205 228
187 205 228
187 204 228
187 204 228
187 204 228
187 204 228
187 204 228
186 204 228
186 204 228
186 204 228
186 204 228
186 204 228
186 204 228
186 204 228
186 204 228
186 204 228
186 204 228
186 204 228
186 204 228
186 204 228
186 204 228
185 204 228
186 204 228
185 204 228
185 204 228
185 204 228
185 204 228
185 204 228
185 204 228
185 204 228
185 204 228
185 203 228
185 203 228
185 203 228
185 203 228
185 203 228
185 203 228
185 203 228
184 203 228
185 203 228
184 203 228
184 203 228
184 203 228
184 203 228
184 203 228
184 203 228
184 203 228
184 203 228
184 203 228
184 203 228
184 203 228
184 203 228
184 203 228
184 203 228
184 203 228
184 203 228
184 203 228
184 203 228
184 203 228
184 203 228
184 203 228
184 203 228
78 105 153
53 85 142
53 86 135
50 81 135
54 86 142
56 87 144
49 80 125
54 86 150
52 83 147
51 81 135
54 86 142
53 85 150
48 77 137
49 77 118
52 84 139
41 67 108
49 79 132
44 71 119
46 74 139
50 81 150
47 76 144
42 69 135
41 66 126
48 77 145
75 98 142
189 206 228
190 206 228
192 207 228
213 229 250
217 233 255
217 233 255
56 89 144
51 82 134
57 92 155
63 97 157
56 89 147
61 97 159
54 87 126
61 95 163
60 94 125
55 87 120
60 96 159
61 96 147
62 97 149
62 98 161
54 88 92
56 90 80
60 94 159
60 94 149
62 99 171
59 94 137
61 96 147
56 90 137
60 95 147
60 95 137
60 95 140
60 94 151
56 90 114
60 95 151
59 94 159
61 97 151
61 95 140
54 88 99
62 98 161
62 98 151
63 97 151
61 97 151
64 99 151
59 95 140
62 97 140
59 93 114
60 96 140
60 96 149
63 99 161
59 94 128
59 95 140
61 97 159
55 88 99
62 97 161
60 96 140
57 90 114
64 100 171
61 97 151
63 99 161
64 100 161
64 99 151
59 94 114
59 94 128
60 95 140
58 93 151
58 90 128
60 96 140
55 89 114
62 97 151
62 97 140
60 95 128
62 98 161
63 98 163
63 97 151
63 98 140
55 89 128
59 92 120
65 101 171
57 91 140
59 92 128
63 98 140
62 95 153
61 94 140
60 95 161
60 93 128
61 93 133
62 95 144
61 96 151
58 91 161
63 98 171
59 92 120
64 99 151
63 99 161
58 93 128
58 89 130
62 96 161
59 91 133
63 96 161
57 90 130
60 94 130
54 84 131
58 90 140
57 87 122
59 88 128
47 74 128
54 82 120
217 233 255
217 233 255
208 214 211
192 179 114
190 179 114
180 170 108
75 82 63
41 51 38
36 48 42
46 61 57
46 59 51
45 59 50
50 65 57
42 55 50
44 55 37
48 63 55
48 64 59
50 66 59
50 66 41
47 63 55
54 72 69
53 71 65
49 68 53
53 71 69
55 75 77
53 69 61
56 75 68
53 73 63
54 73 68
56 76 76
59 79 80
184 176 114
184 176 114
184 176 114
184 176 114
184 176 114
184 176 114
184 176 114
184 176 114
184 176 114
184 176 114
184 176 114
184 176 114
184 176 114
184 176 114
184 176 114
184 176 114
184 176 114
184 176 114
184 176 114
184 176 114
184 176 114
185 176 114
184 176 114
184 176 114
185 176 114
185 176 114
185 176 114
185 176 114
185 176 114
185 176 114
185 176 114
185 176 114
185 176 114
185 176 114
185 176 114
185 176 114
185 176 114
185 176 114
185 176 114
185 176 114
186 176 114
186 176 114
186 177 114
186 176 114
186 177 114
186 177 114
186 177 114
186 177 114
186 177 114
186 177 114
186 177 114
186 177 114
186 177 114
186 177 114
187 177 114
187 177 114
187 177 114
187 177 114
187 177 114
187 177 114
187 177 114
187 177 114
187 177 114
187 177 114
187 177 114
187 177 114
187 177 114
187 177 114
188 177 114
187 177 114
188 177 114
188 177 114
188 177 114
188 178 114
188 178 114
188 178 114
188 178 114
188 178 114
188 178 114
188 178 114
188 178 114
188 178 114
188 178 114
189 178 114
188 178 114
189 178 114
189 178 114
189 178 114
189 178 114
189 178 114
189 178 114
189 178 114
189 178 114
189 178 114
189 178 114
189 178 114
189 178 114
190 178 114
189 178 114
189 178 114
190 178 114
190 178 114
190 178 114
190 178 114
190 178 114
190 179 114
190 179 114
190 179 114
190 179 114
190 179 114
190 179 114
190 179 114
190 179 114
191 179 114
191 179 114
191 179 114
191 179 114
191 179 114
191 179 114
191 207 228
191 207 228
191 207 228
191 207 228
191 207 228
191 207 228
191 207 228
191 207 228
191 207 228
191 207 228
191 207 228
191 207 228
191 207 228
191 207 228
191 207 228
190 206 228
190 206 228
190 206 228
190 206 228
190 206 228
190 206 228
190 206 228
190 206 228
190 206 228
190 206 228
190 206 228
190 206 228
190 206 228
190 206 228
190 206 228
190 206 228
189 206 228
189 206 228
189 206 228
189 206 228
189 206 228
189 206 228
189 206 228
189 206 228
189 206 228
189 206 228
189 206 228
189 206 228
188 205 228
189 205 228
189 206 228
188 205 228
188 205 228
188 205 228
188 205 228
188 205 228
188 205 228
188 205 228
188 205 228
188 205 228
188 205 228
188 205 228
188 205 228
188 205 228
188 205 228
188 205 228
187 205 228
187 205 228
187 205 228
187 205 228
187 205 228
187 205 228
187 205 228
187 205 228
187 205 228
187 205 228
187 205 228
187 205 228
187 204 228
187 204 228
187 204 228
187 204 228
187 204 228
186 204 228
186 204 228
186 204 228
187 204 228
186 204 228
186 204 228
186 204 228
186 204 228
186 204 228
186 204 228
186 204 228
186 204 228
186 204 228
186 204 228
186 204 228
186 204 228
186 204 228
186 204 228
186 204 228
186 204 228
185 204 228
185 204 228
186 204 228
185 204 228
185 204 228
185 204 228
185 204 228
185 204 228
185 204 228
185 204 228
185 204 228
185 204 228
185 204 228
185 204 228
185 204 228
185 203 228
185 203 228
185 204 228
185 204 228
185 204 228
124 146 191
54 86 151
54 86 133
53 83 125
55 87 158
56 86 151
53 84 131
50 80 132
50 81 129
52 83 121
52 81 109
48 77 134
49 79 133
51 82 129
52 83 114
46 73 138
46 75 94
54 85 155
45 72 125
46 75 142
46 73 118
46 74 128
45 72 130
40 66 124
47 76 142
46 76 132
139 156 191
190 206 228
192 207 228
206 221 242
218 233 255
206 222 242
55 88 130
53 85 136
60 95 163
54 88 165
54 85 137
59 94 140
60 93 122
58 92 147
62 97 151
62 97 167
57 92 144
60 95 147
62 98 169
61 95 159
58 93 128
63 98 159
59 92 125
57 91 111
57 91 128
58 93 159
58 91 125
60 94 140
62 97 151
62 98 169
61 96 140
62 98 151
63 99 171
60 95 140
61 95 151
61 97 140
60 94 114
62 97 151
57 92 114
61 97 140
61 96 140
62 96 128
62 98 151
63 99 171
58 92 128
60 94 114
62 98 151
61 97 151
56 90 114
63 98 151
61 97 151
57 91 140
63 99 171
61 97 161
57 91 114
61 97 151
62 98 151
61 96 140
63 99 161
63 97 151
63 99 161
60 95 128
62 98 151
65 100 161
58 93 140
62 99 171
66 102 181
57 90 114
58 93 114
65 101 181
58 92 114
60 96 151
62 96 142
61 96 151
62 96 142
58 92 128
64 100 161
60 94 140
58 93 114
64 99 151
60 92 140
60 95 151
57 92 140
59 95 140
61 95 161
55 84 99
60 92 153
63 98 153
54 86 140
57 88 117
62 94 144
59 92 152
62 96 153
61 94 140
64 98 163
61 94 151
56 89 130
59 94 128
59 92 130
59 91 135
55 85 114
55 86 117
57 89 144
57 90 155
57 86 125
49 78 114
184 199 222
218 233 255
206 209 198
192 179 114
190 179 114
124 120 79
47 63 60
45 58 50
41 57 58
36 46 34
43 59 54
41 56 55
45 58 35
42 53 40
47 62 54
45 57 25
47 64 60
48 64 53
52 66 54
53 74 77
50 65 53
53 72 73
51 69 60
54 73 69
54 72 59
52 71 67
50 68 62
53 72 73
54 71 64
55 75 73
53 74 62
111 115 85
185 176 114
185 176 114
185 176 114
185 176 114
185 176 114
185 176 114
185 176 114
185 176 114
185 176 114
185 176 114
185 176 114
185 176 114
185 176 114
185 176 114
185 176 114
185 176 114
185 176 114
185 176 114
186 176 114
186 176 114
185 176 114
185 176 114
186 176 114
186 176 114
186 177 114
186 176 114
186 177 114
186 177 114
186 177 114
186 177 114
186 177 114
186 177 114
186 177 114
186 177 114
186 177 114
186 177 114
186 177 114
186 177 114
186 177 114
187 177 114
187 177 114
187 177 114
187 177 114
187 177 114
187 177 114
187 177 114
187 177 114
187 177 114
187 177 114
187 177 114
187 177 114
187 177 114
187 177 114
187 177 114
187 177 114
187 177 114
188 177 114
188 177 114
188 177 114
188 177 114
188 178 114
188 178 114
188 178 114
188 178 114
188 178 114
188 178 114
188 178 114
188 178 114
188 178 114
188 178 114
188 178 114
188 178 114
189 178 114
188 178 114
189 178 114
189 178 114
189 178 114
189 178 114
189 178 114
189 178 114
189 178 114
189 178 114
189 178 114
189 178 114
189 178 114
189 178 114
189 178 114
190 178 114
190 178 114
190 178 114
190 178 114
190 178 114
190 178 114
190 178 114
190 178 114
190 179 114
190 179 114
190 179 114
190 179 114
190 179 114
190 179 114
190 179 114
190 179 114
191 179 114
190 179 114
191 179 114
191 179 114
191 179 114
191 179 114
191 179 114
191 179 114
191 179 114
191 179 114
191 179 114
191 179 114
191 179 114
191 179 114
191 179 114
192 207 228
192 207 228
192 207 228
192 207 228
192 207 228
192 207 228
192 207 228
192 207 228
191 207 228
191 207 228
191 207 228
191 207 228
191 207 228
191 207 228
191 207 228
191 207 228
191 207 228
191 207 228
191 207 228
191 207 228
191 207 228
191 207 228
191 207 228
191 207 228
191 207 228
191 207 228
190 206 228
190 206 228
190 206 228
190 206 228
190 206 228
190 206 228
190 206 228
190 206 228
190 206 228
190 206 228
190 206 228
190 206 228
190 206 228
190 206 228
190 206 228
190 206 228
190 206 228
189 206 228
189 206 228
189 206 228
189 206 228
189 206 228
189 206 228
189 206 228
189 206 228
189 206 228
189 206 228
189 206 228
189 206 228
189 206 228
189 205 228
189 206 228
189 205 228
188 205 228
189 205 228
188 205 228
188 205 228
188 205 228
188 205 228
188 205 228
188 205 228
188 205 228
188 205 228
188 205 228
188 205 228
188 205 228
188 205 228
188 205 228
188 205 228
188 205 228
187 205 228
187 205 228
187 205 228
188 205 228
187 205 228
187 205 228
187 205 228
187 205 228
187 205 228
187 205 228
187 205 228
187 205 228
187 205 228
187 205 228
187 205 228
187 205 228
187 204 228
187 204 228
187 204 228
187 204 228
187 204 228
187 204 228
187 204 228
187 204 228
186 204 228
186 204 228
186 204 228
186 204 228
186 204 228
186 204 228
186 204 228
186 204 228
186 204 228
186 204 228
186 204 228
186 204 228
186 204 228
186 204 228
186 204 228
186 204 228
186 204 228
186 204 228
57 89 160
55 85 131
55 86 125
52 84 133
55 85 141
55 87 151
55 87 151
55 88 144
52 82 131
54 86 150
51 82 131
47 75 111
45 73 123
48 76 123
50 82 146
47 77 144
47 75 129
52 82 149
48 77 136
39 66 124
48 77 129
44 72 133
46 74 139
29 49 95
32 53 107
42 67 129
92 110 154
191 207 228
192 207 228
196 211 231
218 234 255
156 171 194
56 90 140
49 78 120
58 92 144
56 90 140
57 91 151
62 97 167
60 95 140
58 92 150
57 90 128
60 95 140
59 93 128
59 93 140
57 90 114
56 90 125
57 89 149
58 90 122
59 91 114
59 94 125
61 96 151
61 97 169
59 94 128
63 98 159
61 97 169
59 92 137
56 88 128
62 99 171
58 93 140
60 96 161
59 94 128
60 95 137
62 96 151
59 94 151
54 86 76
61 97 151
60 95 161
61 96 140
58 92 99
62 97 140
58 92 140
64 99 151
60 94 151
64 100 161
60 94 151
63 98 151
64 100 161
61 97 151
63 99 161
63 98 151
57 92 99
60 95 128
63 98 151
61 97 161
60 95 140
61 95 140
61 96 140
62 97 151
59 92 128
59 92 142
59 94 128
55 89 80
62 98 161
62 96 151
62 98 171
62 98 161
58 93 151
59 94 114
62 97 161
57 91 99
61 95 142
57 91 128
62 97 140
60 92 142
58 92 128
59 95 140
56 91 128
65 100 151
60 95 151
55 89 99
58 91 142
57 90 140
61 95 140
63 99 151
61 97 151
58 90 80
57 91 128
61 94 130
55 89 99
58 91 142
57 91 128
61 94 133
57 87 102
57 89 131
60 94 140
57 91 128
56 86 130
53 81 102
53 81 130
58 89 133
54 81 95
51 79 132
142 157 183
218 234 255
196 186 135
192 179 114
191 179 114
46 60 54
37 48 42
45 58 51
35 47 42
39 48 34
35 46 30
47 61 51
48 63 56
49 67 67
40 54 46
48 67 69
39 52 39
51 68 65
45 58 43
55 73 69
52 68 55
52 67 60
53 67 49
54 74 68
51 68 59
49 68 57
52 71 68
53 72 68
53 71 69
51 70 57
55 72 69
54 73 73
177 169 109
186 177 114
186 177 114
186 177 114
186 177 114
186 177 114
186 177 114
186 177 114
186 177 114
186 177 114
186 177 114
186 177 114
186 177 114
186 177 114
186 177 114
186 177 114
187 177 114
186 177 114
187 177 114
186 177 114
186 177 114
187 177 114
187 177 114
187 177 114
187 177 114
187 177 114
187 177 114
187 177 114
187 177 114
187 177 114
187 177 114
187 177 114
187 177 114
187 177 114
187 177 114
187 177 114
187 177 114
187 177 114
187 177 114
187 177 114
187 177 114
187 177 114
187 177 114
188 177 114
188 177 114
188 177 114
188 178 114
188 178 114
188 178 114
188 178 114
188 178 114
188 178 114
188 178 114
188 178 114
188 178 114
188 178 114
188 178 114
188 178 114
189 178 114
188 178 114
189 178 114
189 178 114
189 178 114
189 178 114
189 178 114
189 178 114
189 178 114
189 178 114
189 178 114
189 178 114
189 178 114
189 178 114
189 178 114
189 178 114
189 178 114
190 178 114
190 178 114
190 178 114
190 178 114
190 178 114
190 178 114
190 179 114
190 178 114
190 178 114
190 179 114
190 179 114
190 179 114
190 179 114
190 179 114
190 179 114
190 179 114
190 179 114
191 179 114
191 179 114
191 179 114
191 179 114
191 179 114
191 179 114
191 179 114
191 179 114
191 179 114
191 179 114
191 179 114
191 179 114
191 179 114
191 179 114
191 179 114
191 179 114
191 179 114
191 179 114
191 179 114
192 179 114
192 179 114
192 179 114
192 179 114
192 179 114
192 179 114
192 179 114
192 208 228
192 208 228
192 208 228
192 207 228
192 207 228
192 207 228
192 207 228
192 207 228
192 207 228
192 207 228
192 207 228
192 207 228
192 207 228
192 207 228
192 207 228
192 207 228
192 207 228
192 207 228
192 207 228
192 207 228
191 207 228
191 207 228
191 207 228
191 207 228
191 207 228
191 207 228
191 207 228
191 207 228
191 207 228
191 207 228
191 207 228
191 207 228
191 207 228
191 207 228
191 207 228
191 207 228
191 207 228
190 206 228
190 206 228
190 206 228
190 206 228
190 206 228
190 206 228
190 206 228
190 206 228
190 206 228
190 206 228
190 206 228
190 206 228
190 206 228
190 206 228
190 206 228
190 206 228
190 206 228
190 206 228
190 206 228
190 206 228
189 206 228
189 206 228
189 206 228
189 206 228
189 206 228
189 206 228
189 206 228
189 206 228
189 206 228
189 206 228
189 206 228
189 206 228
189 206 228
189 206 228
189 206 228
189 206 228
189 205 228
189 205 228
189 206 228
189 205 228
188 205 228
188 205 228
188 205 228
188 205 228
188 205 228
188 205 228
188 205 228
188 205 228
188 205 228
188 205 228
188 205 228
188 205 228
188 205 228
188 205 228
188 205 228
188 205 228
188 205 228
188 205 228
187 205 228
188 205 228
188 205 228
188 205 228
188 205 228
188 205 228
187 205 228
187 205 228
188 205 228
187 205 228
187 205 228
187 205 228
187 205 228
187 205 228
187 205 228
187 205 228
187 205 228
187 205 228
187 205 228
187 205 228
187 205 228
187 205 228
126 146 184
53 86 135
54 84 135
52 82 114
52 82 131
54 86 135
54 86 144
54 85 121
50 81 139
47 75 97
55 86 156
50 80 123
51 81 121
49 78 136
45 72 85
53 85 150
47 74 130
44 72 129
45 71 127
44 70 134
49 77 131
51 82 141
40 66 118
47 75 139
45 73 121
37 63 124
31 52 104
42 68 131
126 143 177
192 207 228
193 208 228
218 234 255
106 123 159
55 86 127
55 87 92
56 90 128
60 95 155
51 81 122
57 92 135
57 91 114
60 94 125
57 91 140
60 95 157
61 96 147
59 94 149
60 96 167
59 94 161
61 96 128
58 95 151
61 97 157
56 88 99
62 97 149
61 97 151
59 93 151
53 86 128
58 92 128
56 90 128
59 94 114
64 100 171
62 98 161
65 100 169
56 89 114
61 97 151
60 94 140
61 98 161
61 96 140
59 94 128
64 99 161
64 99 151
61 96 149
62 98 151
61 96 140
60 94 114
56 90 111
56 90 128
61 96 140
59 93 99
63 99 171
62 98 151
62 98 161
60 96 140
61 96 128
60 94 128
64 99 151
61 96 128
65 100 161
63 99 151
62 97 140
61 97 151
62 97 151
61 94 128
62 98 161
61 97 151
62 97 151
58 92 99
61 97 151
60 95 140
56 89 128
59 92 153
57 91 128
62 97 151
63 98 151
62 97 151
63 98 163
59 92 140
59 92 140
57 91 133
61 95 128
63 99 151
59 91 140
55 88 117
59 90 140
57 89 140
59 93 117
62 98 151
57 89 102
60 95 151
62 96 142
60 93 128
53 80 120
61 92 149
61 96 163
57 88 114
58 92 114
60 93 154
63 96 155
55 88 128
57 88 105
53 80 117
56 90 143
52 81 86
59 92 133
56 84 111
173 189 201
216 229 245
196 186 135
192 180 114
162 152 97
41 54 48
44 58 50
41 53 41
45 58 41
45 61 54
50 65 59
44 59 59
41 51 42
50 65 45
47 62 49
52 67 54
49 65 59
49 62 49
53 69 60
52 68 60
53 71 60
52 72 67
46 62 54
48 65 54
52 69 56
54 73 68
53 72 57
54 68 57
53 73 57
54 73 62
55 74 63
56 77 80
187 177 114
187 177 114
187 177 114
187 177 114
187 177 114
187 177 114
187 177 114
187 177 114
187 177 114
187 177 114
187 177 114
187 177 114
187 177 114
187 177 114
187 177 114
187 177 114
187 177 114
187 177 114
188 177 114
188 177 114
188 177 114
188 177 114
188 177 114
188 178 114
188 177 114
188 177 114
188 178 114
188 178 114
188 178 114
188 178 114
188 178 114
188 178 114
188 178 114
188 178 114
188 178 114
188 178 114
188 178 114
188 178 114
188 178 114
188 178 114
188 178 114
188 178 114
188 178 114
188 178 114
189 178 114
189 178 114
189 178 114
189 178 114
189 178 114
189 178 114
189 178 114
189 178 114
189 178 114
189 178 114
189 178 114
189 178 114
189 178 114
189 178 114
189 178 114
189 178 114
189 178 114
190 178 114
190 178 114
190 178 114
190 178 114
190 178 114
190 178 114
190 178 114
190 179 114
190 179 114
190 179 114
190 179 114
190 179 114
190 179 114
190 179 114
190 179 114
190 179 114
190 179 114
190 179 114
191 179 114
190 179 114
190 179 114
191 179 114
191 179 114
191 179 114
191 179 114
191 179 114
191 179 114
191 179 114
191 179 114
191 179 114
191 179 114
191 179 114
191 179 114
191 179 114
191 179 114
191 179 114
191 179 114
191 179 114
192 179 114
192 179 114
192 179 114
192 179 114
192 179 114
192 179 114
192 179 114
192 179 114
192 179 114
192 179 114
192 180 114
192 180 114
192 180 114
192 180 114
192 180 114
192 180 114
192 180 114
192 180 114
192 180 114
193 208 228
193 208 228
193 208 228
193 208 228
193 208 228
193 208 228
193 208 228
193 208 228
193 208 228
193 208 228
192 208 228
192 208 228
192 208 228
192 208 228
192 208 228
192 208 228
192 207 228
192 207 228
192 207 228
192 207 228
192 207 228
192 207 228
192 207 228
192 207 228
192 207 228
192 207 228
192 207 228
192 207 228
192 207 228
192 207 228
192 207 228
191 207 228
191 207 228
191 207 228
191 207 228
191 207 228
191 207 228
191 207 228
191 207 228
191 207 228
191 207 228
191 207 228
191 207 228
191 207 228
191 207 228
191 207 228
191 207 228
191 207 228
191 207 228
191 207 228
191 207 228
191 207 228
191 207 228
191 207 228
190 206 228
190 206 228
190 206 228
190 206 228
190 206 228
190 206 228
190 206 228
190 206 228
190 206 228
190 206 228
190 206 228
190 206 228
190 206 228
190 206 228
190 206 228
190 206 228
190 206 228
189 206 228
190 206 228
190 206 228
190 206 228
189 206 228
190 206 228
189 206 228
189 206 228
189 206 228
189 206 228
189 206 228
189 206 228
189 206 228
189 206 228
189 206 228
189 206 228
189 206 228
189 206 228
189 206 228
189 206 228
189 206 228
189 206 228
189 206 228
189 206 228
189 206 228
189 206 228
189 205 228
188 205 228
189 205 228
189 205 228
189 206 228
188 205 228
189 205 228
188 205 228
188 205 228
188 205 228
188 205 228
188 205 228
188 205 228
188 205 228
188 205 228
188 205 228
188 205 228
188 205 228
188 205 228
188 205 228
98 121 168
54 84 102
55 88 153
53 84 133
47 76 106
55 87 135
50 79 125
52 82 102
51 81 126
53 84 151
55 85 131
48 77 132
46 73 116
51 81 144
55 87 150
47 75 109
50 81 135
46 74 101
46 73 121
42 69 127
48 77 127
48 78 133
40 65 124
44 72 136
42 68 127
39 62 115
36 60 111
29 49 96
37 60 106
192 208 228
194 208 228
216 232 253
109 130 170
48 78 126
60 96 161
50 82 125
56 88 128
58 92 133
64 100 171
56 90 111
61 95 140
59 95 149
61 97 149
60 95 140
63 98 151
57 91 149
56 88 114
57 90 114
61 96 140
55 87 128
58 92 99
58 93 151
57 91 128
63 99 161
58 91 140
60 95 140
56 89 128
63 98 161
64 100 161
61 95 128
64 101 181
59 94 137
64 99 159
58 93 140
60 94 151
62 98 151
56 89 140
59 94 128
60 95 140
65 101 171
60 95 140
58 93 151
61 96 140
62 98 161
62 98 161
62 97 140
58 91 140
59 92 99
58 92 151
59 92 140
60 94 114
58 92 114
62 98 161
61 96 128
61 96 128
58 92 140
60 95 128
59 94 137
60 96 140
58 92 114
58 92 140
54 87 80
59 94 128
63 98 151
61 95 142
62 99 171
64 100 161
63 99 161
62 98 151
61 96 140
63 99 161
61 94 130
59 93 140
55 87 114
66 102 171
60 93 128
56 89 99
59 93 140
62 96 153
61 95 140
61 95 140
61 94 117
61 97 140
59 93 140
61 94 130
59 93 140
59 92 120
60 95 140
62 95 140
60 94 163
58 91 120
58 87 108
60 95 151
59 91 140
58 91 133
57 92 151
59 91 117
56 87 122
63 98 151
58 90 130
57 87 129
54 85 89
52 79 120
126 142 164
214 224 234
193 180 114
192 180 114
41 53 32
38 49 40
35 48 39
41 54 49
33 43 30
37 51 46
36 47 40
36 48 46
37 48 32
49 64 57
41 50 36
50 67 64
48 65 58
53 68 60
46 63 53
52 68 59
46 64 51
52 68 65
48 64 58
53 71 67
53 72 63
54 72 63
55 73 63
50 68 58
53 72 68
53 71 59
58 78 80
55 74 69
114 117 92
188 178 114
188 178 114
188 178 114
188 178 114
188 178 114
188 178 114
188 178 114
188 178 114
188 178 114
188 178 114
188 178 114
188 178 114
188 178 114
188 178 114
188 178 114
189 178 114
189 178 114
189 178 114
189 178 114
189 178 114
189 178 114
189 178 114
189 178 114
189 178 114
189 178 114
189 178 114
189 178 114
189 178 114
189 178 114
189 178 114
189 178 114
189 178 114
189 178 114
189 178 114
189 178 114
189 178 114
189 178 114
190 178 114
189 178 114
189 178 114
189 178 114
190 178 114
190 178 114
190 178 114
190 178 114
190 178 114
190 178 114
190 178 114
190 178 114
190 178 114
190 178 114
190 179 114
190 179 114
190 179 114
190 179 114
190 179 114
190 179 114
190 179 114
190 179 114
190 179 114
190 179 114
190 179 114
190 179 114
191 179 114
190 179 114
191 179 114
191 179 114
191 179 114
191 179 114
191 179 114
191 179 114
191 179 114
191 179 114
191 179 114
191 179 114
191 179 114
191 179 114
191 179 114
191 179 114
191 179 114
191 179 114
191 179 114
191 179 114
192 179 114
192 179 114
192 179 114
192 179 114
192 179 114
192 179 114
192 179 114
192 179 114
192 179 114
192 179 114
192 179 114
192 180 114
192 180 114
192 180 114
192 180 114
192 180 114
192 180 114
192 180 114
192 180 114
192 180 114
192 180 114
192 180 114
192 180 114
193 180 114
193 180 114
193 180 114
193 180 114
193 180 114
193 180 114
193 180 114
193 180 114
193 180 114
193 180 114
193 180 114
193 208 228
193 208 228
194 208 228
193 208 228
193 208 228
193 208 228
193 208 228
193 208 228
193 208 228
193 208 228
193 208 228
193 208 228
193 208 228
193 208 228
193 208 228
193 208 228
193 208 228
193 208 228
193 208 228
193 208 228
193 208 228
193 208 228
193 208 228
193 208 228
192 208 228
193 208 228
192 208 228
192 208 228
192 208 228
192 208 228
192 207 228
192 208 228
192 207 228
192 207 228
192 207 228
192 207 228
192 207 228
192 207 228
192 207 228
192 207 228
192 207 228
192 207 228
192 207 228
192 207 228
192 207 228
192 207 228
192 207 228
192 207 228
191 207 228
191 207 228
191 207 228
191 207 228
191 207 228
191 207 228
191 207 228
191 207 228
191 207 228
191 207 228
191 207 228
191 207 228
191 207 228
191 207 228
191 207 228
191 207 228
191 207 228
191 207 228
191 207 228
191 207 228
191 207 228
191 207 228
191 207 228
191 207 228
190 206 228
190 207 228
190 207 228
191 207 228
190 206 228
190 206 228
190 206 228
190 206 228
190 206 228
190 206 228
190 206 228
190 206 228
190 206 228
190 206 228
190 206 228
190 206 228
190 206 228
190 206 228
190 206 228
190 206 228
190 206 228
190 206 228
190 206 228
190 206 228
190 206 228
190 206 228
190 206 228
190 206 228
190 206 228
189 206 228
190 206 228
189 206 228
189 206 228
189 206 228
189 206 228
189 206 228
189 206 228
189 206 228
189 206 228
189 206 228
189 206 228
189 206 228
189 206 228
189 206 228
189 206 228
51 83 102
53 86 144
53 85 133
57 88 135
51 81 135
51 81 125
54 86 150
50 79 135
55 86 155
55 86 141
50 81 136
46 73 125
50 80 142
45 73 101
49 77 128
46 74 88
51 82 135
47 75 108
47 76 125
34 55 102
45 72 122
45 71 129
42 70 127
43 71 113
45 75 134
33 56 113
42 68 121
40 66 115
36 61 124
163 178 204
194 208 228
212 227 248
86 111 155
54 87 122
60 95 163
64 99 169
52 84 101
54 86 116
55 86 114
59 95 157
55 87 99
60 94 147
59 93 122
59 94 140
60 95 147
64 100 171
62 96 159
62 97 149
60 96 171
63 99 169
56 88 137
64 99 151
62 97 159
60 94 140
60 95 128
56 89 114
61 96 159
62 98 161
61 96 137
59 93 125
64 99 151
60 96 149
57 90 137
60 96 151
59 92 114
59 93 99
57 91 99
54 87 111
57 92 111
62 98 151
57 91 128
57 90 128
58 91 128
58 93 114
60 95 140
59 94 140
61 96 140
61 96 128
61 96 140
55 89 114
62 96 140
60 95 140
62 98 151
59 94 114
62 97 140
62 98 151
58 91 114
58 92 140
59 92 114
62 98 151
61 96 161
58 91 114
57 90 140
62 97 153
53 86 128
58 92 114
60 94 130
61 96 151
62 98 161
63 99 171
57 87 102
61 97 151
58 93 128
60 96 140
60 92 151
57 90 114
57 90 114
58 92 128
63 99 161
58 90 102
60 94 130
61 96 128
61 96 153
57 90 120
65 101 181
59 93 128
60 93 117
62 97 163
62 95 153
63 98 153
62 96 142
59 91 142
62 97 140
61 94 133
64 98 161
60 91 133
60 91 122
58 90 130
59 90 142
55 85 117
55 86 117
58 91 143
53 80 105
49 74 105
212 220 223
194 180 114
173 162 103
41 53 43
32 44 41
30 38 31
42 53 36
48 60 51
42 52 36
35 45 32
45 60 54
46 59 50
45 55 36
38 49 20
49 68 63
46 60 47
53 69 64
43 57 40
47 61 39
48 65 46
54 71 64
48 63 51
54 72 64
52 69 53
54 73 63
51 66 54
53 71 57
53 73 62
53 70 58
49 67 53
55 76 67
55 75 67
181 171 111
189 178 114
189 178 114
189 178 114
189 178 114
189 178 114
189 178 114
190 178 114
189 178 114
190 178 114
189 178 114
189 178 114
190 178 114
190 178 114
189 178 114
189 178 114
189 178 114
190 178 114
190 178 114
189 178 114
190 178 114
190 178 114
190 178 114
190 179 114
190 178 114
190 179 114
190 178 114
190 179 114
190 179 114
190 179 114
190 179 114
190 179 114
190 179 114
190 179 114
190 179 114
190 179 114
190 179 114
190 179 114
190 179 114
190 179 114
190 179 114
190 179 114
190 179 114
191 179 114
191 179 114
191 179 114
191 179 114
191 179 114
191 179 114
191 179 114
191 179 114
191 179 114
191 179 114
191 179 114
191 179 114
191 179 114
191 179 114
191 179 114
191 179 114
191 179 114
191 179 114
191 179 114
191 179 114
191 179 114
191 179 114
191 179 114
191 179 114
191 179 114
191 179 114
192 179 114
192 179 114
192 179 114
192 179 114
192 179 114
192 179 114
192 179 114
192 179 114
192 179 114
192 179 114
192 180 114
192 180 114
192 180 114
192 180 114
192 180 114
192 180 114
192 180 114
192 180 114
192 180 114
192 180 114
192 180 114
193 180 114
193 180 114
193 180 114
192 180 114
193 180 114
193 180 114
193 180 114
193 180 114
193 180 114
193 180 114
193 180 114
193 180 114
193 180 114
193 180 114
193 180 114
193 180 114
193 180 114
193 180 114
193 180 114
193 180 114
193 180 114
193 180 114
193 180 114
193 180 114
193 180 114
193 180 114
193 180 114
194 209 228
194 208 228
194 208 228
194 208 228
194 208 228
194 208 228
194 208 228
194 208 228
194 208 228
194 208 228
194 208 228
194 208 228
194 208 228
194 208 228
194 208 228
193 208 228
194 208 228
193 208 228
193 208 228
193 208 228
193 208 228
193 208 228
193 208 228
193 208 228
193 208 228
193 208 228
193 208 228
193 208 228
193 208 228
193 208 228
193 208 228
193 208 228
193 208 228
193 208 228
193 208 228
193 208 228
193 208 228
193 208 228
193 208 228
193 208 228
193 208 228
193 208 228
192 208 228
193 208 228
192 208 228
192 207 228
192 208 228
192 208 228
192 208 228
192 208 228
192 207 228
192 207 228
192 207 228
192 207 228
192 207 228
192 207 228
192 207 228
192 207 228
192 207 228
192 207 228
192 207 228
192 207 228
192 207 228
192 207 228
192 207 228
192 207 228
192 207 228
192 207 228
192 207 228
192 207 228
191 207 228
191 207 228
192 207 228
191 207 228
191 207 228
191 207 228
191 207 228
191 207 228
191 207 228
191 207 228
191 207 228
191 207 228
191 207 228
191 207 228
191 207 228
191 207 228
191 207 228
191 207 228
191 207 228
191 207 228
191 207 228
191 207 228
191 207 228
191 207 228
191 207 228
191 207 228
191 207 228
191 207 228
191 207 228
190 206 228
191 207 228
191 207 228
190 206 228
190 206 228
191 207 228
190 207 228
190 206 228
190 206 228
190 206 228
190 206 228
190 206 228
190 207 228
190 206 228
190 206 228
190 206 228
190 206 228
127 146 177
53 84 135
53 86 135
55 87 142
53 83 121
49 78 127
53 84 121
51 81 131
55 87 142
52 83 131
49 80 131
55 87 142
48 78 122
49 79 139
41 67 127
48 76 108
51 80 133
44 72 135
51 82 151
49 80 139
49 76 121
47 76 131
40 65 96
32 54 115
47 75 129
45 73 135
40 66 129
34 54 89
32 54 98
31 53 108
138 150 176
194 208 228
200 214 234
42 67 113
47 76 110
58 92 159
52 85 149
54 86 128
62 97 151
58 92 128
61 97 159
56 90 144
59 95 128
56 89 125
55 85 122
57 90 111
57 91 114
60 95 137
59 92 133
58 92 147
58 92 114
59 94 128
59 94 149
59 92 128
59 92 137
59 93 125
57 90 111
60 95 140
58 93 140
57 90 128
59 93 140
60 96 151
61 96 157
60 96 140
54 84 140
60 94 140
58 93 125
62 96 151
64 99 161
62 97 149
61 96 140
63 99 161
64 99 151
57 91 128
67 103 181
64 99 161
64 100 161
57 91 114
61 96 128
59 94 114
61 94 128
62 97 151
58 93 128
60 94 151
59 94 128
61 96 128
63 99 171
55 89 114
61 97 161
58 93 114
60 95 151
64 98 151
54 85 80
65 100 161
56 90 114
57 91 140
55 87 140
62 97 151
58 91 142
63 99 171
59 92 130
60 95 140
56 88 128
55 89 128
63 99 161
62 95 130
58 91 140
56 88 114
62 96 153
58 90 130
55 88 114
58 93 151
61 96 140
63 96 155
63 97 140
58 93 114
59 94 128
63 98 151
57 88 114
60 93 140
62 98 151
61 92 144
60 94 144
64 99 161
58 89 120
56 86 102
58 92 142
62 95 144
58 89 142
61 91 144
64 98 163
58 90 130
59 88 114
56 83 114
46 65 44
205 204 184
194 180 114
139 131 83
39 48 27
37 50 46
13 17 2
37 48 31
32 43 29
44 55 20
39 51 35
40 51 34
41 55 39
40 52 43
48 63 53
40 53 48
41 55 47
46 62 54
50 64 44
51 66 42
47 64 45
54 70 60
55 75 67
52 71 67
52 69 59
52 67 61
52 67 49
53 71 68
51 67 49
55 73 68
55 75 73
55 74 63
56 77 76
162 155 105
190 179 114
190 179 114
190 179 114
190 179 114
190 179 114
190 179 114
190 179 114
190 179 114
191 179 114
190 179 114
190 179 114
190 179 114
190 179 114
190 179 114
191 179 114
190 179 114
191 179 114
191 179 114
191 179 114
190 179 114
191 179 114
191 179 114
191 179 114
191 179 114
191 179 114
191 179 114
191 179 114
191 179 114
191 179 114
191 179 114
191 179 114
191 179 114
191 179 114
191 179 114
191 179 114
191 179 114
191 179 114
191 179 114
191 179 114
191 179 114
191 179 114
192 179 114
191 179 114
191 179 114
191 179 114
192 179 114
192 179 114
192 179 114
192 179 114
192 179 114
192 179 114
192 179 114
192 179 114
192 179 114
192 179 114
192 179 114
192 179 114
192 180 114
192 179 114
192 180 114
192 180 114
192 180 114
192 180 114
192 180 114
192 180 114
192 180 114
192 180 114
192 180 114
192 180 114
192 180 114
192 180 114
192 180 114
193 180 114
193 180 114
193 180 114
192 180 114
193 180 114
193 180 114
193 180 114
193 180 114
193 180 114
193 180 114
193 180 114
193 180 114
193 180 114
193 180 114
193 180 114
193 180 114
193 180 114
193 180 114
193 180 114
193 180 114
193 180 114
193 180 114
193 180 114
193 180 114
193 180 114
193 180 114
193 180 114
193 180 114
194 180 114
194 180 114
194 180 114
194 180 114
194 180 114
194 180 114
194 180 114
194 180 114
194 180 114
194 180 114
194 180 114
194 180 114
194 180 114
194 180 114
194 180 114
194 181 114
194 209 228
195 209 228
194 209 228
194 209 228
195 209 228
194 209 228
194 209 228
194 209 228
194 209 228
194 209 228
194 209 228
194 209 228
194 209 228
194 209 228
194 209 228
194 209 228
194 209 228
194 209 228
194 208 228
194 208 228
194 208 228
194 208 228
194 208 228
194 208 228
194 208 228
194 208 228
194 208 228
194 208 228
194 208 228
194 208 228
194 208 228
194 208 228
194 208 228
194 208 228
194 208 228
193 208 228
193 208 228
194 208 228
193 208 228
193 208 228
193 208 228
193 208 228
193 208 228
193 208 228
193 208 228
193 208 228
193 208 228
193 208 228
193 208 228
193 208 228
193 208 228
193 208 228
193 208 228
193 208 228
193 208 228
193 208 228
193 208 228
193 208 228
193 208 228
193 208 228
193 208 228
193 208 228
193 208 228
193 208 228
193 208 228
193 208 228
193 208 228
192 208 228
192 208 228
192 208 228
192 208 228
192 208 228
192 208 228
192 208 228
192 207 228
192 207 228
192 208 228
192 208 228
192 208 228
192 207 228
192 207 228
192 207 228
192 207 228
192 207 228
192 207 228
192 207 228
192 207 228
192 207 228
192 207 228
192 207 228
192 207 228
192 207 228
192 207 228
192 207 228
192 207 228
192 207 228
192 207 228
192 207 228
192 207 228
192 207 228
192 207 228
192 207 228
192 207 228
192 207 228
192 207 228
192 207 228
192 207 228
191 207 228
192 207 228
191 207 228
192 207 228
191 207 228
191 207 228
192 207 228
191 207 228
182 189 188
126 134 141
58 90 153
53 82 135
54 85 125
55 86 125
56 87 150
51 81 127
52 81 131
53 83 123
49 79 131
54 84 129
48 77 115
51 81 137
49 77 124
44 71 121
48 77 137
48 78 118
50 79 135
46 73 122
45 73 139
48 78 141
40 65 101
31 52 110
41 66 123
44 71 130
29 49 91
38 64 122
24 44 92
39 63 115
36 60 115
72 90 135
194 209 228
186 200 223
50 82 141
60 96 157
55 87 128
58 92 125
57 92 135
61 96 151
63 98 167
61 96 174
56 89 114
56 91 133
56 89 120
52 83 80
61 95 128
63 98 159
58 93 125
63 99 171
59 94 151
59 92 114
61 96 159
62 97 140
58 93 159
58 92 128
61 97 140
64 100 161
53 86 99
58 92 151
63 99 151
60 95 128
59 95 140
60 94 140
63 98 151
61 97 140
60 94 140
62 96 140
60 95 128
60 95 140
62 97 140
62 98 161
64 99 151
60 94 114
62 97 140
59 93 128
62 98 151
62 97 151
60 96 140
59 93 140
62 98 161
58 93 114
60 96 140
61 95 130
60 95 140
58 92 99
56 90 114
59 93 140
61 96 128
61 97 140
62 97 140
62 98 151
64 100 161
61 97 161
65 101 171
64 99 151
65 100 161
60 92 140
61 97 151
60 95 140
61 97 151
58 93 151
60 95 161
55 89 114
54 86 57
62 98 151
60 94 114
61 97 151
62 95 151
60 95 128
61 95 140
61 96 140
60 93 163
60 92 117
63 98 151
59 95 151
62 97 163
59 92 140
59 92 142
61 95 142
63 97 165
61 93 140
62 96 151
56 87 130
60 95 151
60 93 154
61 94 133
59 91 144
52 84 114
58 90 142
58 91 114
54 83 117
58 90 142
59 90 108
54 83 131
52 77 120
176 165 105
194 181 114
67 66 46
35 47 46
36 48 41
46 61 53
38 49 41
40 53 45
34 47 46
46 61 55
39 49 34
46 62 60
52 69 65
39 51 40
46 60 55
44 58 47
47 60 53
46 59 42
52 66 57
48 65 53
55 71 47
53 66 52
53 72 58
52 70 70
51 66 51
54 73 57
53 72 63
56 77 80
54 73 67
54 73 58
50 69 51
53 72 67
116 117 80
187 175 112
191 179 114
192 179 114
192 179 114
191 179 114
192 179 114
191 179 114
192 179 114
191 179 114
191 179 114
191 179 114
192 179 114
192 179 114
192 179 114
192 179 114
192 179 114
191 179 114
192 179 114
192 179 114
192 179 114
192 179 114
192 179 114
192 179 114
192 179 114
192 179 114
192 180 114
192 179 114
192 179 114
192 179 114
192 180 114
192 180 114
192 180 114
192 180 114
192 180 114
192 180 114
192 180 114
192 180 114
192 180 114
192 180 114
192 180 114
192 180 114
192 180 114
192 180 114
192 180 114
192 180 114
192 180 114
192 180 114
193 180 114
192 180 114
193 180 114
193 180 114
193 180 114
193 180 114
193 180 114
193 180 114
193 180 114
193 180 114
193 180 114
193 180 114
193 180 114
193 180 114
193 180 114
193 180 114
193 180 114
193 180 114
193 180 114
193 180 114
193 180 114
193 180 114
193 180 114
193 180 114
193 180 114
193 180 114
193 180 114
193 180 114
193 180 114
193 180 114
193 180 114
193 180 114
194 180 114
193 180 114
194 180 114
194 180 114
194 180 114
194 180 114
194 180 114
194 180 114
194 180 114
194 180 114
194 180 114
194 180 114
194 180 114
194 180 114
194 180 114
194 180 114
194 180 114
194 180 114
194 181 114
194 180 114
194 181 114
194 181 114
194 181 114
194 181 114
194 181 114
194 181 114
194 181 114
194 181 114
194 181 114
194 181 114
194 181 114
194 181 114
195 181 114
194 181 114
194 181 114
195 181 114
195 181 114
195 209 228
195 209 228
195 209 228
195 209 228
195 209 228
195 209 228
195 209 228
195 209 228
195 209 228
195 209 228
195 209 228
195 209 228
195 209 228
195 209 228
195 209 228
195 209 228
195 209 228
195 209 228
195 209 228
195 209 228
194 209 228
195 209 228
195 209 228
195 209 228
195 209 228
195 209 228
194 209 228
194 209 228
194 209 228
194 209 228
194 209 228
194 209 228
194 209 228
194 209 228
194 209 228
194 209 228
194 209 228
194 209 228
194 209 228
194 209 228
194 208 228
194 208 228
194 209 228
194 208 228
194 208 228
194 208 228
194 208 228
194 208 228
194 208 228
194 208 228
194 208 228
194 208 228
194 208 228
194 208 228
194 208 228
194 208 228
194 208 228
194 208 228
194 208 228
194 208 228
193 208 228
194 208 228
193 208 228
194 208 228
194 208 228
194 208 228
194 208 228
193 208 228
193 208 228
193 208 228
193 208 228
193 208 228
193 208 228
193 208 228
193 208 228
193 208 228
193 208 228
193 208 228
193 208 228
193 208 228
193 208 228
193 208 228
193 208 228
193 208 228
193 208 228
193 208 228
193 208 228
193 208 228
193 208 228
193 208 228
193 208 228
193 208 228
193 208 228
193 208 228
193 208 228
193 208 228
193 208 228
193 208 228
193 208 228
193 208 228
193 208 228
193 208 228
193 208 228
193 208 228
193 208 228
193 208 228
193 208 228
193 208 228
193 208 228
193 208 228
193 208 228
193 208 228
193 208 228
193 208 228
190 203 219
176 179 165
86 102 112
56 88 144
52 84 135
53 84 123
55 87 151
50 81 114
53 84 131
52 82 121
55 86 131
54 86 142
54 86 133
47 76 131
51 82 131
52 82 141
45 72 121
39 64 83
45 71 118
47 76 127
49 78 118
46 74 114
50 79 127
43 69 116
47 76 131
34 54 67
42 69 118
38 63 107
31 52 81
19 33 71
30 50 94
26 42 80
36 58 107
186 200 221
143 159 195
55 87 125
56 89 161
59 94 137
56 89 161
53 85 111
51 82 120
56 89 133
58 92 141
62 98 169
60 94 147
56 90 137
59 93 133
59 92 140
53 85 114
60 96 151
52 84 111
64 98 157
58 92 137
57 90 137
61 95 128
60 97 161
59 93 140
55 87 99
59 94 147
62 98 151
62 98 161
56 88 128
53 86 128
63 99 161
65 101 171
58 93 114
62 98 151
60 95 140
58 94 140
63 98 171
60 94 114
61 95 128
59 93 128
61 96 149
61 96 140
61 96 140
60 96 140
56 91 99
62 97 151
62 98 151
61 97 159
62 97 140
60 93 128
61 97 140
58 90 128
60 94 140
59 93 151
58 92 140
62 97 140
53 84 114
62 98 151
60 94 140
63 99 171
60 95 128
59 92 114
57 92 99
60 95 114
62 97 151
59 93 140
60 95 140
61 96 140
67 103 181
62 98 151
63 99 161
57 88 140
63 98 151
60 94 151
61 97 140
61 96 128
65 99 151
59 92 114
60 94 142
60 95 140
63 100 171
61 95 142
66 102 181
63 99 161
61 97 151
60 96 140
61 96 151
59 92 153
54 81 120
61 91 144
60 95 161
61 93 144
57 88 120
58 93 114
62 95 142
57 91 142
60 90 142
60 94 130
60 90 122
60 93 133
57 87 134
58 89 130
50 76 63
52 77 92
166 158 125
195 181 114
39 48 34
27 36 30
33 45 37
28 36 18
15 21 4
39 51 41
40 49 26
34 43 31
51 65 57
44 57 49
41 51 31
42 51 26
44 58 34
43 55 40
48 61 47
46 62 45
48 66 51
49 64 48
51 69 60
50 67 52
49 65 52
52 69 58
53 72 68
51 66 37
55 74 63
52 69 64
53 71 63
55 75 68
57 76 68
54 74 57
110 113 86
170 162 104
193 180 114
192 180 114
193 180 114
193 180 114
193 180 114
192 180 114
193 180 114
192 180 114
192 180 114
193 180 114
193 180 114
193 180 114
193 180 114
193 180 114
193 180 114
193 180 114
193 180 114
193 180 114
193 180 114
193 180 114
193 180 114
193 180 114
193 180 114
193 180 114
193 180 114
193 180 114
193 180 114
193 180 114
193 180 114
193 180 114
193 180 114
193 180 114
193 180 114
193 180 114
193 180 114
193 180 114
193 180 114
193 180 114
193 180 114
193 180 114
193 180 114
193 180 114
193 180 114
193 180 114
193 180 114
193 180 114
193 180 114
193 180 114
193 180 114
193 180 114
193 180 114
194 180 114
193 180 114
194 180 114
194 180 114
194 180 114
194 180 114
194 180 114
194 180 114
194 180 114
194 180 114
194 180 114
194 180 114
194 180 114
194 180 114
194 180 114
194 180 114
194 180 114
194 180 114
194 180 114
194 180 114
194 180 114
194 181 114
194 180 114
194 181 114
194 181 114
194 181 114
194 181 114
194 181 114
194 181 114
194 181 114
194 181 114
194 181 114
194 181 114
194 181 114
194 181 114
194 181 114
194 181 114
194 181 114
194 181 114
194 181 114
195 181 114
194 181 114
195 181 114
195 181 114
195 181 114
195 181 114
195 181 114
195 181 114
195 181 114
195 181 114
195 181 114
195 181 114
195 181 114
195 181 114
195 181 114
195 181 114
195 181 114
195 181 114
195 181 114
195 181 114
195 181 114
195 181 114
195 181 114
195 181 114
196 209 228
196 209 228
196 209 228
196 209 228
196 209 228
196 209 228
195 209 228
195 209 228
195 209 228
195 209 228
195 209 228
195 209 228
195 209 228
195 209 228
195 209 228
195 209 228
195 209 228
195 209 228
195 209 228
195 209 228
195 209 228
195 209 228
195 209 228
195 209 228
195 209 228
195 209 228
195 209 228
195 209 228
195 209 228
195 209 228
195 209 228
195 209 228
195 209 228
195 209 228
195 209 228
195 209 228
195 209 228
195 209 228
195 209 228
195 209 228
195 209 228
195 209 228
195 209 228
195 209 228
195 209 228
195 209 228
195 209 228
195 209 228
195 209 228
195 209 228
195 209 228
195 209 228
195 209 228
195 209 228
194 209 228
195 209 228
195 209 228
194 209 228
195 209 228
194 209 228
194 209 228
194 209 228
194 209 228
194 209 228
194 209 228
194 209 228
194 209 228
194 209 228
194 209 228
194 209 228
194 209 228
194 209 228
194 209 228
194 209 228
194 209 228
194 208 228
194 209 228
194 209 228
194 209 228
194 208 228
194 209 228
194 209 228
194 208 228
194 209 228
194 208 228
194 208 228
194 208 228
194 208 228
194 208 228
194 208 228
194 208 228
194 208 228
194 208 228
194 208 228
194 208 228
194 208 228
194 208 228
194 208 228
194 208 228
194 208 228
194 208 228
194 208 228
194 208 228
194 208 228
194 208 228
194 208 228
194 208 228
194 208 228
194 208 228
194 208 228
194 208 228
193 208 228
194 208 228
194 208 228
184 190 188
163 157 102
53 84 123
54 85 114
55 88 144
54 85 129
53 84 123
51 81 123
53 84 139
54 86 135
54 84 137
46 74 97
50 79 125
50 80 107
50 79 99
48 77 107
44 71 118
48 78 114
45 73 123
43 70 101
45 73 120
43 69 129
45 73 129
48 75 127
30 49 93
41 65 109
28 49 104
31 53 103
34 56 82
42 69 116
31 52 108
36 60 116
26 43 88
164 176 196
131 149 189
50 81 148
54 84 135
55 87 152
53 85 111
51 83 135
59 92 142
65 101 171
51 82 95
59 94 144
59 93 149
61 96 151
61 96 147
58 91 140
61 95 147
60 95 128
59 95 140
60 94 140
55 88 111
58 91 114
61 95 140
57 92 111
61 96 140
54 87 137
59 92 125
59 94 114
61 96 140
61 96 140
62 97 140
61 95 151
54 87 80
62 97 151
64 100 161
59 94 128
57 90 114
60 96 151
61 95 137
61 96 137
66 102 181
59 94 128
61 98 169
59 93 128
60 94 128
58 91 99
59 93 128
61 96 140
65 101 171
59 94 128
60 95 128
61 96 140
59 95 151
60 95 128
56 88 114
60 95 128
60 95 140
59 94 128
59 95 140
64 100 161
60 95 125
56 90 114
62 96 151
60 93 117
65 100 151
56 87 128
63 98 140
58 93 114
60 95 128
60 95 128
62 97 151
59 92 128
60 96 140
59 92 130
59 93 130
62 95 130
57 88 117
59 93 114
65 100 161
57 91 114
62 95 140
57 89 117
55 86 117
57 90 99
60 94 151
60 91 140
59 93 128
60 95 151
58 94 128
60 94 114
59 92 142
58 90 140
59 89 133
64 97 163
63 97 142
55 86 102
55 88 128
58 91 117
54 84 114
64 96 144
60 93 140
55 85 84
57 87 92
48 74 105
52 80 102
143 138 107
165 155 99
33 45 38
34 44 31
30 40 20
24 32 28
37 45 23
30 41 39
35 46 29
41 51 23
34 42 23
39 52 46
42 54 40
44 56 45
50 68 57
48 64 53
43 55 33
44 61 57
48 60 41
47 63 46
45 61 52
47 63 47
46 61 45
53 69 58
45 60 39
53 71 58
52 68 64
49 65 54
58 76 72
58 78 76
53 73 57
55 75 62
71 85 65
165 157 102
187 174 110
193 180 114
194 180 114
194 180 114
194 180 114
194 180 114
194 180 114
194 180 114
194 180 114
194 180 114
194 180 114
194 180 114
193 180 114
194 180 114
194 180 114
194 180 114
194 180 114
194 180 114
194 180 114
194 180 114
194 180 114
194 180 114
194 180 114
194 180 114
194 180 114
194 180 114
194 180 114
194 180 114
194 180 114
194 180 114
194 180 114
194 180 114
194 180 114
194 180 114
194 180 114
194 181 114
194 181 114
194 181 114
194 181 114
194 181 114
194 181 114
194 181 114
194 181 114
194 181 114
194 181 114
194 181 114
194 181 114
194 181 114
194 181 114
194 181 114
194 181 114
194 181 114
194 181 114
194 181 114
195 181 114
195 181 114
194 181 114
194 181 114
195 181 114
194 181 114
195 181 114
195 181 114
195 181 114
195 181 114
195 181 114
195 181 114
195 181 114
195 181 114
195 181 114
195 181 114
195 181 114
195 181 114
195 181 114
195 181 114
195 181 114
195 181 114
195 181 114
195 181 114
195 181 114
195 181 114
195 181 114
195 181 114
195 181 114
195 181 114
195 181 114
195 181 114
195 181 114
195 181 114
195 181 114
195 181 114
195 181 114
195 181 114
195 181 114
195 181 114
195 181 114
195 181 114
195 181 114
195 181 114
195 181 114
195 181 114
195 181 114
195 181 114
195 181 114
195 181 114
195 181 114
195 181 114
195 181 114
195 181 114
196 181 114
196 181 114
196 181 114
196 181 114
196 181 114
196 181 114
196 181 114
196 210 228
196 210 228
196 210 228
196 210 228
196 210 228
196 210 228
196 210 228
196 210 228
196 210 228
196 210 228
196 210 228
196 210 228
196 210 228
196 210 228
196 210 228
196 210 228
196 210 228
196 210 228
196 210 228
196 210 228
196 210 228
196 210 228
196 210 228
196 209 228
196 210 228
196 209 228
196 209 228
196 209 228
196 209 228
196 209 228
196 209 228
196 209 228
196 209 228
196 209 228
196 209 228
196 209 228
196 209 228
196 209 228
196 209 228
196 209 228
196 209 228
196 209 228
196 209 228
196 209 228
196 209 228
195 209 228
196 209 228
195 209 228
195 209 228
196 209 228
195 209 228
195 209 228
195 209 228
195 209 228
195 209 228
195 209 228
195 209 228
195 209 228
195 209 228
195 209 228
195 209 228
195 209 228
195 209 228
195 209 228
195 209 228
195 209 228
195 209 228
195 209 228
195 209 228
195 209 228
195 209 228
195 209 228
195 209 228
195 209 228
195 209 228
195 209 228
195 209 228
195 209 228
195 209 228
195 209 228
195 209 228
195 209 228
195 209 228
195 209 228
195 209 228
195 209 228
195 209 228
195 209 228
195 209 228
195 209 228
195 209 228
195 209 228
195 209 228
195 209 228
195 209 228
195 209 228
195 209 228
195 209 228
195 209 228
195 209 228
195 209 228
195 209 228
195 209 228
195 209 228
195 209 228
195 209 228
195 209 228
195 209 228
195 209 228
195 209 228
195 209 228
194 209 228
195 209 228
195 209 228
175 170 137
166 158 102
56 87 125
50 80 102
54 85 125
53 84 112
48 78 112
49 78 85
50 80 121
53 83 112
47 75 112
51 79 111
47 74 114
54 84 142
49 80 99
50 79 126
44 70 97
47 75 122
40 65 103
51 82 125
42 69 107
51 80 134
43 69 76
41 66 111
51 81 121
34 57 108
39 66 121
40 64 105
32 53 90
36 59 107
32 53 103
29 48 90
20 34 77
164 176 193
112 127 157
45 73 109
49 79 104
55 88 148
49 78 95
58 91 122
52 83 111
57 91 143
55 86 122
60 94 151
62 97 137
62 97 157
58 91 135
57 91 137
57 92 137
55 87 137
60 94 114
61 96 128
63 97 149
56 89 99
58 92 137
62 97 149
57 91 125
61 95 128
59 95 149
57 92 140
59 94 151
60 94 140
58 94 128
55 89 114
61 96 140
59 94 114
63 99 161
58 92 114
63 99 169
61 97 159
59 93 151
59 92 128
57 91 99
57 89 99
61 97 161
59 95 140
59 94 140
56 90 128
57 91 128
63 98 159
64 100 171
62 97 151
59 94 128
58 91 114
58 92 114
58 93 128
61 94 140
62 97 140
63 99 161
59 94 128
53 86 128
64 99 161
55 87 80
62 96 161
60 94 151
58 92 80
60 93 130
59 93 140
61 94 153
60 96 151
62 97 140
63 98 151
61 96 128
64 98 171
62 96 140
61 96 128
59 93 140
57 90 114
60 93 99
58 93 128
61 96 140
56 86 128
59 94 151
62 97 140
63 98 151
61 97 151
54 86 114
62 95 142
60 96 140
61 97 140
59 92 102
63 99 161
61 93 151
57 88 108
59 94 128
59 92 130
52 82 99
61 95 128
62 96 151
60 91 122
52 77 122
50 79 100
55 81 110
59 90 128
54 80 121
50 78 102
51 78 95
155 149 108
176 164 103
22 28 16
25 34 29
35 46 30
41 50 36
28 34 13
35 47 30
41 51 34
42 56 47
35 44 31
35 42 20
45 58 40
43 58 39
42 54 42
52 68 45
52 68 45
52 69 56
52 71 67
46 58 41
52 69 53
46 60 48
51 67 53
53 69 56
53 70 58
46 60 47
51 68 51
52 72 57
51 69 57
53 71 51
53 73 57
54 72 68
56 75 67
151 144 95
177 166 106
195 181 114
195 181 114
195 181 114
195 181 114
195 181 114
195 181 114
195 181 114
195 181 114
195 181 114
195 181 114
195 181 114
195 181 114
195 181 114
195 181 114
195 181 114
195 181 114
195 181 114
195 181 114
195 181 114
195 181 114
195 181 114
195 181 114
195 181 114
195 181 114
195 181 114
195 181 114
195 181 114
195 181 114
195 181 114
195 181 114
195 181 114
195 181 114
195 181 114
195 181 114
195 181 114
195 181 114
195 181 114
195 181 114
195 181 114
195 181 114
195 181 114
195 181 114
195 181 114
195 181 114
195 181 114
195 181 114
195 181 114
195 181 114
195 181 114
195 181 114
195 181 114
195 181 114
195 181 114
195 181 114
195 181 114
195 181 114
195 181 114
195 181 114
195 181 114
195 181 114
195 181 114
196 181 114
195 181 114
195 181 114
195 181 114
195 181 114
196 181 114
195 181 114
196 181 114
195 181 114
196 181 114
196 181 114
196 181 114
196 181 114
196 181 114
196 181 114
196 181 114
196 181 114
196 181 114
196 181 114
196 181 114
196 181 114
196 181 114
196 181 114
196 181 114
196 181 114
196 181 114
196 181 114
196 181 114
196 181 114
196 181 114
196 181 114
196 181 114
196 181 114
196 181 114
196 181 114
196 181 114
196 181 114
196 181 114
196 181 114
196 181 114
196 181 114
196 181 114
196 181 114
196 181 114
196 181 114
196 181 114
196 181 114
196 182 114
196 182 114
196 182 114
196 182 114
196 182 114
196 182 114
197 210 228
197 210 228
197 210 228
197 210 228
197 210 228
197 210 228
197 210 228
197 210 228
197 210 228
197 210 228
197 210 228
197 210 228
197 210 228
197 210 228
197 210 228
197 210 228
197 210 228
197 210 228
197 210 228
197 210 228
197 210 228
197 210 228
197 210 228
197 210 228
196 210 228
196 210 228
197 210 228
196 210 228
196 210 228
196 210 228
196 210 228
196 210 228
196 210 228
196 210 228
196 210 228
196 210 228
196 210 228
196 210 228
196 210 228
196 210 228
196 210 228
196 210 228
196 210 228
196 210 228
196 210 228
196 210 228
196 210 228
196 210 228
196 210 228
196 210 228
196 210 228
196 210 228
196 210 228
196 210 228
196 210 228
196 210 228
196 210 228
196 210 228
196 210 228
196 210 228
196 210 228
196 210 228
196 210 228
196 210 228
196 210 228
196 210 228
196 210 228
196 210 228
196 210 228
196 210 228
196 210 228
196 210 228
196 210 228
196 210 228
196 210 228
196 210 228
196 210 228
196 210 228
196 210 228
196 210 228
196 209 228
196 209 228
196 210 228
196 210 228
196 209 228
196 210 228
196 209 228
196 209 228
196 210 228
196 210 228
196 210 228
196 209 228
196 209 228
196 209 228
196 210 228
196 209 228
196 209 228
196 209 228
196 209 228
196 210 228
196 210 228
196 209 228
196 209 228
196 209 228
196 209 228
196 209 228
196 209 228
196 209 228
196 209 228
196 209 228
196 209 228
196 209 228
196 209 228
196 209 228
172 161 102
145 142 123
56 88 144
49 79 88
53 83 131
52 82 123
53 85 141
54 85 125
48 76 112
48 77 107
46 75 104
52 82 88
51 82 123
51 81 109
47 76 131
48 75 91
44 70 114
43 70 94
50 80 104
47 77 123
39 63 107
46 74 79
46 74 106
38 63 106
45 74 108
17 33 67
36 59 99
32 53 101
35 58 103
25 40 78
18 32 72
31 51 87
24 39 75
128 142 154
155 170 193
49 77 60
43 70 88
52 83 99
54 87 108
58 90 135
57 90 120
58 93 137
61 94 159
59 93 137
58 92 125
59 93 142
62 97 151
57 90 125
61 97 157
59 93 128
56 88 99
60 94 125
57 92 99
57 90 99
63 98 151
56 91 111
65 100 159
59 92 140
56 91 80
61 96 140
58 93 114
62 97 140
58 93 128
60 95 128
60 95 140
64 99 161
59 94 125
53 85 99
59 94 137
59 94 128
62 97 151
58 92 140
58 90 128
63 98 171
61 95 171
55 87 114
58 92 128
58 93 114
64 100 161
57 90 99
60 95 128
60 94 114
62 97 151
57 91 128
55 89 114
59 94 128
55 88 99
59 93 99
61 96 140
63 98 151
63 99 161
63 99 161
60 94 140
56 88 114
59 95 128
63 99 161
57 88 128
57 92 140
63 99 171
57 91 128
61 96 140
60 90 128
62 98 161
55 86 99
58 93 114
60 95 128
61 94 142
60 93 142
63 99 161
65 100 161
61 95 151
60 95 128
62 98 151
53 85 99
60 94 151
61 98 161
59 92 133
61 94 117
53 85 57
61 95 114
59 92 130
59 93 114
55 88 140
60 92 117
57 92 99
52 80 99
64 99 151
60 95 128
56 89 102
56 87 117
55 85 114
57 86 120
62 95 153
54 80 120
57 88 130
56 83 111
50 77 90
117 118 111
141 132 85
27 33 17
28 38 28
31 38 23
32 42 37
30 39 18
51 67 60
37 46 34
35 46 37
40 53 28
37 51 46
47 58 42
43 58 37
45 58 31
48 61 48
46 61 40
46 61 52
37 48 28
43 54 43
44 61 57
47 64 37
53 69 66
47 63 39
56 74 68
47 65 62
50 67 46
50 67 57
50 69 52
48 65 45
53 72 62
53 72 52
54 73 67
153 147 98
171 160 102
196 181 114
196 181 114
196 181 114
196 181 114
196 181 114
196 181 114
196 181 114
196 181 114
196 181 114
196 181 114
196 181 114
196 181 114
196 181 114
196 181 114
196 181 114
196 181 114
196 181 114
196 181 114
196 181 114
196 181 114
196 181 114
196 181 114
196 181 114
196 181 114
196 181 114
196 181 114
196 181 114
196 181 114
196 181 114
196 181 114
196 181 114
196 181 114
196 181 114
196 181 114
196 181 114
196 181 114
196 181 114
196 181 114
196 181 114
196 181 114
196 181 114
196 181 114
196 181 114
196 181 114
196 181 114
196 181 114
196 182 114
196 181 114
196 181 114
196 181 114
196 181 114
196 181 114
196 182 114
196 181 114
196 182 114
196 181 114
196 181 114
196 181 114
196 181 114
196 182 114
196 182 114
196 182 114
196 182 114
196 182 114
196 182 114
196 182 114
196 182 114
196 182 114
196 182 114
196 182 114
196 182 114
196 182 114
196 182 114
196 182 114
196 182 114
196 182 114
196 182 114
196 182 114
196 182 114
196 182 114
196 182 114
196 182 114
196 182 114
196 182 114
196 182 114
196 182 114
197 182 114
196 182 114
197 182 114
196 182 114
196 182 114
196 182 114
196 182 114
197 182 114
197 182 114
197 182 114
197 182 114
197 182 114
197 182 114
197 182 114
197 182 114
197 182 114
197 182 114
197 182 114
197 182 114
197 182 114
197 182 114
197 182 114
197 182 114
197 182 114
197 182 114
197 182 114
197 182 114
197 182 114
197 210 228
197 210 228
197 210 228
197 210 228
197 210 228
197 210 228
197 210 228
197 210 228
197 210 228
197 210 228
197 210 228
197 210 228
197 210 228
197 210 228
197 210 228
197 210 228
197 210 228
197 210 228
197 210 228
197 210 228
197 210 228
197 210 228
197 210 228
197 210 228
197 210 228
197 210 228
197 210 228
197 210 228
197 210 228
197 210 228
197 210 228
197 210 228
197 210 228
197 210 228
197 210 228
197 210 228
197 210 228
197 210 228
197 210 228
197 210 228
197 210 228
197 210 228
197 210 228
197 210 228
197 210 228
197 210 228
197 210 228
197 210 228
197 210 228
197 210 228
197 210 228
197 210 228
197 210 228
197 210 228
197 210 228
197 210 228
197 210 228
197 210 228
197 210 228
197 210 228
197 210 228
197 210 228
197 210 228
197 210 228
197 210 228
197 210 228
197 210 228
197 210 228
197 210 228
197 210 228
197 210 228
197 210 228
197 210 228
197 210 228
197 210 228
197 210 228
197 210 228
197 210 228
197 210 228
197 210 228
197 210 228
197 210 228
197 210 228
197 210 228
197 210 228
197 210 228
197 210 228
197 210 228
197 210 228
197 210 228
197 210 228
197 210 228
197 210 228
197 210 228
197 210 228
197 210 228
197 210 228
197 210 228
197 210 228
197 210 228
197 210 228
197 210 228
197 210 228
197 210 228
197 210 228
197 210 228
197 210 228
197 210 228
197 210 228
197 210 228
197 210 228
197 210 228
197 210 228
193 201 209
174 162 102
173 161 102
53 84 135
53 84 114
52 84 133
53 83 133
50 80 85
51 79 118
54 85 123
52 82 123
52 83 99
53 83 118
51 80 125
49 78 125
54 85 139
48 76 103
52 83 129
49 78 133
43 69 110
40 65 97
36 59 75
45 71 103
43 71 102
35 59 106
34 57 100
42 68 118
22 38 51
35 58 63
32 52 94
24 41 87
30 49 74
31 51 90
29 48 86
128 140 159
144 159 188
53 86 137
54 87 133
58 92 137
58 91 137
58 92 125
56 91 140
61 95 151
52 84 95
55 88 80
56 89 114
60 95 137
57 92 114
52 83 108
54 86 137
55 88 99
55 87 128
60 95 137
61 96 140
59 94 135
61 95 140
61 96 149
59 94 128
61 95 137
60 96 151
59 94 147
57 90 99
56 89 114
58 93 151
61 96 140
62 97 161
59 94 151
59 93 151
62 98 161
56 89 99
62 97 161
65 101 171
58 92 140
54 85 99
59 94 140
57 91 128
63 98 151
59 94 114
60 94 130
61 98 161
55 87 99
62 97 140
59 92 140
58 92 128
62 98 151
60 95 140
60 95 140
57 90 140
59 93 128
58 91 128
59 95 128
62 96 128
58 90 128
62 98 151
62 97 140
62 98 151
55 88 114
55 89 114
61 96 151
59 92 142
56 89 151
57 91 128
62 98 151
62 97 140
59 91 142
60 94 151
62 97 151
56 85 114
56 90 99
62 97 140
60 95 140
61 97 140
60 94 140
60 94 140
60 94 128
60 94 142
58 91 142
63 98 140
61 95 128
54 86 99
61 95 128
62 97 140
60 94 128
59 95 128
54 88 128
59 93 142
60 93 140
59 90 120
60 93 130
59 94 161
52 83 114
56 86 129
59 91 130
59 90 142
48 73 84
52 77 92
52 80 129
56 87 118
97 101 60
112 107 63
22 28 9
25 30 17
25 31 20
29 34 17
44 58 45
33 44 32
42 51 35
25 33 25
40 51 33
43 56 42
34 43 31
48 66 53
51 67 61
45 58 41
44 58 31
47 62 41
46 60 47
46 63 59
53 69 59
50 67 60
48 64 54
47 62 47
52 71 67
52 71 52
51 69 58
52 70 58
54 73 57
55 74 67
54 72 52
48 67 45
56 75 72
164 154 97
175 162 102
197 182 114
197 182 114
197 182 114
197 182 114
197 182 114
197 182 114
197 182 114
197 182 114
197 182 114
197 182 114
197 182 114
197 182 114
197 182 114
197 182 114
197 182 114
197 182 114
197 182 114
197 182 114
197 182 114
197 182 114
197 182 114
197 182 114
197 182 114
197 182 114
197 182 114
197 182 114
197 182 114
197 182 114
197 182 114
197 182 114
197 182 114
197 182 114
197 182 114
197 182 114
197 182 114
197 182 114
197 182 114
197 182 114
197 182 114
197 182 114
197 182 114
197 182 114
197 182 114
197 182 114
197 182 114
197 182 114
197 182 114
197 182 114
197 182 114
197 182 114
197 182 114
197 182 114
197 182 114
197 182 114
197 182 114
197 182 114
197 182 114
197 182 114
197 182 114
197 182 114
197 182 114
197 182 114
197 182 114
197 182 114
197 182 114
197 182 114
197 182 114
197 182 114
197 182 114
197 182 114
197 182 114
197 182 114
197 182 114
197 182 114
197 182 114
197 182 114
197 182 114
197 182 114
197 182 114
197 182 114
197 182 114
197 182 114
197 182 114
197 182 114
197 182 114
197 182 114
197 182 114
197 182 114
197 182 114
197 182 114
197 182 114
197 182 114
197 182 114
197 182 114
197 182 114
197 182 114
197 182 114
197 182 114
197 182 114
197 182 114
197 182 114
197 182 114
197 182 114
197 182 114
197 182 114
197 182 114
197 182 114
197 182 114
197 182 114
197 182 114
197 182 114
197 182 114
197 182 114
197 182 114
198 211 228
198 211 228
198 211 228
198 211 228
198 211 228
198 211 228
198 211 228
198 211 228
198 211 228
198 211 228
198 211 228
198 211 228
198 211 228
198 211 228
198 211 228
198 211 228
198 211 228
198 211 228
198 211 228
198 211 228
198 211 228
198 211 228
198 211 228
198 211 228
198 211 228
198 211 228
198 211 228
198 211 228
198 211 228
198 211 228
198 211 228
198 211 228
198 211 228
198 211 228
198 211 228
198 211 228
198 211 228
198 211 228
198 211 228
198 211 228
198 211 228
198 211 228
198 211 228
198 211 228
198 211 228
198 211 228
198 211 228
198 211 228
198 211 228
198 211 228
198 211 228
198 211 228
198 211 228
198 211 228
198 211 228
198 211 228
198 211 228
198 211 228
198 211 228
198 211 228
198 211 228
198 211 228
198 211 228
198 211 228
198 211 228
198 211 228
198 211 228
198 211 228
198 211 228
198 211 228
198 211 228
198 211 228
198 211 228
198 211 228
198 211 228
198 211 228
198 211 228
198 211 228
198 211 228
198 211 228
198 211 228
198 211 228
198 211 228
198 211 228
198 211 228
198 211 228
198 211 228
198 211 228
198 211 228
198 211 228
198 211 228
198 211 228
198 211 228
198 211 228
198 211 228
198 211 228
198 211 228
198 211 228
198 211 228
198 211 228
198 211 228
198 211 228
198 211 228
198 211 228
198 211 228
198 211 228
198 211 228
198 211 228
198 211 228
198 211 228
198 211 228
198 211 228
198 211 228
192 198 199
177 163 102
168 155 97
54 84 133
55 86 125
54 86 125
53 85 125
53 84 102
55 86 131
52 82 121
49 78 112
50 80 121
49 79 102
45 72 114
49 79 116
46 73 115
42 69 104
49 78 123
44 71 118
51 81 146
44 70 104
41 66 119
47 75 116
50 79 114
37 60 88
29 50 46
39 64 105
35 58 97
38 61 85
22 40 68
32 52 74
24 41 80
18 32 62
19 32 62
129 143 169
114 129 137
51 80 135
47 77 99
40 65 67
59 92 140
54 85 117
58 92 114
57 91 111
58 92 140
54 86 118
58 92 128
61 95 137
62 97 159
61 96 151
59 93 137
57 91 125
59 94 149
57 90 114
59 94 147
61 95 140
60 93 140
54 87 99
63 97 149
63 99 159
58 93 125
55 89 114
56 88 114
57 90 122
63 98 151
60 93 137
49 79 99
58 91 140
59 93 140
62 98 151
61 96 147
61 96 161
61 97 151
61 95 114
61 95 140
61 95 128
63 99 161
59 92 128
58 93 137
61 94 151
60 95 140
61 96 140
58 91 128
60 96 140
62 97 128
56 89 99
61 96 140
58 91 128
60 93 140
57 92 99
61 97 140
63 98 151
62 98 151
64 100 161
60 95 151
61 96 140
61 96 140
59 95 140
61 96 140
61 96 151
58 94 161
60 96 140
59 93 114
63 98 151
61 95 114
63 99 161
65 101 171
58 93 140
62 96 142
63 99 161
61 96 128
53 85 99
62 97 161
55 89 114
58 93 114
59 94 114
58 89 130
57 90 140
59 90 120
60 95 128
62 95 153
56 89 114
57 92 114
60 93 142
57 89 140
59 93 140
63 96 153
59 92 141
58 91 128
59 89 88
61 95 153
60 91 122
58 87 108
57 86 108
58 89 105
49 76 76
50 73 97
45 72 60
54 85 118
115 115 108
32 43 28
36 49 39
27 34 22
29 36 16
8 13 8
24 33 26
29 39 31
34 41 14
36 47 27
25 33 15
44 57 41
48 60 52
40 52 34
50 65 48
35 47 31
42 56 39
46 58 39
47 60 50
42 56 29
48 60 39
46 63 51
51 69 57
54 72 68
44 59 41
53 72 63
50 69 57
51 66 45
53 72 57
54 74 62
54 72 69
52 71 57
56 75 62
159 149 91
176 163 102
196 180 113
198 182 114
198 182 114
198 182 114
198 182 114
198 182 114
198 182 114
198 182 114
198 182 114
198 182 114
198 182 114
198 182 114
198 182 114
198 182 114
198 182 114
198 182 114
198 182 114
198 182 114
198 182 114
198 182 114
198 182 114
198 182 114
198 182 114
198 182 114
198 182 114
198 182 114
198 182 114
198 182 114
198 182 114
198 182 114
198 182 114
198 182 114
198 182 114
198 182 114
198 182 114
198 182 114
198 182 114
198 182 114
198 182 114
198 182 114
198 182 114
198 182 114
198 182 114
198 182 114
198 182 114
198 182 114
198 182 114
198 182 114
198 182 114
198 182 114
198 182 114
198 182 114
198 182 114
198 182 114
198 182 114
198 182 114
198 182 114
198 182 114
198 182 114
198 182 114
198 182 114
198 182 114
198 182 114
198 182 114
198 182 114
198 182 114
198 182 114
198 182 114
198 182 114
198 182 114
198 182 114
198 182 114
198 182 114
198 182 114
198 182 114
198 182 114
198 182 114
198 182 114
198 182 114
198 182 114
198 182 114
198 182 114
198 182 114
198 182 114
198 182 114
198 182 114
198 182 114
198 182 114
198 182 114
198 182 114
198 182 114
198 182 114
198 182 114
198 182 114
198 182 114
198 182 114
198 182 114
198 182 114
198 182 114
198 182 114
198 182 114
198 182 114
198 182 114
198 182 114
198 182 114
198 182 114
198 182 114
198 182 114
198 182 114
198 182 114
198 182 114
198 182 114
198 182 114
198 182 114
198 211 228
198 211 228
198 211 228
198 211 228
198 211 228
198 211 228
198 211 228
198 211 228
198 211 228
198 211 228
198 211 228
198 211 228
198 211 228
198 211 228
198 211 228
198 211 228
198 211 228
198 211 228
198 211 228
198 211 228
198 211 228
198 211 228
198 211 228
198 211 228
198 211 228
198 211 228
198 211 228
198 211 228
198 211 228
199 211 228
199 211 228
199 211 228
199 211 228
199 211 228
199 211 228
199 211 228
199 211 228
199 211 228
198 211 228
198 211 228
199 211 228
198 211 228
199 211 228
199 211 228
199 211 228
199 211 228
199 211 228
199 211 228
198 211 228
199 211 228
199 211 228
199 211 228
199 211 228
199 211 228
198 211 228
199 211 228
199 211 228
199 211 228
199 211 228
199 211 228
199 211 228
199 211 228
199 211 228
199 211 228
199 211 228
199 211 228
199 211 228
199 211 228
199 211 228
199 211 228
199 211 228
199 211 228
199 211 228
199 211 228
199 211 228
199 211 228
199 211 228
199 211 228
199 211 228
199 211 228
199 211 228
199 211 228
199 211 228
199 211 228
199 211 228
199 211 228
199 211 228
199 211 228
199 211 228
199 211 228
199 211 228
199 211 228
199 211 228
199 211 228
199 211 228
199 211 228
199 211 228
199 211 228
199 211 228
199 211 228
199 211 228
199 211 228
199 211 228
199 211 228
199 211 228
199 211 228
199 211 228
199 211 228
199 211 228
199 211 228
199 211 228
199 211 228
199 211 228
195 203 209
171 159 91
134 133 79
52 82 102
52 83 102
48 77 102
53 84 123
54 85 123
54 85 131
51 81 107
53 82 99
50 79 114
48 75 109
40 66 72
40 66 68
51 79 125
48 76 114
50 80 121
45 72 107
44 70 85
48 75 108
42 67 88
32 54 92
44 69 97
40 65 99
43 69 122
39 63 94
30 52 84
44 69 115
43 68 96
32 52 75
31 51 102
22 38 72
5 12 10
141 152 169
145 161 184
57 89 135
55 86 146
53 83 121
56 91 125
59 93 137
58 93 122
58 94 137
55 87 99
53 84 99
60 95 128
58 93 135
53 86 80
62 97 151
61 97 151
59 93 137
55 87 114
57 90 125
57 91 125
60 94 147
59 92 149
62 97 149
60 96 159
57 92 99
65 101 179
58 92 140
57 91 128
64 99 151
58 91 111
64 99 151
52 83 80
62 98 161
60 93 128
57 91 128
56 90 114
58 91 140
62 98 161
57 92 99
61 97 151
59 94 151
62 98 151
59 94 140
60 94 151
60 95 128
59 93 114
60 96 140
60 95 140
62 98 161
58 92 128
62 97 140
58 91 102
57 92 114
61 97 151
59 92 117
61 96 128
62 98 151
60 93 151
59 94 114
56 87 99
58 90 128
57 91 128
65 100 161
63 98 161
61 95 151
63 98 151
60 93 128
60 91 120
52 85 114
61 96 140
60 94 161
60 96 140
64 99 151
61 95 128
62 95 151
59 92 99
56 88 120
64 99 151
58 90 114
58 91 114
61 96 140
61 95 140
60 94 128
58 90 128
62 96 151
59 90 133
61 95 151
58 94 128
58 93 151
59 93 114
61 94 114
56 87 114
56 83 120
59 90 142
60 96 140
62 97 140
56 86 90
61 95 153
60 91 120
51 78 102
57 86 117
48 76 103
57 87 133
48 72 67
142 133 84
112 106 64
23 28 16
21 28 18
25 33 27
8 14 9
38 49 19
27 35 16
38 46 16
37 47 40
32 41 28
34 43 28
48 61 41
47 60 45
46 62 53
50 64 58
47 59 47
49 66 49
49 62 39
47 60 39
52 70 63
46 61 38
53 71 67
44 60 38
51 68 57
55 70 60
49 67 51
48 65 39
57 76 76
50 68 62
53 70 63
53 73 57
54 74 57
135 131 66
157 148 64
195 179 112
199 183 114
199 183 114
199 183 114
199 183 114
199 183 114
199 183 114
199 183 114
199 183 114
199 183 114
199 183 114
199 183 114
199 183 114
199 183 114
199 183 114
199 183 114
199 183 114
199 183 114
199 183 114
199 183 114
199 183 114
199 183 114
199 183 114
199 183 114
199 183 114
199 183 114
199 183 114
199 183 114
199 183 114
199 183 114
199 183 114
199 183 114
199 183 114
199 183 114
199 183 114
199 183 114
199 183 114
199 183 114
199 183 114
199 183 114
199 183 114
199 183 114
199 183 114
199 183 114
199 183 114
199 183 114
199 183 114
199 183 114
199 183 114
199 183 114
199 183 114
199 183 114
199 183 114
199 183 114
199 183 114
199 183 114
199 183 114
199 183 114
199 183 114
199 183 114
199 183 114
199 183 114
199 183 114
199 183 114
199 183 114
199 183 114
198 183 114
199 183 114
199 183 114
199 183 114
198 183 114
199 183 114
198 183 114
199 183 114
198 183 114
199 183 114
199 183 114
199 183 114
198 183 114
198 183 114
199 183 114
199 183 114
198 183 114
198 183 114
199 183 114
198 183 114
198 183 114
198 183 114
198 183 114
199 183 114
198 183 114
198 183 114
198 183 114
198 183 114
198 183 114
198 183 114
198 183 114
198 183 114
198 183 114
198 183 114
198 183 114
198 183 114
198 183 114
198 183 114
198 183 114
198 183 114
198 183 114
198 183 114
198 183 114
198 183 114
198 183 114
198 183 114
198 183 114
198 183 114
199 211 228
199 211 228
199 211 228
199 211 228
199 211 228
199 211 228
199 211 228
199 211 228
199 211 228
199 211 228
199 211 228
199 211 228
199 211 228
199 211 228
199 211 228
199 211 228
199 211 228
199 211 228
199 211 228
199 211 228
199 211 228
199 211 228
199 211 228
199 211 228
199 211 228
199 211 228
199 211 228
199 211 228
199 211 228
199 211 228
199 211 228
199 211 228
199 211 228
199 211 228
199 211 228
199 211 228
199 211 228
199 211 228
199 211 228
199 211 228
199 211 228
199 211 228
199 211 228
199 211 228
199 211 228
199 211 228
199 212 228
199 211 228
199 212 228
199 212 228
199 211 228
199 211 228
199 212 228
199 212 228
199 211 228
199 211 228
199 212 228
199 212 228
199 212 228
199 212 228
200 212 228
199 212 228
200 212 228
199 212 228
200 212 228
199 212 228
199 212 228
199 212 228
200 212 228
200 212 228
200 212 228
200 212 228
200 212 228
200 212 228
200 212 228
200 212 228
200 212 228
200 212 228
200 212 228
200 212 228
200 212 228
200 212 228
200 212 228
200 212 228
200 212 228
200 212 228
200 212 228
200 212 228
200 212 228
200 212 228
200 212 228
200 212 228
200 212 228
200 212 228
200 212 228
200 212 228
200 212 228
200 212 228
200 212 228
200 212 228
200 212 228
200 212 228
200 212 228
200 212 228
200 212 228
200 212 228
200 212 228
200 212 228
200 212 228
200 212 228
200 212 228
200 212 228
200 212 228
198 208 219
138 136 0
135 135 0
53 83 125
49 80 102
45 72 72
53 83 131
51 81 123
53 83 114
46 74 85
46 74 68
53 84 114
47 74 99
49 78 99
51 80 112
48 76 97
51 81 107
44 70 85
37 60 90
42 68 97
47 75 118
45 73 115
37 59 68
46 74 91
41 65 89
35 57 93
44 70 105
36 59 67
34 57 81
33 54 76
37 59 99
15 29 43
24 41 62
30 49 54
142 153 178
132 149 155
50 79 120
56 88 142
53 85 95
55 88 118
60 94 135
57 92 137
62 96 147
59 93 135
56 89 120
59 92 122
59 92 135
60 95 140
60 94 128
59 91 137
58 91 137
58 92 125
61 96 137
62 97 149
54 87 99
59 94 137
52 84 99
60 95 137
54 87 128
51 80 114
63 99 171
58 93 128
60 95 151
57 92 114
64 98 151
65 100 161
59 93 114
59 95 140
59 94 128
57 90 125
58 90 128
61 95 140
63 98 140
61 97 151
61 94 140
58 92 99
61 96 128
60 96 159
54 86 128
57 91 114
61 97 140
58 92 140
57 89 99
61 95 114
62 98 161
63 98 140
54 85 114
54 86 99
62 98 161
63 99 161
55 88 80
59 93 140
61 95 151
63 98 151
57 91 140
63 99 161
57 90 114
64 100 161
57 91 128
63 99 161
59 94 128
62 97 140
59 92 128
59 91 114
55 87 114
59 93 128
62 96 142
59 93 114
58 92 140
59 94 128
61 95 128
60 94 140
64 99 163
60 94 130
61 94 130
64 99 163
55 88 114
62 96 151
58 92 114
60 93 140
56 86 102
60 93 133
55 87 128
53 85 99
59 90 122
56 90 151
58 91 141
50 78 60
57 88 117
60 89 120
56 84 105
60 92 128
56 88 114
57 84 111
56 86 114
50 77 102
50 71 51
55 82 84
131 130 123
129 120 73
24 31 12
16 20 5
27 36 31
25 33 25
17 26 4
33 43 38
26 34 25
27 38 15
40 51 40
34 46 38
27 35 14
39 54 36
45 60 40
49 63 54
46 61 45
45 59 53
41 50 16
46 58 38
45 57 16
43 58 46
48 63 39
52 68 58
46 61 37
51 68 45
51 66 58
48 64 47
55 74 67
56 74 67
52 69 45
54 69 59
51 68 45
142 138 0
138 136 0
196 180 112
200 183 114
200 183 114
200 183 114
200 183 114
200 183 114
200 183 114
200 183 114
200 183 114
200 183 114
200 183 114
200 183 114
200 183 114
200 183 114
200 183 114
200 183 114
200 183 114
200 183 114
200 183 114
200 183 114
200 183 114
200 183 114
200 183 114
200 183 114
200 183 114
200 183 114
200 183 114
200 183 114
200 183 114
200 183 114
200 183 114
200 183 114
200 183 114
200 183 114
200 183 114
200 183 114
200 183 114
200 183 114
200 183 114
200 183 114
199 183 114
200 183 114
200 183 114
200 183 114
200 183 114
199 183 114
199 183 114
199 183 114
199 183 114
199 183 114
199 183 114
200 183 114
199 183 114
199 183 114
199 183 114
199 183 114
199 183 114
199 183 114
199 183 114
199 183 114
199 183 114
200 183 114
199 183 114
199 183 114
199 183 114
199 183 114
199 183 114
199 183 114
199 183 114
199 183 114
199 183 114
199 183 114
199 183 114
199 183 114
199 183 114
199 183 114
199 183 114
199 183 114
199 183 114
199 183 114
199 183 114
199 183 114
199 183 114
199 183 114
199 183 114
199 183 114
199 183 114
199 183 114
199 183 114
199 183 114
199 183 114
199 183 114
199 183 114
199 183 114
199 183 114
199 183 114
199 183 114
199 183 114
199 183 114
199 183 114
199 183 114
199 183 114
199 183 114
199 183 114
199 183 114
199 183 114
199 183 114
199 183 114
199 183 114
199 183 114
199 183 114
199 183 114
199 183 114
199 183 114
199 212 228
199 212 228
199 212 228
199 211 228
199 212 228
199 212 228
199 212 228
200 212 228
199 212 228
199 212 228
200 212 228
200 212 228
200 212 228
199 212 228
200 212 228
200 212 228
200 212 228
200 212 228
200 212 228
200 212 228
200 212 228
200 212 228
200 212 228
200 212 228
200 212 228
200 212 228
200 212 228
200 212 228
200 212 228
200 212 228
200 212 228
200 212 228
200 212 228
200 212 228
200 212 228
200 212 228
200 212 228
200 212 228
200 212 228
200 212 228
200 212 228
200 212 228
200 212 228
200 212 228
200 212 228
200 212 228
200 212 228
200 212 228
200 212 228
200 212 228
200 212 228
200 212 228
200 212 228
200 212 228
200 212 228
200 212 228
200 212 228
200 212 228
200 212 228
200 212 228
200 212 228
200 212 228
200 212 228
200 212 228
200 212 228
200 212 228
200 212 228
200 212 228
200 212 228
200 212 228
200 212 228
200 212 228
201 212 228
200 212 228
201 212 228
201 212 228
200 212 228
201 212 228
198 210 217
201 212 228
198 209 217
201 212 228
198 210 217
184 199 177
193 206 204
201 212 228
194 206 204
201 212 228
196 209 217
178 194 161
177 193 144
193 206 204
193 206 204
188 202 191
188 202 191
187 202 191
179 194 144
192 205 204
189 202 191
188 202 191
193 206 204
182 196 161
180 195 161
178 194 161
177 194 161
185 199 177
194 206 204
193 206 204
175 192 144
176 192 144
174 190 125
175 192 144
173 189 125
171 188 125
134 133 0
135 135 0
56 88 125
53 84 112
53 82 114
49 78 97
52 83 123
53 84 123
50 78 109
51 80 99
47 74 85
52 83 125
51 80 104
52 84 125
38 63 75
42 68 92
47 75 126
53 82 133
43 69 113
47 76 116
45 73 101
46 74 109
36 58 92
37 61 71
23 43 71
38 61 82
34 56 70
30 50 56
23 40 80
38 61 88
23 40 59
22 37 62
19 33 58
155 166 182
100 118 155
48 77 102
53 86 128
51 81 80
44 71 57
55 88 108
58 92 155
58 92 128
50 78 120
59 94 147
51 81 80
63 99 161
56 89 159
57 91 108
61 97 159
57 91 128
58 92 137
59 93 140
57 89 108
59 94 128
56 89 99
60 95 128
64 99 159
63 98 140
58 93 128
62 97 149
59 93 111
61 95 140
60 95 149
62 98 151
63 98 151
58 92 128
55 87 99
61 96 128
58 92 114
63 97 140
63 99 159
60 94 151
60 95 128
52 85 114
55 88 114
59 93 140
62 96 161
59 92 128
62 98 151
60 95 128
58 93 128
59 94 114
56 88 99
57 90 128
63 99 161
56 88 128
62 97 140
63 99 161
59 93 140
55 88 99
63 98 151
63 98 151
57 90 140
60 94 130
56 89 99
62 97 161
62 96 140
64 100 161
57 90 128
62 98 151
58 93 114
51 82 114
58 90 114
58 93 114
58 92 114
59 90 114
63 97 153
63 97 161
63 98 140
53 85 99
61 95 140
57 90 114
63 98 140
58 91 114
62 97 140
60 93 128
56 90 114
59 94 128
62 97 140
61 92 133
61 94 140
62 97 140
51 81 99
58 92 102
60 92 117
53 81 67
59 92 130
61 97 161
56 86 114
55 83 72
57 88 114
62 93 142
56 86 114
50 76 62
55 86 84
49 76 100
41 64 57
131 127 108
168 156 96
26 35 26
16 20 3
34 41 23
21 30 28
41 53 45
21 26 11
28 36 28
30 36 16
39 50 32
23 31 28
36 46 16
45 59 46
33 45 14
51 65 54
49 64 37
47 60 42
43 56 41
48 64 38
46 62 45
51 68 52
44 55 28
46 61 36
45 58 40
53 69 58
48 64 37
48 65 51
57 74 69
47 62 45
56 74 63
51 68 52
51 71 57
125 125 25
139 138 0
181 170 80
173 165 72
177 167 72
179 169 80
183 171 88
174 165 72
183 172 88
186 173 88
174 165 72
166 161 62
179 169 80
188 175 95
178 169 80
173 165 72
180 169 80
188 175 95
169 162 62
196 181 108
188 175 95
193 178 102
194 179 102
201 184 114
181 170 80
186 174 95
187 174 95
189 176 95
196 180 108
197 181 108
193 178 102
193 178 102
191 176 95
201 184 114
200 184 114
198 182 108
200 184 114
196 181 108
201 184 114
201 184 114
200 184 114
201 184 114
200 184 114
200 184 114
200 184 114
200 184 114
200 184 114
200 184 114
200 184 114
200 184 114
200 184 114
200 184 114
200 184 114
200 184 114
200 184 114
200 184 114
200 184 114
200 184 114
200 183 114
200 184 114
200 184 114
200 183 114
200 183 114
200 184 114
200 183 114
200 183 114
200 183 114
200 183 114
200 183 114
200 183 114
200 183 114
200 183 114
200 183 114
200 183 114
200 183 114
200 183 114
200 183 114
200 183 114
200 183 114
200 183 114
200 183 114
200 183 114
200 183 114
200 183 114
200 183 114
200 183 114
200 183 114
200 183 114
200 183 114
200 183 114
200 183 114
200 183 114
200 183 114
200 183 114
200 183 114
200 183 114
200 183 114
200 183 114
200 183 114
200 183 114
200 183 114
200 183 114
200 183 114
200 183 114
200 183 114
200 183 114
200 183 114
199 183 114
199 183 114
199 183 114
199 183 114
199 183 114
199 183 114
199 183 114
199 183 114
199 183 114
200 212 228
200 212 228
200 212 228
200 212 228
200 212 228
200 212 228
200 212 228
200 212 228
200 212 228
200 212 228
200 212 228
200 212 228
200 212 228
200 212 228
200 212 228
200 212 228
200 212 228
200 212 228
200 212 228
200 212 228
200 212 228
200 212 228
200 212 228
200 212 228
200 212 228
201 212 228
200 212 228
200 212 228
200 212 228
201 212 228
200 212 228
201 212 228
201 212 228
201 212 228
200 212 228
201 212 228
201 212 228
201 212 228
201 212 228
201 212 228
201 212 228
201 212 228
201 212 228
201 212 228
196 209 217
201 212 228
197 209 217
201 212 228
201 212 228
193 206 204
183 198 177
188 202 191
186 200 177
184 199 177
173 191 144
179 195 161
178 193 144
182 196 161
178 195 161
182 197 161
185 199 177
168 187 125
181 196 161
169 187 125
161 181 72
169 187 125
175 192 144
167 185 102
153 175 0
155 177 72
171 188 125
159 180 72
166 185 102
160 180 72
155 175 0
161 179 0
158 178 0
157 178 0
151 174 0
155 176 0
154 176 0
157 177 0
156 177 0
156 177 0
156 177 0
157 177 0
159 178 0
155 174 0
154 176 0
155 176 0
157 178 0
154 176 0
155 176 0
157 178 0
159 178 0
160 179 0
155 176 0
159 179 0
154 176 0
154 176 0
157 177 0
153 175 0
153 175 0
159 178 0
157 178 0
158 178 0
156 177 0
155 177 0
156 177 0
160 179 0
160 179 0
152 173 0
159 179 0
159 179 0
148 158 0
131 128 0
49 79 102
53 83 114
50 79 88
52 82 102
54 85 131
48 77 85
52 83 112
51 80 112
44 69 72
47 75 99
51 81 97
53 83 121
50 78 112
48 77 88
51 80 121
39 63 77
45 71 79
45 72 104
44 69 97
33 53 45
40 65 106
41 65 108
34 55 85
30 50 72
37 60 72
32 53 50
36 60 99
27 45 54
21 35 45
20 35 62
12 22 47
179 190 206
168 180 191
53 84 108
51 81 128
57 88 137
52 84 122
55 87 111
59 92 137
57 91 120
56 88 144
58 91 111
57 91 128
53 85 99
56 89 114
56 90 99
61 96 161
55 87 128
60 94 125
59 92 140
59 93 140
56 90 99
58 92 137
63 99 161
59 95 140
59 93 140
56 89 108
60 94 151
62 97 151
57 90 114
61 95 128
63 98 151
61 96 151
59 93 140
59 94 114
61 95 151
60 93 149
57 90 114
58 92 140
59 93 151
55 87 137
57 89 80
60 94 140
61 96 161
62 98 151
63 98 151
60 94 151
61 96 151
58 93 149
61 96 128
60 92 128
59 93 114
65 101 171
59 93 99
55 88 80
56 90 128
60 95 128
61 97 151
60 95 137
59 94 128
57 90 114
57 92 140
60 93 140
57 90 128
61 96 140
51 79 102
61 96 140
53 85 114
58 92 140
56 90 114
61 96 161
55 88 128
59 91 99
64 100 161
60 95 128
59 91 117
61 95 163
58 91 151
62 97 151
63 97 151
59 91 151
58 92 128
59 92 114
58 92 128
55 88 114
59 92 140
51 81 62
57 86 88
59 90 140
58 89 117
58 89 130
57 88 99
56 88 142
62 96 142
51 78 117
59 90 117
55 84 120
53 84 129
51 77 25
64 97 142
54 86 117
57 85 102
45 72 88
53 79 102
49 73 88
116 116 88
180 166 102
30 37 28
16 21 12
29 35 16
26 32 14
32 43 39
26 35 30
36 46 36
34 45 28
35 43 28
38 49 28
34 46 36
41 49 18
50 63 41
49 65 41
29 40 36
52 68 59
41 57 25
48 62 37
46 59 28
50 64 39
48 65 57
44 59 37
51 67 48
48 66 44
49 64 54
54 71 59
35 51 36
47 65 57
53 72 51
53 71 57
56 75 57
138 135 0
145 143 0
164 157 0
153 152 0
151 151 0
153 150 0
156 153 0
154 152 0
155 153 0
153 152 0
160 155 0
155 152 0
162 156 0
152 151 0
154 149 0
158 154 0
155 152 0
157 154 0
153 152 0
152 151 0
155 152 0
157 154 0
157 154 0
161 156 0
158 154 0
155 153 0
161 155 0
155 153 0
155 153 0
157 154 0
156 153 0
158 154 0
155 153 0
158 154 0
155 153 0
157 154 0
152 151 0
155 153 0
151 151 0
164 158 36
158 154 0
166 159 36
160 155 0
156 153 0
167 160 51
163 158 36
162 158 51
167 160 51
152 151 0
169 161 51
183 171 80
176 166 72
169 162 62
176 166 72
175 166 72
182 170 80
185 172 88
182 171 88
170 161 51
178 168 80
190 176 95
193 178 102
192 178 102
192 178 102
192 178 102
196 181 108
196 181 108
197 181 108
188 175 95
196 181 108
196 181 108
191 177 102
201 184 114
201 184 114
201 184 114
201 184 114
201 184 114
201 184 114
201 184 114
201 184 114
201 184 114
201 184 114
200 184 114
201 184 114
201 184 114
200 184 114
200 184 114
201 184 114
201 184 114
200 184 114
200 184 114
200 184 114
200 184 114
200 184 114
200 184 114
200 184 114
200 184 114
200 184 114
200 183 114
200 184 114
200 184 114
200 183 114
200 184 114
200 183 114
200 183 114
200 183 114
200 183 114
200 183 114
200 183 114
200 183 114
200 183 114
200 183 114
200 183 114
200 183 114
200 183 114
200 183 114
200 212 228
200 212 228
200 212 228
200 212 228
201 212 228
201 212 228
201 212 228
201 212 228
201 212 228
201 212 228
201 212 228
201 212 228
201 212 228
201 212 228
201 212 228
201 212 228
201 212 228
201 212 228
201 212 228
201 212 228
201 212 228
196 209 217
198 210 217
188 202 191
188 202 191
192 205 204
186 200 177
190 203 191
178 194 161
189 202 191
194 206 204
190 203 191
170 188 125
155 176 0
180 195 161
166 184 102
169 188 125
170 187 102
162 181 72
165 184 102
169 187 125
157 177 0
159 179 0
161 180 0
158 178 0
158 178 0
156 177 0
158 178 0
158 178 0
153 175 0
155 176 0
155 176 0
157 177 0
157 178 0
154 176 0
154 176 0
156 177 0
157 177 0
153 175 0
157 177 0
157 177 0
154 176 0
154 176 0
153 175 0
158 178 0
153 175 0
153 175 0
155 176 0
158 178 0
157 177 0
156 177 0
159 178 0
155 176 0
157 178 0
163 181 0
157 178 0
153 175 0
160 179 0
158 178 0
158 178 0
156 177 0
155 176 0
161 179 0
157 177 0
161 180 0
153 176 0
154 176 0
157 177 0
151 174 0
159 178 0
155 177 0
151 174 0
157 178 0
158 178 0
157 177 0
157 177 0
158 178 0
154 176 0
155 176 0
156 177 0
152 172 0
156 177 0
155 176 0
152 175 0
150 170 0
157 177 0
158 178 0
147 169 0
151 174 0
162 180 0
155 173 0
157 177 0
153 175 0
161 179 0
156 177 0
139 139 0
70 91 102
51 81 102
48 78 88
49 79 114
49 78 99
51 81 129
52 83 114
52 83 133
55 87 144
52 83 99
43 69 88
46 73 107
45 72 82
39 63 77
49 78 82
47 75 94
43 69 109
39 63 68
51 79 112
36 58 100
37 60 77
34 57 74
37 60 73
36 58 59
24 43 78
25 43 66
31 50 45
31 50 68
27 45 67
25 42 11
21 37 41
180 192 211
180 192 215
56 87 133
51 82 95
41 65 88
54 87 99
58 91 125
57 90 117
56 89 122
56 87 105
55 88 76
56 88 137
63 98 159
57 90 128
61 94 137
56 88 111
56 88 128
63 98 167
53 83 114
58 92 99
54 85 114
55 88 88
55 86 114
55 88 114
59 93 151
57 90 128
57 91 137
58 92 114
61 97 151
64 99 151
61 96 140
61 97 140
54 86 99
54 86 99
60 95 128
60 95 128
57 90 114
56 89 99
58 91 114
53 85 114
61 96 140
56 90 114
59 95 151
59 93 99
57 92 114
63 96 151
60 93 128
60 95 128
59 94 128
60 95 140
60 94 114
58 93 114
58 92 128
56 89 84
63 98 151
64 99 161
57 91 114
59 93 140
60 94 140
58 92 140
58 92 114
62 97 140
64 100 171
59 94 114
54 87 114
63 98 151
61 96 140
63 99 161
61 95 114
52 84 99
59 93 128
59 93 128
62 97 140
60 94 151
58 92 128
61 96 140
58 90 99
60 95 128
58 91 117
59 91 122
59 92 114
51 82 99
62 96 140
61 95 140
60 95 151
60 92 117
59 93 151
57 88 128
62 95 130
60 94 151
56 87 84
58 90 102
63 98 140
58 91 117
53 80 102
58 91 140
50 77 80
60 92 128
55 83 108
55 85 114
53 82 88
55 86 133
51 78 118
49 71 92
170 159 111
179 164 102
26 34 3
29 39 0
24 31 9
34 43 0
26 31 11
31 43 25
26 36 27
36 44 19
30 38 16
33 43 29
43 54 41
46 61 58
43 53 42
43 56 38
45 59 39
46 62 46
43 55 28
47 62 51
42 56 39
44 59 37
44 58 38
43 57 38
47 63 36
47 62 44
47 63 36
50 66 52
46 63 45
53 73 57
55 73 58
55 75 67
73 84 36
145 143 0
157 154 0
154 152 0
157 153 0
159 155 0
159 154 0
153 152 0
157 153 0
153 152 0
153 152 0
155 152 0
155 152 0
161 156 0
158 154 0
157 154 0
155 152 0
156 153 0
158 154 0
157 153 0
157 153 0
159 154 0
161 156 0
151 151 0
155 153 0
156 153 0
153 152 0
158 154 0
158 154 0
157 154 0
155 152 0
153 152 0
155 153 0
156 153 0
153 148 0
157 154 0
150 150 0
156 153 0
154 152 0
157 154 0
156 153 0
157 154 0
158 154 0
160 155 0
155 153 0
156 153 0
155 153 0
155 153 0
157 154 0
153 152 0
158 154 0
157 154 0
154 152 0
155 153 0
150 150 0
158 154 0
156 153 0
157 154 0
155 153 0
159 154 0
155 153 0
159 154 0
157 153 0
158 154 0
158 154 0
152 151 0
156 153 0
157 154 0
157 154 0
155 153 0
155 153 0
155 152 0
155 153 0
152 152 0
158 154 0
166 160 51
178 167 72
156 153 0
167 160 51
163 157 36
163 159 51
167 160 51
179 169 80
165 159 51
185 172 88
176 166 72
176 166 72
181 170 80
192 178 102
190 176 95
179 169 80
196 181 108
189 176 95
194 179 102
190 176 95
193 178 102
196 181 108
201 184 114
201 184 114
201 184 114
201 184 114
201 184 114
201 184 114
201 184 114
201 184 114
201 184 114
201 184 114
201 184 114
201 184 114
201 184 114
201 184 114
201 184 114
201 184 114
200 184 114
200 184 114
201 184 114
201 184 114
201 212 228
201 212 228
201 212 228
197 209 217
197 209 217
197 209 217
190 203 191
188 202 191
186 200 177
186 200 177
174 191 144
185 200 177
195 207 204
167 186 125
168 185 102
161 181 72
156 177 0
167 185 102
161 179 0
155 176 0
158 178 0
156 177 0
159 178 0
154 176 0
158 178 0
153 175 0
156 177 0
161 180 0
156 177 0
158 178 0
154 176 0
159 179 0
155 176 0
149 173 0
161 179 0
156 177 0
154 176 0
154 176 0
152 175 0
155 177 0
156 177 0
158 178 0
158 178 0
160 179 0
157 177 0
160 179 0
156 177 0
153 175 0
156 177 0
153 175 0
156 177 0
157 177 0
157 178 0
154 176 0
152 175 0
151 175 0
153 176 0
158 178 0
158 178 0
151 174 0
159 179 0
159 178 0
156 177 0
158 178 0
152 175 0
158 178 0
153 173 0
155 176 0
155 176 0
158 178 0
155 177 0
157 177 0
162 177 0
157 178 0
152 175 0
155 176 0
160 179 0
159 178 0
158 178 0
157 177 0
152 171 0
156 176 0
155 176 0
153 175 0
158 178 0
153 175 0
153 176 0
156 177 0
153 175 0
154 176 0
154 176 0
157 178 0
159 179 0
149 170 0
152 175 0
156 177 0
153 176 0
162 180 0
152 175 0
156 177 0
153 173 0
155 173 0
156 177 0
160 179 0
152 172 0
154 176 0
150 167 0
158 175 0
151 174 0
152 175 0
157 177 0
151 168 0
157 174 0
153 175 0
158 178 0
157 175 0
85 96 0
57 88 125
46 73 88
55 86 123
50 79 114
46 74 68
52 83 109
42 67 102
47 75 99
42 68 60
49 78 115
49 78 99
47 76 99
40 64 82
43 68 99
43 69 85
34 56 68
38 60 82
33 55 32
34 57 82
42 66 56
30 50 54
35 56 70
40 64 64
35 57 68
26 46 50
30 50 85
18 30 38
22 35 49
29 46 0
77 94 45
162 181 72
180 191 204
54 86 140
50 81 72
45 72 62
52 82 122
56 87 130
55 87 111
56 88 122
51 82 105
54 86 118
62 97 157
55 87 99
62 96 140
57 88 99
55 88 108
61 96 149
57 91 114
53 86 125
55 89 114
58 93 114
59 92 137
58 93 135
53 83 95
59 93 114
58 91 149
57 89 125
60 93 128
61 96 140
59 92 128
56 89 99
57 90 140
59 92 140
54 86 57
62 97 151
56 89 95
55 89 128
56 90 114
61 95 128
57 90 114
62 97 151
61 96 140
61 97 151
64 99 161
60 96 140
62 97 151
59 93 114
59 91 130
57 90 114
65 101 171
57 91 114
56 88 114
56 88 114
63 98 151
62 97 140
59 91 114
56 89 99
61 96 140
56 89 99
59 94 128
58 93 114
54 87 80
53 85 99
65 102 181
60 93 128
60 93 114
62 98 151
57 89 128
62 97 140
62 97 140
58 91 99
62 97 140
64 99 161
58 91 140
61 96 151
60 92 128
62 98 151
63 99 171
53 85 99
57 92 99
61 95 142
58 92 140
61 95 142
60 94 128
63 98 151
58 89 120
64 99 171
61 93 117
59 91 114
56 87 102
57 91 128
52 83 80
56 88 102
63 98 151
53 83 99
59 89 120
59 92 130
51 77 84
57 85 120
56 86 105
57 85 135
58 85 108
53 82 84
53 82 102
157 147 105
174 164 62
59 60 14
21 27 3
24 32 9
24 29 1
22 26 3
30 39 0
32 42 32
39 49 25
34 44 16
24 31 25
40 49 34
31 38 19
41 51 21
36 47 38
36 48 38
43 54 30
44 58 46
49 64 53
44 59 36
51 65 41
46 60 47
51 69 44
49 65 36
48 60 47
50 68 52
45 60 44
52 69 47
48 65 36
49 65 57
47 65 44
79 86 36
153 149 0
158 153 0
152 148 0
153 152 0
151 151 0
158 154 0
158 154 0
158 154 0
145 145 0
150 146 0
156 153 0
153 152 0
146 145 0
147 145 0
158 154 0
155 153 0
152 151 0
161 155 0
156 153 0
157 154 0
154 151 0
152 152 0
158 154 0
158 154 0
156 153 0
156 153 0
157 154 0
157 154 0
155 153 0
157 154 0
155 153 0
157 154 0
158 154 0
154 152 0
157 153 0
151 149 0
155 153 0
155 153 0
155 153 0
154 151 0
154 152 0
151 151 0
156 153 0
149 147 0
156 153 0
155 152 0
162 156 0
151 151 0
164 157 0
158 154 0
156 153 0
155 153 0
154 152 0
157 153 0
158 154 0
158 154 0
155 153 0
153 152 0
157 154 0
156 153 0
157 153 0
153 152 0
158 154 0
163 156 0
153 152 0
156 153 0
156 153 0
146 145 0
157 153 0
153 152 0
157 153 0
161 156 0
161 155 0
157 154 0
158 154 0
158 154 0
153 152 0
158 154 0
152 151 0
162 156 0
157 154 0
157 153 0
156 153 0
157 154 0
156 153 0
156 153 0
161 156 0
156 153 0
155 153 0
157 154 0
153 152 0
156 153 0
157 154 0
159 155 0
153 152 0
153 152 0
152 151 0
160 156 36
163 158 36
163 159 51
160 156 36
168 161 51
180 169 80
168 162 62
189 175 95
181 170 80
183 172 88
188 175 95
185 173 88
189 175 95
196 181 108
194 179 102
197 181 108
201 184 114
201 184 114
201 184 114
155 177 0
154 176 0
155 176 0
156 177 0
158 178 0
154 176 0
158 178 0
153 175 0
153 175 0
156 177 0
157 177 0
159 178 0
157 178 0
156 177 0
160 179 0
158 178 0
154 176 0
154 176 0
157 178 0
156 177 0
161 179 0
160 179 0
157 177 0
157 178 0
153 175 0
155 176 0
156 177 0
157 176 0
155 176 0
157 177 0
152 175 0
158 178 0
159 178 0
158 178 0
152 175 0
155 177 0
158 178 0
158 178 0
157 178 0
153 175 0
158 178 0
158 178 0
158 178 0
157 178 0
156 177 0
156 177 0
153 176 0
152 175 0
156 177 0
156 177 0
156 177 0
158 178 0
158 178 0
161 180 0
157 177 0
154 176 0
155 177 0
155 176 0
155 177 0
158 178 0
158 178 0
156 177 0
156 177 0
157 178 0
156 177 0
154 176 0
158 178 0
147 169 0
155 176 0
156 177 0
155 176 0
158 178 0
158 178 0
154 176 0
160 179 0
153 175 0
150 174 0
158 178 0
159 179 0
154 176 0
156 177 0
154 176 0
160 179 0
146 168 0
154 176 0
155 176 0
159 179 0
156 177 0
158 178 0
160 179 0
152 175 0
152 175 0
158 178 0
154 176 0
156 177 0
156 174 0
154 174 0
158 177 0
150 169 0
154 173 0
155 177 0
146 168 0
153 175 0
150 169 0
155 173 0
152 172 0
150 171 0
155 176 0
154 171 0
148 170 0
149 166 0
154 173 0
148 162 0
155 160 0
154 170 0
144 157 0
93 102 88
50 79 88
47 74 107
48 76 88
45 72 88
45 73 64
48 77 121
46 72 72
47 77 68
51 80 121
52 81 133
52 83 141
47 74 102
46 74 84
44 71 51
42 68 45
45 73 111
43 68 118
39 63 63
47 74 94
46 74 124
34 54 56
39 63 103
31 49 79
30 50 64
39 63 107
34 54 64
31 50 67
17 28 54
24 40 45
89 103 51
153 175 0
198 211 211
50 82 76
60 93 135
47 75 108
53 84 105
51 81 76
54 86 129
57 90 125
61 96 151
58 91 133
59 92 111
49 79 80
59 93 128
52 83 125
59 91 125
58 93 114
52 82 114
57 90 114
54 86 114
60 94 135
56 89 95
63 99 151
57 90 114
64 99 151
57 90 114
58 92 137
58 92 140
62 96 149
59 94 125
60 94 140
60 94 151
59 92 140
56 89 128
56 91 99
57 90 114
59 94 114
54 86 80
62 97 151
56 91 99
58 91 135
59 93 114
54 88 99
62 96 114
58 90 114
62 97 140
63 99 161
60 94 140
59 92 128
59 93 140
56 90 114
57 90 128
60 94 114
63 99 161
57 89 128
62 97 140
58 92 140
59 95 140
63 98 151
60 95 128
59 95 128
61 96 128
56 90 128
58 91 99
59 92 151
56 88 128
59 95 140
58 92 140
62 96 142
58 92 128
57 89 128
56 89 140
60 95 128
57 88 128
56 89 128
57 89 99
62 98 151
59 92 128
58 91 114
61 94 142
56 89 114
57 89 130
59 94 128
63 97 153
54 85 80
60 93 130
61 97 140
55 87 99
60 94 128
52 77 84
59 91 130
56 88 84
58 92 114
61 94 161
56 86 130
58 89 117
57 82 110
60 94 142
57 91 114
59 91 144
54 83 84
55 85 84
60 88 135
52 78 117
211 215 207
154 152 0
132 131 8
26 36 0
31 39 0
30 37 11
36 48 36
30 40 25
42 56 28
33 42 28
37 48 30
40 51 31
32 46 25
33 42 12
42 53 32
47 62 52
46 61 45
49 63 37
46 59 51
44 57 46
40 53 39
45 61 37
46 60 36
45 59 21
51 66 45
48 64 25
47 63 39
46 63 36
45 61 28
50 66 52
52 70 51
49 67 44
114 117 36
148 142 0
155 152 0
155 152 0
156 151 0
157 152 0
155 153 0
158 154 0
146 144 0
153 151 0
157 153 0
158 154 0
158 154 0
156 153 0
157 154 0
154 152 0
156 153 0
151 147 0
155 153 0
153 152 0
155 153 0
152 151 0
147 146 0
156 153 0
153 151 0
153 152 0
157 153 0
157 154 0
151 151 0
152 151 0
155 153 0
147 146 0
153 152 0
157 154 0
154 151 0
154 152 0
159 154 0
158 154 0
152 151 0
157 154 0
154 152 0
161 155 0
154 151 0
154 152 0
154 152 0
152 151 0
158 154 0
158 154 0
157 154 0
154 152 0
157 153 0
162 156 0
155 150 0
152 151 0
157 154 0
156 153 0
160 155 0
152 151 0
155 153 0
160 155 0
156 153 0
155 153 0
157 154 0
154 152 0
154 152 0
159 154 0
156 153 0
155 153 0
154 152 0
154 152 0
161 156 0
153 152 0
157 154 0
158 154 0
160 155 0
157 153 0
156 153 0
155 153 0
154 152 0
158 154 0
158 154 0
154 152 0
154 152 0
156 153 0
158 154 0
155 153 0
145 144 0
158 154 0
152 151 0
160 155 0
155 152 0
155 153 0
154 152 0
157 154 0
157 153 0
158 154 0
153 152 0
156 153 0
157 154 0
155 153 0
155 153 0
161 156 0
163 156 0
155 153 0
154 152 0
158 154 0
162 156 0
155 152 0
153 152 0
154 152 0
151 151 0
159 154 0
155 153 0
153 152 0
155 153 0
162 157 36
160 156 36
156 177 0
156 177 0
155 176 0
157 178 0
160 179 0
153 175 0
156 177 0
152 175 0
154 176 0
156 177 0
152 175 0
155 177 0
159 178 0
158 178 0
158 178 0
154 176 0
160 179 0
152 175 0
156 177 0
159 179 0
159 179 0
154 176 0
156 177 0
153 175 0
154 176 0
157 177 0
154 176 0
154 176 0
161 179 0
155 177 0
160 179 0
157 177 0
160 179 0
155 176 0
156 177 0
159 179 0
158 178 0
159 178 0
156 177 0
158 178 0
155 177 0
157 177 0
157 178 0
158 178 0
157 177 0
146 167 0
151 174 0
152 175 0
158 178 0
150 170 0
157 178 0
156 177 0
155 177 0
155 176 0
148 168 0
144 163 0
152 175 0
147 169 0
158 178 0
159 178 0
160 179 0
159 178 0
154 176 0
142 165 0
156 175 0
156 177 0
146 168 0
153 175 0
156 177 0
157 177 0
157 178 0
157 177 0
155 177 0
157 178 0
151 174 0
155 176 0
156 177 0
156 177 0
159 179 0
143 165 0
151 171 0
154 176 0
142 166 0
156 176 0
159 176 0
158 177 0
156 177 0
153 172 0
157 177 0
150 170 0
156 177 0
149 169 0
153 175 0
157 174 0
153 175 0
150 171 0
149 166 0
145 166 0
141 160 0
156 173 0
147 166 0
155 176 0
141 160 0
149 168 0
145 168 0
153 174 0
153 172 0
155 174 0
148 166 0
151 165 0
153 176 0
150 161 0
150 166 0
143 154 0
141 156 0
148 160 0
143 145 0
52 83 99
54 84 125
50 79 102
48 76 85
40 65 72
42 67 51
48 75 121
53 84 121
51 80 51
48 76 97
44 70 91
50 80 118
51 79 127
49 78 101
39 63 74
40 64 60
40 65 72
28 48 45
23 41 38
46 72 103
38 63 34
41 65 88
31 52 45
36 57 67
39 63 68
30 49 22
29 47 75
28 46 54
27 44 54
128 146 68
157 177 0
197 213 194
47 75 96
43 69 82
52 82 125
54 85 125
58 91 125
51 83 125
53 85 105
60 95 169
62 95 147
58 92 135
52 83 111
58 92 128
61 97 161
53 83 99
62 96 137
62 97 149
60 94 125
56 87 99
59 93 135
60 94 159
57 90 114
58 92 111
56 90 128
55 90 99
60 94 151
54 86 114
59 93 114
62 97 140
63 98 151
59 94 128
58 93 114
60 95 128
58 92 99
54 87 57
62 98 161
54 85 99
57 91 128
62 98 161
53 85 128
59 94 114
57 89 140
60 94 151
60 95 151
55 88 140
61 95 128
60 94 140
59 93 128
59 94 128
63 99 161
58 93 114
62 97 140
61 96 140
60 93 128
57 90 99
60 95 140
56 89 99
59 93 140
59 94 114
60 94 140
59 94 128
64 100 171
56 90 128
60 93 151
57 90 114
63 97 140
54 86 114
56 90 114
59 94 128
58 91 128
57 88 128
64 99 161
60 91 130
57 90 140
58 89 102
60 94 130
59 92 102
60 95 140
61 95 140
55 87 128
58 92 128
57 87 140
60 93 128
62 96 130
61 94 140
56 87 102
54 85 128
52 81 114
51 80 82
57 90 130
59 93 114
57 84 88
56 91 80
58 90 102
63 97 151
60 94 140
57 90 102
45 69 102
57 87 130
56 85 120
55 85 118
53 84 117
46 70 60
206 212 204
152 151 0
138 137 0
34 43 11
24 31 0
35 42 21
35 47 44
28 37 26
31 38 16
33 40 16
39 55 51
41 53 36
41 49 21
41 53 12
36 48 44
42 54 30
40 53 37
45 58 31
42 58 37
40 51 26
51 67 45
43 55 28
45 62 37
54 72 58
48 64 44
50 65 52
47 62 46
47 63 37
52 69 62
47 63 44
44 61 44
49 67 44
121 117 25
145 142 0
151 146 0
147 145 0
143 141 0
151 148 0
148 147 0
146 145 0
157 152 0
150 148 0
153 151 0
140 138 0
152 149 0
153 148 0
151 151 0
149 147 0
154 152 0
153 151 0
151 148 0
148 145 0
158 154 0
153 152 0
156 152 0
156 152 0
152 148 0
154 152 0
143 142 0
155 153 0
157 154 0
152 151 0
157 153 0
153 149 0
156 153 0
147 145 0
162 156 0
149 147 0
159 155 0
155 153 0
161 155 0
157 154 0
155 152 0
155 153 0
154 152 0
160 155 0
157 153 0
158 154 0
157 153 0
155 153 0
151 151 0
156 153 0
157 154 0
156 153 0
154 152 0
156 153 0
155 153 0
155 153 0
158 153 0
152 152 0
156 153 0
159 155 0
154 152 0
152 151 0
153 152 0
155 153 0
150 150 0
159 154 0
158 154 0
153 152 0
155 153 0
155 153 0
154 152 0
158 154 0
153 152 0
154 152 0
155 153 0
157 154 0
153 152 0
155 150 0
154 152 0
156 153 0
160 155 0
154 152 0
148 146 0
154 149 0
155 153 0
155 153 0
153 152 0
151 151 0
155 153 0
159 155 0
157 154 0
155 153 0
154 151 0
150 151 0
156 153 0
153 152 0
158 154 0
155 153 0
157 154 0
153 152 0
156 153 0
158 154 0
158 154 0
158 154 0
156 153 0
161 155 0
156 153 0
155 153 0
154 152 0
154 152 0
157 153 0
158 154 0
159 155 0
158 154 0
156 153 0
157 154 0
154 152 0
154 176 0
158 178 0
158 178 0
155 176 0
161 180 0
155 176 0
157 178 0
150 174 0
154 176 0
156 177 0
157 177 0
154 176 0
157 177 0
158 178 0
155 176 0
154 176 0
154 176 0
158 178 0
156 177 0
156 177 0
154 176 0
151 174 0
157 178 0
156 177 0
154 176 0
157 177 0
156 177 0
154 176 0
155 176 0
156 177 0
153 175 0
154 176 0
156 177 0
155 176 0
154 176 0
154 176 0
154 176 0
157 178 0
158 178 0
151 172 0
156 177 0
154 176 0
157 178 0
148 168 0
155 176 0
155 176 0
152 175 0
152 175 0
154 176 0
155 176 0
162 180 0
156 177 0
153 176 0
157 178 0
157 177 0
158 178 0
155 176 0
157 177 0
159 179 0
147 168 0
153 175 0
154 176 0
155 176 0
151 174 0
153 175 0
155 176 0
152 175 0
154 176 0
153 175 0
154 176 0
158 175 0
158 178 0
159 178 0
154 173 0
160 179 0
148 169 0
144 166 0
155 176 0
156 176 0
156 177 0
155 176 0
153 172 0
154 176 0
154 176 0
157 177 0
153 173 0
156 177 0
154 176 0
154 176 0
152 175 0
151 171 0
159 178 0
156 177 0
146 165 0
157 177 0
152 172 0
155 173 0
150 170 0
145 165 0
154 173 0
144 161 0
145 165 0
146 167 0
138 160 0
153 173 0
151 171 0
153 169 0
150 163 0
151 168 0
145 160 0
147 159 0
148 162 0
124 134 0
138 150 0
143 158 0
141 155 0
134 137 0
42 68 45
48 76 88
53 84 114
46 73 72
45 72 99
47 75 85
44 69 99
52 82 114
44 71 68
43 69 75
37 60 32
44 71 99
39 63 69
40 65 0
42 68 82
39 62 96
46 73 103
33 54 90
44 69 97
41 64 86
29 49 58
37 60 54
42 65 97
39 63 51
38 61 55
23 41 38
34 54 84
20 33 4
86 106 60
142 163 51
145 167 0
210 224 226
40 66 76
50 80 133
49 78 51
51 81 99
52 83 137
57 90 122
56 88 116
54 85 108
53 84 92
55 88 128
48 77 95
56 90 125
59 94 137
57 91 111
53 84 99
56 89 114
59 93 111
58 93 147
62 97 149
57 90 99
55 88 122
60 95 140
53 85 99
54 86 114
61 96 149
55 87 128
57 90 125
58 92 151
57 89 114
57 90 125
60 95 140
63 97 159
57 92 111
58 93 99
58 92 128
59 93 114
57 91 99
51 81 114
60 95 128
55 89 99
59 92 128
60 95 128
57 91 128
58 92 114
54 87 57
57 90 114
61 96 128
61 97 151
60 93 140
62 96 151
61 96 140
61 94 140
58 91 114
62 96 142
60 95 114
58 93 128
56 88 128
60 95 128
60 95 128
55 89 114
55 88 80
59 94 114
60 92 128
55 87 80
65 99 153
62 97 151
59 94 128
64 100 161
56 87 80
58 89 114
64 100 161
59 92 128
60 95 128
59 93 128
55 89 114
53 82 102
61 98 161
57 92 99
60 96 140
55 85 128
54 86 99
56 88 128
59 93 130
61 93 128
55 84 80
58 89 140
63 97 161
53 85 99
59 91 102
54 86 114
57 88 130
58 89 114
56 89 128
59 90 99
54 87 80
53 79 105
57 86 84
50 75 84
57 88 102
55 82 88
49 72 72
107 120 121
202 205 188
156 153 0
153 152 0
59 66 25
24 29 3
18 23 3
31 40 16
27 33 14
42 54 39
38 49 12
27 35 25
44 54 11
36 48 28
43 57 12
39 47 38
48 60 47
37 45 25
41 51 28
44 58 51
45 61 51
46 60 37
50 64 52
36 46 30
48 62 39
49 65 51
47 63 45
49 67 52
48 65 62
46 61 44
51 69 44
46 62 44
77 89 44
140 136 0
151 147 0
145 141 0
133 127 0
150 147 0
136 134 0
140 137 0
143 140 0
151 149 0
153 147 0
154 151 0
157 154 0
145 145 0
152 150 0
156 153 0
145 144 0
143 143 0
157 154 0
152 150 0
154 151 0
156 153 0
157 154 0
130 131 0
154 152 0
147 144 0
142 143 0
153 152 0
156 152 0
154 152 0
154 152 0
155 153 0
154 149 0
156 153 0
152 150 0
156 153 0
155 152 0
151 151 0
153 152 0
158 154 0
155 153 0
156 153 0
155 152 0
148 145 0
159 152 0
159 154 0
154 152 0
154 152 0
151 148 0
152 152 0
154 152 0
154 152 0
155 152 0
155 153 0
155 153 0
157 154 0
154 152 0
156 153 0
155 153 0
159 155 0
155 153 0
156 153 0
159 155 0
152 152 0
155 153 0
156 153 0
158 154 0
158 154 0
152 151 0
146 146 0
155 152 0
156 153 0
153 152 0
153 152 0
154 152 0
156 153 0
158 154 0
156 153 0
158 154 0
158 154 0
151 151 0
151 151 0
153 152 0
153 152 0
156 153 0
157 154 0
157 154 0
155 153 0
158 154 0
157 154 0
156 153 0
154 152 0
155 153 0
158 154 0
152 151 0
155 153 0
156 153 0
155 153 0
154 152 0
158 154 0
156 153 0
158 154 0
157 154 0
155 153 0
153 152 0
156 153 0
158 154 0
156 153 0
154 150 0
157 153 0
156 153 0
152 151 0
154 152 0
158 154 0
158 154 0
158 154 0
153 152 0
156 153 0
155 176 0
161 180 0
154 176 0
155 177 0
154 176 0
160 179 0
155 177 0
156 177 0
151 174 0
159 179 0
156 177 0
156 177 0
156 177 0
161 179 0
155 176 0
160 179 0
160 179 0
150 174 0
157 178 0
159 178 0
156 177 0
154 176 0
156 177 0
155 177 0
158 178 0
155 176 0
162 180 0
155 177 0
156 177 0
157 177 0
158 178 0
156 177 0
154 176 0
156 177 0
153 175 0
160 179 0
146 168 0
154 176 0
154 176 0
155 176 0
156 177 0
157 177 0
154 176 0
155 176 0
152 175 0
154 176 0
158 178 0
156 177 0
157 177 0
154 176 0
155 176 0
156 177 0
151 174 0
159 179 0
154 176 0
160 179 0
156 177 0
155 176 0
157 178 0
159 178 0
154 176 0
156 174 0
149 172 0
155 176 0
153 175 0
152 175 0
154 176 0
156 177 0
158 178 0
153 174 0
157 177 0
153 175 0
144 167 0
151 174 0
160 179 0
159 179 0
155 176 0
158 177 0
156 175 0
152 175 0
151 174 0
156 177 0
154 174 0
158 175 0
151 171 0
154 173 0
142 160 0
149 169 0
147 166 0
148 168 0
150 174 0
153 175 0
153 175 0
156 177 0
155 173 0
149 165 0
157 175 0
158 175 0
156 168 0
143 160 0
149 170 0
157 171 0
150 168 0
155 173 0
147 166 0
152 169 0
152 169 0
143 163 0
155 170 0
142 162 0
133 146 0
143 153 0
136 154 0
131 141 0
141 157 0
131 143 0
126 134 0
76 85 0
50 78 123
47 75 85
45 69 88
51 79 109
54 83 112
51 80 99
50 79 88
50 79 99
51 82 112
42 68 82
48 76 72
45 73 88
44 69 102
46 72 102
41 67 68
43 68 68
39 64 64
42 66 72
35 58 73
43 69 64
35 55 21
29 48 45
27 45 20
33 56 0
25 40 51
28 45 28
35 57 52
110 129 0
156 177 0
160 179 0
224 237 255
85 106 144
53 84 109
55 88 151
56 89 135
57 89 128
60 95 128
56 89 116
53 85 128
47 77 57
50 80 95
62 97 159
60 95 140
57 90 137
56 90 114
62 96 140
62 98 151
55 87 95
54 86 99
52 84 95
57 90 114
60 94 99
58 92 149
59 93 111
61 95 128
62 96 151
60 94 151
51 83 95
61 96 151
62 98 151
54 87 128
51 82 114
60 95 128
54 87 80
61 96 140
60 94 128
60 95 128
60 95 137
53 84 99
58 92 140
56 90 140
58 92 99
64 99 151
59 93 99
56 89 114
62 97 151
57 90 140
55 85 99
61 96 128
62 97 140
61 97 151
55 87 99
58 92 140
62 97 140
60 94 140
58 92 128
60 94 130
63 98 151
62 95 151
62 98 151
58 89 130
59 93 114
58 91 99
61 95 151
53 84 114
56 89 114
58 91 114
62 96 142
57 90 114
57 89 99
51 82 80
58 93 99
56 90 57
60 93 117
55 86 62
55 84 88
60 94 128
55 86 114
58 92 140
53 84 114
55 85 128
59 93 140
57 89 114
54 86 80
57 91 140
60 94 128
54 80 102
61 96 140
60 92 120
57 91 128
56 88 114
58 91 114
58 91 102
53 83 103
54 83 102
57 86 117
59 89 133
52 80 82
56 84 102
54 82 84
52 80 84
45 69 57
131 146 163
224 237 255
166 164 80
155 153 0
94 95 3
27 34 16
39 46 16
36 46 28
40 53 25
44 59 37
29 36 11
41 52 28
32 42 0
31 41 14
37 44 19
40 53 36
34 43 11
48 61 28
40 53 44
44 59 52
45 61 36
39 51 11
34 47 25
45 60 37
50 66 25
45 61 36
45 61 40
52 68 51
49 67 45
46 64 25
56 75 67
51 70 51
78 86 25
126 121 0
128 128 0
135 130 0
123 124 0
145 144 0
149 144 0
129 128 0
123 121 0
148 146 0
145 144 0
146 144 0
140 138 0
148 147 0
146 144 0
143 141 0
155 153 0
151 149 0
147 144 0
149 150 0
158 154 0
155 153 0
147 146 0
154 152 0
152 151 0
140 138 0
150 146 0
157 154 0
156 153 0
154 151 0
158 154 0
153 152 0
157 154 0
159 154 0
156 153 0
156 153 0
158 154 0
157 152 0
145 145 0
146 144 0
158 152 0
158 154 0
153 152 0
153 152 0
161 155 0
153 149 0
156 153 0
157 153 0
156 153 0
157 154 0
153 152 0
153 152 0
155 153 0
156 153 0
157 154 0
153 152 0
151 151 0
158 154 0
155 153 0
155 153 0
159 155 0
154 152 0
153 152 0
155 153 0
158 154 0
158 154 0
148 146 0
153 152 0
155 153 0
156 153 0
143 144 0
159 155 0
158 154 0
135 137 0
153 149 0
149 147 0
152 151 0
154 152 0
151 151 0
150 150 0
158 154 0
153 152 0
156 153 0
154 152 0
154 152 0
156 153 0
157 154 0
155 153 0
157 154 0
156 153 0
155 153 0
154 152 0
157 154 0
154 152 0
158 154 0
157 154 0
158 154 0
156 153 0
157 153 0
156 153 0
155 153 0
156 153 0
155 153 0
159 155 0
152 151 0
159 154 0
155 153 0
152 148 0
161 155 0
161 155 0
151 151 0
154 152 0
156 153 0
154 152 0
160 155 0
158 154 0
158 154 0
156 153 0
158 178 0
157 177 0
155 175 0
156 177 0
155 177 0
154 176 0
154 176 0
154 176 0
155 176 0
154 176 0
153 175 0
153 175 0
156 177 0
153 175 0
156 177 0
158 178 0
157 178 0
155 176 0
153 175 0
157 177 0
155 176 0
155 176 0
158 178 0
155 176 0
156 177 0
156 177 0
148 168 0
154 176 0
160 179 0
160 179 0
155 176 0
154 176 0
156 177 0
156 177 0
152 175 0
160 179 0
150 170 0
151 174 0
152 175 0
159 179 0
157 177 0
154 176 0
152 175 0
151 174 0
154 176 0
156 177 0
151 174 0
153 176 0
149 170 0
155 177 0
152 175 0
154 176 0
150 170 0
156 174 0
159 178 0
149 170 0
153 176 0
154 176 0
153 175 0
153 175 0
156 177 0
155 176 0
154 176 0
156 177 0
155 177 0
152 175 0
138 156 0
152 172 0
155 176 0
155 176 0
154 176 0
156 177 0
159 179 0
154 176 0
146 168 0
156 177 0
147 168 0
155 177 0
156 177 0
150 170 0
148 168 0
146 168 0
149 169 0
157 175 0
153 175 0
152 175 0
148 173 0
156 177 0
154 176 0
146 168 0
154 176 0
153 176 0
154 176 0
156 177 0
154 173 0
138 159 0
158 178 0
149 167 0
154 173 0
150 165 0
133 153 0
158 172 0
151 169 0
154 171 0
151 170 0
137 157 0
151 171 0
136 156 0
152 172 0
139 159 0
125 134 0
144 157 0
117 135 0
129 145 0
139 150 0
140 142 0
141 156 0
138 154 0
57 79 88
54 84 133
51 79 88
52 81 99
51 81 102
44 70 51
42 67 68
45 72 0
43 70 97
46 73 88
46 72 102
45 72 51
38 61 85
36 59 0
43 71 72
46 72 68
35 56 0
28 45 51
32 53 20
31 49 34
35 57 79
43 68 72
33 53 29
36 58 45
30 49 28
30 50 28
56 70 0
140 161 0
151 174 0
186 203 161
211 226 214
171 187 165
49 79 105
58 89 128
50 81 95
54 86 99
53 84 95
55 88 122
57 90 137
55 87 128
54 86 111
61 95 144
57 90 128
54 87 125
53 85 114
54 84 125
59 93 128
47 75 80
60 94 99
58 92 80
59 91 125
65 101 171
61 95 114
55 87 108
58 91 80
62 98 151
64 100 171
53 85 114
53 84 99
49 78 99
57 90 114
59 95 128
60 94 128
59 95 140
59 92 128
63 97 140
59 94 128
59 93 140
55 88 99
59 94 128
60 95 128
60 96 151
59 92 99
60 95 114
57 91 125
60 93 140
58 92 140
64 99 161
55 88 80
55 88 99
59 92 114
58 93 114
59 94 128
60 96 140
58 93 99
60 94 140
60 93 151
58 92 99
53 85 62
58 91 114
59 93 128
61 96 161
62 97 140
53 84 99
59 93 114
48 79 57
58 93 114
55 87 128
59 93 140
55 89 99
56 90 128
58 92 140
61 95 128
58 91 128
57 90 57
56 89 99
59 94 114
62 97 151
61 97 151
55 86 99
59 92 128
53 84 117
63 97 171
57 89 128
58 92 151
54 82 102
61 96 128
58 91 99
54 83 80
53 83 114
55 87 114
51 77 65
56 91 80
60 93 140
49 77 57
52 83 99
56 86 114
59 90 102
49 76 0
52 78 99
49 75 57
41 63 57
181 196 189
224 237 255
168 172 114
154 152 0
142 143 0
29 35 12
27 32 8
29 36 0
30 38 8
39 51 14
32 43 3
37 47 0
41 52 16
30 39 3
41 52 28
37 47 28
42 55 37
40 50 11
43 55 16
38 50 28
53 70 58
40 55 8
39 50 16
47 60 36
45 59 37
46 64 44
45 60 44
49 62 39
50 66 52
55 73 57
49 64 37
50 66 44
127 123 0
124 122 0
119 117 0
119 118 0
149 146 0
137 134 0
153 150 0
144 143 0
148 145 0
128 127 0
149 145 0
144 144 0
146 145 0
152 147 0
154 152 0
157 154 0
149 148 0
152 147 0
146 145 0
158 152 0
150 148 0
148 142 0
150 147 0
154 152 0
149 147 0
152 149 0
145 144 0
158 154 0
146 145 0
148 146 0
158 154 0
148 145 0
153 152 0
156 153 0
136 137 0
156 153 0
157 154 0
157 154 0
155 150 0
153 149 0
148 146 0
154 152 0
158 154 0
148 145 0
154 152 0
159 154 0
156 153 0
156 153 0
161 156 0
154 152 0
157 154 0
152 149 0
152 149 0
156 153 0
154 152 0
160 155 0
160 155 0
157 153 0
159 154 0
152 151 0
155 152 0
154 152 0
157 154 0
148 147 0
153 152 0
158 154 0
152 148 0
154 152 0
156 153 0
156 153 0
156 153 0
154 152 0
159 155 0
158 154 0
150 149 0
152 151 0
158 154 0
153 152 0
153 152 0
156 153 0
160 155 0
153 152 0
154 152 0
156 153 0
145 145 0
161 155 0
154 152 0
157 154 0
149 147 0
148 147 0
159 154 0
154 152 0
156 153 0
153 152 0
159 155 0
157 154 0
153 152 0
154 151 0
156 153 0
154 152 0
157 154 0
153 152 0
154 152 0
156 153 0
155 153 0
159 155 0
156 153 0
158 154 0
155 153 0
156 153 0
158 154 0
154 152 0
158 154 0
153 148 0
156 153 0
160 155 0
161 155 0
157 153 0
154 176 0
150 172 0
154 176 0
156 177 0
157 177 0
153 175 0
159 179 0
157 177 0
153 175 0
155 177 0
158 178 0
152 175 0
153 175 0
156 177 0
154 176 0
156 177 0
152 175 0
157 177 0
156 177 0
156 177 0
155 177 0
155 176 0
157 177 0
152 175 0
150 172 0
154 176 0
157 177 0
158 178 0
156 177 0
154 176 0
156 177 0
139 160 0
158 178 0
156 177 0
159 175 0
151 174 0
148 172 0
154 176 0
157 178 0
154 173 0
156 177 0
147 169 0
154 176 0
156 177 0
162 180 0
159 178 0
156 177 0
156 177 0
156 177 0
155 176 0
147 165 0
152 175 0
153 175 0
154 175 0
154 174 0
154 176 0
154 176 0
155 176 0
155 176 0
156 177 0
156 177 0
152 175 0
146 167 0
143 162 0
152 175 0
154 176 0
154 174 0
147 169 0
152 175 0
158 178 0
152 175 0
157 177 0
145 168 0
148 169 0
155 173 0
139 160 0
157 178 0
156 177 0
158 175 0
157 177 0
158 178 0
146 168 0
155 176 0
153 172 0
156 177 0
151 174 0
153 174 0
156 177 0
148 168 0
162 179 0
149 172 0
158 178 0
143 165 0
153 175 0
148 166 0
154 173 0
152 170 0
149 169 0
150 172 0
149 170 0
151 168 0
139 161 0
144 163 0
151 169 0
159 178 0
126 144 0
145 160 0
132 153 0
138 157 0
146 160 0
105 112 0
133 146 0
125 145 0
134 153 0
131 146 0
154 168 0
136 152 0
115 129 0
80 99 72
48 76 88
50 79 85
49 77 94
39 62 64
53 82 102
41 65 68
41 65 79
49 77 112
40 64 51
41 66 72
41 65 60
41 66 82
40 65 45
30 50 0
38 60 51
29 48 35
44 69 68
34 57 63
28 46 28
30 49 51
36 57 85
30 50 18
36 56 64
37 58 28
24 41 40
108 128 20
148 171 0
155 176 0
164 187 0
172 196 0
160 182 57
46 73 107
52 84 95
58 89 130
51 80 117
53 84 111
49 76 125
59 92 135
55 87 122
57 91 140
53 84 126
59 93 151
56 88 80
57 90 125
61 96 137
56 88 140
57 92 99
59 92 135
60 95 140
61 95 114
56 89 128
52 83 99
58 92 151
61 97 151
59 91 135
62 97 140
57 90 114
60 94 128
57 91 80
57 90 140
57 91 137
59 93 114
61 95 128
59 92 128
61 97 161
61 95 128
61 96 140
60 95 128
58 92 128
55 87 114
59 93 114
61 95 140
59 93 151
57 90 128
58 91 76
60 94 114
59 94 128
63 97 151
54 86 80
61 96 140
55 88 99
58 92 140
60 95 128
59 92 128
63 98 151
63 98 140
61 95 114
58 93 114
58 93 114
65 100 161
61 97 151
51 83 99
61 96 128
55 86 114
60 93 128
58 91 128
55 86 128
58 92 128
59 91 130
58 91 128
55 86 99
58 91 128
49 79 80
60 92 140
61 96 140
60 93 140
54 87 80
63 98 151
51 81 80
56 89 99
62 97 151
62 96 153
57 90 99
50 81 99
61 95 128
64 98 163
55 85 102
58 91 140
57 90 114
61 94 128
55 85 118
59 89 122
54 85 99
55 84 62
56 89 128
58 88 88
52 81 99
51 78 102
47 71 62
44 65 26
51 77 84
176 198 0
173 197 0
170 183 0
151 151 0
150 147 0
92 94 14
30 42 0
36 43 11
26 36 0
34 42 0
31 38 14
32 40 11
38 47 0
41 55 36
33 44 11
41 51 37
39 53 14
39 51 28
39 50 0
44 58 44
42 54 45
43 56 45
44 58 11
42 58 36
51 68 52
51 65 45
48 62 37
48 65 44
49 65 51
44 59 37
53 72 62
91 93 25
133 129 0
125 124 0
141 137 0
146 144 0
148 143 0
151 149 0
128 127 0
149 146 0
127 129 0
146 145 0
153 151 0
146 144 0
137 134 0
140 138 0
139 138 0
145 141 0
135 131 0
157 153 0
142 143 0
147 146 0
156 151 0
153 152 0
150 149 0
147 146 0
152 151 0
156 152 0
140 139 0
153 152 0
157 153 0
150 147 0
138 137 0
154 152 0
150 147 0
153 149 0
158 154 0
155 153 0
155 153 0
146 146 0
151 151 0
144 143 0
153 149 0
153 152 0
147 143 0
156 153 0
148 147 0
151 147 0
157 153 0
157 153 0
155 152 0
156 153 0
157 151 0
159 155 0
157 153 0
154 152 0
155 153 0
160 155 0
159 154 0
155 153 0
157 154 0
158 154 0
160 152 0
155 153 0
152 151 0
150 150 0
153 152 0
158 154 0
154 150 0
154 150 0
160 155 0
159 154 0
152 151 0
155 153 0
158 154 0
153 152 0
155 153 0
160 155 0
154 152 0
154 152 0
157 153 0
156 153 0
161 156 0
156 153 0
154 152 0
154 152 0
158 154 0
157 154 0
161 156 0
153 152 0
156 152 0
159 154 0
154 152 0
156 153 0
159 155 0
153 152 0
154 152 0
159 155 0
159 155 0
155 153 0
162 153 0
152 152 0
153 152 0
152 151 0
156 153 0
159 155 0
155 153 0
157 153 0
157 153 0
155 153 0
149 147 0
156 153 0
155 153 0
155 153 0
162 156 0
154 152 0
154 152 0
161 155 0
157 154 0
156 150 0
158 178 0
152 175 0
153 175 0
157 177 0
153 175 0
157 177 0
157 178 0
155 176 0
155 176 0
153 176 0
156 177 0
153 175 0
157 178 0
157 178 0
154 176 0
157 177 0
159 178 0
155 176 0
153 175 0
158 178 0
156 177 0
160 179 0
157 177 0
156 177 0
152 175 0
157 177 0
154 176 0
158 178 0
152 175 0
160 179 0
160 179 0
157 176 0
158 178 0
160 179 0
149 169 0
161 179 0
156 176 0
155 177 0
156 177 0
155 176 0
157 178 0
153 175 0
154 175 0
160 179 0
156 177 0
154 176 0
156 177 0
157 177 0
160 179 0
149 168 0
155 174 0
154 176 0
157 175 0
155 173 0
158 178 0
154 176 0
157 177 0
151 174 0
148 169 0
156 177 0
155 177 0
155 176 0
154 175 0
155 176 0
159 178 0
158 177 0
151 171 0
153 175 0
158 178 0
153 172 0
158 178 0
149 170 0
148 167 0
145 167 0
159 179 0
150 170 0
148 170 0
157 178 0
156 177 0
156 177 0
137 159 0
147 168 0
144 166 0
154 169 0
156 177 0
155 176 0
154 175 0
158 178 0
145 164 0
152 175 0
147 166 0
146 167 0
145 163 0
148 166 0
151 174 0
148 168 0
151 171 0
158 178 0
149 167 0
138 160 0
147 167 0
154 176 0
140 160 0
152 171 0
151 168 0
135 152 0
131 150 0
147 168 0
133 148 0
125 140 0
135 156 0
127 150 0
126 142 0
144 167 0
118 130 0
103 121 0
125 138 0
119 131 0
137 155 0
40 64 51
43 68 45
44 71 88
46 74 51
44 70 90
47 75 88
48 77 85
52 82 112
48 76 114
42 67 64
41 65 85
45 73 90
39 63 77
40 63 88
38 62 68
40 63 0
39 62 82
42 65 64
38 61 28
35 56 0
36 59 0
39 62 51
32 52 32
42 67 82
79 91 43
155 175 0
155 174 0
151 174 0
169 193 0
179 201 0
170 195 0
71 98 111
53 85 80
55 86 125
53 83 111
59 93 128
52 84 111
57 90 117
53 82 111
58 92 114
62 96 159
59 93 151
60 94 128
55 88 80
52 84 76
56 89 76
51 82 99
56 88 108
57 91 114
58 91 108
59 93 114
59 94 125
59 93 140
55 86 99
57 89 57
60 95 128
57 90 128
63 99 161
59 92 125
53 84 128
58 93 114
61 96 140
57 89 114
58 92 140
56 89 128
65 100 161
57 91 140
58 92 114
55 89 128
64 99 161
55 89 99
59 93 99
61 96 128
60 95 137
57 91 128
56 89 140
60 95 128
56 88 128
59 93 128
58 92 140
58 91 102
60 95 128
59 94 151
61 95 140
58 90 62
64 100 161
60 94 140
59 93 128
60 95 161
59 93 99
60 95 128
56 89 99
61 96 140
56 89 128
64 98 161
60 93 151
57 91 114
59 93 140
60 95 128
60 94 140
60 94 99
55 88 99
58 91 128
59 92 140
59 93 128
63 95 151
62 96 128
54 84 128
57 90 151
57 89 114
59 91 130
57 91 140
58 90 128
57 90 130
62 96 163
54 85 80
62 98 151
59 91 117
59 90 102
58 91 99
58 91 102
52 81 102
58 91 114
61 90 117
53 82 102
56 84 108
48 72 62
50 77 25
56 86 128
52 76 90
66 85 57
171 196 0
176 199 0
170 195 0
152 149 0
147 146 0
157 154 0
70 72 12
36 47 25
36 44 11
30 41 0
35 45 14
33 43 11
43 57 44
39 49 11
39 53 29
31 40 12
43 54 31
38 48 16
40 48 11
44 55 28
40 53 30
45 58 36
40 52 0
43 57 25
47 61 52
46 61 36
47 63 44
52 71 51
49 66 44
47 64 44
49 65 30
139 137 0
108 111 0
130 125 0
126 125 0
134 134 0
133 129 0
123 123 0
125 125 0
135 132 0
125 127 0
132 130 0
131 131 0
141 139 0
145 141 0
151 148 0
138 137 0
152 148 0
146 142 0
154 151 0
153 152 0
155 153 0
150 149 0
155 153 0
150 144 0
150 145 0
152 150 0
136 131 0
152 148 0
149 146 0
151 148 0
149 147 0
147 146 0
151 151 0
146 145 0
157 154 0
152 151 0
155 152 0
153 147 0
153 151 0
159 154 0
159 155 0
159 154 0
146 145 0
154 152 0
146 145 0
146 145 0
156 152 0
152 150 0
152 150 0
154 152 0
159 154 0
147 145 0
145 143 0
158 154 0
148 147 0
156 153 0
153 149 0
152 149 0
151 151 0
155 153 0
154 152 0
159 155 0
154 150 0
158 154 0
156 153 0
153 152 0
153 152 0
155 153 0
155 153 0
150 148 0
156 153 0
151 151 0
157 154 0
158 154 0
149 147 0
154 152 0
157 154 0
157 154 0
155 153 0
158 154 0
160 155 0
156 153 0
159 154 0
160 155 0
156 153 0
153 149 0
152 151 0
155 153 0
154 152 0
160 155 0
154 152 0
158 154 0
155 153 0
160 155 0
160 155 0
157 153 0
157 154 0
154 152 0
158 154 0
151 151 0
158 154 0
157 153 0
155 153 0
153 152 0
155 153 0
158 154 0
155 153 0
154 152 0
152 151 0
152 151 0
157 154 0
157 154 0
153 152 0
153 152 0
154 152 0
155 153 0
155 153 0
152 152 0
156 153 0
156 177 0
155 176 0
155 177 0
159 179 0
155 176 0
151 175 0
159 178 0
154 176 0
157 177 0
157 178 0
156 174 0
158 178 0
156 177 0
156 177 0
157 177 0
154 176 0
152 175 0
156 177 0
154 176 0
154 176 0
158 178 0
152 174 0
155 176 0
153 175 0
156 177 0
155 173 0
158 178 0
154 176 0
154 176 0
158 178 0
154 176 0
145 168 0
157 177 0
156 177 0
156 177 0
152 175 0
146 168 0
161 180 0
159 179 0
155 176 0
155 176 0
156 177 0
157 176 0
149 170 0
147 167 0
154 176 0
156 177 0
156 176 0
154 176 0
153 175 0
149 171 0
158 178 0
158 178 0
154 176 0
155 176 0
152 171 0
150 170 0
158 178 0
154 176 0
154 176 0
157 178 0
157 177 0
159 178 0
146 168 0
156 177 0
156 177 0
155 176 0
159 179 0
154 176 0
149 170 0
152 172 0
145 165 0
153 173 0
156 177 0
154 176 0
154 172 0
159 179 0
154 173 0
144 165 0
156 177 0
153 175 0
148 170 0
154 176 0
159 179 0
156 175 0
148 169 0
153 175 0
157 178 0
147 169 0
154 175 0
142 161 0
145 168 0
137 159 0
148 165 0
150 170 0
152 169 0
145 165 0
141 161 0
155 174 0
145 168 0
149 167 0
146 168 0
153 169 0
149 170 0
149 169 0
135 156 0
140 160 0
136 151 0
138 159 0
135 153 0
131 151 0
112 126 0
113 122 0
145 164 0
102 119 0
133 152 0
159 176 0
140 154 0
94 107 0
67 89 51
51 81 72
46 73 88
45 72 72
48 75 88
49 75 123
47 74 99
41 69 0
42 67 72
41 65 85
37 60 58
43 70 51
47 74 90
32 52 68
35 57 51
41 67 64
35 56 0
35 57 11
37 62 75
37 59 0
22 39 32
23 40 32
40 65 0
34 55 0
123 143 0
149 169 0
153 175 0
154 177 0
175 198 0
176 199 0
175 198 0
104 126 67
49 78 76
49 79 80
57 90 125
47 75 51
57 90 130
60 94 128
58 91 114
55 87 95
57 90 114
55 87 114
48 77 95
58 91 95
57 92 114
57 91 125
58 91 128
56 88 125
56 88 114
58 92 125
60 94 125
58 93 125
52 82 95
52 82 128
54 87 95
60 96 140
54 87 99
58 91 111
60 95 128
53 85 99
59 92 151
55 88 99
57 90 114
57 91 80
54 88 137
55 87 114
59 93 128
60 93 128
64 99 151
53 85 114
56 87 128
54 86 114
59 91 114
54 88 114
58 90 125
56 90 140
59 92 114
58 92 140
51 81 80
61 96 140
64 98 140
60 94 114
59 91 99
55 87 95
59 94 128
55 89 128
49 79 80
59 93 140
57 91 99
56 88 80
59 93 140
57 90 114
64 100 171
62 96 140
57 91 99
61 94 140
59 91 140
62 97 151
59 92 128
63 98 140
59 93 151
58 90 114
52 82 114
47 77 114
52 83 80
54 85 62
58 93 114
55 86 114
61 94 128
59 92 114
59 92 114
58 87 102
54 84 84
47 75 0
59 91 114
60 95 114
56 87 128
54 87 128
60 93 102
58 93 140
57 89 102
55 88 114
51 76 84
58 91 102
46 74 57
54 84 102
61 92 133
54 82 114
53 82 88
54 79 94
120 140 62
174 197 0
176 199 0
176 199 0
156 153 0
160 155 0
138 138 0
148 147 0
31 42 25
32 42 0
25 28 0
41 53 11
34 42 16
39 49 0
33 43 3
33 44 14
36 46 16
33 39 8
29 38 0
47 63 44
45 58 44
38 50 0
48 61 44
49 66 51
42 55 28
43 55 25
49 63 37
48 60 47
43 58 37
47 63 37
47 64 44
60 67 0
96 101 0
131 129 0
108 108 0
126 127 0
148 144 0
134 133 0
124 123 0
118 118 0
120 123 0
130 129 0
143 137 0
120 120 0
122 124 0
142 140 0
148 145 0
155 153 0
153 152 0
136 136 0
140 139 0
154 151 0
135 133 0
153 152 0
139 139 0
138 138 0
152 149 0
138 137 0
147 143 0
143 143 0
145 145 0
157 154 0
145 143 0
130 131 0
155 153 0
157 154 0
153 149 0
158 154 0
138 136 0
144 141 0
140 142 0
156 151 0
155 148 0
149 146 0
152 151 0
164 157 0
156 153 0
158 154 0
156 153 0
145 142 0
151 148 0
152 150 0
148 146 0
151 151 0
155 153 0
153 152 0
157 154 0
156 153 0
145 145 0
150 148 0
157 154 0
152 151 0
153 150 0
156 153 0
157 153 0
157 154 0
154 152 0
156 153 0
154 152 0
155 152 0
150 145 0
157 153 0
160 155 0
158 154 0
154 152 0
149 146 0
156 153 0
147 145 0
159 154 0
158 154 0
150 147 0
155 153 0
152 151 0
157 154 0
151 148 0
154 152 0
151 147 0
158 154 0
157 153 0
152 151 0
163 156 0
151 149 0
154 152 0
156 153 0
153 146 0
147 145 0
147 146 0
154 150 0
156 153 0
158 154 0
164 157 0
154 152 0
156 151 0
153 152 0
158 154 0
155 153 0
153 152 0
155 153 0
154 152 0
153 152 0
155 150 0
156 152 0
155 153 0
155 150 0
156 153 0
156 153 0
155 153 0
149 150 0
153 152 0
153 149 0
158 154 0
153 176 0
154 176 0
155 176 0
157 177 0
154 176 0
155 176 0
155 176 0
155 177 0
154 176 0
159 179 0
154 176 0
153 175 0
157 176 0
155 177 0
157 178 0
157 176 0
156 176 0
158 178 0
156 177 0
153 175 0
155 177 0
158 178 0
152 174 0
157 177 0
152 175 0
153 174 0
152 172 0
150 174 0
149 171 0
153 175 0
158 178 0
155 177 0
155 177 0
155 176 0
154 176 0
158 178 0
155 176 0
155 175 0
150 173 0
156 177 0
151 174 0
152 175 0
157 178 0
153 175 0
146 167 0
148 168 0
149 168 0
156 174 0
160 179 0
159 178 0
142 162 0
153 171 0
152 175 0
152 175 0
155 177 0
144 166 0
154 176 0
152 171 0
155 173 0
154 175 0
145 168 0
159 178 0
154 174 0
143 163 0
144 164 0
152 175 0
148 169 0
150 174 0
147 171 0
142 165 0
149 170 0
151 175 0
151 173 0
154 175 0
142 162 0
151 174 0
154 175 0
157 177 0
149 169 0
154 176 0
156 177 0
158 175 0
135 154 0
149 169 0
157 174 0
138 158 0
147 169 0
137 156 0
155 176 0
153 173 0
154 176 0
147 167 0
139 160 0
156 177 0
146 168 0
141 162 0
132 152 0
157 171 0
143 166 0
146 167 0
158 177 0
149 167 0
143 164 0
122 143 0
122 141 0
128 145 0
128 146 0
145 165 0
126 144 0
153 170 0
121 142 0
137 155 0
124 142 0
130 146 0
123 139 0
122 140 0
143 159 0
103 116 0
105 122 0
122 142 0
59 79 51
49 79 85
48 77 72
45 70 85
44 70 72
51 79 51
42 68 51
40 64 45
39 62 74
40 63 51
32 52 51
31 50 68
40 63 77
44 70 68
35 56 34
41 64 45
40 64 75
30 49 51
37 58 45
32 53 60
41 64 50
36 59 0
108 123 0
141 162 0
149 170 0
151 171 0
166 187 0
175 198 0
175 198 0
169 195 0
142 162 51
37 61 83
48 77 95
54 86 72
55 89 135
47 78 99
56 89 99
47 76 114
53 82 102
59 92 140
60 95 137
57 91 114
54 87 76
49 78 111
52 83 80
53 84 128
56 91 99
51 82 80
57 89 99
51 82 114
57 91 99
55 88 128
61 95 128
54 88 114
59 94 114
57 90 114
57 91 128
58 93 140
57 89 128
58 92 140
58 92 128
58 92 99
60 95 128
57 90 140
63 97 161
58 92 111
58 91 140
54 87 128
58 92 99
62 97 140
55 88 114
59 93 114
62 97 140
56 89 114
57 91 128
59 94 128
61 97 140
61 97 151
60 94 114
53 84 80
58 90 140
58 93 99
60 95 128
64 99 161
53 85 99
58 90 99
58 92 128
61 96 151
49 79 99
59 94 128
60 94 128
62 98 151
62 96 128
62 98 151
58 93 114
58 91 130
58 91 114
58 90 117
60 95 128
58 90 128
57 89 114
54 87 128
64 96 144
61 98 161
57 87 114
60 94 114
58 91 99
59 89 105
57 87 130
59 94 114
57 91 99
55 86 99
52 79 80
51 80 57
51 79 114
54 81 114
56 90 114
56 88 114
56 87 84
48 73 84
57 87 133
53 80 102
58 88 105
50 78 84
53 83 102
49 75 36
46 74 99
53 82 84
51 75 108
138 159 57
173 197 0
174 197 0
176 199 0
156 164 0
160 155 0
152 151 0
151 148 0
91 94 25
40 51 25
27 33 0
38 50 25
42 53 11
28 37 14
33 43 0
40 49 11
38 52 25
46 60 25
38 50 11
37 49 5
46 61 11
42 54 37
38 49 0
35 47 0
39 53 0
39 55 0
52 69 52
51 67 51
42 54 25
47 63 25
50 55 25
102 103 0
102 103 0
131 129 0
122 122 0
104 102 0
87 92 0
123 123 0
133 134 0
142 140 0
118 118 0
139 135 0
142 140 0
137 137 0
137 138 0
132 132 0
152 150 0
143 142 0
156 153 0
149 147 0
144 143 0
141 141 0
150 150 0
137 137 0
156 151 0
152 152 0
151 145 0
154 151 0
145 143 0
154 152 0
159 155 0
144 145 0
154 149 0
150 146 0
138 138 0
150 146 0
139 138 0
152 151 0
142 143 0
156 151 0
154 150 0
155 153 0
154 152 0
151 148 0
156 153 0
147 146 0
148 147 0
154 152 0
158 154 0
144 143 0
144 145 0
150 148 0
146 145 0
157 154 0
156 151 0
157 154 0
147 144 0
147 145 0
153 152 0
160 155 0
158 150 0
157 154 0
157 151 0
155 153 0
149 147 0
156 153 0
158 154 0
156 153 0
153 152 0
152 147 0
155 153 0
145 143 0
147 143 0
156 148 0
154 152 0
158 149 0
155 153 0
153 152 0
152 151 0
152 151 0
152 147 0
149 147 0
152 151 0
156 153 0
153 152 0
148 146 0
158 154 0
159 154 0
159 154 0
156 153 0
156 153 0
156 153 0
157 154 0
158 154 0
149 147 0
153 152 0
158 154 0
162 156 0
153 152 0
160 155 0
159 154 0
161 155 0
154 152 0
158 154 0
154 152 0
151 151 0
154 152 0
156 153 0
154 152 0
148 145 0
155 148 0
158 154 0
161 155 0
156 153 0
154 151 0
156 153 0
151 150 0
156 153 0
156 153 0
158 154 0
155 153 0
155 176 0
158 178 0
157 177 0
156 177 0
155 176 0
159 178 0
152 175 0
156 175 0
159 179 0
154 175 0
157 177 0
153 175 0
152 174 0
155 175 0
158 178 0
156 177 0
152 174 0
149 170 0
156 177 0
156 177 0
161 179 0
154 174 0
151 174 0
152 175 0
150 170 0
156 177 0
160 179 0
155 176 0
152 175 0
150 169 0
152 175 0
153 175 0
156 177 0
150 173 0
156 177 0
158 178 0
156 177 0
158 175 0
152 173 0
156 177 0
151 174 0
154 176 0
148 169 0
152 175 0
155 177 0
153 176 0
155 177 0
147 171 0
153 172 0
151 174 0
143 165 0
151 173 0
151 171 0
155 175 0
160 179 0
159 178 0
146 167 0
149 169 0
156 177 0
152 175 0
151 170 0
157 176 0
151 174 0
154 176 0
151 171 0
155 177 0
155 177 0
151 170 0
158 178 0
138 156 0
150 170 0
154 176 0
154 176 0
144 166 0
151 175 0
153 176 0
155 176 0
154 176 0
144 162 0
142 165 0
151 173 0
127 145 0
154 174 0
153 176 0
149 169 0
142 161 0
147 166 0
148 162 0
148 171 0
153 174 0
148 168 0
145 166 0
145 167 0
141 163 0
126 147 0
153 173 0
126 145 0
143 162 0
123 144 0
132 153 0
147 169 0
147 168 0
133 150 0
130 148 0
102 119 0
151 170 0
137 156 0
152 168 0
130 150 0
141 158 0
137 156 0
123 143 0
121 136 0
130 143 0
112 131 0
99 117 0
122 140 0
141 154 0
112 128 0
114 126 0
96 111 0
65 90 45
35 57 51
40 66 51
44 71 45
39 62 72
47 75 102
42 66 72
50 79 99
38 62 51
40 65 45
36 59 51
45 72 64
30 49 0
39 63 20
34 56 0
42 67 51
40 64 51
23 39 0
33 53 0
43 69 51
91 113 45
139 160 0
139 160 0
144 167 0
155 176 0
170 193 0
174 198 0
179 200 0
173 197 0
169 190 0
47 76 76
49 76 92
53 84 108
61 96 137
43 69 76
58 92 137
59 92 135
54 86 95
58 92 128
57 88 122
54 85 80
53 85 95
52 83 125
62 98 159
55 87 99
54 86 80
60 96 140
60 94 125
54 86 125
56 90 114
60 94 140
62 97 140
58 91 128
59 92 114
58 92 99
57 91 99
53 85 80
56 89 99
54 87 99
57 90 128
59 93 114
57 90 114
53 86 99
56 89 114
57 91 99
57 92 111
58 92 99
63 98 140
61 95 140
59 94 128
59 93 128
55 89 114
59 92 125
58 92 99
54 87 80
61 96 140
57 91 114
55 87 114
59 94 151
59 93 140
49 79 80
59 94 128
58 90 114
55 86 80
51 82 80
58 91 114
61 96 140
59 91 114
56 89 114
57 91 80
55 87 99
62 97 140
59 94 114
59 91 128
60 96 140
60 96 140
64 99 151
59 94 128
52 83 80
58 91 99
63 97 161
62 97 140
53 86 114
59 92 128
55 84 62
58 92 102
59 92 99
56 87 117
56 89 80
54 85 84
60 93 117
51 80 80
50 79 99
60 93 102
55 88 128
55 87 114
53 85 117
60 94 142
51 80 114
50 81 115
57 88 120
57 90 99
53 81 80
55 85 84
54 82 117
55 80 88
52 79 67
48 74 62
175 198 0
170 195 0
169 195 0
173 197 0
180 201 0
151 148 0
152 151 0
159 152 0
127 127 0
103 107 0
35 44 25
41 51 19
30 35 25
38 49 0
46 58 16
31 42 11
40 52 11
37 49 26
40 53 8
41 54 38
34 48 8
47 62 28
41 52 0
42 56 25
43 59 25
36 45 0
45 58 11
42 56 37
41 57 37
52 69 52
110 110 0
102 101 0
87 89 0
94 97 0
89 94 0
109 110 0
70 75 0
123 120 0
128 124 0
132 130 0
107 108 0
131 131 0
147 143 0
111 114 0
125 128 0
126 122 0
155 152 0
132 129 0
135 132 0
137 137 0
154 148 0
146 139 0
148 146 0
145 142 0
134 130 0
133 133 0
153 150 0
140 137 0
154 152 0
140 135 0
149 142 0
153 152 0
151 147 0
150 144 0
157 153 0
158 154 0
138 138 0
155 153 0
147 146 0
131 128 0
147 144 0
154 149 0
138 137 0
156 153 0
148 141 0
149 147 0
155 153 0
154 152 0
146 146 0
152 149 0
152 150 0
156 153 0
148 148 0
155 153 0
146 145 0
154 150 0
157 153 0
152 151 0
154 152 0
136 136 0
153 152 0
146 142 0
155 152 0
156 153 0
155 153 0
155 153 0
154 152 0
162 156 0
151 145 0
151 147 0
154 152 0
157 154 0
156 153 0
147 144 0
138 138 0
151 148 0
161 156 0
154 151 0
155 153 0
156 151 0
158 154 0
145 144 0
156 150 0
151 148 0
155 153 0
159 154 0
149 147 0
146 146 0
151 151 0
146 146 0
151 151 0
151 148 0
154 150 0
155 153 0
160 153 0
148 147 0
156 153 0
151 151 0
154 150 0
159 154 0
156 153 0
158 154 0
156 153 0
151 149 0
154 152 0
162 156 0
156 153 0
157 151 0
154 152 0
154 152 0
148 147 0
152 148 0
157 154 0
153 151 0
149 147 0
156 151 0
152 151 0
158 154 0
159 154 0
155 153 0
154 152 0
153 175 0
155 176 0
157 173 0
155 176 0
156 177 0
158 178 0
156 177 0
153 175 0
149 169 0
155 177 0
154 176 0
151 174 0
156 177 0
153 175 0
155 176 0
157 177 0
155 177 0
154 176 0
156 177 0
155 176 0
152 175 0
154 176 0
153 176 0
155 177 0
154 176 0
154 174 0
156 177 0
152 175 0
159 178 0
151 174 0
155 177 0
157 177 0
148 168 0
155 176 0
151 173 0
153 174 0
147 168 0
149 170 0
146 167 0
154 176 0
159 178 0
147 167 0
155 176 0
158 178 0
155 175 0
156 177 0
151 172 0
152 175 0
156 177 0
148 169 0
150 173 0
153 174 0
155 175 0
156 177 0
146 168 0
150 170 0
152 175 0
144 163 0
156 177 0
154 176 0
148 166 0
146 168 0
156 174 0
153 175 0
155 176 0
152 175 0
144 164 0
158 178 0
151 174 0
158 175 0
142 166 0
157 177 0
145 167 0
155 176 0
157 176 0
141 161 0
150 172 0
144 165 0
152 175 0
155 177 0
152 171 0
146 164 0
138 160 0
152 173 0
148 168 0
149 169 0
145 164 0
144 167 0
140 161 0
159 178 0
145 165 0
144 167 0
134 152 0
142 162 0
132 154 0
150 170 0
148 169 0
134 156 0
123 140 0
138 156 0
139 157 0
133 155 0
149 166 0
136 158 0
153 173 0
136 155 0
100 119 0
122 137 0
141 160 0
128 144 0
116 135 0
130 152 0
124 138 0
127 144 0
118 137 0
144 166 0
111 125 0
106 123 0
62 83 0
97 114 0
110 119 0
77 95 0
43 68 88
41 64 72
43 69 51
46 73 102
39 64 0
40 64 0
41 66 68
34 55 88
39 64 51
42 68 79
42 67 68
42 67 72
34 55 51
35 58 0
40 65 0
29 49 0
42 67 64
22 38 0
89 108 0
123 143 0
144 165 0
151 172 0
147 167 0
156 178 0
178 200 0
167 194 0
173 197 0
174 197 0
175 198 0
102 123 57
47 76 57
51 80 111
48 79 102
53 83 99
60 95 128
56 88 128
51 82 95
50 80 76
57 91 128
59 94 137
57 90 99
53 84 114
59 94 114
48 77 111
56 89 80
52 82 125
53 86 99
54 84 57
52 83 111
58 91 137
54 86 99
53 86 57
54 86 111
64 99 159
61 95 137
59 93 114
58 92 140
56 90 114
61 96 161
57 91 99
60 93 140
56 88 114
55 86 99
59 93 99
60 96 151
56 88 114
57 90 99
53 85 99
56 89 99
60 93 140
57 90 114
58 92 114
61 96 151
61 97 151
58 91 80
59 93 128
61 95 114
59 91 128
60 96 140
60 93 114
53 84 57
54 87 57
62 97 151
55 87 99
61 95 140
59 93 140
56 89 128
53 86 80
61 96 140
62 97 128
53 83 80
58 91 114
61 96 151
53 83 99
60 94 128
57 89 114
56 88 117
56 89 114
64 99 151
57 90 99
52 83 80
58 92 114
59 93 140
64 98 140
52 83 80
58 91 114
57 86 117
57 91 99
58 92 128
46 73 84
57 91 114
53 83 99
55 86 84
60 93 117
51 80 99
55 88 114
58 88 99
54 86 114
54 82 99
60 89 125
53 80 117
53 80 99
48 74 100
49 78 99
44 68 57
43 69 57
115 134 62
180 201 0
178 200 0
174 197 0
170 196 0
180 201 0
163 168 0
147 144 0
148 146 0
155 152 0
125 126 0
107 108 0
39 50 0
41 55 25
35 46 0
19 27 5
36 48 0
34 45 0
41 51 11
43 58 36
45 58 28
41 55 0
36 50 25
43 54 25
46 60 37
50 66 37
43 58 45
45 60 36
38 51 25
69 78 36
78 83 0
95 91 0
88 90 0
98 100 0
130 127 0
140 136 0
133 130 0
124 115 0
134 131 0
124 125 0
151 150 0
117 116 0
125 123 0
120 119 0
136 133 0
146 143 0
149 147 0
117 117 0
145 139 0
136 136 0
145 143 0
128 128 0
131 131 0
120 120 0
147 145 0
149 150 0
142 141 0
142 136 0
143 140 0
143 141 0
153 152 0
140 139 0
143 140 0
151 146 0
141 139 0
153 152 0
143 141 0
145 143 0
156 152 0
140 137 0
152 151 0
155 153 0
150 148 0
129 130 0
153 149 0
136 138 0
156 153 0
155 153 0
148 141 0
154 152 0
153 149 0
158 154 0
147 144 0
156 153 0
146 146 0
151 151 0
153 152 0
151 148 0
147 146 0
153 149 0
154 152 0
152 148 0
148 143 0
154 152 0
153 152 0
155 152 0
152 151 0
155 153 0
148 146 0
158 152 0
153 152 0
155 153 0
153 152 0
155 153 0
159 154 0
158 154 0
156 153 0
157 153 0
154 150 0
158 154 0
146 145 0
154 152 0
159 154 0
155 150 0
150 148 0
155 150 0
153 150 0
151 148 0
136 138 0
150 148 0
158 154 0
155 152 0
158 154 0
158 154 0
152 151 0
159 155 0
157 154 0
155 152 0
152 152 0
152 151 0
152 151 0
159 154 0
155 153 0
157 154 0
162 156 0
152 151 0
146 141 0
153 152 0
156 153 0
152 152 0
159 155 0
161 155 0
158 154 0
158 154 0
156 153 0
156 153 0
155 153 0
156 153 0
156 153 0
151 151 0
156 153 0
157 154 0
156 177 0
154 176 0
147 169 0
153 176 0
157 176 0
156 177 0
157 178 0
156 177 0
155 176 0
154 176 0
158 178 0
154 176 0
152 175 0
153 176 0
155 176 0
154 175 0
155 176 0
157 175 0
153 174 0
156 177 0
154 176 0
156 177 0
147 167 0
161 180 0
154 176 0
156 176 0
157 178 0
154 176 0
155 176 0
152 175 0
159 179 0
155 176 0
159 179 0
151 173 0
154 176 0
157 178 0
154 176 0
145 166 0
153 175 0
155 175 0
152 175 0
151 173 0
153 175 0
156 177 0
156 175 0
152 173 0
151 174 0
155 176 0
158 177 0
155 176 0
150 173 0
156 177 0
156 176 0
151 174 0
157 177 0
147 168 0
142 162 0
151 172 0
154 176 0
158 178 0
158 178 0
154 176 0
149 168 0
148 169 0
150 174 0
153 176 0
147 167 0
156 177 0
149 169 0
150 170 0
143 159 0
155 173 0
147 168 0
145 165 0
150 169 0
157 177 0
143 164 0
155 173 0
150 173 0
149 170 0
151 171 0
145 165 0
157 177 0
147 165 0
143 164 0
153 175 0
135 156 0
150 166 0
133 154 0
151 170 0
135 153 0
142 162 0
150 169 0
150 169 0
146 165 0
142 161 0
109 128 0
158 175 0
127 147 0
143 163 0
126 144 0
152 169 0
140 154 0
148 169 0
129 147 0
154 173 0
137 156 0
150 166 0
117 137 0
122 140 0
113 132 0
145 162 0
124 144 0
131 145 0
99 117 0
113 127 0
113 127 0
98 114 0
124 140 0
113 130 0
61 70 0
71 82 0
79 92 0
69 85 68
43 68 51
40 64 51
45 72 88
46 71 51
48 74 82
44 71 72
37 60 0
52 79 99
39 62 51
32 52 72
37 60 0
33 52 0
35 55 68
31 50 0
53 66 0
85 102 0
139 160 0
137 159 0
130 152 0
148 169 0
154 175 0
165 187 0
176 198 0
172 196 0
180 201 0
177 199 0
175 198 0
147 171 51
46 73 80
47 75 114
52 83 99
49 78 111
50 80 97
59 92 137
51 81 114
58 90 122
58 91 114
56 89 120
57 91 114
59 93 125
58 91 111
57 89 128
52 82 105
63 99 169
45 73 80
61 96 140
60 95 128
60 95 128
59 93 111
60 94 140
58 92 111
58 91 95
57 90 99
57 90 114
59 92 114
54 86 114
56 87 114
55 86 114
57 91 80
60 95 140
62 97 140
57 90 128
59 92 128
55 87 114
63 98 161
56 88 114
59 93 128
53 85 128
59 91 140
62 97 140
59 94 128
61 97 140
58 92 128
59 93 151
57 90 114
55 88 111
58 92 128
57 90 128
58 92 80
62 97 151
61 96 128
60 93 128
56 89 128
54 86 114
61 94 140
57 90 114
58 91 114
60 94 140
60 94 140
57 89 128
57 91 99
60 95 128
61 93 142
60 95 128
58 92 128
57 90 99
58 90 128
59 94 128
55 87 80
55 88 80
57 89 80
55 88 99
62 96 140
53 84 57
58 91 99
62 94 140
59 91 128
49 80 80
54 85 80
58 90 84
55 87 102
58 90 128
53 82 99
56 85 120
52 82 114
58 91 117
58 89 102
55 86 99
51 76 102
49 75 102
56 86 99
54 83 102
41 61 25
49 69 72
138 160 57
175 195 0
176 199 0
176 199 0
172 197 0
173 197 0
162 179 0
140 139 0
138 138 0
124 123 0
131 132 0
127 126 0
96 94 0
31 38 0
35 44 25
31 38 0
39 51 11
34 44 0
38 46 11
43 57 25
40 50 25
45 55 30
47 63 25
36 43 0
47 60 45
39 52 36
36 46 25
44 56 25
78 80 25
80 84 0
116 112 0
60 69 0
86 86 0
116 115 0
80 80 0
128 126 0
119 119 0
119 118 0
119 121 0
118 118 0
101 102 0
150 147 0
143 143 0
129 131 0
116 117 0
107 105 0
149 145 0
129 130 0
131 132 0
144 143 0
145 145 0
125 125 0
143 143 0
151 149 0
140 139 0
124 123 0
134 133 0
142 141 0
149 146 0
142 140 0
152 149 0
135 134 0
124 121 0
134 134 0
151 148 0
153 149 0
155 153 0
160 155 0
138 137 0
150 150 0
145 145 0
150 148 0
143 141 0
149 146 0
156 151 0
160 150 0
154 151 0
151 148 0
150 145 0
156 153 0
131 131 0
158 154 0
147 146 0
143 139 0
157 151 0
154 152 0
158 154 0
153 152 0
142 137 0
153 146 0
147 146 0
155 153 0
144 142 0
153 152 0
153 151 0
146 145 0
150 144 0
154 150 0
155 150 0
158 154 0
156 153 0
148 144 0
142 144 0
145 144 0
152 148 0
152 151 0
157 154 0
154 150 0
143 141 0
156 153 0
152 151 0
157 154 0
145 145 0
155 153 0
154 147 0
154 152 0
155 153 0
153 152 0
147 146 0
157 154 0
156 153 0
152 147 0
153 152 0
151 148 0
149 150 0
156 153 0
150 145 0
154 152 0
155 153 0
149 147 0
147 143 0
156 153 0
152 151 0
151 151 0
155 152 0
161 155 0
145 142 0
154 152 0
147 146 0
157 153 0
153 152 0
154 152 0
156 153 0
155 153 0
156 153 0
159 155 0
154 152 0
154 152 0
154 152 0
154 150 0
155 153 0
159 154 0
158 178 0
161 179 0
157 177 0
158 178 0
150 174 0
152 175 0
152 175 0
154 176 0
159 178 0
156 177 0
147 169 0
155 175 0
153 176 0
157 177 0
153 171 0
154 176 0
148 168 0
154 176 0
146 168 0
152 172 0
155 177 0
155 177 0
153 175 0
156 177 0
159 178 0
155 174 0
148 169 0
149 170 0
154 175 0
161 179 0
152 172 0
155 176 0
151 173 0
153 176 0
147 168 0
154 176 0
155 177 0
156 176 0
152 175 0
159 178 0
155 176 0
158 178 0
154 176 0
150 171 0
146 168 0
152 174 0
158 177 0
147 169 0
154 176 0
152 174 0
158 178 0
153 174 0
154 176 0
140 160 0
153 173 0
140 160 0
150 170 0
148 167 0
150 174 0
143 166 0
160 179 0
154 176 0
160 179 0
153 176 0
148 169 0
137 157 0
148 167 0
152 172 0
149 172 0
145 166 0
145 162 0
151 171 0
151 167 0
160 179 0
154 176 0
152 174 0
162 180 0
152 168 0
156 177 0
132 151 0
151 168 0
153 174 0
149 173 0
158 175 0
146 163 0
146 165 0
155 177 0
143 166 0
144 164 0
148 171 0
141 156 0
138 158 0
145 168 0
129 150 0
145 167 0
131 152 0
128 150 0
132 152 0
131 152 0
132 151 0
130 150 0
148 166 0
142 160 0
141 158 0
126 143 0
138 159 0
137 157 0
117 134 0
111 131 0
148 164 0
104 119 0
109 125 0
108 123 0
126 144 0
68 83 0
87 104 0
127 141 0
122 138 0
89 104 0
75 94 0
77 95 0
95 110 0
100 114 0
72 83 0
41 65 0
32 52 51
29 49 51
33 52 72
43 69 51
37 60 0
46 72 72
51 78 72
36 58 0
41 65 45
35 56 0
39 62 45
39 62 0
78 95 51
103 121 0
141 159 0
128 149 0
154 174 0
151 174 0
143 163 0
153 175 0
177 199 0
170 195 0
170 196 0
173 197 0
174 198 0
173 197 0
164 188 0
50 80 91
44 70 88
54 87 99
56 87 125
45 73 76
52 83 125
53 83 108
55 87 99
53 83 80
52 82 95
58 90 125
53 86 95
56 90 80
51 81 99
50 80 99
58 92 114
62 97 157
55 88 111
56 88 114
57 90 111
51 80 80
61 95 114
57 90 99
61 95 125
59 94 114
55 87 125
53 85 99
57 90 114
60 93 140
60 93 137
56 88 99
61 95 140
58 90 99
60 95 128
57 90 99
62 97 128
62 97 151
60 95 128
54 86 99
54 86 80
58 91 128
58 92 128
56 90 80
53 83 114
52 84 99
56 89 99
55 86 57
51 83 57
60 95 114
51 84 99
55 88 99
60 94 128
58 92 114
54 85 128
58 89 102
60 95 114
56 88 114
62 96 140
62 97 140
56 90 114
51 81 57
49 76 84
60 93 128
49 79 114
58 91 114
55 85 102
50 79 114
58 92 128
52 82 99
62 96 140
60 95 114
59 93 140
53 84 57
57 89 57
57 89 117
60 96 140
59 92 99
55 87 114
56 86 88
55 87 128
53 85 57
59 92 140
58 91 114
55 88 140
58 89 105
60 92 128
55 86 128
50 79 80
55 84 99
52 80 36
57 87 105
50 75 62
60 91 130
54 84 99
46 69 57
71 86 62
172 196 0
174 198 0
177 199 0
176 199 0
171 196 0
163 185 0
171 193 0
153 154 0
150 148 0
149 146 0
132 131 0
100 102 0
131 129 0
93 97 0
59 66 36
42 50 0
37 48 0
40 51 11
40 50 8
44 58 36
46 61 25
33 46 0
48 64 25
45 60 44
41 55 36
43 53 25
31 43 25
35 48 0
58 59 0
92 90 0
53 57 0
102 102 0
90 92 0
112 110 0
96 95 0
113 115 0
112 113 0
88 95 0
115 113 0
124 123 0
131 132 0
128 125 0
142 139 0
142 138 0
111 112 0
129 125 0
150 145 0
145 139 0
157 149 0
102 103 0
145 140 0
148 144 0
152 151 0
144 141 0
147 143 0
142 139 0
154 151 0
128 129 0
151 146 0
140 139 0
133 134 0
144 138 0
143 137 0
153 149 0
150 146 0
153 149 0
137 136 0
153 147 0
140 137 0
162 156 0
153 152 0
157 154 0
141 138 0
144 142 0
145 144 0
146 145 0
148 147 0
147 143 0
128 126 0
153 149 0
149 146 0
149 150 0
148 146 0
148 142 0
160 153 0
155 153 0
157 154 0
157 154 0
150 150 0
155 147 0
147 143 0
148 146 0
153 152 0
156 153 0
143 144 0
157 153 0
148 146 0
156 153 0
149 146 0
150 144 0
155 153 0
159 154 0
150 148 0
152 152 0
146 146 0
152 151 0
154 152 0
152 151 0
149 144 0
154 152 0
158 154 0
150 148 0
155 152 0
147 143 0
154 152 0
151 151 0
158 154 0
156 153 0
156 153 0
154 152 0
156 153 0
152 152 0
155 150 0
155 152 0
143 143 0
154 150 0
152 151 0
153 152 0
151 148 0
156 153 0
153 152 0
153 149 0
158 154 0
146 146 0
148 147 0
150 151 0
152 149 0
154 152 0
154 148 0
158 154 0
151 148 0
155 153 0
157 154 0
150 150 0
156 153 0
156 153 0
150 151 0
154 152 0
156 153 0
157 154 0
155 152 0
154 152 0
159 178 0
153 175 0
157 178 0
159 178 0
154 176 0
156 177 0
158 178 0
157 177 0
157 177 0
157 177 0
158 178 0
150 172 0
155 177 0
148 170 0
152 175 0
151 171 0
156 176 0
157 177 0
155 176 0
152 173 0
154 175 0
154 175 0
152 175 0
155 176 0
153 174 0
156 177 0
147 169 0
157 177 0
150 173 0
154 176 0
152 172 0
156 176 0
155 177 0
156 177 0
154 176 0
152 174 0
157 178 0
157 177 0
142 164 0
146 167 0
158 178 0
155 176 0
156 177 0
151 173 0
152 171 0
156 173 0
140 160 0
154 176 0
149 168 0
149 173 0
152 175 0
151 174 0
147 169 0
145 168 0
152 173 0
153 176 0
153 175 0
151 174 0
147 169 0
153 176 0
139 159 0
157 176 0
151 172 0
154 176 0
153 176 0
143 164 0
148 170 0
153 175 0
153 175 0
143 165 0
153 175 0
147 171 0
159 178 0
155 176 0
151 170 0
151 173 0
142 162 0
146 165 0
147 169 0
147 168 0
138 159 0
134 154 0
139 159 0
151 174 0
143 160 0
129 149 0
145 166 0
153 175 0
147 163 0
139 161 0
126 146 0
127 149 0
144 164 0
136 156 0
139 160 0
145 167 0
116 133 0
124 142 0
143 163 0
151 174 0
145 164 0
120 143 0
129 148 0
120 140 0
133 151 0
149 166 0
142 163 0
113 127 0
132 151 0
141 161 0
130 149 0
114 128 0
126 145 0
108 126 0
74 88 0
84 102 0
113 132 0
123 142 0
110 123 0
114 124 0
58 74 0
115 132 0
78 92 0
93 108 0
14 27 0
69 80 51
38 50 51
44 71 72
36 57 51
47 75 72
46 73 51
44 70 51
42 68 0
33 53 51
30 49 28
78 95 51
79 100 72
117 133 0
132 149 0
119 136 0
125 145 0
138 158 0
150 170 0
151 173 0
166 188 0
173 197 0
174 198 0
172 194 0
175 198 0
174 197 0
164 186 0
172 196 0
149 171 51
39 66 36
48 78 80
48 76 80
50 81 99
57 91 137
51 83 57
55 89 95
50 80 95
56 90 125
53 83 57
58 92 114
59 93 140
59 93 128
52 81 108
51 80 99
57 89 99
57 90 114
61 95 151
59 94 140
59 93 99
59 94 125
57 91 114
58 92 128
61 96 137
53 84 95
48 78 80
56 89 111
49 78 57
53 86 99
58 92 99
49 80 57
58 91 151
59 94 114
60 94 114
53 86 80
58 92 99
56 88 128
62 97 140
57 91 128
49 79 57
55 86 114
62 96 151
57 91 80
58 92 114
56 87 128
63 97 161
56 90 114
56 89 80
46 76 80
59 92 128
55 89 57
57 90 114
62 96 151
56 88 80
57 91 114
60 95 114
54 87 99
52 80 80
52 82 80
66 99 153
59 93 114
59 91 99
61 92 142
59 94 114
59 92 114
53 84 62
56 87 80
59 92 114
56 89 99
53 86 114
59 95 140
45 70 80
56 87 99
59 93 114
55 85 102
55 86 114
59 92 128
58 87 102
56 88 114
58 87 114
56 89 114
55 86 99
55 87 80
54 84 128
55 84 99
55 83 114
55 88 128
52 79 84
60 91 117
47 74 57
54 82 102
56 82 125
53 81 88
45 67 86
119 141 62
166 190 0
165 185 0
172 197 0
179 200 0
175 198 0
179 200 0
173 197 0
165 178 0
149 144 0
121 122 0
145 142 0
145 144 0
148 144 0
144 138 0
98 100 0
81 86 25
77 75 0
28 38 25
40 51 25
28 40 0
44 60 36
33 42 0
35 46 0
35 48 0
32 43 0
31 43 0
32 43 0
61 61 0
105 100 0
45 48 0
112 106 0
63 69 0
104 104 0
122 118 0
95 96 0
112 114 0
89 88 0
119 117 0
145 139 0
86 93 0
107 111 0
124 124 0
129 130 0
124 125 0
145 142 0
129 125 0
111 113 0
140 136 0
138 134 0
131 129 0
147 146 0
122 124 0
138 134 0
134 129 0
152 151 0
154 148 0
143 135 0
135 133 0
146 145 0
153 149 0
142 141 0
158 154 0
154 150 0
155 150 0
145 142 0
144 141 0
158 154 0
153 152 0
150 145 0
149 145 0
139 135 0
154 151 0
150 148 0
143 136 0
151 147 0
138 139 0
144 142 0
159 154 0
160 155 0
143 138 0
155 153 0
148 146 0
148 144 0
156 153 0
155 150 0
145 145 0
151 148 0
155 150 0
156 153 0
154 150 0
153 149 0
157 153 0
154 152 0
162 156 0
153 144 0
155 150 0
151 151 0
157 154 0
153 149 0
147 142 0
158 154 0
154 149 0
157 153 0
153 149 0
155 153 0
153 152 0
150 144 0
156 147 0
139 139 0
145 145 0
155 153 0
155 153 0
145 142 0
159 155 0
158 154 0
149 147 0
154 149 0
153 149 0
148 146 0
159 155 0
156 153 0
158 152 0
157 154 0
152 149 0
155 150 0
154 152 0
154 151 0
150 148 0
152 146 0
155 153 0
159 154 0
153 152 0
153 152 0
156 151 0
146 145 0
154 152 0
155 150 0
151 148 0
154 152 0
155 153 0
151 148 0
154 149 0
158 154 0
155 151 0
157 154 0
152 151 0
152 151 0
149 146 0
152 151 0
156 153 0
154 150 0
155 150 0
146 168 0
156 177 0
152 175 0
155 176 0
153 175 0
155 176 0
146 168 0
155 172 0
153 175 0
156 177 0
156 177 0
153 175 0
144 165 0
155 176 0
155 175 0
151 170 0
153 175 0
155 176 0
153 175 0
152 173 0
159 177 0
153 175 0
154 175 0
156 176 0
154 176 0
158 178 0
152 174 0
156 177 0
152 175 0
153 174 0
151 171 0
156 177 0
154 174 0
156 177 0
156 177 0
157 177 0
155 176 0
157 177 0
157 178 0
153 174 0
149 170 0
151 171 0
152 174 0
153 175 0
155 177 0
149 170 0
153 170 0
153 174 0
151 173 0
150 170 0
153 175 0
158 178 0
155 176 0
155 176 0
155 176 0
144 165 0
153 172 0
156 177 0
152 175 0
156 177 0
155 176 0
155 176 0
154 176 0
145 163 0
155 175 0
157 177 0
152 175 0
156 177 0
156 177 0
154 176 0
146 169 0
152 171 0
145 168 0
149 168 0
152 174 0
146 168 0
148 171 0
143 163 0
147 167 0
144 164 0
155 176 0
141 162 0
134 158 0
154 176 0
137 160 0
143 166 0
138 158 0
136 158 0
129 151 0
143 162 0
137 160 0
145 167 0
146 163 0
124 144 0
157 177 0
135 156 0
145 161 0
130 148 0
136 154 0
128 146 0
150 166 0
148 167 0
141 160 0
155 175 0
142 162 0
133 152 0
130 151 0
115 133 0
112 126 0
118 136 0
108 127 0
139 158 0
112 132 0
136 154 0
131 150 0
132 146 0
119 138 0
80 96 0
107 123 0
77 92 0
81 96 0
89 105 0
76 88 0
58 71 0
66 76 0
70 82 0
56 64 0
58 70 0
99 110 0
53 69 51
30 48 0
30 49 0
50 66 0
56 66 0
78 92 0
111 127 0
92 110 0
104 119 0
124 143 0
137 155 0
153 174 0
147 169 0
148 167 0
148 169 0
171 196 0
175 198 0
158 180 0
174 198 0
176 199 0
166 187 0
170 196 0
166 190 0
167 189 0
75 99 99
47 73 105
56 87 125
53 84 99
49 78 57
51 82 76
55 87 117
53 83 108
51 81 57
56 88 135
55 88 114
63 98 149
59 92 140
53 84 95
55 88 57
58 91 99
58 91 114
60 94 149
59 93 128
54 86 80
60 94 125
46 75 57
53 84 111
55 88 99
60 92 140
47 75 80
58 93 114
58 92 140
60 95 140
57 89 114
54 86 76
58 92 128
56 89 99
54 87 128
61 97 140
60 95 128
55 87 99
62 97 140
51 81 99
51 79 80
59 93 140
61 94 114
55 88 99
58 91 99
58 91 140
52 82 80
60 94 114
52 83 99
61 95 128
61 95 140
52 82 80
57 90 99
59 94 114
55 86 140
58 91 128
53 85 80
56 90 80
58 89 114
58 91 99
57 92 114
60 93 128
59 92 99
59 93 128
59 93 114
58 91 114
60 95 128
60 92 140
53 83 99
55 87 99
57 89 128
61 94 128
53 83 99
60 94 140
58 92 102
57 91 114
51 82 114
58 90 99
49 76 102
56 87 67
57 89 117
58 91 99
58 91 114
47 75 80
57 91 128
54 84 99
57 86 120
61 96 128
59 93 128
49 73 80
52 80 99
51 76 72
56 83 108
53 82 99
58 90 102
171 196 0
162 187 0
171 193 0
171 196 0
176 199 0
165 187 0
171 190 0
174 198 0
176 199 0
157 158 0
152 143 0
131 130 0
144 141 0
112 113 0
108 108 0
104 105 0
133 131 0
106 105 0
98 96 0
79 80 25
64 66 0
39 52 44
97 94 25
88 84 0
56 56 0
60 62 0
69 70 0
93 91 0
75 72 0
33 44 0
82 79 0
91 94 0
106 105 0
129 119 0
121 119 0
122 122 0
112 112 0
81 85 0
137 131 0
122 122 0
123 122 0
102 104 0
121 121 0
88 87 0
135 132 0
121 121 0
145 143 0
140 137 0
136 136 0
141 140 0
126 127 0
128 128 0
142 139 0
135 131 0
145 144 0
144 142 0
148 143 0
142 141 0
130 127 0
138 136 0
145 142 0
147 144 0
138 138 0
155 152 0
158 154 0
150 147 0
138 137 0
128 126 0
151 148 0
138 136 0
142 141 0
144 138 0
149 147 0
152 146 0
152 151 0
133 126 0
158 154 0
150 146 0
157 154 0
148 147 0
145 139 0
142 140 0
160 153 0
146 141 0
155 153 0
147 146 0
153 152 0
152 149 0
147 146 0
154 147 0
142 140 0
153 149 0
146 145 0
149 147 0
154 150 0
147 143 0
124 116 0
153 152 0
152 151 0
153 152 0
150 148 0
154 152 0
153 152 0
154 150 0
155 151 0
151 148 0
139 138 0
146 145 0
154 150 0
155 153 0
142 144 0
156 153 0
152 152 0
156 153 0
157 153 0
157 154 0
158 154 0
156 151 0
154 152 0
155 153 0
147 146 0
154 152 0
156 153 0
147 146 0
156 153 0
154 152 0
148 147 0
157 154 0
154 151 0
155 152 0
151 149 0
155 153 0
157 154 0
156 153 0
155 150 0
156 153 0
155 153 0
147 145 0
152 151 0
150 147 0
147 146 0
156 151 0
153 149 0
151 151 0
158 154 0
153 152 0
150 146 0
158 154 0
151 148 0
158 154 0
155 153 0
157 154 0
156 153 0
155 176 0
156 176 0
159 179 0
154 174 0
157 177 0
156 177 0
161 180 0
149 171 0
152 172 0
150 172 0
155 176 0
152 175 0
156 176 0
154 176 0
153 173 0
155 175 0
154 175 0
154 174 0
156 177 0
152 175 0
157 178 0
157 176 0
157 177 0
155 174 0
159 179 0
151 174 0
154 173 0
151 174 0
155 173 0
153 172 0
152 175 0
149 173 0
153 172 0
152 171 0
142 162 0
148 168 0
149 170 0
153 175 0
149 169 0
155 176 0
145 165 0
150 173 0
143 163 0
155 176 0
154 174 0
155 175 0
150 172 0
153 175 0
155 175 0
153 175 0
160 179 0
156 176 0
157 177 0
152 175 0
149 171 0
152 175 0
155 175 0
135 153 0
144 167 0
139 160 0
146 168 0
153 174 0
155 176 0
151 171 0
147 164 0
150 170 0
153 174 0
139 158 0
148 168 0
145 168 0
150 170 0
145 165 0
158 176 0
147 170 0
148 171 0
155 176 0
147 168 0
134 156 0
152 174 0
140 159 0
140 162 0
134 157 0
139 157 0
143 165 0
150 172 0
131 152 0
143 163 0
152 175 0
143 163 0
155 177 0
128 149 0
124 145 0
144 164 0
136 157 0
139 161 0
130 150 0
150 170 0
154 176 0
111 129 0
147 166 0
123 143 0
135 156 0
137 157 0
132 149 0
144 164 0
123 142 0
125 144 0
129 149 0
146 161 0
122 142 0
122 144 0
116 130 0
109 126 0
141 161 0
116 136 0
119 138 0
130 147 0
120 142 0
76 91 0
86 103 0
91 105 0
93 107 0
72 84 0
109 126 0
121 135 0
60 72 0
65 74 0
28 45 0
44 53 0
87 97 0
45 63 0
81 94 0
43 50 0
87 101 0
92 107 0
88 102 0
109 126 0
116 131 0
107 124 0
142 159 0
114 133 0
134 155 0
152 175 0
164 188 0
166 190 0
168 195 0
175 198 0
172 197 0
167 190 0
179 200 0
174 198 0
171 196 0
173 197 0
101 126 57
45 72 0
55 88 108
60 93 144
55 87 95
52 82 57
47 75 57
59 93 140
53 84 99
56 88 128
53 84 95
60 94 128
57 90 125
50 81 80
61 94 140
57 91 128
53 83 80
58 93 114
58 93 114
61 96 128
53 86 128
54 86 125
58 91 128
53 85 99
58 92 128
57 90 125
60 94 114
54 87 80
57 91 128
58 92 128
60 93 140
58 90 114
56 87 80
58 92 111
57 91 114
60 95 137
58 90 128
59 91 114
60 95 140
59 94 114
53 85 99
53 85 99
59 92 114
55 87 128
58 93 114
58 92 99
58 90 114
52 85 57
59 90 140
57 90 140
54 86 99
63 99 151
52 80 99
58 91 128
60 95 128
55 89 57
58 92 102
57 88 128
57 90 84
56 88 114
56 89 114
59 94 114
57 90 114
53 84 99
57 91 151
58 91 102
56 89 80
55 86 140
56 87 151
56 88 114
60 91 117
57 90 99
57 88 80
63 98 151
56 89 128
61 95 140
57 86 105
58 90 114
58 90 128
53 83 99
53 83 99
46 72 62
56 88 117
55 87 114
56 85 80
58 84 117
48 73 80
56 88 114
57 87 103
49 76 117
50 79 57
43 66 57
48 71 62
46 70 82
164 187 0
160 183 0
172 197 0
175 198 0
174 194 0
177 199 0
164 188 0
173 197 0
173 197 0
168 185 0
151 151 0
135 132 0
128 124 0
140 136 0
141 137 0
130 124 0
126 124 0
91 96 0
106 105 0
32 45 0
53 57 0
54 56 0
60 60 0
19 25 0
80 75 0
73 68 0
72 67 0
117 111 0
77 80 0
128 125 0
87 85 0
90 92 0
114 110 0
107 108 0
114 109 0
113 109 0
127 123 0
111 111 0
126 123 0
106 104 0
141 139 0
134 128 0
140 137 0
121 121 0
108 109 0
135 136 0
137 134 0
111 111 0
130 130 0
143 144 0
145 140 0
133 131 0
127 123 0
136 135 0
145 141 0
139 138 0
150 150 0
143 143 0
137 137 0
151 147 0
151 148 0
138 135 0
148 146 0
143 140 0
140 138 0
129 129 0
135 134 0
143 142 0
149 140 0
154 147 0
155 153 0
152 151 0
151 146 0
150 151 0
147 142 0
158 154 0
136 132 0
150 145 0
141 141 0
149 143 0
143 140 0
142 137 0
133 132 0
153 152 0
152 149 0
130 126 0
153 149 0
150 144 0
152 150 0
156 150 0
141 137 0
152 149 0
152 150 0
154 152 0
152 151 0
154 152 0
129 130 0
155 148 0
153 149 0
152 151 0
156 153 0
160 155 0
155 153 0
147 146 0
153 152 0
151 151 0
151 148 0
147 145 0
152 151 0
146 146 0
149 146 0
149 140 0
158 152 0
156 153 0
152 151 0
153 152 0
150 146 0
147 144 0
153 152 0
157 154 0
149 147 0
151 148 0
157 149 0
143 138 0
155 150 0
157 153 0
154 152 0
154 152 0
151 151 0
159 154 0
155 153 0
156 153 0
149 147 0
145 142 0
153 152 0
154 150 0
154 152 0
156 150 0
157 151 0
157 154 0
158 154 0
153 152 0
152 146 0
153 149 0
155 153 0
160 155 0
159 155 0
159 154 0
153 152 0
143 143 0
156 153 0
154 149 0
152 150 0
153 175 0
154 176 0
155 176 0
159 179 0
157 178 0
153 174 0
153 175 0
157 177 0
156 177 0
155 176 0
151 173 0
155 176 0
156 175 0
156 177 0
158 178 0
159 178 0
157 176 0
145 164 0
152 173 0
154 176 0
152 173 0
157 178 0
154 176 0
156 177 0
156 177 0
152 174 0
152 172 0
155 176 0
137 158 0
150 169 0
145 168 0
154 175 0
158 178 0
154 176 0
154 176 0
147 171 0
150 173 0
154 176 0
151 174 0
152 175 0
148 172 0
158 178 0
136 157 0
155 174 0
147 169 0
153 174 0
156 177 0
153 174 0
152 174 0
155 175 0
146 168 0
155 175 0
155 175 0
146 166 0
148 169 0
152 175 0
153 175 0
156 175 0
139 158 0
146 168 0
156 177 0
155 173 0
150 171 0
149 169 0
156 177 0
141 161 0
150 169 0
155 176 0
155 176 0
151 173 0
142 165 0
149 172 0
144 165 0
142 166 0
142 162 0
143 164 0
137 155 0
138 159 0
131 152 0
148 169 0
140 160 0
144 161 0
146 168 0
130 151 0
147 169 0
151 173 0
117 136 0
147 169 0
155 170 0
152 175 0
149 170 0
136 158 0
146 164 0
143 161 0
137 157 0
154 172 0
144 164 0
127 144 0
127 147 0
130 150 0
136 158 0
135 156 0
118 131 0
134 155 0
111 130 0
122 139 0
133 150 0
120 139 0
131 150 0
124 142 0
111 130 0
137 158 0
88 108 0
130 149 0
89 107 0
131 150 0
116 135 0
122 138 0
94 112 0
99 117 0
87 103 0
65 77 0
76 90 0
100 115 0
85 99 0
111 124 0
25 40 0
21 36 0
42 55 0
59 73 0
82 96 0
97 110 0
49 66 0
112 129 0
89 106 0
108 125 0
144 164 0
127 146 0
129 147 0
133 152 0
139 159 0
115 135 0
156 180 0
172 197 0
176 198 0
176 198 0
172 197 0
176 199 0
172 196 0
169 195 0
175 198 0
176 199 0
164 187 0
165 184 0
45 73 80
52 81 95
51 79 95
56 88 140
55 87 108
52 82 111
51 79 111
58 90 111
55 88 99
46 74 57
59 92 137
52 83 111
58 92 99
56 89 80
54 85 128
53 84 99
52 83 114
64 99 159
55 86 80
61 96 137
58 91 99
58 92 114
61 96 140
48 75 80
57 90 114
58 90 114
61 94 140
60 94 128
57 90 76
55 86 99
60 96 140
51 82 80
50 80 80
56 89 99
53 84 80
56 89 128
55 86 128
58 93 99
62 94 128
52 85 57
53 83 128
56 89 99
56 88 99
52 84 99
59 92 128
56 90 80
59 92 128
61 95 151
59 94 114
57 90 80
56 89 99
57 89 128
58 91 128
60 94 128
53 84 128
56 90 80
59 93 99
56 89 80
45 71 0
58 91 99
61 96 140
57 90 114
58 93 114
60 94 128
54 84 99
52 83 57
53 83 80
60 95 151
56 90 128
57 89 128
58 89 99
54 86 99
58 91 99
49 77 102
58 91 99
52 82 80
57 90 99
60 92 128
56 87 80
52 80 114
57 92 99
57 85 117
55 85 114
58 92 140
58 92 114
54 86 99
57 88 114
59 89 130
26 41 0
54 80 102
48 77 80
53 80 88
148 172 57
174 198 0
180 201 0
171 196 0
172 192 0
179 200 0
174 197 0
167 192 0
170 195 0
166 188 0
173 197 0
156 169 0
126 123 0
131 126 0
134 129 0
130 125 0
90 95 0
98 97 0
125 124 0
105 104 0
75 76 0
82 80 0
79 85 0
75 74 0
90 87 0
88 83 0
57 57 0
63 59 0
97 93 0
25 36 0
75 68 0
55 52 0
79 71 0
102 99 0
83 85 0
115 107 0
102 101 0
123 122 0
127 122 0
118 120 0
128 121 0
100 102 0
121 119 0
135 133 0
136 135 0
145 142 0
133 132 0
143 141 0
143 139 0
128 125 0
124 120 0
126 118 0
126 126 0
138 138 0
136 131 0
144 142 0
108 110 0
108 106 0
154 152 0
143 141 0
150 147 0
120 121 0
153 149 0
156 153 0
146 144 0
144 144 0
154 152 0
146 141 0
143 143 0
140 138 0
146 142 0
141 134 0
146 140 0
141 139 0
144 142 0
137 136 0
145 142 0
148 140 0
143 138 0
147 146 0
151 149 0
145 144 0
138 135 0
126 127 0
156 153 0
149 146 0
156 153 0
154 150 0
155 152 0
157 151 0
136 132 0
158 154 0
151 151 0
142 139 0
155 150 0
157 154 0
157 151 0
136 135 0
136 137 0
153 150 0
148 144 0
156 148 0
149 146 0
155 149 0
150 148 0
158 152 0
148 144 0
145 141 0
156 153 0
149 146 0
152 148 0
152 149 0
148 146 0
153 152 0
151 146 0
155 152 0
153 152 0
147 146 0
161 156 0
151 151 0
155 150 0
153 149 0
155 150 0
147 143 0
157 154 0
154 147 0
153 148 0
154 152 0
159 155 0
155 150 0
153 149 0
153 147 0
155 153 0
155 150 0
154 149 0
158 154 0
156 151 0
157 154 0
156 153 0
158 154 0
154 152 0
147 145 0
153 149 0
157 151 0
153 152 0
154 149 0
156 153 0
153 147 0
153 150 0
148 145 0
157 153 0
154 150 0
158 154 0
158 152 0
152 174 0
153 173 0
155 176 0
154 176 0
147 167 0
148 168 0
151 172 0
156 177 0
144 165 0
153 176 0
158 178 0
155 176 0
155 177 0
154 175 0
151 174 0
147 168 0
151 173 0
156 177 0
152 172 0
145 167 0
157 178 0
162 180 0
157 178 0
154 176 0
156 177 0
157 176 0
155 177 0
153 174 0
149 170 0
160 179 0
140 160 0
149 170 0
142 164 0
150 173 0
159 178 0
156 176 0
149 168 0
155 176 0
158 178 0
153 173 0
156 177 0
156 177 0
152 172 0
150 169 0
154 176 0
150 171 0
158 178 0
148 167 0
153 176 0
143 165 0
153 175 0
146 164 0
141 165 0
152 169 0
153 176 0
156 174 0
154 175 0
159 178 0
156 177 0
133 153 0
147 167 0
139 159 0
156 176 0
132 152 0
155 175 0
150 170 0
143 164 0
143 162 0
146 167 0
151 173 0
132 151 0
145 166 0
155 174 0
141 162 0
137 157 0
149 170 0
148 169 0
145 167 0
151 173 0
125 146 0
147 166 0
149 168 0
155 173 0
132 153 0
145 168 0
134 154 0
137 157 0
149 165 0
119 137 0
132 152 0
115 134 0
149 168 0
129 149 0
142 161 0
153 173 0
130 151 0
149 169 0
134 155 0
130 147 0
133 155 0
146 166 0
157 175 0
150 170 0
128 151 0
117 137 0
101 122 0
117 136 0
121 143 0
113 133 0
154 172 0
119 137 0
150 168 0
131 150 0
136 156 0
35 56 0
102 120 0
112 129 0
105 121 0
113 127 0
93 109 0
137 157 0
121 134 0
119 133 0
99 111 0
76 87 0
87 102 0
70 84 0
90 104 0
78 94 0
72 83 0
60 77 0
77 93 0
77 90 0
123 139 0
87 101 0
96 114 0
106 124 0
106 121 0
142 160 0
110 128 0
120 141 0
136 156 0
162 185 0
174 194 0
170 196 0
170 190 0
172 197 0
173 197 0
170 195 0
174 198 0
167 190 0
172 197 0
173 194 0
175 198 0
112 130 0
46 73 76
55 86 111
47 77 84
59 93 137
52 83 80
52 82 128
59 93 137
55 88 99
50 79 99
48 77 76
51 80 80
56 89 114
50 79 80
55 89 57
54 86 99
55 87 95
50 82 80
58 90 99
55 87 80
59 93 140
58 90 114
60 93 161
59 93 140
58 91 114
51 82 51
56 89 114
56 89 140
59 92 140
57 88 114
61 94 128
51 81 99
62 98 151
50 79 80
60 93 128
62 96 140
57 90 114
59 92 114
59 92 128
57 91 128
53 84 99
58 92 128
58 93 114
56 87 99
56 88 114
61 96 140
56 88 128
62 97 140
60 94 114
61 95 114
58 92 128
55 87 128
56 89 80
59 91 128
56 90 114
63 97 140
57 90 114
60 95 128
58 92 128
53 84 99
62 95 130
57 90 99
56 86 128
58 92 99
60 95 114
57 89 114
57 89 128
56 90 114
46 71 0
62 98 151
57 88 99
59 93 114
57 88 117
58 90 99
59 91 117
56 87 114
58 86 99
55 85 99
55 84 102
56 89 114
55 84 105
52 81 128
53 82 80
59 91 128
50 78 99
53 80 57
46 68 36
51 80 102
43 66 60
60 90 120
47 69 57
84 105 0
161 186 0
172 197 0
173 197 0
156 181 0
171 196 0
172 197 0
168 188 0
172 194 0
168 194 0
176 199 0
175 198 0
159 177 0
148 148 0
143 137 0
143 139 0
128 125 0
113 108 0
117 115 0
87 90 0
130 122 0
102 102 0
116 115 0
92 93 0
124 113 0
72 65 0
116 114 0
70 64 0
74 76 0
76 65 0
135 129 0
77 79 0
64 68 0
87 91 0
108 106 0
92 91 0
107 108 0
120 118 0
91 87 0
138 132 0
126 124 0
87 86 0
113 110 0
119 116 0
135 130 0
136 137 0
143 138 0
139 136 0
130 129 0
127 120 0
145 144 0
118 112 0
125 123 0
137 135 0
153 149 0
131 128 0
136 133 0
120 123 0
127 127 0
128 126 0
144 144 0
130 129 0
128 126 0
132 132 0
149 144 0
156 150 0
154 151 0
142 140 0
136 133 0
154 152 0
154 151 0
141 139 0
149 142 0
144 141 0
140 140 0
141 141 0
140 139 0
124 124 0
150 145 0
152 151 0
144 142 0
148 149 0
146 146 0
159 154 0
148 147 0
149 147 0
155 153 0
157 154 0
155 149 0
140 138 0
148 145 0
152 152 0
154 147 0
151 147 0
155 153 0
159 155 0
158 154 0
149 148 0
147 145 0
135 128 0
150 148 0
151 147 0
134 132 0
153 144 0
156 150 0
160 152 0
152 144 0
145 142 0
157 154 0
153 150 0
148 146 0
153 151 0
148 143 0
137 138 0
155 152 0
153 151 0
152 151 0
153 149 0
155 153 0
152 147 0
139 138 0
153 150 0
157 151 0
147 146 0
155 153 0
147 144 0
146 141 0
153 152 0
157 154 0
159 152 0
152 151 0
150 147 0
151 147 0
156 152 0
156 152 0
146 143 0
146 146 0
155 150 0
152 149 0
151 147 0
152 150 0
156 153 0
158 154 0
154 152 0
155 150 0
154 152 0
149 147 0
156 153 0
152 149 0
153 149 0
149 147 0
157 154 0
155 153 0
156 153 0
160 155 0
154 172 0
154 176 0
154 176 0
154 176 0
153 174 0
155 176 0
153 175 0
155 177 0
159 177 0
142 163 0
153 175 0
150 173 0
157 178 0
149 171 0
157 177 0
154 176 0
153 171 0
153 174 0
153 175 0
159 179 0
156 177 0
150 172 0
153 175 0
156 176 0
150 173 0
149 170 0
145 167 0
158 178 0
156 177 0
138 157 0
156 176 0
151 172 0
143 163 0
159 178 0
150 172 0
155 177 0
150 170 0
145 166 0
154 175 0
142 165 0
150 170 0
149 171 0
153 174 0
152 175 0
154 175 0
138 158 0
154 176 0
156 177 0
153 172 0
154 175 0
153 173 0
151 173 0
153 174 0
145 166 0
150 167 0
152 171 0
156 177 0
151 174 0
146 164 0
152 173 0
144 167 0
145 167 0
153 173 0
156 174 0
153 175 0
152 173 0
141 162 0
139 160 0
155 176 0
149 170 0
153 174 0
141 161 0
157 177 0
152 171 0
133 152 0
140 160 0
146 167 0
144 165 0
134 154 0
156 176 0
134 154 0
155 174 0
132 151 0
154 176 0
143 165 0
149 170 0
140 160 0
138 158 0
116 136 0
153 171 0
145 167 0
139 160 0
151 173 0
130 151 0
140 160 0
140 160 0
154 173 0
132 153 0
128 145 0
128 148 0
126 145 0
148 168 0
136 157 0
132 152 0
123 140 0
131 150 0
120 142 0
133 156 0
121 142 0
125 143 0
90 107 0
133 150 0
124 131 0
120 134 0
135 155 0
117 136 0
117 138 0
119 137 0
123 137 0
100 117 0
127 144 0
130 145 0
56 78 0
82 101 0
109 127 0
84 99 0
82 100 0
116 130 0
78 95 0
82 97 0
69 80 0
77 93 0
108 122 0
101 117 0
28 47 0
104 119 0
123 140 0
120 137 0
139 160 0
129 151 0
152 170 0
152 174 0
175 198 0
170 196 0
169 189 0
175 198 0
175 196 0
171 196 0
166 191 0
155 179 0
174 197 0
176 198 0
172 196 0
172 197 0
165 186 0
48 77 99
45 72 0
51 79 51
58 91 108
52 83 99
50 80 99
56 88 125
50 80 57
54 85 95
54 84 114
59 93 114
53 84 80
56 87 114
56 87 99
57 90 99
60 93 137
60 94 125
54 86 99
51 81 80
61 96 128
58 91 99
59 94 114
52 84 114
52 83 99
59 92 80
57 89 114
54 84 99
53 85 76
58 92 125
61 95 114
59 92 128
57 90 114
55 86 57
54 88 99
43 71 57
50 79 80
57 91 99
58 92 99
53 84 99
57 90 128
56 90 80
53 84 99
61 95 140
55 85 114
61 96 128
59 93 140
60 93 128
53 86 80
57 90 128
64 99 161
59 93 99
57 88 128
60 93 140
52 84 99
60 95 128
51 82 80
50 80 57
58 92 99
54 85 80
50 81 0
57 91 114
62 98 151
62 95 140
64 99 171
58 90 128
57 89 99
55 85 114
54 89 114
56 86 114
57 88 128
52 80 80
52 81 84
53 85 114
59 93 99
57 91 128
54 84 80
58 90 99
52 80 99
55 87 80
49 77 80
47 71 57
52 79 80
56 88 114
57 88 102
53 84 99
52 80 80
49 80 57
48 73 57
45 69 0
40 59 57
167 184 0
178 200 0
178 200 0
174 198 0
169 195 0
169 191 0
161 187 0
174 198 0
174 197 0
176 198 0
175 198 0
175 198 0
172 194 0
152 158 0
140 139 0
126 118 0
126 122 0
140 136 0
112 113 0
125 115 0
104 105 0
90 88 0
80 79 0
81 80 0
92 86 0
101 102 0
66 67 0
91 90 0
130 122 0
78 74 0
97 94 0
121 117 0
122 119 0
94 94 0
89 91 0
86 84 0
115 110 0
111 110 0
112 112 0
122 119 0
129 127 0
82 83 0
114 111 0
123 118 0
138 135 0
111 111 0
108 103 0
149 146 0
139 137 0
110 107 0
133 128 0
152 151 0
133 129 0
121 122 0
130 131 0
143 135 0
129 131 0
136 133 0
141 138 0
154 150 0
138 128 0
121 121 0
148 146 0
129 125 0
125 121 0
132 130 0
122 116 0
138 133 0
147 142 0
136 134 0
143 138 0
143 142 0
147 145 0
145 142 0
153 148 0
146 142 0
140 138 0
146 143 0
149 145 0
146 137 0
142 141 0
141 141 0
129 126 0
146 142 0
135 133 0
148 144 0
149 145 0
145 141 0
144 141 0
148 140 0
150 145 0
141 140 0
152 146 0
144 145 0
145 142 0
152 149 0
148 140 0
154 149 0
148 144 0
147 143 0
147 146 0
146 137 0
152 144 0
149 145 0
143 135 0
148 144 0
151 148 0
147 146 0
152 149 0
144 143 0
149 143 0
152 149 0
153 152 0
145 144 0
150 149 0
151 149 0
159 155 0
152 151 0
152 149 0
150 150 0
151 145 0
147 144 0
153 150 0
154 152 0
148 143 0
151 143 0
157 153 0
153 149 0
147 143 0
159 152 0
149 145 0
146 141 0
151 145 0
155 153 0
158 154 0
160 155 0
155 152 0
149 147 0
158 154 0
155 153 0
158 149 0
158 154 0
153 149 0
154 152 0
157 154 0
161 155 0
154 152 0
155 153 0
154 152 0
155 153 0
148 150 0
151 151 0
158 154 0
153 149 0
147 145 0
159 178 0
156 177 0
156 177 0
152 171 0
159 178 0
156 175 0
157 178 0
154 176 0
163 181 0
158 178 0
151 170 0
157 177 0
157 177 0
155 176 0
158 178 0
156 177 0
156 177 0
157 177 0
156 177 0
156 176 0
158 178 0
158 177 0
154 175 0
149 170 0
155 176 0
147 167 0
154 176 0
151 172 0
158 176 0
156 177 0
159 178 0
155 175 0
145 167 0
151 172 0
154 176 0
153 173 0
156 177 0
154 176 0
153 175 0
149 169 0
153 174 0
153 174 0
157 176 0
154 174 0
133 154 0
152 172 0
156 176 0
147 167 0
150 172 0
147 168 0
155 175 0
148 169 0
153 175 0
152 175 0
155 176 0
153 175 0
146 168 0
122 141 0
154 175 0
133 152 0
157 176 0
145 166 0
145 166 0
143 163 0
153 173 0
152 172 0
143 161 0
135 154 0
150 170 0
137 158 0
144 165 0
144 166 0
149 168 0
153 173 0
144 163 0
129 148 0
142 165 0
141 161 0
136 156 0
140 158 0
133 153 0
143 162 0
119 141 0
144 167 0
135 154 0
132 153 0
127 148 0
150 170 0
145 163 0
141 162 0
125 142 0
138 159 0
123 142 0
134 155 0
133 155 0
137 157 0
129 149 0
146 165 0
147 169 0
136 155 0
148 169 0
135 157 0
106 124 0
125 142 0
140 160 0
121 143 0
127 150 0
103 121 0
127 143 0
98 118 0
135 156 0
129 147 0
95 111 0
103 118 0
104 122 0
118 134 0
94 109 0
103 119 0
132 149 0
87 105 0
109 126 0
103 121 0
125 141 0
72 86 0
104 117 0
112 127 0
99 113 0
27 44 0
37 59 0
94 109 0
52 69 0
97 113 0
85 102 0
114 130 0
122 142 0
116 132 0
121 138 0
115 130 0
133 152 0
128 148 0
153 176 0
166 189 0
177 199 0
170 195 0
168 193 0
154 176 0
176 199 0
176 198 0
171 196 0
162 185 0
167 189 0
174 197 0
163 187 0
158 181 0
163 187 0
109 124 57
53 85 114
52 83 57
53 84 114
59 92 125
53 84 95
41 66 0
58 91 99
50 79 95
53 85 99
59 92 114
55 88 99
57 90 114
56 87 114
56 89 80
51 81 99
51 83 99
48 77 99
59 92 114
53 85 114
50 82 0
52 84 99
56 89 99
54 85 99
65 101 161
55 84 114
50 80 99
52 85 114
60 95 128
56 89 114
57 90 128
56 89 114
65 99 140
53 84 99
56 90 80
56 87 99
54 87 80
54 87 99
54 85 99
62 97 140
57 91 80
63 98 151
55 87 111
49 80 99
52 84 99
60 95 114
53 83 80
56 89 114
47 76 80
56 90 128
54 85 80
60 95 128
62 98 161
58 91 114
58 92 99
58 92 114
57 88 102
59 91 128
53 87 80
57 91 128
53 85 80
55 86 114
52 84 80
57 91 114
61 94 130
59 94 114
56 86 99
60 94 140
56 89 99
61 95 142
53 80 84
57 89 80
56 88 99
57 88 80
51 80 80
57 90 99
51 82 57
49 78 80
50 79 80
59 91 114
51 77 99
54 85 84
53 81 62
50 79 80
54 82 80
42 65 57
57 86 117
52 82 99
41 66 62
114 134 0
173 197 0
167 194 0
176 199 0
168 189 0
173 197 0
170 193 0
169 189 0
176 198 0
176 199 0
168 189 0
171 193 0
154 174 0
172 193 0
175 198 0
160 158 0
136 128 0
119 119 0
135 132 0
127 125 0
91 89 0
113 114 0
88 80 0
55 59 0
125 116 0
69 66 0
90 83 0
94 92 0
92 95 0
85 82 0
80 80 0
98 88 0
73 76 0
105 102 0
137 131 0
104 100 0
116 114 0
127 124 0
117 117 0
90 90 0
106 105 0
109 104 0
113 114 0
109 111 0
136 129 0
125 122 0
136 130 0
118 119 0
123 117 0
108 110 0
129 126 0
128 122 0
118 119 0
126 124 0
135 133 0
134 132 0
135 134 0
134 123 0
149 146 0
137 139 0
119 121 0
146 143 0
129 124 0
136 131 0
149 146 0
125 121 0
119 121 0
127 124 0
135 131 0
137 131 0
136 135 0
142 140 0
118 120 0
146 145 0
133 129 0
137 131 0
153 152 0
133 134 0
148 142 0
154 151 0
144 142 0
145 141 0
158 152 0
150 145 0
154 150 0
157 151 0
145 144 0
136 132 0
140 133 0
151 143 0
151 145 0
151 150 0
148 145 0
141 137 0
156 151 0
153 149 0
153 152 0
148 147 0
152 149 0
138 138 0
148 141 0
153 152 0
150 147 0
152 147 0
147 145 0
155 153 0
152 148 0
155 153 0
140 135 0
150 147 0
151 143 0
148 144 0
152 149 0
143 141 0
150 142 0
153 152 0
148 145 0
153 147 0
152 151 0
151 148 0
150 148 0
153 149 0
152 148 0
152 151 0
149 147 0
156 148 0
153 152 0
149 147 0
154 150 0
148 146 0
159 155 0
154 152 0
155 153 0
161 156 0
159 155 0
154 147 0
153 152 0
142 140 0
145 142 0
159 154 0
149 147 0
155 150 0
157 154 0
151 151 0
155 150 0
150 145 0
156 153 0
150 143 0
155 150 0
151 149 0
158 152 0
157 154 0
160 155 0
155 150 0
149 146 0
157 153 0
159 178 0
155 176 0
158 177 0
144 167 0
157 176 0
153 176 0
156 176 0
157 178 0
145 167 0
154 174 0
160 179 0
146 169 0
152 174 0
157 177 0
146 168 0
161 179 0
150 172 0
155 176 0
153 174 0
150 170 0
156 174 0
154 175 0
154 175 0
155 175 0
147 169 0
147 166 0
155 174 0
155 177 0
150 169 0
152 173 0
149 172 0
150 172 0
153 175 0
154 173 0
139 162 0
151 173 0
151 172 0
147 170 0
149 169 0
154 173 0
154 175 0
153 171 0
150 171 0
144 163 0
138 160 0
144 163 0
160 179 0
156 177 0
145 168 0
153 175 0
154 175 0
154 176 0
153 175 0
154 173 0
147 169 0
149 169 0
151 171 0
153 173 0
154 176 0
155 176 0
143 159 0
152 175 0
138 159 0
152 174 0
143 164 0
154 174 0
148 167 0
145 164 0
145 164 0
154 174 0
153 170 0
147 168 0
152 174 0
127 146 0
144 160 0
127 149 0
155 176 0
125 146 0
148 171 0
110 131 0
153 175 0
144 165 0
142 162 0
140 159 0
111 130 0
138 159 0
144 164 0
150 169 0
144 164 0
138 159 0
139 158 0
137 159 0
134 155 0
141 158 0
146 167 0
135 149 0
142 161 0
143 162 0
135 154 0
146 167 0
122 142 0
108 126 0
148 165 0
129 149 0
132 147 0
110 128 0
148 168 0
105 122 0
141 160 0
101 120 0
110 128 0
121 141 0
118 133 0
135 154 0
106 125 0
142 157 0
111 129 0
124 142 0
102 120 0
68 83 0
103 121 0
84 100 0
102 118 0
88 104 0
71 86 0
102 118 0
118 134 0
81 97 0
98 113 0
81 99 0
109 125 0
105 120 0
119 136 0
105 117 0
111 129 0
110 130 0
122 143 0
135 153 0
134 156 0
143 165 0
149 175 0
174 197 0
178 200 0
153 179 0
166 189 0
174 196 0
174 198 0
178 200 0
161 185 0
174 198 0
165 187 0
166 186 0
167 190 0
164 187 0
169 194 0
164 186 0
48 77 51
49 79 80
40 65 57
51 81 76
54 86 95
52 82 99
53 85 57
56 87 111
56 88 80
54 87 57
54 87 80
50 80 95
56 89 114
52 82 114
61 96 128
56 89 111
58 92 111
60 94 111
56 89 99
59 94 114
54 87 99
55 88 80
57 91 114
60 94 114
58 91 128
52 82 114
51 83 80
58 91 99
59 93 114
54 86 99
53 85 99
58 92 99
61 96 128
56 89 99
58 91 128
55 88 57
50 82 57
54 84 99
58 92 99
61 95 140
52 83 80
56 90 80
56 88 114
62 97 140
61 93 151
55 86 151
55 88 99
58 91 128
57 90 80
52 81 102
56 88 128
57 89 99
56 88 102
59 92 114
55 86 99
58 90 99
56 91 99
52 82 80
56 88 128
62 97 140
50 80 80
62 97 140
44 73 0
60 94 140
46 75 57
51 81 99
58 91 128
60 95 128
61 96 140
54 84 114
60 95 128
57 90 114
50 78 80
55 85 80
53 83 114
45 68 80
54 84 114
58 90 114
52 83 99
54 84 57
52 83 80
52 81 80
58 88 114
53 83 99
50 75 84
53 77 88
40 63 0
46 63 51
167 190 0
172 196 0
173 197 0
170 192 0
173 194 0
165 188 0
178 200 0
179 200 0
167 190 0
172 197 0
163 188 0
172 197 0
176 198 0
174 194 0
170 195 0
170 189 0
145 145 0
129 123 0
138 131 0
132 129 0
116 114 0
119 114 0
69 69 0
110 108 0
105 93 0
57 60 0
61 61 0
82 84 0
117 114 0
91 87 0
81 72 0
87 78 0
110 101 0
101 97 0
96 96 0
112 112 0
95 95 0
114 108 0
114 114 0
126 125 0
143 136 0
126 123 0
122 117 0
96 90 0
117 110 0
128 122 0
129 127 0
111 109 0
139 137 0
134 134 0
119 121 0
132 126 0
141 136 0
112 113 0
122 119 0
147 146 0
123 122 0
120 121 0
83 85 0
142 138 0
113 114 0
135 137 0
147 140 0
141 136 0
137 135 0
138 134 0
147 146 0
149 144 0
149 147 0
138 137 0
143 143 0
146 146 0
150 147 0
132 132 0
140 139 0
133 130 0
142 138 0
154 151 0
152 151 0
152 148 0
141 140 0
150 147 0
148 146 0
139 135 0
150 147 0
152 151 0
151 148 0
154 152 0
152 141 0
147 143 0
145 145 0
149 148 0
150 148 0
146 143 0
147 146 0
156 151 0
148 146 0
153 149 0
144 138 0
152 151 0
150 139 0
155 149 0
150 150 0
152 143 0
145 143 0
156 153 0
151 148 0
150 147 0
147 145 0
153 149 0
158 154 0
158 154 0
147 141 0
155 150 0
143 141 0
150 145 0
157 153 0
160 155 0
147 143 0
153 152 0
153 147 0
152 151 0
153 147 0
150 149 0
152 148 0
155 153 0
152 151 0
152 146 0
155 153 0
154 152 0
155 153 0
155 153 0
154 150 0
153 150 0
157 153 0
157 154 0
150 148 0
159 152 0
149 144 0
155 153 0
148 145 0
156 151 0
156 150 0
153 149 0
156 153 0
155 150 0
155 150 0
157 153 0
156 149 0
158 154 0
156 153 0
154 152 0
148 139 0
156 150 0
156 153 0
153 152 0
157 177 0
159 179 0
150 172 0
149 170 0
158 178 0
154 176 0
144 164 0
156 177 0
151 172 0
154 176 0
153 175 0
158 177 0
156 175 0
149 170 0
154 176 0
153 175 0
154 176 0
159 178 0
143 163 0
145 168 0
154 172 0
149 172 0
144 166 0
153 174 0
158 178 0
157 176 0
154 176 0
151 173 0
155 174 0
152 175 0
154 176 0
152 173 0
156 174 0
156 177 0
151 171 0
154 176 0
152 175 0
143 162 0
131 152 0
150 171 0
153 175 0
155 176 0
158 178 0
144 164 0
137 152 0
155 175 0
151 170 0
147 168 0
148 166 0
151 171 0
151 172 0
154 174 0
139 160 0
147 167 0
143 167 0
152 168 0
148 169 0
149 168 0
146 168 0
136 157 0
149 167 0
130 149 0
146 166 0
153 174 0
151 173 0
149 168 0
148 168 0
145 163 0
142 161 0
158 175 0
136 157 0
141 163 0
148 168 0
136 156 0
134 152 0
139 161 0
144 160 0
138 156 0
142 159 0
147 167 0
141 161 0
145 168 0
135 153 0
144 166 0
133 153 0
130 151 0
144 165 0
141 158 0
138 156 0
145 165 0
149 167 0
139 155 0
146 166 0
141 163 0
122 142 0
142 162 0
131 148 0
128 147 0
117 133 0
150 167 0
142 161 0
128 146 0
137 160 0
129 150 0
129 150 0
137 154 0
118 135 0
129 147 0
131 149 0
131 152 0
124 144 0
109 125 0
128 144 0
131 149 0
105 123 0
120 135 0
104 121 0
112 129 0
140 159 0
112 130 0
93 107 0
75 88 0
113 128 0
68 76 0
100 114 0
110 125 0
90 105 0
55 70 0
87 106 0
110 126 0
112 127 0
106 125 0
118 136 0
111 129 0
116 133 0
145 162 0
133 151 0
137 155 0
149 168 0
159 182 0
165 189 0
174 198 0
170 194 0
175 198 0
160 183 0
170 194 0
176 199 0
165 188 0
176 198 0
178 199 0
170 196 0
168 189 0
162 185 0
172 196 0
168 189 0
173 196 0
121 140 57
53 84 114
62 96 128
41 66 51
51 82 95
44 71 99
55 85 99
49 79 80
53 84 99
60 95 140
52 83 80
56 88 99
55 86 99
51 82 0
52 83 114
52 83 80
58 93 111
57 88 114
52 83 99
43 71 57
55 88 99
58 91 99
55 88 99
53 84 80
53 83 114
55 87 114
52 84 80
52 84 57
54 82 114
55 87 114
62 96 151
61 95 140
52 83 99
57 89 114
52 84 0
59 93 114
55 87 80
59 92 128
58 92 99
49 78 99
51 81 80
64 98 140
54 86 114
55 88 95
50 78 84
56 87 80
51 81 80
58 91 114
44 70 0
55 88 128
62 97 128
55 88 57
54 84 99
59 92 114
48 77 57
59 92 114
58 92 99
52 82 99
58 90 140
56 88 128
57 89 99
54 88 99
62 97 151
54 86 57
52 83 57
61 94 140
57 89 117
63 98 140
54 85 80
54 84 99
55 85 102
56 89 99
50 80 57
53 81 99
53 84 80
57 88 117
53 81 62
59 92 140
55 87 114
58 90 114
57 87 99
57 84 117
46 70 57
47 73 80
59 92 128
49 77 57
48 74 0
129 152 0
153 173 0
133 146 0
173 197 0
159 186 0
164 188 0
170 192 0
168 191 0
158 182 0
171 196 0
172 193 0
169 195 0
169 185 0
168 190 0
168 191 0
175 198 0
169 190 0
148 156 0
151 146 0
118 110 0
129 122 0
120 118 0
123 115 0
96 95 0
122 116 0
109 107 0
80 82 0
96 92 0
96 92 0
99 92 0
117 114 0
66 68 0
96 90 0
113 107 0
91 88 0
135 127 0
118 111 0
88 88 0
150 143 0
48 54 0
90 94 0
92 88 0
143 138 0
109 102 0
133 123 0
128 124 0
133 126 0
134 129 0
121 115 0
114 116 0
149 144 0
123 123 0
101 98 0
136 133 0
140 137 0
120 113 0
135 134 0
132 131 0
148 141 0
144 137 0
139 138 0
145 145 0
121 121 0
145 142 0
135 130 0
142 135 0
139 137 0
126 119 0
140 138 0
137 132 0
151 146 0
150 145 0
127 122 0
145 142 0
149 145 0
137 138 0
135 134 0
146 145 0
143 135 0
152 148 0
147 146 0
151 146 0
148 144 0
143 139 0
141 136 0
152 146 0
150 145 0
152 146 0
148 137 0
148 140 0
153 152 0
145 141 0
144 142 0
147 146 0
140 134 0
157 153 0
151 146 0
152 148 0
146 142 0
148 142 0
149 150 0
156 151 0
144 139 0
143 140 0
153 152 0
150 146 0
155 153 0
146 139 0
154 148 0
145 140 0
145 142 0
146 143 0
153 144 0
145 142 0
149 145 0
149 141 0
152 150 0
151 147 0
141 138 0
153 152 0
140 136 0
137 130 0
147 143 0
155 150 0
151 148 0
157 153 0
145 141 0
148 143 0
158 154 0
155 153 0
154 151 0
155 150 0
151 144 0
155 150 0
156 150 0
155 153 0
154 151 0
150 147 0
150 148 0
152 151 0
148 142 0
151 146 0
152 151 0
156 150 0
153 149 0
150 145 0
160 155 0
157 151 0
152 149 0
153 149 0
155 153 0
154 152 0
155 152 0
156 151 0
158 154 0
147 140 0
154 152 0
157 178 0
157 176 0
154 176 0
152 171 0
155 177 0
153 176 0
153 175 0
156 177 0
151 171 0
156 177 0
146 165 0
152 172 0
157 177 0
149 172 0
159 177 0
149 171 0
154 176 0
153 172 0
162 179 0
150 171 0
153 173 0
154 173 0
144 167 0
154 175 0
155 177 0
154 176 0
155 174 0
150 174 0
151 172 0
140 162 0
156 177 0
143 165 0
150 168 0
145 167 0
154 175 0
155 174 0
146 166 0
140 158 0
155 176 0
149 170 0
152 172 0
143 161 0
151 173 0
141 162 0
154 176 0
153 175 0
153 174 0
144 165 0
151 171 0
146 166 0
148 167 0
145 168 0
156 177 0
159 178 0
149 168 0
149 169 0
156 177 0
154 174 0
153 174 0
145 163 0
144 165 0
145 165 0
152 168 0
149 170 0
159 179 0
145 162 0
139 159 0
137 159 0
147 166 0
148 169 0
138 159 0
139 160 0
147 165 0
149 168 0
135 155 0
145 165 0
147 166 0
145 166 0
140 157 0
143 161 0
112 133 0
147 168 0
135 150 0
151 172 0
142 163 0
127 147 0
148 163 0
147 164 0
143 165 0
129 144 0
122 142 0
115 135 0
148 168 0
119 139 0
121 141 0
125 141 0
134 155 0
126 147 0
130 150 0
136 156 0
141 159 0
145 163 0
139 158 0
116 134 0
135 152 0
134 154 0
136 154 0
115 134 0
134 150 0
114 134 0
144 163 0
160 178 0
141 159 0
121 141 0
122 141 0
114 134 0
76 96 0
109 123 0
96 112 0
78 90 0
104 119 0
119 135 0
97 110 0
92 106 0
112 128 0
89 107 0
56 72 0
103 117 0
93 113 0
34 54 0
135 151 0
108 124 0
123 137 0
100 114 0
144 161 0
127 141 0
129 146 0
136 153 0
154 174 0
162 186 0
172 197 0
169 191 0
162 183 0
165 188 0
178 200 0
161 184 0
158 181 0
174 198 0
172 196 0
161 179 0
176 199 0
167 189 0
172 196 0
160 183 0
173 197 0
169 191 0
154 178 0
77 98 0
53 85 76
52 82 80
53 84 99
55 86 80
49 79 57
56 88 114
53 82 125
54 84 114
59 93 114
47 77 57
55 88 57
58 91 114
59 93 114
45 71 57
58 91 114
50 80 99
53 84 57
55 86 114
57 91 128
54 85 99
57 88 99
55 87 80
55 88 99
58 90 128
54 86 99
58 91 99
59 93 114
51 81 57
60 94 151
62 97 140
57 89 128
59 93 99
60 94 140
58 90 128
55 88 80
51 83 80
65 100 151
57 90 114
55 88 99
52 83 99
58 90 128
62 96 161
52 82 99
57 90 114
56 89 128
50 81 80
58 89 114
50 80 0
56 89 99
54 86 57
49 76 80
56 88 114
52 83 80
53 83 114
46 74 80
61 94 128
56 87 114
59 93 128
57 90 114
54 84 80
55 87 99
59 93 114
56 88 114
54 85 62
50 78 99
49 79 117
54 86 57
64 98 153
53 84 80
61 94 140
52 80 62
50 79 0
55 87 99
48 77 99
51 77 62
60 95 128
47 74 57
55 86 57
58 89 99
46 70 60
55 86 114
42 64 62
43 67 80
46 67 57
102 118 57
154 173 0
169 190 0
170 188 0
165 189 0
173 194 0
173 194 0
161 178 0
155 177 0
153 173 0
172 190 0
165 188 0
171 190 0
168 188 0
165 182 0
163 184 0
174 197 0
164 184 0
170 185 0
140 143 0
138 131 0
123 117 0
119 113 0
87 90 0
95 95 0
93 89 0
115 109 0
122 123 0
79 81 0
86 86 0
106 101 0
98 91 0
93 89 0
137 129 0
72 65 0
68 64 0
117 112 0
113 107 0
113 108 0
126 122 0
119 115 0
129 122 0
112 109 0
115 109 0
126 124 0
104 99 0
131 127 0
145 139 0
141 139 0
104 106 0
123 119 0
115 118 0
133 132 0
111 106 0
111 111 0
125 120 0
134 130 0
91 91 0
135 129 0
138 135 0
148 146 0
124 124 0
144 141 0
129 128 0
145 140 0
136 130 0
136 127 0
136 133 0
136 130 0
139 138 0
146 145 0
130 127 0
139 139 0
140 133 0
142 138 0
137 134 0
153 149 0
122 116 0
150 146 0
150 148 0
141 140 0
151 139 0
151 146 0
139 131 0
143 144 0
145 138 0
157 149 0
144 141 0
154 147 0
152 146 0
153 149 0
127 125 0
153 152 0
154 150 0
137 137 0
132 127 0
151 148 0
148 140 0
155 150 0
158 154 0
110 109 0
141 137 0
150 148 0
138 130 0
146 144 0
147 143 0
151 148 0
153 149 0
148 146 0
151 142 0
155 150 0
150 142 0
157 153 0
145 139 0
147 141 0
152 148 0
138 132 0
157 151 0
152 147 0
150 147 0
153 144 0
159 154 0
154 152 0
143 140 0
158 151 0
158 151 0
140 138 0
154 152 0
151 148 0
149 143 0
147 144 0
154 152 0
149 145 0
143 138 0
157 151 0
152 146 0
155 150 0
147 143 0
148 145 0
151 148 0
155 153 0
154 150 0
153 149 0
148 145 0
155 152 0
152 149 0
150 148 0
147 143 0
151 145 0
159 155 0
154 150 0
155 150 0
154 152 0
155 153 0
155 150 0
150 150 0
151 151 0
161 155 0
156 176 0
153 175 0
151 174 0
155 175 0
154 176 0
153 175 0
155 176 0
152 170 0
154 173 0
155 175 0
155 176 0
149 169 0
156 177 0
154 176 0
156 177 0
148 169 0
141 163 0
154 173 0
154 176 0
149 171 0
154 174 0
151 174 0
154 176 0
143 165 0
152 173 0
153 174 0
153 173 0
156 177 0
144 165 0
143 165 0
156 177 0
153 175 0
146 168 0
153 174 0
155 175 0
149 170 0
144 165 0
148 169 0
140 160 0
141 162 0
151 172 0
150 173 0
142 161 0
150 173 0
152 175 0
155 174 0
153 175 0
151 171 0
144 166 0
154 173 0
147 165 0
133 152 0
151 173 0
142 162 0
146 167 0
151 169 0
157 177 0
151 173 0
149 169 0
151 171 0
147 170 0
155 177 0
137 158 0
139 157 0
147 167 0
151 170 0
151 172 0
141 160 0
142 161 0
148 167 0
154 175 0
146 161 0
124 143 0
135 155 0
144 165 0
145 163 0
131 148 0
145 165 0
134 155 0
149 166 0
138 159 0
114 135 0
142 160 0
146 163 0
135 154 0
134 154 0
128 147 0
150 169 0
135 154 0
123 141 0
146 164 0
145 162 0
140 160 0
141 157 0
133 151 0
124 144 0
131 151 0
144 164 0
130 147 0
148 166 0
132 152 0
134 151 0
131 150 0
127 144 0
122 140 0
97 112 0
141 161 0
118 135 0
143 165 0
122 140 0
140 158 0
107 127 0
130 147 0
134 153 0
126 146 0
102 118 0
71 89 0
139 155 0
106 123 0
116 135 0
113 126 0
73 89 0
137 152 0
100 114 0
95 109 0
98 113 0
105 123 0
103 121 0
58 70 0
115 131 0
127 144 0
111 126 0
121 138 0
96 113 0
118 135 0
143 161 0
131 147 0
139 158 0
172 196 0
167 193 0
169 192 0
168 195 0
175 197 0
163 185 0
165 188 0
169 195 0
151 173 0
168 189 0
170 190 0
162 186 0
168 192 0
153 176 0
148 170 0
171 192 0
170 195 0
170 196 0
157 179 0
152 178 0
91 113 57
59 92 149
53 84 80
51 81 95
60 93 128
53 83 99
46 73 80
50 81 57
59 93 99
56 89 114
51 81 99
50 81 80
54 86 95
56 89 114
62 97 140
44 71 80
48 74 80
57 89 114
52 83 99
55 89 125
58 93 114
55 86 140
55 87 114
53 87 80
53 84 99
56 87 57
49 79 57
49 77 80
58 90 128
47 74 80
57 89 128
49 78 99
50 81 99
55 88 80
57 90 114
57 89 140
59 91 114
61 94 151
58 91 99
46 73 57
54 87 114
57 89 114
59 93 140
59 93 140
60 94 140
60 95 128
51 82 99
55 89 99
54 85 80
56 89 99
45 72 57
54 85 99
54 85 114
54 87 80
57 90 114
59 92 80
58 90 102
52 82 80
53 86 114
47 75 80
60 94 151
57 88 114
55 86 114
48 76 99
53 85 99
57 88 114
50 81 99
60 92 128
52 80 99
48 76 80
52 82 99
54 84 114
51 81 99
48 76 80
50 76 67
52 81 57
50 77 80
45 66 57
57 87 99
46 73 80
53 85 99
54 84 99
48 72 25
67 88 57
167 181 0
164 184 0
167 182 0
170 192 0
171 196 0
170 192 0
172 194 0
168 192 0
165 185 0
157 177 0
166 186 0
154 179 0
163 188 0
171 192 0
169 188 0
161 183 0
144 163 0
160 186 0
164 185 0
178 196 0
149 149 0
127 118 0
144 137 0
149 139 0
116 107 0
95 91 0
117 109 0
83 78 0
120 115 0
82 75 0
82 77 0
67 66 0
135 125 0
104 102 0
85 82 0
91 90 0
101 97 0
99 94 0
132 130 0
99 105 0
123 116 0
114 105 0
96 95 0
117 112 0
114 109 0
112 109 0
133 125 0
115 115 0
102 102 0
121 112 0
140 129 0
108 109 0
137 130 0
115 113 0
123 117 0
151 145 0
138 129 0
153 146 0
111 113 0
147 139 0
139 138 0
142 138 0
138 133 0
120 116 0
116 111 0
144 141 0
123 117 0
140 131 0
132 129 0
136 132 0
150 141 0
149 144 0
151 148 0
147 139 0
135 129 0
148 143 0
143 135 0
151 146 0
127 124 0
149 145 0
146 136 0
133 132 0
146 139 0
148 141 0
141 132 0
151 148 0
144 136 0
138 136 0
152 149 0
137 137 0
132 123 0
139 137 0
152 146 0
148 141 0
137 131 0
151 147 0
155 150 0
148 146 0
144 136 0
155 153 0
148 144 0
145 136 0
150 146 0
156 151 0
142 141 0
145 143 0
154 152 0
152 148 0
156 148 0
144 139 0
149 147 0
151 149 0
149 145 0
148 147 0
156 153 0
153 152 0
150 147 0
156 151 0
146 145 0
147 146 0
152 150 0
154 152 0
160 153 0
155 150 0
144 139 0
150 148 0
153 150 0
151 148 0
157 150 0
142 139 0
146 145 0
152 147 0
154 150 0
150 144 0
154 152 0
153 149 0
154 152 0
144 141 0
155 150 0
150 145 0
157 154 0
138 139 0
156 152 0
148 145 0
147 143 0
155 153 0
149 150 0
158 154 0
155 153 0
157 154 0
151 149 0
150 148 0
155 153 0
145 138 0
156 153 0
153 149 0
156 150 0
155 153 0
153 173 0
157 177 0
153 173 0
154 175 0
156 176 0
148 171 0
154 174 0
148 170 0
154 176 0
159 177 0
158 178 0
153 175 0
158 175 0
151 171 0
155 174 0
152 175 0
155 175 0
157 177 0
143 165 0
156 177 0
153 174 0
146 167 0
152 175 0
147 167 0
151 172 0
152 172 0
153 174 0
144 164 0
152 175 0
154 175 0
159 179 0
159 176 0
153 173 0
154 173 0
153 174 0
151 174 0
151 170 0
151 169 0
150 172 0
148 169 0
152 175 0
152 171 0
152 172 0
158 178 0
154 173 0
158 177 0
157 178 0
151 168 0
154 176 0
155 174 0
144 165 0
150 172 0
154 176 0
154 171 0
152 172 0
144 165 0
153 174 0
145 166 0
149 170 0
145 166 0
153 175 0
159 177 0
149 168 0
152 173 0
151 174 0
129 150 0
152 173 0
146 166 0
155 177 0
156 174 0
139 158 0
134 154 0
145 166 0
133 153 0
129 149 0
146 167 0
146 163 0
142 161 0
124 143 0
152 170 0
138 160 0
136 159 0
143 162 0
122 142 0
152 172 0
126 147 0
154 173 0
153 173 0
144 163 0
141 161 0
126 145 0
149 170 0
136 157 0
132 152 0
133 154 0
139 157 0
136 155 0
149 166 0
107 127 0
122 143 0
125 141 0
147 166 0
111 127 0
127 146 0
134 155 0
115 131 0
149 168 0
117 133 0
145 162 0
83 100 0
133 154 0
126 145 0
122 142 0
72 89 0
135 153 0
113 128 0
121 141 0
116 131 0
108 122 0
105 121 0
99 113 0
103 118 0
121 137 0
89 107 0
115 129 0
117 132 0
107 121 0
91 107 0
80 94 0
115 130 0
107 124 0
126 145 0
111 129 0
106 126 0
140 158 0
135 155 0
146 166 0
156 179 0
155 178 0
144 169 0
171 196 0
179 200 0
169 193 0
160 180 0
174 198 0
144 166 0
164 190 0
160 183 0
177 199 0
174 198 0
166 191 0
146 169 0
141 159 0
165 190 0
170 195 0
161 183 0
150 175 0
164 186 0
145 170 57
33 56 57
52 83 80
47 75 57
50 81 80
56 90 80
51 81 108
54 86 76
59 91 114
52 83 57
38 63 57
54 86 80
51 83 80
60 94 114
52 83 80
62 96 151
57 90 114
56 89 135
55 86 80
57 90 125
55 87 99
54 85 128
60 94 140
60 94 114
56 87 99
54 85 80
56 90 128
58 92 99
59 93 114
46 75 80
57 91 99
50 80 80
49 79 57
61 95 114
57 90 114
44 71 57
47 77 80
50 79 80
61 95 151
57 88 99
54 86 80
52 83 80
52 82 114
49 78 80
55 87 99
57 90 99
55 84 80
55 86 80
56 87 99
56 88 140
55 87 99
55 86 57
55 88 80
58 91 114
53 83 114
58 92 114
57 90 114
56 88 128
62 97 140
53 85 80
53 84 114
63 96 151
61 96 128
59 93 140
47 76 57
54 85 80
55 88 99
53 82 114
59 92 114
56 88 80
47 71 62
47 74 99
52 81 57
48 76 99
52 77 0
59 92 99
54 83 114
52 80 80
57 89 128
52 77 62
49 78 57
51 77 80
52 79 57
163 187 0
174 194 0
160 186 0
157 176 0
159 181 0
161 180 0
175 198 0
172 190 0
145 168 0
166 189 0
171 192 0
161 180 0
168 191 0
166 190 0
150 169 0
166 188 0
165 188 0
171 190 0
173 197 0
162 178 0
170 192 0
168 185 0
140 134 0
125 117 0
104 103 0
113 109 0
102 99 0
92 94 0
106 92 0
118 116 0
110 102 0
87 83 0
99 95 0
112 103 0
109 102 0
92 93 0
113 110 0
53 57 0
62 64 0
151 144 0
83 73 0
107 102 0
115 110 0
114 106 0
141 130 0
98 92 0
94 96 0
120 115 0
117 116 0
100 97 0
126 123 0
137 132 0
124 116 0
96 96 0
121 118 0
127 123 0
139 139 0
144 140 0
134 133 0
125 114 0
135 130 0
138 135 0
133 128 0
121 120 0
156 148 0
132 130 0
146 146 0
143 140 0
127 118 0
135 130 0
135 133 0
139 139 0
125 119 0
112 111 0
138 132 0
144 141 0
139 136 0
144 144 0
158 154 0
152 149 0
150 145 0
135 133 0
151 147 0
153 149 0
136 138 0
143 135 0
152 149 0
152 136 0
151 145 0
147 141 0
149 150 0
130 126 0
139 128 0
155 148 0
148 147 0
145 141 0
154 148 0
147 141 0
130 128 0
140 132 0
147 143 0
159 152 0
153 152 0
142 140 0
148 140 0
138 137 0
151 148 0
137 136 0
154 150 0
156 153 0
151 141 0
153 149 0
144 140 0
145 144 0
152 151 0
152 151 0
144 141 0
154 144 0
146 137 0
146 146 0
149 143 0
151 147 0
156 153 0
144 144 0
154 147 0
157 154 0
159 152 0
158 152 0
153 147 0
151 146 0
153 152 0
149 146 0
154 152 0
155 148 0
145 137 0
155 153 0
153 149 0
153 152 0
141 138 0
153 149 0
155 153 0
154 147 0
155 148 0
161 156 0
148 146 0
155 149 0
155 150 0
153 147 0
157 151 0
147 143 0
154 148 0
156 146 0
154 151 0
157 151 0
158 154 0
153 149 0
151 146 0
151 146 0
155 153 0
158 178 0
152 175 0
149 171 0
150 172 0
156 177 0
156 177 0
154 176 0
154 176 0
156 177 0
143 165 0
153 173 0
145 168 0
149 170 0
152 171 0
160 179 0
159 179 0
148 171 0
149 170 0
153 174 0
151 173 0
149 170 0
157 176 0
139 158 0
130 145 0
150 171 0
158 178 0
156 177 0
154 175 0
148 168 0
158 176 0
151 171 0
155 177 0
154 176 0
154 174 0
151 173 0
139 159 0
151 170 0
155 177 0
148 169 0
150 171 0
129 149 0
162 180 0
155 170 0
148 168 0
149 168 0
148 167 0
151 169 0
147 166 0
153 175 0
149 171 0
138 158 0
135 156 0
140 160 0
152 170 0
148 169 0
148 167 0
139 157 0
146 166 0
148 168 0
146 168 0
145 166 0
137 159 0
149 168 0
156 176 0
159 178 0
139 160 0
135 157 0
148 167 0
143 162 0
144 164 0
146 166 0
143 165 0
143 162 0
149 173 0
136 157 0
143 162 0
139 159 0
144 164 0
144 162 0
154 173 0
138 154 0
144 164 0
132 150 0
156 175 0
145 167 0
142 159 0
145 164 0
135 153 0
140 160 0
133 153 0
146 165 0
130 151 0
147 167 0
140 162 0
122 140 0
133 152 0
118 137 0
130 150 0
110 121 0
135 153 0
128 142 0
135 153 0
120 138 0
132 150 0
119 134 0
103 124 0
113 130 0
123 140 0
120 140 0
118 136 0
120 137 0
130 148 0
101 118 0
115 130 0
118 132 0
97 112 0
119 133 0
124 137 0
81 96 0
112 129 0
128 144 0
108 123 0
120 133 0
99 116 0
91 105 0
99 115 0
104 119 0
131 145 0
139 155 0
119 136 0
101 116 0
120 138 0
115 133 0
138 155 0
121 140 0
129 146 0
151 169 0
151 173 0
174 198 0
171 196 0
152 178 0
164 186 0
174 196 0
156 173 0
159 180 0
155 177 0
164 188 0
149 174 0
158 182 0
150 172 0
162 185 0
167 188 0
163 187 0
166 188 0
152 175 0
159 182 0
157 178 0
159 180 0
173 197 0
130 152 51
47 73 80
46 75 0
52 83 76
51 82 99
52 83 57
49 78 80
52 81 95
59 93 99
56 87 114
47 76 76
58 91 114
53 87 80
53 84 51
50 80 57
54 87 80
51 81 99
59 92 128
51 81 99
46 75 80
57 92 99
55 86 125
59 93 140
45 72 80
59 93 149
53 84 80
52 83 57
54 85 99
52 83 57
53 84 57
59 92 128
58 92 128
52 80 128
55 88 80
49 78 57
56 87 114
54 87 80
52 83 99
54 85 99
55 86 128
62 96 128
56 88 99
59 93 114
57 87 114
59 92 114
61 92 114
58 93 114
53 86 57
59 93 99
50 80 57
50 81 57
59 92 117
53 84 80
49 76 80
54 85 114
59 94 114
56 87 114
48 75 0
52 84 80
53 83 80
56 87 102
50 82 57
48 79 99
53 84 80
54 84 99
50 79 80
54 82 99
57 90 84
52 80 57
56 88 128
52 81 57
54 85 114
42 67 57
52 82 84
60 94 114
58 91 99
57 88 99
48 78 80
52 80 114
51 79 99
50 76 25
109 126 0
167 186 0
174 194 0
161 183 0
164 182 0
143 163 0
151 172 0
174 194 0
174 197 0
163 178 0
168 184 0
167 186 0
166 188 0
152 175 0
163 186 0
163 187 0
167 187 0
163 186 0
158 179 0
168 188 0
159 179 0
167 190 0
165 185 0
148 159 0
123 117 0
140 133 0
129 124 0
123 122 0
95 86 0
100 100 0
105 97 0
130 123 0
100 88 0
123 114 0
75 70 0
90 86 0
118 112 0
107 99 0
123 110 0
109 107 0
75 74 0
97 95 0
136 127 0
78 80 0
130 122 0
114 110 0
134 130 0
128 123 0
110 109 0
138 126 0
134 130 0
119 117 0
139 132 0
94 96 0
98 92 0
117 107 0
136 132 0
149 144 0
110 110 0
153 144 0
106 107 0
140 139 0
125 121 0
118 114 0
125 115 0
111 113 0
145 139 0
144 138 0
129 118 0
130 124 0
122 116 0
139 134 0
137 132 0
139 135 0
138 134 0
134 127 0
140 136 0
117 113 0
131 121 0
127 122 0
129 127 0
133 130 0
120 114 0
144 136 0
133 132 0
138 136 0
157 149 0
138 129 0
148 143 0
140 137 0
150 145 0
151 147 0
138 132 0
132 127 0
156 148 0
153 144 0
149 144 0
151 147 0
148 143 0
147 139 0
133 133 0
145 136 0
150 145 0
145 141 0
143 139 0
146 144 0
147 146 0
143 135 0
152 147 0
147 145 0
155 150 0
149 142 0
147 142 0
157 154 0
150 146 0
149 145 0
153 149 0
148 147 0
145 145 0
154 152 0
142 138 0
155 153 0
148 143 0
153 147 0
148 145 0
153 152 0
144 139 0
145 141 0
139 135 0
144 141 0
156 151 0
153 145 0
154 147 0
142 141 0
156 153 0
161 155 0
155 150 0
148 144 0
144 143 0
146 139 0
142 136 0
158 154 0
150 148 0
157 151 0
151 148 0
154 152 0
148 144 0
146 142 0
154 149 0
153 152 0
154 152 0
153 149 0
147 144 0
158 154 0
157 154 0
157 151 0
156 150 0
155 153 0
153 152 0
155 150 0
154 176 0
150 174 0
151 172 0
157 176 0
149 169 0
152 173 0
154 175 0
152 172 0
158 178 0
152 173 0
156 176 0
155 176 0
152 175 0
154 176 0
156 172 0
151 170 0
159 177 0
152 170 0
155 174 0
156 176 0
154 176 0
148 169 0
151 173 0
155 176 0
151 170 0
147 168 0
151 172 0
148 168 0
156 177 0
146 167 0
153 174 0
145 168 0
141 162 0
158 177 0
153 174 0
142 164 0
135 158 0
155 176 0
143 163 0
154 175 0
145 166 0
158 177 0
146 167 0
155 176 0
140 161 0
146 166 0
151 172 0
139 161 0
145 164 0
156 176 0
144 166 0
136 155 0
147 168 0
152 174 0
156 176 0
147 168 0
148 165 0
144 164 0
146 166 0
156 176 0
135 158 0
149 170 0
138 156 0
152 174 0
135 154 0
151 173 0
146 167 0
150 171 0
141 161 0
135 155 0
145 165 0
135 153 0
148 167 0
157 176 0
135 154 0
138 160 0
144 166 0
155 174 0
135 156 0
127 145 0
151 171 0
155 174 0
127 144 0
138 159 0
156 176 0
149 168 0
146 169 0
148 165 0
146 167 0
137 157 0
130 150 0
142 161 0
132 146 0
147 163 0
134 152 0
142 162 0
131 153 0
129 147 0
137 155 0
133 148 0
127 146 0
122 140 0
123 139 0
121 138 0
135 154 0
125 144 0
118 136 0
113 133 0
133 150 0
117 134 0
100 115 0
128 146 0
108 127 0
130 148 0
90 107 0
135 152 0
132 150 0
110 129 0
117 136 0
130 148 0
123 141 0
115 129 0
92 108 0
107 121 0
81 98 0
120 135 0
94 111 0
133 149 0
129 147 0
157 172 0
122 138 0
96 112 0
98 111 0
127 141 0
130 148 0
158 182 0
170 196 0
163 188 0
165 187 0
161 183 0
146 170 0
158 179 0
164 187 0
157 181 0
156 180 0
161 185 0
172 192 0
148 168 0
163 186 0
170 195 0
152 176 0
160 185 0
178 199 0
143 166 0
156 179 0
162 186 0
165 187 0
132 152 0
161 187 0
170 194 0
132 152 0
53 83 80
48 76 0
56 89 99
49 78 99
52 81 114
52 82 80
52 83 99
50 79 57
55 86 80
52 84 114
55 87 99
47 76 57
49 78 80
53 85 57
52 82 99
49 78 80
62 96 137
47 75 80
52 83 57
56 89 99
58 91 114
53 84 111
60 95 140
52 84 99
56 89 114
54 85 57
53 83 99
53 83 80
50 80 80
51 82 114
55 88 99
49 78 80
57 91 80
53 83 128
57 91 80
54 86 114
56 89 128
52 81 99
55 87 114
59 92 99
58 90 114
55 87 114
51 83 0
47 74 80
52 81 99
57 89 80
53 84 99
41 67 57
56 88 80
54 86 80
54 83 114
57 89 114
57 87 99
57 89 128
51 81 84
53 84 57
58 92 114
57 89 99
54 85 80
55 88 80
54 83 102
60 95 128
56 86 117
51 82 57
48 77 80
48 77 80
52 84 80
52 82 57
56 89 57
51 80 80
47 76 99
49 76 62
53 83 80
48 71 84
49 78 99
39 63 0
57 85 102
55 85 84
99 119 0
136 159 0
156 174 0
156 174 0
165 182 0
152 173 0
152 168 0
154 174 0
161 180 0
169 182 0
172 193 0
170 190 0
143 162 0
162 182 0
172 193 0
173 193 0
148 169 0
162 183 0
176 195 0
150 167 0
139 158 0
161 183 0
174 191 0
165 186 0
169 188 0
143 146 0
113 110 0
132 127 0
115 113 0
83 83 0
109 102 0
105 96 0
97 85 0
102 89 0
67 69 0
84 83 0
117 107 0
111 106 0
88 83 0
81 80 0
127 118 0
112 102 0
103 98 0
85 85 0
115 112 0
130 126 0
92 87 0
99 92 0
107 107 0
122 120 0
129 122 0
117 110 0
122 116 0
120 115 0
140 134 0
140 135 0
116 108 0
130 120 0
99 99 0
102 100 0
134 131 0
117 110 0
126 117 0
128 123 0
131 123 0
134 128 0
133 130 0
147 144 0
122 119 0
132 126 0
140 134 0
145 139 0
126 128 0
154 149 0
120 115 0
141 134 0
141 135 0
155 150 0
132 126 0
127 122 0
134 129 0
129 124 0
138 130 0
151 145 0
145 139 0
145 142 0
147 145 0
138 134 0
141 134 0
142 137 0
152 146 0
149 139 0
133 125 0
147 136 0
149 147 0
132 130 0
158 154 0
133 125 0
136 135 0
145 139 0
154 147 0
143 140 0
155 150 0
138 129 0
147 142 0
146 143 0
141 137 0
151 146 0
148 144 0
139 134 0
153 151 0
149 142 0
157 154 0
143 127 0
128 121 0
147 143 0
152 146 0
148 139 0
154 150 0
146 140 0
152 147 0
147 138 0
159 155 0
156 151 0
149 142 0
137 132 0
149 147 0
153 149 0
153 149 0
154 150 0
148 146 0
151 148 0
147 143 0
158 154 0
152 147 0
158 154 0
152 147 0
151 148 0
150 148 0
145 142 0
154 147 0
149 147 0
137 135 0
141 139 0
151 137 0
147 144 0
153 148 0
154 147 0
143 141 0
154 149 0
153 149 0
156 153 0
159 155 0
152 142 0
149 148 0
155 150 0
143 138 0
157 153 0
152 149 0
149 147 0
152 146 0
157 177 0
151 172 0
157 178 0
148 172 0
150 168 0
153 174 0
154 175 0
153 172 0
149 168 0
156 177 0
156 174 0
149 170 0
156 177 0
151 172 0
154 175 0
147 167 0
155 176 0
153 172 0
155 173 0
158 177 0
148 169 0
155 176 0
155 175 0
146 165 0
154 174 0
151 170 0
153 176 0
153 172 0
156 177 0
150 171 0
152 172 0
147 167 0
146 168 0
151 171 0
146 166 0
148 165 0
151 168 0
153 171 0
159 178 0
153 172 0
155 176 0
146 166 0
147 166 0
146 163 0
148 168 0
159 178 0
140 157 0
139 156 0
144 161 0
149 171 0
151 173 0
140 162 0
150 172 0
148 166 0
153 175 0
153 173 0
152 174 0
148 168 0
147 168 0
143 163 0
133 153 0
133 151 0
151 170 0
155 176 0
138 157 0
148 169 0
150 173 0
133 154 0
141 160 0
130 149 0
137 157 0
145 166 0
155 175 0
153 175 0
151 171 0
145 162 0
140 160 0
147 163 0
134 154 0
144 164 0
146 167 0
145 166 0
124 141 0
134 150 0
140 162 0
136 159 0
128 147 0
140 158 0
149 169 0
127 147 0
135 154 0
137 154 0
152 171 0
136 158 0
139 158 0
132 151 0
121 139 0
147 164 0
133 148 0
129 147 0
137 157 0
124 142 0
132 149 0
120 136 0
143 161 0
135 151 0
126 145 0
111 128 0
112 129 0
119 139 0
114 130 0
140 155 0
108 126 0
110 128 0
116 134 0
121 141 0
104 123 0
101 119 0
99 116 0
109 125 0
115 132 0
100 118 0
110 120 0
105 122 0
90 106 0
92 109 0
104 119 0
66 82 0
107 124 0
121 139 0
101 115 0
144 161 0
125 138 0
125 144 0
162 181 0
163 188 0
173 195 0
166 190 0
165 181 0
150 171 0
143 167 0
162 186 0
176 195 0
146 168 0
172 196 0
164 187 0
167 191 0
148 167 0
175 197 0
152 173 0
173 196 0
159 183 0
164 186 0
144 168 0
147 167 0
162 183 0
168 189 0
149 170 0
160 183 0
156 177 0
160 184 0
74 103 80
46 75 0
49 81 76
57 88 111
51 81 80
54 85 80
46 73 95
49 76 99
52 83 80
61 95 137
55 87 80
57 88 128
59 93 125
51 82 80
57 89 111
52 86 80
53 84 95
51 81 80
54 86 57
50 80 95
58 90 140
54 86 80
57 90 99
58 92 114
52 84 0
53 83 99
58 92 114
56 89 99
55 86 99
59 93 99
48 76 99
59 92 128
61 96 140
58 93 99
52 83 80
56 89 99
53 85 80
45 72 57
54 86 99
51 82 57
57 91 114
61 95 128
52 81 80
61 94 114
54 85 99
53 84 99
48 77 80
55 86 99
58 91 128
53 83 99
43 70 57
58 91 80
47 75 80
60 94 128
52 81 57
57 89 99
57 90 114
53 81 84
57 91 114
50 78 80
53 83 99
60 92 99
52 82 114
48 75 80
52 82 114
50 81 57
55 88 114
44 67 80
55 85 114
51 80 99
49 78 57
52 82 80
49 76 62
51 80 80
43 67 80
41 64 57
52 79 99
109 128 0
147 163 0
137 156 0
144 158 0
158 181 0
147 163 0
126 149 0
159 178 0
170 189 0
156 175 0
144 159 0
146 161 0
147 167 0
143 163 0
168 190 0
166 185 0
163 180 0
155 179 0
160 179 0
154 170 0
178 193 0
162 182 0
170 192 0
172 186 0
160 180 0
170 192 0
169 191 0
140 149 0
135 128 0
124 119 0
125 116 0
113 111 0
77 81 0
92 93 0
83 83 0
121 112 0
135 128 0
119 111 0
124 117 0
88 80 0
92 87 0
109 98 0
101 93 0
137 125 0
118 117 0
122 118 0
119 108 0
89 86 0
116 111 0
131 128 0
122 115 0
122 115 0
127 121 0
130 120 0
122 115 0
125 116 0
143 133 0
140 135 0
119 114 0
127 125 0
134 133 0
140 134 0
130 126 0
123 115 0
152 149 0
141 142 0
150 146 0
129 121 0
133 129 0
152 143 0
136 127 0
146 137 0
137 132 0
125 114 0
135 125 0
112 112 0
130 127 0
150 141 0
140 136 0
140 133 0
133 127 0
149 147 0
148 137 0
143 144 0
145 136 0
147 142 0
136 131 0
136 134 0
133 130 0
140 136 0
133 129 0
144 142 0
140 136 0
134 129 0
147 145 0
131 124 0
154 149 0
156 150 0
147 143 0
141 137 0
139 137 0
141 139 0
142 135 0
157 151 0
141 134 0
146 139 0
149 146 0
149 145 0
156 153 0
145 134 0
146 141 0
115 109 0
153 149 0
158 154 0
149 147 0
141 136 0
155 150 0
154 147 0
145 142 0
150 144 0
144 144 0
138 138 0
142 139 0
152 146 0
149 143 0
152 146 0
146 139 0
157 154 0
149 146 0
149 146 0
140 135 0
152 149 0
152 149 0
149 146 0
140 137 0
144 138 0
148 143 0
145 142 0
148 144 0
141 138 0
146 140 0
157 153 0
157 145 0
148 144 0
157 149 0
156 148 0
152 147 0
147 144 0
152 148 0
158 152 0
155 147 0
153 147 0
155 147 0
155 145 0
142 141 0
149 141 0
156 151 0
147 143 0
151 151 0
155 150 0
155 153 0
156 153 0
151 172 0
156 177 0
147 166 0
155 176 0
159 177 0
152 172 0
150 170 0
158 178 0
149 170 0
152 175 0
155 175 0
154 174 0
149 171 0
152 174 0
158 178 0
150 170 0
152 173 0
152 173 0
155 176 0
152 170 0
143 161 0
150 171 0
153 174 0
143 166 0
159 178 0
157 177 0
143 165 0
147 168 0
144 165 0
142 163 0
155 173 0
151 171 0
153 175 0
152 172 0
157 175 0
134 153 0
151 168 0
151 168 0
154 176 0
147 170 0
132 154 0
146 164 0
157 178 0
156 175 0
149 170 0
141 163 0
148 167 0
149 167 0
148 169 0
145 164 0
151 171 0
135 157 0
144 166 0
145 164 0
143 164 0
151 172 0
148 165 0
137 157 0
150 170 0
136 155 0
143 162 0
144 164 0
130 152 0
126 140 0
128 148 0
146 162 0
145 165 0
145 166 0
142 160 0
131 146 0
140 161 0
151 173 0
140 160 0
133 154 0
149 168 0
152 172 0
136 151 0
129 149 0
134 155 0
139 158 0
143 164 0
150 173 0
143 162 0
130 147 0
129 147 0
146 166 0
134 155 0
138 156 0
136 155 0
119 136 0
146 166 0
113 134 0
127 145 0
136 153 0
136 155 0
134 156 0
116 133 0
141 158 0
146 167 0
130 148 0
136 155 0
148 166 0
109 127 0
149 169 0
129 147 0
125 141 0
153 169 0
119 135 0
107 125 0
110 130 0
91 103 0
122 141 0
101 119 0
130 148 0
120 137 0
131 151 0
110 126 0
96 112 0
108 123 0
102 121 0
98 114 0
85 96 0
99 112 0
92 101 0
115 131 0
123 142 0
117 133 0
108 121 0
86 98 0
62 78 0
130 145 0
145 163 0
128 143 0
126 145 0
162 182 0
158 183 0
168 190 0
165 188 0
134 156 0
171 195 0
164 186 0
144 165 0
157 179 0
154 177 0
165 186 0
157 181 0
162 186 0
149 172 0
161 182 0
150 173 0
155 177 0
155 177 0
157 177 0
159 180 0
157 178 0
136 157 0
153 174 0
159 179 0
162 187 0
153 174 0
151 176 0
166 188 0
109 131 57
39 64 57
46 73 57
54 85 99
51 82 80
54 85 99
53 85 122
51 82 80
55 86 80
47 74 80
56 89 114
46 74 57
43 68 0
48 76 76
52 81 57
44 70 80
56 90 80
48 78 80
46 74 57
56 90 114
53 84 114
61 96 128
55 88 99
48 75 80
54 88 99
60 94 114
50 78 0
54 86 99
59 91 128
54 87 80
58 91 128
37 63 0
54 86 99
55 86 114
57 91 128
46 74 57
52 82 99
50 81 57
54 83 99
54 87 80
56 88 99
54 87 80
55 88 80
64 99 151
53 85 57
57 89 128
51 82 0
51 82 99
50 80 57
53 80 80
53 83 99
54 85 99
59 93 114
54 86 114
49 77 62
53 80 80
58 86 140
52 83 80
52 83 80
57 90 99
53 83 80
49 79 57
59 91 128
56 89 80
53 81 57
49 78 114
47 72 62
55 86 84
54 83 99
46 72 57
45 72 99
52 83 57
40 62 0
49 76 0
47 71 57
84 102 57
151 172 0
139 160 0
147 167 0
147 171 0
130 147 0
156 176 0
169 188 0
145 167 0
149 170 0
156 177 0
155 175 0
150 167 0
154 170 0
163 184 0
160 183 0
145 169 0
128 146 0
160 178 0
134 152 0
154 176 0
158 175 0
168 187 0
160 169 0
150 162 0
179 197 0
168 191 0
133 148 0
167 186 0
131 124 0
120 116 0
109 104 0
105 106 0
128 111 0
116 107 0
80 74 0
96 93 0
90 88 0
106 100 0
142 135 0
135 122 0
92 82 0
108 100 0
107 101 0
107 104 0
106 103 0
61 68 0
105 96 0
119 117 0
121 114 0
114 112 0
108 107 0
113 109 0
138 126 0
94 90 0
119 112 0
123 120 0
117 113 0
119 120 0
126 122 0
126 117 0
137 131 0
119 119 0
139 133 0
116 112 0
126 120 0
127 115 0
129 129 0
117 111 0
111 112 0
128 118 0
126 117 0
143 138 0
116 110 0
136 132 0
137 130 0
149 143 0
144 136 0
137 135 0
152 149 0
137 130 0
141 133 0
138 133 0
120 110 0
114 114 0
124 117 0
146 139 0
144 141 0
131 122 0
151 148 0
146 133 0
147 139 0
142 141 0
147 143 0
141 136 0
151 146 0
140 139 0
149 145 0
156 151 0
142 142 0
148 143 0
143 137 0
151 144 0
137 130 0
141 132 0
153 148 0
138 133 0
149 145 0
151 146 0
152 149 0
145 140 0
152 144 0
142 139 0
145 142 0
140 133 0
151 148 0
150 145 0
150 142 0
146 138 0
145 141 0
149 144 0
138 135 0
151 147 0
148 141 0
154 150 0
155 150 0
150 148 0
147 143 0
150 150 0
159 147 0
145 143 0
154 152 0
148 142 0
152 149 0
156 152 0
148 144 0
146 146 0
154 147 0
152 149 0
150 151 0
151 145 0
152 149 0
153 149 0
146 140 0
153 152 0
143 139 0
144 145 0
150 146 0
152 149 0
150 143 0
156 148 0
150 143 0
143 141 0
151 146 0
157 151 0
150 144 0
148 142 0
155 153 0
150 148 0
156 153 0
152 149 0
156 153 0
154 152 0
154 176 0
151 173 0
149 169 0
152 171 0
144 166 0
153 175 0
152 175 0
158 178 0
144 163 0
150 171 0
153 174 0
152 172 0
145 164 0
154 173 0
153 174 0
150 174 0
147 168 0
157 177 0
154 176 0
149 169 0
153 174 0
157 177 0
146 166 0
156 177 0
146 164 0
147 169 0
157 176 0
136 158 0
138 155 0
155 176 0
141 163 0
155 176 0
148 168 0
148 168 0
153 174 0
143 162 0
154 175 0
154 175 0
148 169 0
147 164 0
156 176 0
153 176 0
144 165 0
150 170 0
151 173 0
154 173 0
153 170 0
153 170 0
153 171 0
149 166 0
149 167 0
158 178 0
145 166 0
148 167 0
152 172 0
147 165 0
146 166 0
154 175 0
156 176 0
144 164 0
154 171 0
130 152 0
138 157 0
150 171 0
156 177 0
156 176 0
142 161 0
136 156 0
131 151 0
143 164 0
151 171 0
141 160 0
136 154 0
124 140 0
137 157 0
141 159 0
136 156 0
148 172 0
155 176 0
135 156 0
143 164 0
129 149 0
130 152 0
140 158 0
125 143 0
134 156 0
136 152 0
148 164 0
130 147 0
146 168 0
118 134 0
138 157 0
120 141 0
134 152 0
126 143 0
145 165 0
132 149 0
123 138 0
139 158 0
142 159 0
130 151 0
133 152 0
105 122 0
135 153 0
134 151 0
129 146 0
88 108 0
156 175 0
127 146 0
123 139 0
122 137 0
120 137 0
127 144 0
126 144 0
122 141 0
114 131 0
132 148 0
110 126 0
120 138 0
87 101 0
137 152 0
118 133 0
131 146 0
128 145 0
114 132 0
122 136 0
77 93 0
109 124 0
100 112 0
122 140 0
93 108 0
127 145 0
155 174 0
148 167 0
143 164 0
153 175 0
161 181 0
154 173 0
171 191 0
163 185 0
130 152 0
156 178 0
154 177 0
147 169 0
148 169 0
144 165 0
112 135 0
141 163 0
143 167 0
146 166 0
151 174 0
148 169 0
154 174 0
165 188 0
134 158 0
153 176 0
149 171 0
166 189 0
139 161 0
132 151 0
156 181 0
126 148 0
156 178 0
44 72 0
42 68 80
48 75 80
45 72 80
47 75 57
40 64 57
50 79 57
46 73 57
37 60 0
53 83 95
48 77 57
55 86 114
60 94 99
51 82 57
56 89 114
51 82 57
61 95 128
53 86 80
53 83 114
59 93 114
53 85 99
53 84 80
56 89 114
53 82 80
52 84 99
53 84 80
54 85 114
55 86 80
57 90 114
49 77 80
48 79 80
48 78 80
55 87 128
54 86 99
56 86 128
56 88 128
58 91 114
54 86 57
56 88 80
50 81 57
57 91 80
48 76 80
58 92 99
58 90 99
60 95 128
52 80 80
50 79 0
53 85 80
54 87 80
45 72 99
59 94 114
53 82 80
55 85 102
55 86 99
45 72 80
54 82 114
52 79 0
54 84 99
57 90 114
57 89 80
51 80 84
51 79 114
55 86 62
50 81 114
54 84 99
50 79 80
50 79 99
50 79 99
47 72 80
46 71 57
46 74 57
51 77 80
54 82 99
58 72 60
140 161 0
155 178 0
146 161 0
152 170 0
165 185 0
142 158 0
165 188 0
161 180 0
169 188 0
127 144 0
175 195 0
166 186 0
144 155 0
158 170 0
160 176 0
155 175 0
140 157 0
162 182 0
146 163 0
165 188 0
134 146 0
175 189 0
154 175 0
148 160 0
176 192 0
158 180 0
151 166 0
162 183 0
163 176 0
156 175 0
131 129 0
125 122 0
128 120 0
109 103 0
100 94 0
111 97 0
105 100 0
96 90 0
117 110 0
100 92 0
106 94 0
113 107 0
115 110 0
132 125 0
111 101 0
125 120 0
114 110 0
112 106 0
105 97 0
122 115 0
110 104 0
134 125 0
118 109 0
128 120 0
119 116 0
126 119 0
140 131 0
117 115 0
124 114 0
129 126 0
153 146 0
115 115 0
130 120 0
124 117 0
126 123 0
134 134 0
138 133 0
116 111 0
127 121 0
119 108 0
127 120 0
132 128 0
141 136 0
131 130 0
106 98 0
132 129 0
152 146 0
110 103 0
147 143 0
105 103 0
114 108 0
135 129 0
119 121 0
143 139 0
155 145 0
140 135 0
135 128 0
145 141 0
147 140 0
135 130 0
147 140 0
143 137 0
140 136 0
126 123 0
136 123 0
133 129 0
142 140 0
143 136 0
152 151 0
134 131 0
149 147 0
143 138 0
137 128 0
147 145 0
151 146 0
148 142 0
143 135 0
139 129 0
124 125 0
154 152 0
146 141 0
147 146 0
148 142 0
150 142 0
152 146 0
159 149 0
145 141 0
142 137 0
140 131 0
146 145 0
149 144 0
155 152 0
143 138 0
141 139 0
138 131 0
161 155 0
152 146 0
148 145 0
157 151 0
146 143 0
136 127 0
156 153 0
154 147 0
160 155 0
147 143 0
150 145 0
150 146 0
145 139 0
150 148 0
155 150 0
153 147 0
155 150 0
151 143 0
151 146 0
152 149 0
157 151 0
156 153 0
146 139 0
154 147 0
151 149 0
155 150 0
152 149 0
158 151 0
152 145 0
160 153 0
150 150 0
154 150 0
150 145 0
147 143 0
153 149 0
151 148 0
147 139 0
154 150 0
153 174 0
150 171 0
156 177 0
145 162 0
154 174 0
144 162 0
153 173 0
156 176 0
150 172 0
158 177 0
153 176 0
155 174 0
143 162 0
149 171 0
151 169 0
152 172 0
156 174 0
151 174 0
157 178 0
151 173 0
142 163 0
150 169 0
152 173 0
153 174 0
156 175 0
142 162 0
157 177 0
155 175 0
153 173 0
152 175 0
150 169 0
145 164 0
144 162 0
155 175 0
150 171 0
155 173 0
155 173 0
146 166 0
151 172 0
147 166 0
139 160 0
144 165 0
153 175 0
144 164 0
151 172 0
147 166 0
148 167 0
147 169 0
157 176 0
152 172 0
151 171 0
143 163 0
157 177 0
150 170 0
154 174 0
144 165 0
148 168 0
153 172 0
148 169 0
127 147 0
149 169 0
141 157 0
120 140 0
145 161 0
146 166 0
139 158 0
142 162 0
144 161 0
154 175 0
150 170 0
142 160 0
142 161 0
155 176 0
126 145 0
123 143 0
149 168 0
118 138 0
147 168 0
148 170 0
125 144 0
148 166 0
143 163 0
135 153 0
138 155 0
127 145 0
112 129 0
118 136 0
148 166 0
127 144 0
130 147 0
134 152 0
117 135 0
128 148 0
145 166 0
121 136 0
127 146 0
114 131 0
122 138 0
141 158 0
139 155 0
118 137 0
122 138 0
128 145 0
122 139 0
108 123 0
122 140 0
138 158 0
123 140 0
118 134 0
107 124 0
132 148 0
121 135 0
122 138 0
111 125 0
87 102 0
120 134 0
103 122 0
88 104 0
124 139 0
125 140 0
115 130 0
129 146 0
91 103 0
81 95 0
97 110 0
94 108 0
85 98 0
114 131 0
126 142 0
119 134 0
119 136 0
131 150 0
172 194 0
155 178 0
169 190 0
172 192 0
157 181 0
142 162 0
166 188 0
152 174 0
141 164 0
161 183 0
144 164 0
168 189 0
152 176 0
162 185 0
159 182 0
151 170 0
128 151 0
147 167 0
136 156 0
165 189 0
168 190 0
152 173 0
157 175 0
147 170 0
144 164 0
156 179 0
134 154 0
133 156 0
131 149 0
141 161 0
156 179 0
142 161 0
39 63 57
53 84 0
51 81 111
51 80 99
48 78 0
52 81 114
54 88 99
46 73 80
51 81 111
57 88 111
51 80 99
53 84 99
51 83 57
48 77 57
53 84 80
51 81 99
54 87 80
59 93 140
51 83 80
57 89 114
55 86 114
48 78 57
50 80 80
58 92 99
58 92 99
56 89 99
55 89 99
48 76 99
51 80 99
55 88 99
47 74 57
54 87 128
53 85 99
50 80 57
56 88 99
54 85 114
52 82 57
59 94 114
52 83 99
47 76 99
58 92 99
50 80 80
59 93 140
42 69 0
54 87 114
50 79 80
53 84 99
48 77 99
50 81 57
50 80 80
46 73 0
50 79 80
53 84 99
58 90 117
57 88 114
51 81 80
49 79 57
52 83 99
54 85 80
46 69 62
54 85 114
56 89 80
59 90 114
53 84 99
52 77 62
51 78 114
47 76 57
56 86 151
52 83 80
43 65 57
40 63 57
91 112 80
131 143 0
147 168 0
155 171 0
162 187 0
147 162 0
144 160 0
120 132 0
164 184 0
147 165 0
145 167 0
152 170 0
157 179 0
156 172 0
153 173 0
158 173 0
152 173 0
163 181 0
164 176 0
157 177 0
150 164 0
153 170 0
141 162 0
143 161 0
147 166 0
139 153 0
137 158 0
162 179 0
155 169 0
142 154 0
172 197 0
169 174 0
144 160 0
123 120 0
128 117 0
86 73 0
118 111 0
119 113 0
121 100 0
93 92 0
105 100 0
106 101 0
82 79 0
87 83 0
99 91 0
137 130 0
88 90 0
110 106 0
133 128 0
109 103 0
127 118 0
95 87 0
106 100 0
125 120 0
91 89 0
97 92 0
128 121 0
110 109 0
116 105 0
136 133 0
122 117 0
128 123 0
131 131 0
135 126 0
131 126 0
124 121 0
143 136 0
139 129 0
120 121 0
121 116 0
119 115 0
125 124 0
131 126 0
129 127 0
130 126 0
133 127 0
118 112 0
128 124 0
126 120 0
135 129 0
140 133 0
150 143 0
149 147 0
141 138 0
150 145 0
126 117 0
138 132 0
130 128 0
130 126 0
119 116 0
151 145 0
135 132 0
143 137 0
145 142 0
140 133 0
153 147 0
128 123 0
136 125 0
148 142 0
138 134 0
141 135 0
159 154 0
152 142 0
140 134 0
156 147 0
138 136 0
140 132 0
132 132 0
150 146 0
146 134 0
120 116 0
144 142 0
137 132 0
158 154 0
145 142 0
140 132 0
123 123 0
142 138 0
142 128 0
147 140 0
151 142 0
147 137 0
153 148 0
138 124 0
138 136 0
154 142 0
150 138 0
157 151 0
149 145 0
149 144 0
143 137 0
151 142 0
155 153 0
144 140 0
148 143 0
146 140 0
141 131 0
156 148 0
136 128 0
137 133 0
159 155 0
147 140 0
149 147 0
151 141 0
149 147 0
154 150 0
152 144 0
155 147 0
152 146 0
148 145 0
154 147 0
153 152 0
161 155 0
149 143 0
155 150 0
152 149 0
153 149 0
151 148 0
152 146 0
152 151 0
150 148 0
153 149 0
155 150 0
154 150 0
154 147 0
153 173 0
156 176 0
151 169 0
160 179 0
151 172 0
146 163 0
153 169 0
152 171 0
157 177 0
143 163 0
151 171 0
157 176 0
152 173 0
155 176 0
149 167 0
153 172 0
153 176 0
148 171 0
151 173 0
148 170 0
150 171 0
153 172 0
156 177 0
152 171 0
138 157 0
154 174 0
138 159 0
144 164 0
144 165 0
153 174 0
149 171 0
149 172 0
142 163 0
156 176 0
144 162 0
151 169 0
142 157 0
147 169 0
147 168 0
151 172 0
150 169 0
132 153 0
149 166 0
151 171 0
142 160 0
140 162 0
142 162 0
151 170 0
145 165 0
153 171 0
157 177 0
147 168 0
151 172 0
144 165 0
138 158 0
147 165 0
140 159 0
134 155 0
149 168 0
134 151 0
144 164 0
144 164 0
126 141 0
146 163 0
139 159 0
128 145 0
133 151 0
150 172 0
148 168 0
129 148 0
145 164 0
141 161 0
148 169 0
128 146 0
154 176 0
136 154 0
131 150 0
136 152 0
139 157 0
154 169 0
147 168 0
134 152 0
143 161 0
126 146 0
138 157 0
150 167 0
139 160 0
127 146 0
119 134 0
138 157 0
130 151 0
149 169 0
134 153 0
136 153 0
159 176 0
105 124 0
136 154 0
131 146 0
131 149 0
135 152 0
138 155 0
129 149 0
139 154 0
125 142 0
121 135 0
138 157 0
109 123 0
93 110 0
131 149 0
118 134 0
119 137 0
113 129 0
106 124 0
98 117 0
112 125 0
137 153 0
86 103 0
111 127 0
97 113 0
121 137 0
124 140 0
134 151 0
131 146 0
112 126 0
124 139 0
100 115 0
110 124 0
102 118 0
105 117 0
107 120 0
146 165 0
148 168 0
165 187 0
161 182 0
152 173 0
173 194 0
142 161 0
158 177 0
142 163 0
155 177 0
138 157 0
166 189 0
145 166 0
150 169 0
152 173 0
145 166 0
145 166 0
140 161 0
152 171 0
101 121 0
164 187 0
161 182 0
153 175 0
140 162 0
115 133 0
109 126 0
121 143 0
136 156 0
106 128 0
123 144 0
162 186 0
150 174 0
150 172 0
138 159 0
148 169 0
93 115 80
47 75 57
49 77 95
53 84 80
55 85 80
48 78 57
51 82 80
53 84 99
56 88 114
52 82 80
52 83 95
44 69 57
48 75 80
55 88 80
52 82 80
39 64 80
49 79 95
52 84 99
53 83 80
56 87 99
52 82 57
56 89 99
45 73 80
55 87 80
54 85 95
46 74 80
51 82 57
55 87 114
58 91 114
60 93 140
54 87 99
52 83 114
50 79 80
51 81 80
48 79 80
54 86 57
54 83 99
54 86 57
54 86 114
55 85 99
58 90 128
53 85 80
53 84 102
52 81 99
44 70 57
50 79 99
49 75 99
58 92 140
49 77 57
42 68 57
56 88 114
56 88 128
47 74 57
56 87 99
50 80 57
53 84 80
52 82 80
55 85 57
51 80 57
58 92 114
48 76 99
55 87 114
50 78 57
47 75 57
53 83 99
53 84 99
47 72 0
35 56 0
40 61 57
63 84 0
121 133 0
122 135 0
156 172 0
120 133 0
135 150 0
165 180 0
125 142 0
169 186 0
147 163 0
146 159 0
159 168 0
157 177 0
136 152 0
163 183 0
156 174 0
148 159 0
170 193 0
146 169 0
138 160 0
145 158 0
151 172 0
147 167 0
153 168 0
132 142 0
158 176 0
109 118 0
156 174 0
171 189 0
167 178 0
161 172 0
160 174 0
139 152 0
160 174 0
165 183 0
140 148 0
120 113 0
121 108 0
131 120 0
111 104 0
103 102 0
112 111 0
110 103 0
98 88 0
124 116 0
136 128 0
78 69 0
113 105 0
113 106 0
106 102 0
80 71 0
111 102 0
140 135 0
110 107 0
124 120 0
121 115 0
106 95 0
103 98 0
133 126 0
128 122 0
126 118 0
119 113 0
127 118 0
119 106 0
143 133 0
138 133 0
145 138 0
131 123 0
128 120 0
91 92 0
108 106 0
134 125 0
141 134 0
128 124 0
110 101 0
140 135 0
135 128 0
112 108 0
123 119 0
151 142 0
148 144 0
131 121 0
149 144 0
142 132 0
133 131 0
148 143 0
143 135 0
145 135 0
128 125 0
134 130 0
148 143 0
152 146 0
136 129 0
143 127 0
149 140 0
143 135 0
152 143 0
147 142 0
152 146 0
144 139 0
149 138 0
137 130 0
147 143 0
143 131 0
145 135 0
155 150 0
126 123 0
139 131 0
150 142 0
154 143 0
147 142 0
142 136 0
134 133 0
144 140 0
145 137 0
143 139 0
146 140 0
147 141 0
135 132 0
149 142 0
154 150 0
151 143 0
145 140 0
144 142 0
152 149 0
149 139 0
142 135 0
142 140 0
149 145 0
141 137 0
139 135 0
156 148 0
150 143 0
150 147 0
155 153 0
154 143 0
150 146 0
150 145 0
144 144 0
142 136 0
147 141 0
141 136 0
147 141 0
147 145 0
152 148 0
148 146 0
153 145 0
155 148 0
136 128 0
148 143 0
154 150 0
146 140 0
149 136 0
151 146 0
157 154 0
153 149 0
152 141 0
154 152 0
150 147 0
154 150 0
152 146 0
154 148 0
149 140 0
156 148 0
155 147 0
153 145 0
158 176 0
153 174 0
146 167 0
155 176 0
159 178 0
146 166 0
151 169 0
152 172 0
153 174 0
155 174 0
149 170 0
152 174 0
152 173 0
153 174 0
153 171 0
153 174 0
149 169 0
142 163 0
156 175 0
152 175 0
148 172 0
154 172 0
155 177 0
155 175 0
147 167 0
146 162 0
154 169 0
146 167 0
152 172 0
147 169 0
149 169 0
138 157 0
135 157 0
145 165 0
141 160 0
142 162 0
130 148 0
154 175 0
140 157 0
143 163 0
148 168 0
146 165 0
141 161 0
145 167 0
153 172 0
142 163 0
154 175 0
139 157 0
150 169 0
138 162 0
149 168 0
151 170 0
153 174 0
155 174 0
150 164 0
139 157 0
154 172 0
139 159 0
147 168 0
145 165 0
135 154 0
144 164 0
145 165 0
144 165 0
158 177 0
142 163 0
143 162 0
146 163 0
143 163 0
142 161 0
140 158 0
136 156 0
127 146 0
151 170 0
143 164 0
148 167 0
130 150 0
145 163 0
134 149 0
153 172 0
137 155 0
136 153 0
132 149 0
145 161 0
125 143 0
133 154 0
133 151 0
128 145 0
145 166 0
135 156 0
138 154 0
132 152 0
115 132 0
134 150 0
132 150 0
139 161 0
135 149 0
124 143 0
130 148 0
132 150 0
130 149 0
126 144 0
122 141 0
124 141 0
101 112 0
118 134 0
122 137 0
136 156 0
93 109 0
130 146 0
153 170 0
87 103 0
133 148 0
112 128 0
105 123 0
109 124 0
115 128 0
132 146 0
132 146 0
129 144 0
70 80 0
112 128 0
120 138 0
109 125 0
115 128 0
80 93 0
108 126 0
114 130 0
134 151 0
155 175 0
159 177 0
161 184 0
133 153 0
160 185 0
136 156 0
161 181 0
127 148 0
172 192 0
144 164 0
158 178 0
135 154 0
149 169 0
151 173 0
131 153 0
125 143 0
134 153 0
130 149 0
159 178 0
123 141 0
125 142 0
150 171 0
151 172 0
149 170 0
135 154 0
157 177 0
137 157 0
156 175 0
153 177 0
125 146 0
141 164 0
99 116 0
147 165 0
151 174 0
167 188 0
131 153 0
146 167 0
106 125 57
53 83 57
38 62 57
50 79 99
47 75 57
49 79 111
54 85 125
52 81 80
53 85 57
52 82 99
58 90 99
54 86 99
52 82 80
50 79 57
46 74 95
54 86 80
52 83 80
52 84 57
49 76 0
51 81 57
58 91 114
53 84 80
43 69 80
50 80 80
54 86 80
50 80 99
52 83 99
58 92 128
64 98 149
57 90 114
48 78 76
58 92 80
57 90 99
59 92 128
51 80 128
48 76 57
57 90 114
53 82 114
55 86 128
58 91 99
55 85 80
52 81 57
53 83 80
48 77 57
53 85 57
41 65 0
40 66 57
59 94 114
48 76 99
54 86 80
53 82 114
52 83 80
58 90 114
54 84 80
44 69 80
61 95 128
49 78 99
45 70 99
54 86 114
54 83 128
50 80 99
44 67 57
48 73 80
30 45 0
46 74 57
50 77 0
55 87 80
79 95 0
123 130 0
136 152 0
117 131 0
142 161 0
149 166 0
128 139 0
136 152 0
150 170 0
142 160 0
141 161 0
128 145 0
111 124 0
129 145 0
150 165 0
140 149 0
141 157 0
161 178 0
107 127 0
150 168 0
113 131 0
144 161 0
160 177 0
124 145 0
144 165 0
155 172 0
140 153 0
136 139 0
139 144 0
139 152 0
149 167 0
145 160 0
158 172 0
140 147 0
152 162 0
159 177 0
147 164 0
152 158 0
127 130 0
125 119 0
99 97 0
120 112 0
102 90 0
106 97 0
124 111 0
95 85 0
126 121 0
99 89 0
129 117 0
122 114 0
97 80 0
100 97 0
109 103 0
131 122 0
117 111 0
148 140 0
116 111 0
113 104 0
132 121 0
135 130 0
107 103 0
123 118 0
95 92 0
114 115 0
119 112 0
116 106 0
105 99 0
144 132 0
141 133 0
139 128 0
147 142 0
132 125 0
127 117 0
139 131 0
134 127 0
99 97 0
128 124 0
125 119 0
113 112 0
105 91 0
151 147 0
143 137 0
132 124 0
132 124 0
147 134 0
134 124 0
147 140 0
134 132 0
124 116 0
128 114 0
137 129 0
132 124 0
138 130 0
146 140 0
146 136 0
136 132 0
149 140 0
148 146 0
149 140 0
144 141 0
136 127 0
141 130 0
139 135 0
148 146 0
137 135 0
121 117 0
148 140 0
154 150 0
151 140 0
142 134 0
134 129 0
141 138 0
148 142 0
138 133 0
159 155 0
154 152 0
129 124 0
144 136 0
149 142 0
146 142 0
140 128 0
146 142 0
132 126 0
151 148 0
142 137 0
148 142 0
145 140 0
154 150 0
135 134 0
152 141 0
151 143 0
146 142 0
152 151 0
153 145 0
154 150 0
148 141 0
153 142 0
157 151 0
151 151 0
147 139 0
152 147 0
141 139 0
145 143 0
150 142 0
151 144 0
155 148 0
148 140 0
149 141 0
154 147 0
151 146 0
141 136 0
144 139 0
155 147 0
148 146 0
145 135 0
146 141 0
148 146 0
132 125 0
160 155 0
152 146 0
148 147 0
148 145 0
148 140 0
148 144 0
151 140 0
152 151 0
148 140 0
155 175 0
151 172 0
158 176 0
156 177 0
158 177 0
150 170 0
151 169 0
154 176 0
158 178 0
149 170 0
146 167 0
150 173 0
150 170 0
150 170 0
154 176 0
154 174 0
154 174 0
150 170 0
143 165 0
148 169 0
148 163 0
153 174 0
155 176 0
149 172 0
155 176 0
156 177 0
153 175 0
143 162 0
151 169 0
148 169 0
137 155 0
149 168 0
153 173 0
147 168 0
152 172 0
145 165 0
149 166 0
146 166 0
148 166 0
136 153 0
149 170 0
148 169 0
146 164 0
134 152 0
151 171 0
148 169 0
153 175 0
149 171 0
143 161 0
156 176 0
155 172 0
137 156 0
154 173 0
151 173 0
156 176 0
157 178 0
143 165 0
131 150 0
140 159 0
126 145 0
147 167 0
132 150 0
151 169 0
135 152 0
148 166 0
143 161 0
153 172 0
146 167 0
136 156 0
150 171 0
141 159 0
146 166 0
154 175 0
139 159 0
139 159 0
143 162 0
143 161 0
144 163 0
137 154 0
141 160 0
141 163 0
122 139 0
136 153 0
132 154 0
124 141 0
135 155 0
103 119 0
125 145 0
147 166 0
141 160 0
131 149 0
137 152 0
139 157 0
126 141 0
120 138 0
140 158 0
141 159 0
125 143 0
142 161 0
127 143 0
103 116 0
131 149 0
136 154 0
131 150 0
119 132 0
131 150 0
124 139 0
128 143 0
91 108 0
84 99 0
104 119 0
111 128 0
105 118 0
122 140 0
104 119 0
105 125 0
89 103 0
106 124 0
107 121 0
105 120 0
96 112 0
92 108 0
106 121 0
90 104 0
94 111 0
120 139 0
125 140 0
115 131 0
133 149 0
140 158 0
145 162 0
154 174 0
135 152 0
134 149 0
141 164 0
144 162 0
147 167 0
129 150 0
150 170 0
137 157 0
148 165 0
143 165 0
140 160 0
145 162 0
147 167 0
153 174 0
151 169 0
111 127 0
141 160 0
145 164 0
129 149 0
143 166 0
136 152 0
146 167 0
134 152 0
143 165 0
150 170 0
142 164 0
173 196 0
145 164 0
137 158 0
128 149 0
128 146 0
132 151 0
157 179 0
136 155 0
104 126 0
120 143 0
39 64 0
49 78 80
49 79 57
41 65 57
46 74 57
50 80 0
52 82 76
59 92 128
54 86 57
53 83 80
57 88 114
51 82 80
49 79 57
55 87 99
59 93 128
49 78 114
49 79 114
54 84 114
55 87 80
54 87 80
53 83 99
56 88 80
51 79 114
52 83 80
59 92 128
47 76 57
53 84 99
53 83 57
53 84 57
51 82 57
48 77 57
57 91 80
55 87 80
46 73 80
52 82 80
55 88 114
55 88 80
54 84 114
52 84 80
60 93 128
45 72 57
59 92 114
54 86 114
45 72 80
53 84 99
55 87 128
51 81 0
47 75 80
50 79 99
59 92 128
51 80 80
51 82 80
32 53 0
48 77 57
45 73 0
46 74 57
49 79 57
38 63 57
48 72 62
52 82 99
46 72 0
38 63 57
43 68 0
39 59 0
101 114 0
133 154 0
114 132 0
124 140 0
153 173 0
129 148 0
82 101 0
135 151 0
148 168 0
133 151 0
128 135 0
141 151 0
144 163 0
112 127 0
135 147 0
114 136 0
132 135 0
145 154 0
111 121 0
129 140 0
150 160 0
155 169 0
133 142 0
175 198 0
150 169 0
139 154 0
107 111 0
122 122 0
117 134 0
153 162 0
143 159 0
163 173 0
133 152 0
119 127 0
153 161 0
148 162 0
118 129 0
142 153 0
150 163 0
151 157 0
104 104 0
122 113 0
118 116 0
102 89 0
112 97 0
91 79 0
115 109 0
99 87 0
97 92 0
101 96 0
117 114 0
121 117 0
98 91 0
132 119 0
132 124 0
126 115 0
116 110 0
128 119 0
112 111 0
119 107 0
128 114 0
136 124 0
101 93 0
146 137 0
116 107 0
116 111 0
131 122 0
134 128 0
130 121 0
126 121 0
130 120 0
135 127 0
120 113 0
139 132 0
150 140 0
124 123 0
143 139 0
128 118 0
145 138 0
116 111 0
110 101 0
115 109 0
148 145 0
128 126 0
125 116 0
148 139 0
156 145 0
144 133 0
128 123 0
131 131 0
140 134 0
137 130 0
147 143 0
151 143 0
139 130 0
143 138 0
148 140 0
134 131 0
144 136 0
142 131 0
132 130 0
142 135 0
155 145 0
153 148 0
142 137 0
134 129 0
128 120 0
140 134 0
125 117 0
148 145 0
144 136 0
153 144 0
156 151 0
152 145 0
149 147 0
148 146 0
142 138 0
142 129 0
153 144 0
146 140 0
145 139 0
151 145 0
154 144 0
145 142 0
150 143 0
145 137 0
150 147 0
151 138 0
144 140 0
151 148 0
155 153 0
160 153 0
149 142 0
155 153 0
153 146 0
152 149 0
148 141 0
146 135 0
159 155 0
134 133 0
153 152 0
146 140 0
150 148 0
152 144 0
146 140 0
147 144 0
153 149 0
153 147 0
153 152 0
150 148 0
150 142 0
154 147 0
150 148 0
151 146 0
152 147 0
152 146 0
148 144 0
160 155 0
150 145 0
155 148 0
146 140 0
156 153 0
144 142 0
151 149 0
143 140 0
154 150 0
158 154 0
151 151 0
155 175 0
146 169 0
149 169 0
145 164 0
148 169 0
155 176 0
146 169 0
148 166 0
156 177 0
158 178 0
150 169 0
146 163 0
152 171 0
151 171 0
152 171 0
153 175 0
154 175 0
157 175 0
145 164 0
153 174 0
136 157 0
152 172 0
141 164 0
151 171 0
145 166 0
156 175 0
152 172 0
154 175 0
148 166 0
143 165 0
153 173 0
152 172 0
129 148 0
154 174 0
153 173 0
146 164 0
147 167 0
137 157 0
156 177 0
153 174 0
148 168 0
150 169 0
150 169 0
152 171 0
141 158 0
141 161 0
146 165 0
152 172 0
153 173 0
141 160 0
151 172 0
132 149 0
141 158 0
147 165 0
142 161 0
146 164 0
141 162 0
128 146 0
129 146 0
136 158 0
143 164 0
144 165 0
139 157 0
140 163 0
135 155 0
124 143 0
149 168 0
110 125 0
141 160 0
135 151 0
127 143 0
156 171 0
151 171 0
126 147 0
141 159 0
153 172 0
142 165 0
126 144 0
138 157 0
157 175 0
139 155 0
129 149 0
146 164 0
136 155 0
143 161 0
138 153 0
139 161 0
151 169 0
138 158 0
155 173 0
144 161 0
125 143 0
130 149 0
119 136 0
110 126 0
141 159 0
127 145 0
108 124 0
145 163 0
117 133 0
113 132 0
131 149 0
89 106 0
121 139 0
112 130 0
118 137 0
108 123 0
122 139 0
116 132 0
127 142 0
116 130 0
120 135 0
104 116 0
136 151 0
100 118 0
91 102 0
123 139 0
119 138 0
84 97 0
98 113 0
99 114 0
55 71 0
125 140 0
113 126 0
91 104 0
111 127 0
119 136 0
156 174 0
161 182 0
150 167 0
165 187 0
145 162 0
157 174 0
152 170 0
115 133 0
165 183 0
141 155 0
134 153 0
147 166 0
127 146 0
145 164 0
147 168 0
130 149 0
135 157 0
137 154 0
133 152 0
142 162 0
123 145 0
110 129 0
137 156 0
134 157 0
125 144 0
149 169 0
135 155 0
133 150 0
147 168 0
139 159 0
155 173 0
127 149 0
140 161 0
130 151 0
170 188 0
103 123 0
128 147 0
144 160 0
113 132 0
145 163 0
110 129 0
138 162 0
35 57 0
49 77 80
56 87 128
26 46 0
46 71 80
47 77 0
49 77 57
47 75 0
49 78 76
57 90 114
46 73 57
50 80 80
53 84 57
56 88 114
46 74 80
59 93 99
49 78 80
57 88 114
45 74 0
50 81 57
49 79 80
55 87 99
49 79 80
50 80 57
49 80 80
59 93 128
47 74 80
50 81 57
48 79 57
58 90 99
50 79 99
48 75 57
48 77 0
51 81 80
54 86 114
53 84 99
52 82 80
56 87 114
52 81 99
50 77 114
57 89 128
51 82 57
56 88 99
42 67 57
52 81 57
44 70 80
49 77 0
41 67 0
57 91 80
60 94 140
50 80 57
50 81 99
51 80 80
47 74 80
36 58 0
54 85 80
55 86 84
58 90 140
46 71 57
39 63 57
48 76 99
43 68 57
108 122 57
104 117 0
149 164 0
103 118 0
131 149 0
139 153 0
136 153 0
127 142 0
128 138 0
132 140 0
154 174 0
122 139 0
108 126 0
123 143 0
159 174 0
150 168 0
155 170 0
154 169 0
150 170 0
111 126 0
126 134 0
134 147 0
163 180 0
143 160 0
141 156 0
151 164 0
148 157 0
119 123 0
155 170 0
105 117 0
139 147 0
140 149 0
122 126 0
149 151 0
157 165 0
134 150 0
161 180 0
149 163 0
155 168 0
138 141 0
136 149 0
138 148 0
119 111 0
133 124 0
87 81 0
89 82 0
92 81 0
103 89 0
118 103 0
115 100 0
136 123 0
118 116 0
114 102 0
122 116 0
95 87 0
89 82 0
122 112 0
114 106 0
138 132 0
110 105 0
92 89 0
119 116 0
120 112 0
121 118 0
123 114 0
125 120 0
114 105 0
132 121 0
133 124 0
122 115 0
114 105 0
139 131 0
123 115 0
121 112 0
141 131 0
124 120 0
128 118 0
130 118 0
135 127 0
122 116 0
130 126 0
126 117 0
133 125 0
111 109 0
126 115 0
118 114 0
142 139 0
131 120 0
134 113 0
137 122 0
151 149 0
124 123 0
142 135 0
145 137 0
149 135 0
135 128 0
136 126 0
140 135 0
133 123 0
146 143 0
145 135 0
138 131 0
146 138 0
137 128 0
143 140 0
142 140 0
146 132 0
123 120 0
146 144 0
149 144 0
148 139 0
146 143 0
151 141 0
136 131 0
144 135 0
144 136 0
146 142 0
143 141 0
144 141 0
147 137 0
145 140 0
154 150 0
148 140 0
150 142 0
141 136 0
140 137 0
152 149 0
157 153 0
142 140 0
149 147 0
141 138 0
152 142 0
151 145 0
148 143 0
147 143 0
150 145 0
140 132 0
132 131 0
136 132 0
144 134 0
152 146 0
136 132 0
150 146 0
152 149 0
151 148 0
153 149 0
151 143 0
151 143 0
157 148 0
153 146 0
150 143 0
153 152 0
153 147 0
153 152 0
151 148 0
151 146 0
151 145 0
140 136 0
151 148 0
147 139 0
146 139 0
147 143 0
150 144 0
156 153 0
145 142 0
146 140 0
147 141 0
148 143 0
150 145 0
153 174 0
154 176 0
147 170 0
147 166 0
147 167 0
155 175 0
153 172 0
147 170 0
157 177 0
143 163 0
154 176 0
156 176 0
155 175 0
152 172 0
158 178 0
145 166 0
152 173 0
141 158 0
145 165 0
150 169 0
149 170 0
145 166 0
159 177 0
155 174 0
148 166 0
156 173 0
152 172 0
149 168 0
144 163 0
142 160 0
156 175 0
152 175 0
148 169 0
142 164 0
137 156 0
147 169 0
156 173 0
148 170 0
150 171 0
151 173 0
146 167 0
143 164 0
147 166 0
138 157 0
158 178 0
144 164 0
145 166 0
146 164 0
148 167 0
141 160 0
143 162 0
147 166 0
133 151 0
144 164 0
150 168 0
140 158 0
144 162 0
149 166 0
143 162 0
142 159 0
151 169 0
145 163 0
130 152 0
146 165 0
148 170 0
154 175 0
140 160 0
141 159 0
142 162 0
132 149 0
124 143 0
151 169 0
151 171 0
130 150 0
148 165 0
155 172 0
146 163 0
130 146 0
112 130 0
147 167 0
123 140 0
125 142 0
139 155 0
145 161 0
140 158 0
135 155 0
111 130 0
135 154 0
143 160 0
100 116 0
131 150 0
112 131 0
123 137 0
103 120 0
142 157 0
124 142 0
141 157 0
134 150 0
116 133 0
119 132 0
133 153 0
127 143 0
116 133 0
117 131 0
111 121 0
136 154 0
108 121 0
133 149 0
110 127 0
126 140 0
125 143 0
86 104 0
81 97 0
147 161 0
107 120 0
124 141 0
118 133 0
73 90 0
111 123 0
135 149 0
85 99 0
137 154 0
130 143 0
130 147 0
123 138 0
143 157 0
147 164 0
161 181 0
168 187 0
143 162 0
152 170 0
147 162 0
145 165 0
140 157 0
144 162 0
133 153 0
156 173 0
118 135 0
172 192 0
165 186 0
162 182 0
132 152 0
153 175 0
105 124 0
150 170 0
127 145 0
137 154 0
152 172 0
130 147 0
139 157 0
133 155 0
145 165 0
134 151 0
118 133 0
126 145 0
145 166 0
125 141 0
135 154 0
137 156 0
102 123 0
100 123 0
112 131 0
138 160 0
171 191 0
140 158 0
112 130 0
83 104 0
113 133 0
103 121 0
119 137 0
98 116 0
46 73 80
47 73 80
52 83 99
53 84 99
50 80 57
51 81 76
52 83 80
41 66 80
51 82 57
42 69 57
56 88 80
49 79 80
47 75 80
51 82 80
41 66 0
45 73 80
42 68 57
53 84 80
31 51 57
46 72 80
45 74 0
50 79 57
48 74 0
60 93 140
58 92 99
54 86 99
49 79 80
55 84 80
43 72 0
51 82 80
45 72 99
55 88 80
55 87 80
55 85 84
50 78 128
52 80 80
53 85 99
47 76 80
41 66 80
55 87 99
51 79 57
57 91 114
54 87 80
43 69 99
59 91 99
55 86 80
56 87 114
51 81 57
46 73 57
38 63 57
47 70 84
51 82 99
36 58 57
56 87 102
50 78 84
50 79 80
51 78 80
48 78 57
70 94 80
97 116 57
33 51 0
102 116 0
133 151 0
119 133 0
120 139 0
111 132 0
126 141 0
120 130 0
122 130 0
142 155 0
88 107 0
143 158 0
148 161 0
120 137 0
135 150 0
118 130 0
135 148 0
114 127 0
149 159 0
136 152 0
138 147 0
129 147 0
152 163 0
133 143 0
121 131 0
128 142 0
137 149 0
110 128 0
147 160 0
120 132 0
145 154 0
129 147 0
137 145 0
161 166 0
137 154 0
152 163 0
147 157 0
161 174 0
148 148 0
156 161 0
167 180 0
157 166 0
155 160 0
150 151 0
109 96 0
109 101 0
122 108 0
93 77 0
123 114 0
107 96 0
94 81 0
124 116 0
112 102 0
114 104 0
109 99 0
136 128 0
117 111 0
93 88 0
104 99 0
94 89 0
124 116 0
114 105 0
143 137 0
151 143 0
125 111 0
114 105 0
105 95 0
126 112 0
109 95 0
139 135 0
120 114 0
113 104 0
117 111 0
154 141 0
104 95 0
111 111 0
127 118 0
138 134 0
103 99 0
128 116 0
132 118 0
145 134 0
158 152 0
122 112 0
128 126 0
141 130 0
129 120 0
127 119 0
132 123 0
147 134 0
133 127 0
131 128 0
140 132 0
144 141 0
135 125 0
123 116 0
153 144 0
141 131 0
135 128 0
145 139 0
153 149 0
128 117 0
143 135 0
142 137 0
147 142 0
144 136 0
148 140 0
150 135 0
134 130 0
152 141 0
152 144 0
143 135 0
147 140 0
143 132 0
153 142 0
153 149 0
131 125 0
145 140 0
123 120 0
137 133 0
136 122 0
149 144 0
145 138 0
142 135 0
137 128 0
146 133 0
153 144 0
148 136 0
128 129 0
151 143 0
151 146 0
145 134 0
149 146 0
152 144 0
135 131 0
156 148 0
145 137 0
149 144 0
144 138 0
146 135 0
146 134 0
149 142 0
155 148 0
156 151 0
139 137 0
151 146 0
151 146 0
150 147 0
155 150 0
157 151 0
142 134 0
151 141 0
154 152 0
145 145 0
139 132 0
150 147 0
148 143 0
151 145 0
150 143 0
144 137 0
145 134 0
158 152 0
146 143 0
152 151 0
154 147 0
152 149 0
153 147 0
155 150 0
153 146 0
154 173 0
150 172 0
156 177 0
153 173 0
149 169 0
156 177 0
156 177 0
153 175 0
143 163 0
154 173 0
155 176 0
144 165 0
146 164 0
155 173 0
142 161 0
154 173 0
162 179 0
155 174 0
159 179 0
154 176 0
150 173 0
154 175 0
145 162 0
153 171 0
150 169 0
153 172 0
147 167 0
150 168 0
159 176 0
147 169 0
139 161 0
144 162 0
151 171 0
150 170 0
150 170 0
147 164 0
143 161 0
145 164 0
151 171 0
146 165 0
138 157 0
150 170 0
146 167 0
150 169 0
155 175 0
154 173 0
153 172 0
128 145 0
150 171 0
150 167 0
154 173 0
138 159 0
138 157 0
125 143 0
144 167 0
147 165 0
149 166 0
137 156 0
136 158 0
132 148 0
143 162 0
124 143 0
132 149 0
138 156 0
141 159 0
149 170 0
123 139 0
140 159 0
139 157 0
147 165 0
148 166 0
121 140 0
127 148 0
125 145 0
142 161 0
146 165 0
146 164 0
143 164 0
131 151 0
144 164 0
142 161 0
145 165 0
137 155 0
112 127 0
131 149 0
128 143 0
120 140 0
138 156 0
127 144 0
129 147 0
108 124 0
125 144 0
105 124 0
133 149 0
137 157 0
111 131 0
130 149 0
136 155 0
137 153 0
117 131 0
131 150 0
121 135 0
99 115 0
130 147 0
101 117 0
142 159 0
125 141 0
127 143 0
92 97 0
126 141 0
108 128 0
128 146 0
119 135 0
104 119 0
124 139 0
113 128 0
122 137 0
116 131 0
112 126 0
125 139 0
129 144 0
84 97 0
69 80 0
96 109 0
140 157 0
147 166 0
143 160 0
122 141 0
146 163 0
145 165 0
150 167 0
153 168 0
117 133 0
111 127 0
110 126 0
174 192 0
129 147 0
117 135 0
147 163 0
129 145 0
159 180 0
141 162 0
111 131 0
148 171 0
135 153 0
112 129 0
151 172 0
149 171 0
134 152 0
122 140 0
157 179 0
125 147 0
136 156 0
156 177 0
144 170 0
136 150 0
119 137 0
123 141 0
132 151 0
133 152 0
148 168 0
110 128 0
148 172 0
123 137 0
98 122 0
112 127 0
117 134 0
131 150 0
90 108 0
117 134 0
65 85 0
45 72 80
43 67 80
53 84 128
53 85 0
45 72 80
49 79 57
46 74 80
47 73 57
40 65 0
47 77 57
48 75 80
46 72 57
46 73 99
46 76 80
50 80 80
55 86 80
39 64 57
48 78 57
56 88 99
58 90 128
50 80 114
57 89 80
57 88 128
45 73 0
57 90 99
52 82 80
50 79 80
49 78 80
39 63 57
54 86 114
40 66 80
57 90 99
47 75 57
47 76 0
58 91 99
55 87 80
59 92 80
45 72 57
52 83 57
53 86 0
54 82 84
52 82 80
44 73 57
52 80 57
43 70 57
39 61 80
51 82 57
53 83 99
52 82 99
37 62 57
46 72 57
50 79 80
43 68 80
44 70 57
40 64 80
48 72 57
77 100 80
63 82 0
108 121 0
108 123 0
120 131 0
135 149 0
114 132 0
106 110 0
124 138 0
115 128 0
118 131 0
131 139 0
139 154 0
145 157 0
136 156 0
106 114 0
153 172 0
141 146 0
142 154 0
116 122 0
144 163 0
157 167 0
150 169 0
128 128 0
95 105 0
136 159 0
99 108 0
133 137 0
100 106 0
151 164 0
133 139 0
142 153 0
142 159 0
147 153 0
135 136 0
131 139 0
130 141 0
144 154 0
111 122 0
158 166 0
149 157 0
136 134 0
152 163 0
127 124 0
138 137 0
128 131 0
101 109 0
146 161 0
102 107 0
122 106 0
114 107 0
137 121 0
104 94 0
93 85 0
106 99 0
138 128 0
85 79 0
126 116 0
90 78 0
77 75 0
112 102 0
125 116 0
113 99 0
90 87 0
129 109 0
119 112 0
131 118 0
107 102 0
133 122 0
131 120 0
98 91 0
129 117 0
123 114 0
123 112 0
117 106 0
114 110 0
115 102 0
131 120 0
111 105 0
146 139 0
145 135 0
104 97 0
142 135 0
148 138 0
134 122 0
127 125 0
137 131 0
146 138 0
130 123 0
138 129 0
138 128 0
127 117 0
135 128 0
147 140 0
138 125 0
133 126 0
135 127 0
146 136 0
151 137 0
154 149 0
141 133 0
135 131 0
150 141 0
144 139 0
134 126 0
129 117 0
130 125 0
145 143 0
145 136 0
113 111 0
149 141 0
138 130 0
135 127 0
152 146 0
137 131 0
134 126 0
145 138 0
144 134 0
150 146 0
146 139 0
151 139 0
147 140 0
145 137 0
125 123 0
147 142 0
160 147 0
156 153 0
137 135 0
147 140 0
143 138 0
142 136 0
159 152 0
148 141 0
153 147 0
148 137 0
144 141 0
151 148 0
140 131 0
154 150 0
145 142 0
150 145 0
155 150 0
141 133 0
156 153 0
148 142 0
147 138 0
151 144 0
152 146 0
148 144 0
151 144 0
144 137 0
141 134 0
153 144 0
152 144 0
145 141 0
151 143 0
152 146 0
156 151 0
135 127 0
158 154 0
155 152 0
152 148 0
141 134 0
143 135 0
150 148 0
153 146 0
151 147 0
150 146 0
157 150 0
152 149 0
148 142 0
153 152 0
155 148 0
151 173 0
143 162 0
147 167 0
157 177 0
140 158 0
151 170 0
154 174 0
149 168 0
151 170 0
156 176 0
143 161 0
157 176 0
149 170 0
147 163 0
147 166 0
150 171 0
152 171 0
145 166 0
151 174 0
146 164 0
150 169 0
152 175 0
152 173 0
149 167 0
156 176 0
153 173 0
148 169 0
156 174 0
155 175 0
142 163 0
143 162 0
150 169 0
152 170 0
135 154 0
154 172 0
148 167 0
152 174 0
155 175 0
150 171 0
155 175 0
150 168 0
151 170 0
135 156 0
155 174 0
135 156 0
152 166 0
153 174 0
137 151 0
142 160 0
144 159 0
144 163 0
124 142 0
147 167 0
147 165 0
142 162 0
136 157 0
142 159 0
138 156 0
147 166 0
141 162 0
141 160 0
136 155 0
146 165 0
141 160 0
142 159 0
140 162 0
148 166 0
145 161 0
140 158 0
122 140 0
138 157 0
151 169 0
125 142 0
146 163 0
148 170 0
139 156 0
132 148 0
112 127 0
108 127 0
135 152 0
122 138 0
131 144 0
151 170 0
122 137 0
141 161 0
130 148 0
116 134 0
124 141 0
126 144 0
151 168 0
141 158 0
133 148 0
122 138 0
146 165 0
121 137 0
118 131 0
131 149 0
121 140 0
120 138 0
124 138 0
117 132 0
116 132 0
108 125 0
130 145 0
125 143 0
121 135 0
132 148 0
110 125 0
121 137 0
111 125 0
116 132 0
119 133 0
108 122 0
143 159 0
108 121 0
97 109 0
103 115 0
124 139 0
111 126 0
95 109 0
105 117 0
114 126 0
127 142 0
133 150 0
142 160 0
130 146 0
143 158 0
129 145 0
117 131 0
143 163 0
126 141 0
134 151 0
137 157 0
99 115 0
127 142 0
129 147 0
117 132 0
144 163 0
149 167 0
131 149 0
116 135 0
130 146 0
104 124 0
116 130 0
100 112 0
149 167 0
124 143 0
137 158 0
105 121 0
110 127 0
135 151 0
143 162 0
122 138 0
136 156 0
126 144 0
125 143 0
118 137 0
142 161 0
132 152 0
158 178 0
110 130 0
126 147 0
123 142 0
144 162 0
122 144 0
126 144 0
111 125 0
77 92 0
60 77 0
130 148 0
139 160 0
102 119 0
106 122 51
72 93 57
43 69 80
43 69 99
48 77 80
40 65 57
45 73 0
45 74 0
42 70 0
46 74 80
50 78 114
45 74 80
52 81 99
57 90 99
52 82 80
51 81 80
50 77 80
46 73 80
53 85 0
49 78 57
39 63 80
48 76 80
55 88 80
58 91 80
49 78 80
55 87 114
51 81 80
50 79 80
51 81 99
50 80 0
49 77 128
36 62 0
50 80 99
56 88 128
57 89 80
52 82 80
40 64 57
51 80 80
47 74 57
48 74 114
53 83 99
38 63 0
52 82 80
56 85 128
51 80 80
53 83 57
52 81 99
44 69 0
43 68 57
47 72 0
44 70 57
49 75 80
35 58 57
50 76 99
38 60 0
105 113 0
108 122 0
82 94 0
69 90 0
97 113 0
98 109 0
125 143 0
81 98 0
93 106 0
43 62 0
104 120 0
144 157 0
100 117 0
107 125 0
124 137 0
128 142 0
120 134 0
139 152 0
136 148 0
138 154 0
127 131 0
108 124 0
118 129 0
122 129 0
113 122 0
145 164 0
169 186 0
150 164 0
138 153 0
141 145 0
107 103 0
133 145 0
149 167 0
120 125 0
129 139 0
86 93 0
148 154 0
137 144 0
130 149 0
116 124 0
121 126 0
152 161 0
159 163 0
110 115 0
135 144 0
142 147 0
145 152 0
141 151 0
151 152 0
136 142 0
119 116 0
111 95 0
101 90 0
101 92 0
124 106 0
125 115 0
96 81 0
96 87 0
89 75 0
85 78 0
126 113 0
106 91 0
98 89 0
130 119 0
97 89 0
112 109 0
84 71 0
93 86 0
137 131 0
142 133 0
133 120 0
121 110 0
125 111 0
130 119 0
151 137 0
129 119 0
128 118 0
99 89 0
116 115 0
143 134 0
126 118 0
124 121 0
137 134 0
128 118 0
116 111 0
144 134 0
150 137 0
153 144 0
148 132 0
132 123 0
141 128 0
134 128 0
134 124 0
128 119 0
133 123 0
139 133 0
137 130 0
145 141 0
144 136 0
139 130 0
143 132 0
147 140 0
144 134 0
148 145 0
139 130 0
147 137 0
141 135 0
139 129 0
130 119 0
135 126 0
132 124 0
152 143 0
142 133 0
126 116 0
145 137 0
148 135 0
138 135 0
137 131 0
157 151 0
151 143 0
118 107 0
141 139 0
138 126 0
143 139 0
139 132 0
139 136 0
148 140 0
145 134 0
141 137 0
148 142 0
131 125 0
153 139 0
134 126 0
157 148 0
155 147 0
150 140 0
143 141 0
139 135 0
149 143 0
141 138 0
138 132 0
149 140 0
154 150 0
151 140 0
146 138 0
145 134 0
157 151 0
145 140 0
141 133 0
152 147 0
146 141 0
143 140 0
153 147 0
153 148 0
154 152 0
152 144 0
154 145 0
144 136 0
150 148 0
158 152 0
154 151 0
145 140 0
145 140 0
143 135 0
144 139 0
156 146 0
147 138 0
150 145 0
153 143 0
153 152 0
157 151 0
149 142 0
153 147 0
159 178 0
158 177 0
150 171 0
146 168 0
151 171 0
146 168 0
156 175 0
153 171 0
146 167 0
149 171 0
151 172 0
152 172 0
153 175 0
154 175 0
150 170 0
156 174 0
155 172 0
144 166 0
145 167 0
150 169 0
152 170 0
152 173 0
152 172 0
146 165 0
157 177 0
150 169 0
144 165 0
139 158 0
136 156 0
148 166 0
158 175 0
151 172 0
155 175 0
135 153 0
150 170 0
143 166 0
139 161 0
154 175 0
144 163 0
152 172 0
148 168 0
147 162 0
155 173 0
149 168 0
143 161 0
128 148 0
142 161 0
145 164 0
146 167 0
156 174 0
142 161 0
134 152 0
135 153 0
138 155 0
143 163 0
154 173 0
146 166 0
153 172 0
142 161 0
144 163 0
133 150 0
145 165 0
142 158 0
157 173 0
138 158 0
139 156 0
145 163 0
146 165 0
132 148 0
140 161 0
123 141 0
155 174 0
147 167 0
133 152 0
123 141 0
142 162 0
150 167 0
128 147 0
127 143 0
145 164 0
120 137 0
142 161 0
112 128 0
109 121 0
120 135 0
145 164 0
143 160 0
109 125 0
121 138 0
138 154 0
136 150 0
133 147 0
101 120 0
116 134 0
138 153 0
118 132 0
118 132 0
133 154 0
121 137 0
119 137 0
98 113 0
123 139 0
119 134 0
120 135 0
117 131 0
112 128 0
140 157 0
113 127 0
127 143 0
136 153 0
105 120 0
120 133 0
96 111 0
114 127 0
106 120 0
121 136 0
85 97 0
117 131 0
129 144 0
110 123 0
99 112 0
133 148 0
148 164 0
159 176 0
116 133 0
133 151 0
142 159 0
138 156 0
136 151 0
147 163 0
142 162 0
140 153 0
131 148 0
125 143 0
152 170 0
136 152 0
154 170 0
105 124 0
131 148 0
140 154 0
131 149 0
131 147 0
158 178 0
103 120 0
124 142 0
121 141 0
100 114 0
114 134 0
158 179 0
125 142 0
114 133 0
81 101 0
95 107 0
116 138 0
111 129 0
98 114 0
61 79 0
93 115 0
155 170 0
134 152 0
92 109 0
88 104 0
144 163 0
82 100 0
113 127 0
83 96 0
68 87 0
126 142 0
92 110 0
85 102 0
105 121 0
25 41 0
116 131 0
105 120 0
56 74 0
71 91 80
40 66 0
30 51 0
45 70 57
43 68 76
47 75 99
50 81 76
50 79 80
46 74 57
47 74 57
44 69 57
47 73 80
47 76 80
48 76 95
55 86 99
46 76 0
55 85 128
53 84 80
57 91 114
49 78 80
49 76 99
36 62 57
48 76 80
48 77 80
44 71 57
51 82 114
54 86 57
55 86 114
43 69 57
60 94 140
45 74 80
47 72 57
51 83 80
46 70 80
50 80 99
53 83 80
50 80 99
54 86 57
49 77 80
41 68 57
46 72 80
51 82 80
49 78 80
39 64 0
48 75 80
48 76 57
46 72 57
46 70 80
53 82 80
70 84 57
102 115 57
93 108 0
112 129 0
84 103 0
127 140 0
118 134 0
140 152 0
103 120 0
93 110 0
125 141 0
121 134 0
93 111 0
76 87 0
80 87 0
117 128 0
112 121 0
108 122 0
148 156 0
116 130 0
145 154 0
126 145 0
112 125 0
122 135 0
156 171 0
132 151 0
129 143 0
133 140 0
132 142 0
105 116 0
140 153 0
160 168 0
140 154 0
126 125 0
128 132 0
81 92 0
156 166 0
94 105 0
127 131 0
133 139 0
146 155 0
124 132 0
135 138 0
118 120 0
125 126 0
168 182 0
124 126 0
129 139 0
138 139 0
137 144 0
157 158 0
108 111 0
116 122 0
148 145 0
98 91 0
116 94 0
96 80 0
114 106 0
106 88 0
112 98 0
103 97 0
94 85 0
115 106 0
90 82 0
117 108 0
95 82 0
122 108 0
89 78 0
118 113 0
141 129 0
96 93 0
135 121 0
101 98 0
144 130 0
140 132 0
136 126 0
122 107 0
138 128 0
140 132 0
136 122 0
146 140 0
133 125 0
113 101 0
133 120 0
134 125 0
137 124 0
125 113 0
123 115 0
128 124 0
130 130 0
137 120 0
147 135 0
139 136 0
140 131 0
149 144 0
128 120 0
131 119 0
142 134 0
141 128 0
121 112 0
142 135 0
124 120 0
158 147 0
120 110 0
132 122 0
143 137 0
154 147 0
151 145 0
141 136 0
133 129 0
130 125 0
131 119 0
144 133 0
144 137 0
141 133 0
140 131 0
149 137 0
135 128 0
138 129 0
126 120 0
147 142 0
144 134 0
141 131 0
143 139 0
135 124 0
146 140 0
151 145 0
152 142 0
152 140 0
148 138 0
134 126 0
140 136 0
127 124 0
145 142 0
145 135 0
150 141 0
150 140 0
142 133 0
146 140 0
145 135 0
139 129 0
148 141 0
155 150 0
142 132 0
143 130 0
144 137 0
149 133 0
146 136 0
151 143 0
152 146 0
142 134 0
158 152 0
154 152 0
151 145 0
156 145 0
152 149 0
144 135 0
146 146 0
154 145 0
148 139 0
144 135 0
148 139 0
150 140 0
146 142 0
148 138 0
150 141 0
150 145 0
153 147 0
152 143 0
147 140 0
154 144 0
151 148 0
144 134 0
156 148 0
156 145 0
147 135 0
151 171 0
152 171 0
143 164 0
155 174 0
148 168 0
151 173 0
152 172 0
147 169 0
153 175 0
154 172 0
151 171 0
151 171 0
155 175 0
148 170 0
154 174 0
155 172 0
156 174 0
145 163 0
132 152 0
142 158 0
154 173 0
148 166 0
138 159 0
146 164 0
146 165 0
145 163 0
156 175 0
144 162 0
140 160 0
119 138 0
157 177 0
140 160 0
142 161 0
141 165 0
148 166 0
154 171 0
151 169 0
136 156 0
145 165 0
148 169 0
142 161 0
141 156 0
135 153 0
132 151 0
147 165 0
137 158 0
148 169 0
135 154 0
156 172 0
144 161 0
143 160 0
131 153 0
144 162 0
145 165 0
151 173 0
152 167 0
135 156 0
146 163 0
140 155 0
154 173 0
147 165 0
130 150 0
149 166 0
147 161 0
142 161 0
122 139 0
146 165 0
144 164 0
142 161 0
148 166 0
130 147 0
143 163 0
121 140 0
138 155 0
140 159 0
150 166 0
124 142 0
116 133 0
136 157 0
142 158 0
130 148 0
135 151 0
136 151 0
142 158 0
110 123 0
145 165 0
147 166 0
129 147 0
124 139 0
120 137 0
125 137 0
114 132 0
153 167 0
131 147 0
141 159 0
129 147 0
148 166 0
143 161 0
121 135 0
113 130 0
102 114 0
127 144 0
130 144 0
95 110 0
132 148 0
102 115 0
95 109 0
124 139 0
123 137 0
81 94 0
82 93 0
75 88 0
84 95 0
100 114 0
89 102 0
106 119 0
102 116 0
93 104 0
124 136 0
104 117 0
130 145 0
133 149 0
120 133 0
120 134 0
141 157 0
143 159 0
129 148 0
134 155 0
154 170 0
135 150 0
149 166 0
131 147 0
118 134 0
130 150 0
120 138 0
149 168 0
125 141 0
130 149 0
101 122 0
149 167 0
114 128 0
129 147 0
147 167 0
149 164 0
127 144 0
122 140 0
139 155 0
136 155 0
124 139 0
117 133 0
105 119 0
140 160 0
145 164 0
128 147 0
99 117 0
131 151 0
133 150 0
85 104 0
108 121 0
132 151 0
99 116 0
104 120 0
128 147 0
68 86 0
136 155 0
138 156 0
143 160 0
81 96 0
121 140 0
105 121 0
134 150 0
63 79 0
65 76 0
94 106 0
105 122 0
97 108 0
65 75 57
52 82 80
49 77 57
44 68 99
43 69 57
49 78 80
49 79 57
46 75 57
54 86 80
49 80 0
42 69 0
50 79 99
45 74 57
49 78 0
51 82 80
47 75 80
52 84 99
52 84 0
48 75 57
43 70 0
50 80 80
39 62 57
44 68 57
49 79 80
44 69 80
52 82 99
48 76 57
53 84 80
43 69 80
52 82 80
40 67 57
31 53 0
49 78 57
46 75 80
47 74 80
54 85 80
54 84 114
52 82 99
53 83 57
55 87 114
55 85 114
40 65 57
55 88 57
50 79 80
44 70 57
48 77 80
51 65 0
88 104 57
63 71 57
92 100 0
131 145 0
106 122 0
98 111 0
98 108 0
57 68 0
80 90 0
129 142 0
133 150 0
101 107 0
118 133 0
95 109 0
112 124 0
107 122 0
108 117 0
94 104 0
115 133 0
107 120 0
119 131 0
118 132 0
144 152 0
83 90 0
95 110 0
139 158 0
141 158 0
111 123 0
152 166 0
113 123 0
150 164 0
105 104 0
139 149 0
153 160 0
126 136 0
131 134 0
112 125 0
140 153 0
146 156 0
158 169 0
145 160 0
113 111 0
166 173 0
132 130 0
137 144 0
147 153 0
132 132 0
104 108 0
101 108 0
143 138 0
141 144 0
159 168 0
132 132 0
147 152 0
135 138 0
124 128 0
118 117 0
92 83 0
117 101 0
99 93 0
126 109 0
100 87 0
92 74 0
71 60 0
121 110 0
154 145 0
128 118 0
127 116 0
131 113 0
113 104 0
112 107 0
120 112 0
110 102 0
109 101 0
119 111 0
129 121 0
105 95 0
129 119 0
120 113 0
136 121 0
154 142 0
104 100 0
121 114 0
132 123 0
111 108 0
135 118 0
135 130 0
138 131 0
132 129 0
150 140 0
121 115 0
153 146 0
139 129 0
133 125 0
141 133 0
121 110 0
128 107 0
140 133 0
140 132 0
124 113 0
136 130 0
145 139 0
127 119 0
142 139 0
126 109 0
148 141 0
128 115 0
150 142 0
142 134 0
144 136 0
127 109 0
142 137 0
148 140 0
146 135 0
142 135 0
139 129 0
107 94 0
139 129 0
143 138 0
144 141 0
153 147 0
142 132 0
150 145 0
150 141 0
150 141 0
152 138 0
147 136 0
149 142 0
154 146 0
132 121 0
144 138 0
142 140 0
139 130 0
145 136 0
152 141 0
144 139 0
151 145 0
150 144 0
153 147 0
155 145 0
155 148 0
140 130 0
126 119 0
153 143 0
151 140 0
146 140 0
138 128 0
154 144 0
143 139 0
137 120 0
156 153 0
146 140 0
148 144 0
146 142 0
156 148 0
150 139 0
154 147 0
155 153 0
155 153 0
149 143 0
150 143 0
147 137 0
142 136 0
160 150 0
148 136 0
147 138 0
154 144 0
156 148 0
145 137 0
146 139 0
156 148 0
150 141 0
151 145 0
151 143 0
148 140 0
159 152 0
151 142 0
157 177 0
146 168 0
153 174 0
143 160 0
147 168 0
145 165 0
152 173 0
152 174 0
145 165 0
147 166 0
146 167 0
161 180 0
153 174 0
138 154 0
148 166 0
143 159 0
147 169 0
146 165 0
153 172 0
148 168 0
138 156 0
145 166 0
152 170 0
152 169 0
153 170 0
152 171 0
151 171 0
155 175 0
149 168 0
151 170 0
142 160 0
153 171 0
151 172 0
150 170 0
146 166 0
147 164 0
137 155 0
149 170 0
140 160 0
136 155 0
141 160 0
145 164 0
148 169 0
154 174 0
143 164 0
153 174 0
139 158 0
154 174 0
134 152 0
145 163 0
150 171 0
126 144 0
143 161 0
129 148 0
139 156 0
144 165 0
137 155 0
129 143 0
139 157 0
139 158 0
143 160 0
142 160 0
130 147 0
144 163 0
130 147 0
141 159 0
149 166 0
139 158 0
145 162 0
145 162 0
144 160 0
136 155 0
146 164 0
132 149 0
144 162 0
135 150 0
136 156 0
144 162 0
115 129 0
143 162 0
136 153 0
128 148 0
132 151 0
146 165 0
135 152 0
108 126 0
138 155 0
118 136 0
132 151 0
145 164 0
135 152 0
127 144 0
123 136 0
136 154 0
149 165 0
107 117 0
114 129 0
127 141 0
112 128 0
107 123 0
138 154 0
112 128 0
136 155 0
106 121 0
131 145 0
118 132 0
116 132 0
133 148 0
98 110 0
105 118 0
122 136 0
120 134 0
119 133 0
117 130 0
97 111 0
111 123 0
110 122 0
96 109 0
114 126 0
119 132 0
126 142 0
134 150 0
121 137 0
108 126 0
121 136 0
94 106 0
152 169 0
126 141 0
118 136 0
136 150 0
70 85 0
120 138 0
125 142 0
116 135 0
127 142 0
127 144 0
119 137 0
126 145 0
116 129 0
125 141 0
112 129 0
140 157 0
135 150 0
129 145 0
108 124 0
131 148 0
130 147 0
102 123 0
106 124 0
133 153 0
136 155 0
155 174 0
125 145 0
121 140 0
133 145 0
135 156 0
134 155 0
105 124 0
148 167 0
66 85 0
135 150 0
149 168 0
98 113 0
108 125 0
101 117 0
123 139 0
141 158 0
129 145 0
93 107 0
65 81 0
40 64 0
106 120 0
137 153 0
101 121 0
97 114 0
101 115 0
79 91 0
83 93 0
116 133 0
39 62 0
48 76 99
47 76 57
33 56 0
47 75 57
43 69 0
48 76 57
38 62 57
42 69 80
50 79 80
33 52 57
43 68 80
48 78 80
54 85 114
43 68 0
42 68 0
50 78 0
54 85 80
43 68 0
53 84 114
49 79 99
49 78 57
51 80 99
44 71 80
40 64 57
57 90 114
49 78 0
43 66 99
45 74 57
56 88 80
52 82 80
53 83 80
44 68 57
56 88 99
52 83 80
48 76 57
47 76 0
44 73 57
44 72 57
33 52 0
38 61 57
47 75 80
81 93 57
133 148 0
68 80 0
107 122 0
122 130 0
74 80 0
117 131 0
116 128 0
72 73 0
101 116 0
60 76 0
109 119 0
129 142 0
130 144 0
99 109 0
131 150 0
112 123 0
80 98 0
86 99 0
107 122 0
109 124 0
101 116 0
105 101 0
114 120 0
132 145 0
124 139 0
104 121 0
62 67 0
128 143 0
113 134 0
116 127 0
119 132 0
120 136 0
143 150 0
137 148 0
137 147 0
109 123 0
138 150 0
106 107 0
144 149 0
135 149 0
133 139 0
94 109 0
110 120 0
116 125 0
139 149 0
153 168 0
122 123 0
123 137 0
127 128 0
153 156 0
119 118 0
153 152 0
150 156 0
133 127 0
115 119 0
152 161 0
120 127 0
131 138 0
143 139 0
116 114 0
118 103 0
101 87 0
98 85 0
113 99 0
93 79 0
112 100 0
116 109 0
113 98 0
90 85 0
118 102 0
133 119 0
127 112 0
129 118 0
107 96 0
134 120 0
111 102 0
110 104 0
106 98 0
126 116 0
120 108 0
135 125 0
120 106 0
120 108 0
131 125 0
121 105 0
140 132 0
130 118 0
121 117 0
129 117 0
119 118 0
131 121 0
124 110 0
125 117 0
147 137 0
140 134 0
148 140 0
116 108 0
127 121 0
128 126 0
141 127 0
128 119 0
133 124 0
134 126 0
135 128 0
140 127 0
133 121 0
142 135 0
154 144 0
129 112 0
117 108 0
140 133 0
142 129 0
150 141 0
148 139 0
146 139 0
150 137 0
123 110 0
146 135 0
147 140 0
145 133 0
148 129 0
140 136 0
129 119 0
142 132 0
132 122 0
153 146 0
147 138 0
141 132 0
148 139 0
137 125 0
140 130 0
136 129 0
145 130 0
149 147 0
147 135 0
127 118 0
144 141 0
140 127 0
150 137 0
144 135 0
137 127 0
155 150 0
145 139 0
145 138 0
139 124 0
148 144 0
159 150 0
152 149 0
152 140 0
150 142 0
146 138 0
142 135 0
135 128 0
152 141 0
145 139 0
150 142 0
154 149 0
148 141 0
157 154 0
150 142 0
147 141 0
147 140 0
151 143 0
150 142 0
152 146 0
149 143 0
145 136 0
155 150 0
151 151 0
152 143 0
158 149 0
151 143 0
148 141 0
155 146 0
153 150 0
156 151 0
159 152 0
152 146 0
152 171 0
152 169 0
156 174 0
151 172 0
150 171 0
148 169 0
155 176 0
154 172 0
158 176 0
152 171 0
156 176 0
151 172 0
146 164 0
156 174 0
149 164 0
151 173 0
155 175 0
153 169 0
149 170 0
149 168 0
146 165 0
140 160 0
144 162 0
148 168 0
144 163 0
150 170 0
152 171 0
141 157 0
155 175 0
156 174 0
149 167 0
140 159 0
156 176 0
159 178 0
152 172 0
150 171 0
148 166 0
150 170 0
153 172 0
152 170 0
150 169 0
155 172 0
131 150 0
145 164 0
155 175 0
154 172 0
152 169 0
121 141 0
129 146 0
145 160 0
153 169 0
146 165 0
154 172 0
146 165 0
145 163 0
135 153 0
144 164 0
140 157 0
141 156 0
159 177 0
141 158 0
155 174 0
133 150 0
127 143 0
132 152 0
137 155 0
119 135 0
140 158 0
145 162 0
143 161 0
122 138 0
131 149 0
125 144 0
138 159 0
124 140 0
128 146 0
133 152 0
138 156 0
130 148 0
137 155 0
117 132 0
141 159 0
106 122 0
134 150 0
122 140 0
132 151 0
146 161 0
122 139 0
133 150 0
119 132 0
137 153 0
132 151 0
134 148 0
144 159 0
117 130 0
124 142 0
98 113 0
102 116 0
120 137 0
88 101 0
120 137 0
115 131 0
117 131 0
120 134 0
129 145 0
116 134 0
118 131 0
113 128 0
125 139 0
75 91 0
110 123 0
108 122 0
132 145 0
100 115 0
135 148 0
112 126 0
110 124 0
124 138 0
133 147 0
114 129 0
110 124 0
124 137 0
157 172 0
127 144 0
157 177 0
145 164 0
129 146 0
132 149 0
111 126 0
136 149 0
121 137 0
108 122 0
99 117 0
126 143 0
105 119 0
147 164 0
138 156 0
156 176 0
152 169 0
121 138 0
128 147 0
135 150 0
129 146 0
160 178 0
143 163 0
130 148 0
115 134 0
60 72 0
92 109 0
119 139 0
100 117 0
131 147 0
168 186 0
131 148 0
151 171 0
80 96 0
104 121 0
126 148 0
129 147 0
105 123 0
111 128 0
107 122 0
79 91 0
124 143 0
101 120 0
99 119 0
80 95 0
65 81 0
96 111 0
63 82 0
65 81 0
102 114 0
26 43 0
87 100 0
83 98 0
103 119 0
56 70 0
65 80 0
48 63 0
85 94 0
83 97 57
42 66 80
33 54 57
42 68 57
28 47 0
36 61 0
46 74 57
48 76 99
46 74 57
56 87 80
37 60 57
44 71 0
50 79 57
50 80 80
46 72 57
40 65 57
49 78 80
45 74 0
46 73 80
48 77 99
44 70 57
42 68 57
48 76 80
50 79 99
52 82 99
56 87 99
46 71 114
47 76 57
47 71 114
46 73 57
50 80 99
45 72 80
39 64 0
43 69 80
50 78 114
31 55 0
40 66 57
41 65 0
36 60 0
61 68 0
87 100 0
79 83 0
118 132 0
93 99 0
129 143 0
62 73 0
74 84 0
62 74 0
93 107 0
139 152 0
93 99 0
122 132 0
84 98 0
24 38 0
116 132 0
113 131 0
103 115 0
117 132 0
126 136 0
128 143 0
130 146 0
113 126 0
113 126 0
123 131 0
151 167 0
105 116 0
112 123 0
112 125 0
132 147 0
105 117 0
125 130 0
123 130 0
136 147 0
110 111 0
119 134 0
119 137 0
165 180 0
90 102 0
130 142 0
119 130 0
118 128 0
131 137 0
94 94 0
112 113 0
158 175 0
110 120 0
138 144 0
158 169 0
111 121 0
147 160 0
121 124 0
132 138 0
146 151 0
143 151 0
125 125 0
113 109 0
130 135 0
127 123 0
152 165 0
134 138 0
121 129 0
147 152 0
130 130 0
121 104 0
70 54 0
112 96 0
95 79 0
94 77 0
114 98 0
113 95 0
113 101 0
113 100 0
120 110 0
103 92 0
120 100 0
151 142 0
113 102 0
129 116 0
139 122 0
118 103 0
120 112 0
105 92 0
116 109 0
129 117 0
117 113 0
92 83 0
132 121 0
121 108 0
121 111 0
134 125 0
148 140 0
148 130 0
146 132 0
127 115 0
105 100 0
128 121 0
128 122 0
134 123 0
119 104 0
140 133 0
138 124 0
125 114 0
132 127 0
135 118 0
146 137 0
126 119 0
145 135 0
134 126 0
149 142 0
145 136 0
149 140 0
135 129 0
147 135 0
129 112 0
135 128 0
135 126 0
151 144 0
147 134 0
143 134 0
154 144 0
146 139 0
141 136 0
126 117 0
139 131 0
136 124 0
152 142 0
152 146 0
129 122 0
153 149 0
137 127 0
149 143 0
145 133 0
131 121 0
144 129 0
150 141 0
146 138 0
156 148 0
146 142 0
138 123 0
153 149 0
150 142 0
145 135 0
150 142 0
139 135 0
161 153 0
151 143 0
140 131 0
141 130 0
154 149 0
137 128 0
150 145 0
149 147 0
148 139 0
146 143 0
150 140 0
136 125 0
139 132 0
155 153 0
144 133 0
151 144 0
147 142 0
152 144 0
149 140 0
151 143 0
150 142 0
149 140 0
151 146 0
141 140 0
155 145 0
152 144 0
157 154 0
149 144 0
149 142 0
149 143 0
155 146 0
157 151 0
155 147 0
153 144 0
157 149 0
145 137 0
147 166 0
150 169 0
155 175 0
154 174 0
143 164 0
153 173 0
148 168 0
152 170 0
147 168 0
153 173 0
151 173 0
152 174 0
145 164 0
142 162 0
147 169 0
148 166 0
134 153 0
140 160 0
153 174 0
152 172 0
150 169 0
153 172 0
142 160 0
154 173 0
154 174 0
148 168 0
155 174 0
150 171 0
158 175 0
146 167 0
153 173 0
138 155 0
157 175 0
145 164 0
144 163 0
147 167 0
144 163 0
146 162 0
135 151 0
146 164 0
148 167 0
138 156 0
146 165 0
131 148 0
142 161 0
144 161 0
135 155 0
142 163 0
146 165 0
148 167 0
143 163 0
135 152 0
134 150 0
135 152 0
144 163 0
148 169 0
143 163 0
140 161 0
143 163 0
121 141 0
142 158 0
145 164 0
141 159 0
137 155 0
141 161 0
137 154 0
132 151 0
130 147 0
147 165 0
128 146 0
142 160 0
125 142 0
126 145 0
139 158 0
108 124 0
131 150 0
116 134 0
147 163 0
125 141 0
137 155 0
126 141 0
150 167 0
139 159 0
143 161 0
133 148 0
130 148 0
133 152 0
117 132 0
130 146 0
128 143 0
138 157 0
111 125 0
115 132 0
110 124 0
117 130 0
128 143 0
119 133 0
131 147 0
119 135 0
132 149 0
116 132 0
115 127 0
117 131 0
98 110 0
102 116 0
72 89 0
106 119 0
85 98 0
103 117 0
120 134 0
81 95 0
129 143 0
111 124 0
126 139 0
91 101 0
130 143 0
105 118 0
112 123 0
115 129 0
115 126 0
143 157 0
112 128 0
130 145 0
135 149 0
148 163 0
160 176 0
89 103 0
96 112 0
128 143 0
99 111 0
148 165 0
137 155 0
105 116 0
126 139 0
89 104 0
136 152 0
74 88 0
131 152 0
133 151 0
111 127 0
150 166 0
128 146 0
96 114 0
80 97 0
131 152 0
144 163 0
84 100 0
147 165 0
136 150 0
93 109 0
101 116 0
65 83 0
139 156 0
97 117 0
105 121 0
82 100 0
113 129 0
136 151 0
142 160 0
120 137 0
126 144 0
101 115 0
122 139 0
120 141 0
132 149 0
90 108 0
80 93 0
80 95 0
98 117 0
81 97 0
36 55 0
96 110 0
75 87 0
66 87 0
107 122 0
142 157 0
95 106 0
95 112 0
84 97 0
91 105 0
66 78 0
107 119 0
62 75 0
78 94 0
94 112 57
43 69 0
47 75 80
42 67 0
40 66 57
44 70 57
52 81 80
36 58 57
47 75 57
45 73 0
44 71 80
41 66 57
52 82 57
49 77 80
50 80 0
47 75 0
43 69 57
43 68 57
47 75 80
47 75 80
43 67 80
45 72 57
58 91 114
48 75 57
37 60 57
43 68 57
33 54 0
46 71 99
49 78 80
41 68 57
34 57 57
41 63 57
65 74 80
120 128 0
58 73 0
26 41 0
66 82 0
74 79 0
81 91 0
61 70 0
121 124 0
31 49 0
70 81 0
87 104 0
95 100 0
88 101 0
57 72 0
103 120 0
123 138 0
112 129 0
146 154 0
103 119 0
133 143 0
128 142 0
84 95 0
123 128 0
123 139 0
131 140 0
146 151 0
135 147 0
112 130 0
102 119 0
122 140 0
89 101 0
87 91 0
107 121 0
112 125 0
150 165 0
126 138 0
145 164 0
120 129 0
100 110 0
144 149 0
91 96 0
161 169 0
145 158 0
131 146 0
171 180 0
101 114 0
132 139 0
130 143 0
133 139 0
125 122 0
132 135 0
141 151 0
129 136 0
98 99 0
131 135 0
103 100 0
136 145 0
86 89 0
144 145 0
103 95 0
89 93 0
131 131 0
90 93 0
129 123 0
102 96 0
124 119 0
104 96 0
131 138 0
96 79 0
112 97 0
97 85 0
102 93 0
87 81 0
59 48 0
118 104 0
96 92 0
121 98 0
98 87 0
104 89 0
106 86 0
114 104 0
125 117 0
122 110 0
125 115 0
94 86 0
116 108 0
133 115 0
105 100 0
128 119 0
143 134 0
128 111 0
115 113 0
120 108 0
116 100 0
129 121 0
125 118 0
126 117 0
123 115 0
134 124 0
114 108 0
133 118 0
91 84 0
135 127 0
141 124 0
138 127 0
126 113 0
113 98 0
142 134 0
139 128 0
133 123 0
138 130 0
129 118 0
130 119 0
144 132 0
150 142 0
139 133 0
126 112 0
143 131 0
128 122 0
138 127 0
148 137 0
134 133 0
130 119 0
131 125 0
137 128 0
126 114 0
138 129 0
136 130 0
147 131 0
139 131 0
133 127 0
140 129 0
141 131 0
137 131 0
122 113 0
144 133 0
143 133 0
125 113 0
135 128 0
144 138 0
139 129 0
153 147 0
153 144 0
135 127 0
140 130 0
156 150 0
143 130 0
150 141 0
143 133 0
144 135 0
147 137 0
149 138 0
129 120 0
161 155 0
144 143 0
122 112 0
148 139 0
153 144 0
150 151 0
157 149 0
142 134 0
140 133 0
140 135 0
143 138 0
154 144 0
141 132 0
146 136 0
144 141 0
153 147 0
151 141 0
148 140 0
139 130 0
158 146 0
154 147 0
154 147 0
149 146 0
148 138 0
153 144 0
142 135 0
150 143 0
152 148 0
154 145 0
142 131 0
150 169 0
149 169 0
148 167 0
145 167 0
155 176 0
152 173 0
153 169 0
148 165 0
152 171 0
150 167 0
149 167 0
149 169 0
155 173 0
148 168 0
143 162 0
147 169 0
151 168 0
149 168 0
151 169 0
155 174 0
156 175 0
150 170 0
137 155 0
153 172 0
142 162 0
148 168 0
148 167 0
142 159 0
148 167 0
146 165 0
141 159 0
150 168 0
139 157 0
133 152 0
143 163 0
140 161 0
145 162 0
140 158 0
148 166 0
152 170 0
120 137 0
154 172 0
151 170 0
132 149 0
140 158 0
150 169 0
145 161 0
127 146 0
148 168 0
133 151 0
157 176 0
137 155 0
143 160 0
142 161 0
134 152 0
140 158 0
150 168 0
138 156 0
136 152 0
143 159 0
132 149 0
138 158 0
132 152 0
129 145 0
140 159 0
131 147 0
143 160 0
134 148 0
145 161 0
139 157 0
115 131 0
116 130 0
130 149 0
133 150 0
146 165 0
126 142 0
132 148 0
148 166 0
125 143 0
126 143 0
98 117 0
138 156 0
122 140 0
149 165 0
148 165 0
103 114 0
133 151 0
107 121 0
118 134 0
137 153 0
118 133 0
139 156 0
101 113 0
99 113 0
122 137 0
124 140 0
124 140 0
126 139 0
126 141 0
124 135 0
128 146 0
124 135 0
124 138 0
78 92 0
107 117 0
108 121 0
112 124 0
77 91 0
110 125 0
71 82 0
102 114 0
72 85 0
73 84 0
91 106 0
119 132 0
125 137 0
111 123 0
115 127 0
132 146 0
101 115 0
97 109 0
140 155 0
109 122 0
131 149 0
112 127 0
109 120 0
115 132 0
111 124 0
115 132 0
137 153 0
116 132 0
144 161 0
121 137 0
113 131 0
118 136 0
136 152 0
134 151 0
113 127 0
150 168 0
49 60 0
123 136 0
112 132 0
121 138 0
151 168 0
117 132 0
97 110 0
105 123 0
86 105 0
113 129 0
121 136 0
140 160 0
109 125 0
104 119 0
112 134 0
139 158 0
99 118 0
96 113 0
105 119 0
93 111 0
154 170 0
67 79 0
120 137 0
128 143 0
102 119 0
102 119 0
146 164 0
108 126 0
118 134 0
149 167 0
91 106 0
130 146 0
85 98 0
36 57 0
83 95 0
59 70 0
27 44 0
107 124 0
124 138 0
32 51 0
77 87 0
57 68 0
68 82 0
78 89 0
65 77 0
93 105 0
64 77 0
63 74 0
32 51 57
35 55 0
36 58 57
42 69 0
49 79 99
29 46 57
37 61 0
38 61 57
41 63 57
32 53 0
45 73 57
52 81 99
27 44 0
39 62 0
47 75 80
36 60 0
50 79 80
40 63 57
37 60 57
31 49 0
43 70 57
32 53 0
31 54 57
32 51 0
37 59 57
21 31 0
67 79 0
62 72 0
65 76 0
62 70 0
24 39 0
17 28 0
62 74 0
65 72 0
22 34 0
82 90 0
105 121 0
16 29 0
101 109 0
92 99 0
82 90 0
101 112 0
70 86 0
96 110 0
84 97 0
106 118 0
139 155 0
87 106 0
92 105 0
81 98 0
113 129 0
122 133 0
101 113 0
83 100 0
98 110 0
106 117 0
130 144 0
114 130 0
113 125 0
123 137 0
100 113 0
143 159 0
147 163 0
144 155 0
93 106 0
126 134 0
123 134 0
142 155 0
98 115 0
126 140 0
108 112 0
87 108 0
108 112 0
121 130 0
109 117 0
110 114 0
138 149 0
125 126 0
64 71 0
138 148 0
139 150 0
94 96 0
131 141 0
110 123 0
142 144 0
114 122 0
149 162 0
107 109 0
108 103 0
129 135 0
142 148 0
118 117 0
93 91 0
133 145 0
109 114 0
98 91 0
136 145 0
93 100 0
136 134 0
88 74 0
77 64 0
120 98 0
94 76 0
125 112 0
81 74 0
109 100 0
111 90 0
106 94 0
90 76 0
115 91 0
108 95 0
120 108 0
122 113 0
124 106 0
139 123 0
95 75 0
140 133 0
87 71 0
120 102 0
95 92 0
126 108 0
125 114 0
150 138 0
129 115 0
126 119 0
123 110 0
132 125 0
112 96 0
129 111 0
120 101 0
118 104 0
118 103 0
133 121 0
119 109 0
128 114 0
132 121 0
146 133 0
145 137 0
123 112 0
139 129 0
134 121 0
142 132 0
140 134 0
124 116 0
136 132 0
147 128 0
123 111 0
163 156 0
137 124 0
136 129 0
127 118 0
116 105 0
145 137 0
132 124 0
126 120 0
123 116 0
137 121 0
143 135 0
146 134 0
129 125 0
151 145 0
120 108 0
137 129 0
125 118 0
125 114 0
140 133 0
149 141 0
143 135 0
138 129 0
149 141 0
120 110 0
134 118 0
151 145 0
150 138 0
138 131 0
149 136 0
151 146 0
158 151 0
150 135 0
143 137 0
124 117 0
148 132 0
148 135 0
146 138 0
153 147 0
148 141 0
148 142 0
157 151 0
146 136 0
145 138 0
156 151 0
151 147 0
156 153 0
142 136 0
157 149 0
146 138 0
155 142 0
149 139 0
149 143 0
130 121 0
154 149 0
151 135 0
150 138 0
158 151 0
147 132 0
155 146 0
141 127 0
149 139 0
155 140 0
149 141 0
149 140 0
154 143 0
158 149 0
156 177 0
153 172 0
149 168 0
142 163 0
141 159 0
155 176 0
141 161 0
151 170 0
154 173 0
150 169 0
140 159 0
147 169 0
153 168 0
145 163 0
146 163 0
146 165 0
149 169 0
157 176 0
136 155 0
151 172 0
143 164 0
153 172 0
148 168 0
152 170 0
146 166 0
131 149 0
135 154 0
155 174 0
147 166 0
149 168 0
131 150 0
147 166 0
150 167 0
149 168 0
145 163 0
144 163 0
136 153 0
142 160 0
153 171 0
150 169 0
144 164 0
139 154 0
146 166 0
155 175 0
151 170 0
144 161 0
135 151 0
142 158 0
151 168 0
110 129 0
140 157 0
151 169 0
140 159 0
149 167 0
139 158 0
142 160 0
133 150 0
149 165 0
139 158 0
131 149 0
129 147 0
130 147 0
146 164 0
129 145 0
128 142 0
142 159 0
144 163 0
138 153 0
148 165 0
137 156 0
121 136 0
135 150 0
146 164 0
121 138 0
124 138 0
136 153 0
142 159 0
138 154 0
152 169 0
128 145 0
131 147 0
115 130 0
135 151 0
130 143 0
131 148 0
128 144 0
116 131 0
117 132 0
123 136 0
124 140 0
116 131 0
129 143 0
102 112 0
130 145 0
129 145 0
106 120 0
125 140 0
122 136 0
114 131 0
124 135 0
117 133 0
120 134 0
90 104 0
104 120 0
77 90 0
100 114 0
73 84 0
124 139 0
103 114 0
86 96 0
113 123 0
86 97 0
118 131 0
101 113 0
91 101 0
90 103 0
143 158 0
102 117 0
122 133 0
103 119 0
109 124 0
118 131 0
120 136 0
139 154 0
114 132 0
133 148 0
98 116 0
106 120 0
128 142 0
120 136 0
97 111 0
129 143 0
107 122 0
106 123 0
114 129 0
113 130 0
151 169 0
131 148 0
113 126 0
145 162 0
120 133 0
122 140 0
113 130 0
121 141 0
112 131 0
136 153 0
116 135 0
112 130 0
126 142 0
137 153 0
115 133 0
100 116 0
115 133 0
101 121 0
82 97 0
95 112 0
100 117 0
128 147 0
108 126 0
89 110 0
93 112 0
144 165 0
100 114 0
137 154 0
82 91 0
52 65 0
69 84 0
113 131 0
102 116 0
129 144 0
78 89 0
71 82 0
85 96 0
103 117 0
85 100 0
113 129 0
83 95 0
90 101 0
104 115 0
35 56 0
58 68 0
107 120 0
64 76 0
91 101 0
86 97 0
62 68 0
20 31 0
23 40 0
59 69 0
59 66 0
14 24 0
27 44 0
20 32 0
39 61 80
37 59 57
62 84 80
34 55 0
39 61 80
26 45 0
40 65 80
37 59 0
26 45 0
44 70 80
47 74 80
43 47 0
70 89 0
34 54 57
25 44 0
70 86 57
32 48 57
30 47 0
7 15 0
59 71 0
88 100 0
47 49 0
79 90 0
86 94 0
86 95 0
66 65 0
106 122 0
109 117 0
48 62 0
82 94 0
105 115 0
59 70 0
75 79 0
104 118 0
30 46 0
116 125 0
101 110 0
128 145 0
108 119 0
113 123 0
109 123 0
140 150 0
117 130 0
94 103 0
120 131 0
154 168 0
81 96 0
140 153 0
135 144 0
129 143 0
110 120 0
126 144 0
130 140 0
113 129 0
107 115 0
126 142 0
116 124 0
108 117 0
142 157 0
86 95 0
99 105 0
118 129 0
83 95 0
123 133 0
96 109 0
138 148 0
137 154 0
115 123 0
131 145 0
149 163 0
143 154 0
114 126 0
98 109 0
115 119 0
130 143 0
148 157 0
94 98 0
92 102 0
94 102 0
117 122 0
162 163 0
94 97 0
117 126 0
139 143 0
132 138 0
120 123 0
116 128 0
98 85 0
151 156 0
111 107 0
94 94 0
107 102 0
127 125 0
121 122 0
124 121 0
110 97 0
109 100 0
101 90 0
113 105 0
108 95 0
58 54 0
105 88 0
97 85 0
97 83 0
138 124 0
117 101 0
92 72 0
134 126 0
122 110 0
109 98 0
125 114 0
149 141 0
141 127 0
134 126 0
73 70 0
127 117 0
145 136 0
136 121 0
114 105 0
125 114 0
125 116 0
136 124 0
131 118 0
133 123 0
109 97 0
138 118 0
122 107 0
123 106 0
131 114 0
134 126 0
134 121 0
144 126 0
142 126 0
146 134 0
141 124 0
124 113 0
115 108 0
148 141 0
138 123 0
131 120 0
145 137 0
138 134 0
137 127 0
139 127 0
118 109 0
144 131 0
138 124 0
129 125 0
136 124 0
138 123 0
151 142 0
130 120 0
140 130 0
153 144 0
143 138 0
144 137 0
136 127 0
145 132 0
138 125 0
148 131 0
151 140 0
149 137 0
148 135 0
137 134 0
146 140 0
148 140 0
151 136 0
156 150 0
138 129 0
139 131 0
150 142 0
143 138 0
146 140 0
142 129 0
152 138 0
149 140 0
143 132 0
147 140 0
143 131 0
154 144 0
152 143 0
152 141 0
151 134 0
141 137 0
156 145 0
152 142 0
137 128 0
147 140 0
151 146 0
142 133 0
144 140 0
150 138 0
141 129 0
149 135 0
154 152 0
151 144 0
152 144 0
153 144 0
149 145 0
148 141 0
155 148 0
137 127 0
151 146 0
155 137 0
151 144 0
157 151 0
153 140 0
148 167 0
147 166 0
147 165 0
145 164 0
153 172 0
149 169 0
155 175 0
158 178 0
145 165 0
153 172 0
155 176 0
151 166 0
143 161 0
143 164 0
149 169 0
146 165 0
149 165 0
150 169 0
155 172 0
148 166 0
143 160 0
139 156 0
146 167 0
139 159 0
138 153 0
150 167 0
148 164 0
155 176 0
153 171 0
147 165 0
139 157 0
155 174 0
133 149 0
149 165 0
148 163 0
142 160 0
148 163 0
139 159 0
136 153 0
142 157 0
138 152 0
143 161 0
158 174 0
142 159 0
147 165 0
136 155 0
140 159 0
146 163 0
156 176 0
149 168 0
140 158 0
136 154 0
149 164 0
128 143 0
142 161 0
141 160 0
124 142 0
148 164 0
128 146 0
122 141 0
141 158 0
149 168 0
126 144 0
137 156 0
137 153 0
142 161 0
130 145 0
136 151 0
131 150 0
143 158 0
141 158 0
126 140 0
143 157 0
140 155 0
149 167 0
133 148 0
139 156 0
146 160 0
124 141 0
140 156 0
127 140 0
132 147 0
142 157 0
141 158 0
143 159 0
104 118 0
132 147 0
138 150 0
134 151 0
123 137 0
133 147 0
137 151 0
112 125 0
126 146 0
123 139 0
126 143 0
122 135 0
95 106 0
100 112 0
138 151 0
106 118 0
111 126 0
89 99 0
112 125 0
85 96 0
94 107 0
103 114 0
109 120 0
104 114 0
82 91 0
94 103 0
122 136 0
90 100 0
113 127 0
101 112 0
123 136 0
136 150 0
98 113 0
85 97 0
114 128 0
143 157 0
120 137 0
83 101 0
100 110 0
135 149 0
125 142 0
138 153 0
87 104 0
137 154 0
127 143 0
116 130 0
154 172 0
147 163 0
140 154 0
124 142 0
142 158 0
114 130 0
152 169 0
122 139 0
130 147 0
112 132 0
108 125 0
139 159 0
156 177 0
106 122 0
107 126 0
93 113 0
110 126 0
92 107 0
135 155 0
119 135 0
133 151 0
116 134 0
88 101 0
147 164 0
120 140 0
130 148 0
147 167 0
101 117 0
78 97 0
100 114 0
87 106 0
111 127 0
114 133 0
117 129 0
104 124 0
93 109 0
100 118 0
98 112 0
108 123 0
125 141 0
99 112 0
35 57 0
106 123 0
114 131 0
90 103 0
87 98 0
118 133 0
93 108 0
56 74 0
104 118 0
84 95 0
60 70 0
84 92 0
84 97 0
62 77 0
25 41 0
76 89 0
47 52 0
68 81 0
55 63 0
56 65 0
84 94 0
61 71 0
74 83 0
87 99 0
6 15 0
24 37 0
100 108 0
26 41 0
61 72 0
69 80 0
92 98 0
67 80 0
21 34 0
60 70 0
63 71 0
85 97 0
58 67 0
62 76 0
17 27 0
55 65 0
49 48 0
57 59 0
106 117 0
78 85 0
60 71 0
23 34 0
100 106 0
112 118 0
86 98 0
97 101 0
88 104 0
98 111 0
91 108 0
74 82 0
59 72 0
104 114 0
88 105 0
89 105 0
101 118 0
106 115 0
106 120 0
127 141 0
111 122 0
84 92 0
85 99 0
136 144 0
117 128 0
99 112 0
129 148 0
140 150 0
99 105 0
113 129 0
125 138 0
90 98 0
99 106 0
83 102 0
122 132 0
100 112 0
82 97 0
157 171 0
96 113 0
94 100 0
147 159 0
131 140 0
104 120 0
126 134 0
127 129 0
110 114 0
127 139 0
122 120 0
129 141 0
104 113 0
97 110 0
115 117 0
114 118 0
131 135 0
107 109 0
124 137 0
124 126 0
87 83 0
125 128 0
116 116 0
134 141 0
129 133 0
108 112 0
149 161 0
114 104 0
112 115 0
113 112 0
128 136 0
123 121 0
124 118 0
117 113 0
130 137 0
124 119 0
96 84 0
87 82 0
95 88 0
88 79 0
95 77 0
103 83 0
80 63 0
125 108 0
97 82 0
99 81 0
149 137 0
129 114 0
124 111 0
131 122 0
113 106 0
132 117 0
136 118 0
116 107 0
129 116 0
93 87 0
131 121 0
129 114 0
139 132 0
98 93 0
146 128 0
145 134 0
121 103 0
128 112 0
115 96 0
137 125 0
121 111 0
123 110 0
100 96 0
149 140 0
134 120 0
146 134 0
140 131 0
136 115 0
151 139 0
134 122 0
142 130 0
134 123 0
142 131 0
141 130 0
137 129 0
137 130 0
148 137 0
138 127 0
140 125 0
133 123 0
114 107 0
133 126 0
113 94 0
144 140 0
129 119 0
145 132 0
148 140 0
138 126 0
138 127 0
143 130 0
148 138 0
127 112 0
148 138 0
142 137 0
129 123 0
147 134 0
141 132 0
137 127 0
152 142 0
142 134 0
148 140 0
147 139 0
153 145 0
149 142 0
151 143 0
145 133 0
144 131 0
159 152 0
141 135 0
143 132 0
142 129 0
141 133 0
146 138 0
145 132 0
134 124 0
140 129 0
149 142 0
141 138 0
151 138 0
148 134 0
145 133 0
150 143 0
152 146 0
146 133 0
154 147 0
156 151 0
154 150 0
157 153 0
130 125 0
150 147 0
149 145 0
147 146 0
136 133 0
145 137 0
149 146 0
155 145 0
142 131 0
156 150 0
147 137 0
149 142 0
152 146 0
141 132 0
138 124 0
151 171 0
149 168 0
144 161 0
153 175 0
151 170 0
149 171 0
157 173 0
147 164 0
150 167 0
153 171 0
143 160 0
150 168 0
147 167 0
147 168 0
150 169 0
146 164 0
147 165 0
151 170 0
142 161 0
146 165 0
153 171 0
150 166 0
151 171 0
154 172 0
156 173 0
139 158 0
146 163 0
137 156 0
151 171 0
151 171 0
149 170 0
156 174 0
155 174 0
153 171 0
143 164 0
145 162 0
141 159 0
132 150 0
141 157 0
132 150 0
147 164 0
139 156 0
144 160 0
147 163 0
140 160 0
133 148 0
148 168 0
138 156 0
140 158 0
143 162 0
152 170 0
140 156 0
143 159 0
151 170 0
151 170 0
133 150 0
114 130 0
131 147 0
153 169 0
141 157 0
134 152 0
133 150 0
131 147 0
146 164 0
131 145 0
140 161 0
142 158 0
137 155 0
129 145 0
147 164 0
114 128 0
135 148 0
126 141 0
140 158 0
128 143 0
133 147 0
130 145 0
129 145 0
130 147 0
107 121 0
120 134 0
132 152 0
117 130 0
130 145 0
127 142 0
119 135 0
128 143 0
129 142 0
107 119 0
145 161 0
133 146 0
133 149 0
120 135 0
123 137 0
103 117 0
121 135 0
116 129 0
121 133 0
113 124 0
107 118 0
88 98 0
75 88 0
107 118 0
103 115 0
116 127 0
98 110 0
68 77 0
105 117 0
110 120 0
107 117 0
103 113 0
128 142 0
95 106 0
59 69 0
131 146 0
129 143 0
125 139 0
105 117 0
113 127 0
116 127 0
128 144 0
134 148 0
89 103 0
133 147 0
115 130 0
121 135 0
107 120 0
115 133 0
140 155 0
93 110 0
114 129 0
119 134 0
109 125 0
113 129 0
96 110 0
119 133 0
128 143 0
159 180 0
128 144 0
127 143 0
125 143 0
140 161 0
127 148 0
126 142 0
125 142 0
112 128 0
153 175 0
110 131 0
147 167 0
120 137 0
87 104 0
141 159 0
104 121 0
116 131 0
34 54 0
135 152 0
117 136 0
71 88 0
129 150 0
132 148 0
88 107 0
85 103 0
141 159 0
75 91 0
95 110 0
84 100 0
135 156 0
118 132 0
103 121 0
88 101 0
112 130 0
113 129 0
153 171 0
100 116 0
76 94 0
84 97 0
83 97 0
120 131 0
45 59 0
93 106 0
53 67 0
59 73 0
51 65 0
123 141 0
21 33 0
60 70 0
74 86 0
61 75 0
105 117 0
86 97 0
65 79 0
31 50 0
7 16 0
25 41 0
61 71 0
63 75 0
105 114 0
23 39 0
33 52 0
61 73 0
63 71 0
88 95 0
65 75 0
61 70 0
83 94 0
27 40 0
31 48 0
79 89 0
51 53 0
30 47 0
21 31 0
65 77 0
85 95 0
17 27 0
72 79 0
109 123 0
26 41 0
65 79 0
119 129 0
122 137 0
66 82 0
123 135 0
59 68 0
58 72 0
120 136 0
29 42 0
77 88 0
80 89 0
119 126 0
84 97 0
107 122 0
61 71 0
82 94 0
57 66 0
111 119 0
115 136 0
118 135 0
93 106 0
66 73 0
117 128 0
118 127 0
141 148 0
95 106 0
116 128 0
111 124 0
117 130 0
93 101 0
135 149 0
130 145 0
110 120 0
147 162 0
83 97 0
103 118 0
97 112 0
156 171 0
150 164 0
141 155 0
154 175 0
128 130 0
113 119 0
138 148 0
120 131 0
151 166 0
107 115 0
130 140 0
112 123 0
81 87 0
116 121 0
152 158 0
123 124 0
126 143 0
119 121 0
92 95 0
131 136 0
135 131 0
139 139 0
99 99 0
122 125 0
122 119 0
112 118 0
105 108 0
119 129 0
86 88 0
97 95 0
99 99 0
97 96 0
79 78 0
122 121 0
106 93 0
103 90 0
93 85 0
126 119 0
124 127 0
83 65 0
80 65 0
75 65 0
84 69 0
97 83 0
93 85 0
119 106 0
98 86 0
101 88 0
97 80 0
101 90 0
137 120 0
87 72 0
114 91 0
118 105 0
119 107 0
121 108 0
119 108 0
137 121 0
137 121 0
125 112 0
113 98 0
127 111 0
125 113 0
94 81 0
136 130 0
130 119 0
136 123 0
123 116 0
133 118 0
137 125 0
131 109 0
123 112 0
131 125 0
132 116 0
139 123 0
140 128 0
122 108 0
134 122 0
140 126 0
140 126 0
130 122 0
147 134 0
135 122 0
150 145 0
132 124 0
136 124 0
141 132 0
154 147 0
143 137 0
147 135 0
133 122 0
137 124 0
128 115 0
140 131 0
140 127 0
144 134 0
149 140 0
135 127 0
138 128 0
144 131 0
125 109 0
149 138 0
150 145 0
151 139 0
147 141 0
152 143 0
143 130 0
157 149 0
154 145 0
137 124 0
143 136 0
143 131 0
140 127 0
146 130 0
149 142 0
136 123 0
156 147 0
150 140 0
147 131 0
138 130 0
146 136 0
157 154 0
141 135 0
149 134 0
137 133 0
135 124 0
138 132 0
145 134 0
148 139 0
149 139 0
153 144 0
144 137 0
153 137 0
153 144 0
153 146 0
147 136 0
153 149 0
146 136 0
154 148 0
155 145 0
154 147 0
143 138 0
144 136 0
149 142 0
153 144 0
153 149 0
154 174 0
147 166 0
147 165 0
146 164 0
152 171 0
154 174 0
152 173 0
140 159 0
154 171 0
155 172 0
145 166 0
151 173 0
145 163 0
147 166 0
139 155 0
139 156 0
149 166 0
145 164 0
144 163 0
149 165 0
151 168 0
151 170 0
148 166 0
155 171 0
150 167 0
161 178 0
154 173 0
151 168 0
154 173 0
151 171 0
144 162 0
140 157 0
146 162 0
148 165 0
128 144 0
136 150 0
141 157 0
152 172 0
148 166 0
146 164 0
131 147 0
135 151 0
149 166 0
141 157 0
140 157 0
139 156 0
151 168 0
149 167 0
145 162 0
131 148 0
139 156 0
132 147 0
135 153 0
147 167 0
140 157 0
154 170 0
146 162 0
139 156 0
144 160 0
147 167 0
139 155 0
133 150 0
134 153 0
117 134 0
121 137 0
140 157 0
139 158 0
136 151 0
141 158 0
144 160 0
114 132 0
135 151 0
143 159 0
132 146 0
118 135 0
137 156 0
124 141 0
135 151 0
145 159 0
137 152 0
139 155 0
126 141 0
130 147 0
110 126 0
130 144 0
126 140 0
98 109 0
122 137 0
144 161 0
112 127 0
130 144 0
110 125 0
114 129 0
116 131 0
94 105 0
113 129 0
95 108 0
115 127 0
83 95 0
102 115 0
101 114 0
105 118 0
123 135 0
91 102 0
67 75 0
89 99 0
95 105 0
108 120 0
103 113 0
82 92 0
99 114 0
105 119 0
124 137 0
121 136 0
72 87 0
85 96 0
104 118 0
112 124 0
133 148 0
124 139 0
146 163 0
124 140 0
130 146 0
100 116 0
105 119 0
119 134 0
123 138 0
118 132 0
114 130 0
122 137 0
152 172 0
112 126 0
102 116 0
93 108 0
101 120 0
126 144 0
159 177 0
139 155 0
112 128 0
137 155 0
114 133 0
124 138 0
109 128 0
141 160 0
104 120 0
150 170 0
130 151 0
124 142 0
93 110 0
124 139 0
116 134 0
98 117 0
121 135 0
125 141 0
99 118 0
126 143 0
137 157 0
91 110 0
112 130 0
119 136 0
151 167 0
84 99 0
67 84 0
112 131 0
118 135 0
104 118 0
104 124 0
112 128 0
62 80 0
100 114 0
82 92 0
79 96 0
100 119 0
82 94 0
151 170 0
123 143 0
96 109 0
123 138 0
87 103 0
132 147 0
64 81 0
102 116 0
91 105 0
116 131 0
102 114 0
86 101 0
115 130 0
63 77 0
74 86 0
86 99 0
59 70 0
61 75 0
100 113 0
61 70 0
20 34 0
12 20 0
14 27 0
63 73 0
64 79 0
65 81 0
104 114 0
63 76 0
64 79 0
25 41 0
69 85 0
62 70 0
12 17 0
100 111 0
30 46 0
24 40 0
58 65 0
85 100 0
78 87 0
17 31 0
96 102 0
62 74 0
64 71 0
90 106 0
109 122 0
113 124 0
118 131 0
84 95 0
93 101 0
83 98 0
92 103 0
112 123 0
94 102 0
33 48 0
106 119 0
103 117 0
110 123 0
82 95 0
150 166 0
99 107 0
93 113 0
154 170 0
98 110 0
119 135 0
104 117 0
112 124 0
104 115 0
138 149 0
140 159 0
55 65 0
105 115 0
126 137 0
142 158 0
128 133 0
116 126 0
121 128 0
131 149 0
82 93 0
123 134 0
124 127 0
121 138 0
141 154 0
108 117 0
83 95 0
113 122 0
110 109 0
88 89 0
115 117 0
118 120 0
144 155 0
130 136 0
122 133 0
133 143 0
159 175 0
145 150 0
105 112 0
129 140 0
98 104 0
122 132 0
129 136 0
133 140 0
128 139 0
125 129 0
89 99 0
132 135 0
130 131 0
115 121 0
139 137 0
110 111 0
100 86 0
81 78 0
140 145 0
91 89 0
85 87 0
84 86 0
99 96 0
80 67 0
131 129 0
116 110 0
85 72 0
110 103 0
109 100 0
96 74 0
104 93 0
88 62 0
80 68 0
120 102 0
82 70 0
124 112 0
100 88 0
91 76 0
121 104 0
147 136 0
113 88 0
120 109 0
134 114 0
105 99 0
141 126 0
113 93 0
123 109 0
129 112 0
128 112 0
134 119 0
127 109 0
121 111 0
115 93 0
135 119 0
132 123 0
131 120 0
122 113 0
126 112 0
127 122 0
139 129 0
142 128 0
132 121 0
134 114 0
143 128 0
117 104 0
126 111 0
143 128 0
149 144 0
140 131 0
151 145 0
142 127 0
143 134 0
125 108 0
144 138 0
150 141 0
138 123 0
132 119 0
135 126 0
119 113 0
125 112 0
151 139 0
150 139 0
145 131 0
141 134 0
148 135 0
143 135 0
147 138 0
124 117 0
148 140 0
149 136 0
141 136 0
141 136 0
120 108 0
155 143 0
149 136 0
149 138 0
156 153 0
141 133 0
139 131 0
144 137 0
158 146 0
146 139 0
152 141 0
145 138 0
152 138 0
147 137 0
146 133 0
156 151 0
147 132 0
143 129 0
146 135 0
147 137 0
149 138 0
127 116 0
160 152 0
149 137 0
146 139 0
157 148 0
141 130 0
144 135 0
150 142 0
147 129 0
148 139 0
150 145 0
155 150 0
150 143 0
151 149 0
145 138 0
147 138 0
152 146 0
147 135 0
151 143 0
154 143 0
144 164 0
151 171 0
149 171 0
147 165 0
157 176 0
146 165 0
147 164 0
150 170 0
148 163 0
141 159 0
148 166 0
138 157 0
150 169 0
151 170 0
146 165 0
143 164 0
152 170 0
157 175 0
134 152 0
144 160 0
149 167 0
144 160 0
146 165 0
141 158 0
143 159 0
145 166 0
143 162 0
147 167 0
136 155 0
146 164 0
152 169 0
141 159 0
122 138 0
151 169 0
151 170 0
159 176 0
150 166 0
120 138 0
139 156 0
136 153 0
155 175 0
144 161 0
135 152 0
141 159 0
153 172 0
144 162 0
145 161 0
141 156 0
135 152 0
127 144 0
139 156 0
142 159 0
143 163 0
125 140 0
138 151 0
139 158 0
123 141 0
131 148 0
137 153 0
147 165 0
152 169 0
126 142 0
132 148 0
144 160 0
135 153 0
127 146 0
137 156 0
138 153 0
98 111 0
135 151 0
132 145 0
147 163 0
129 148 0
144 161 0
93 105 0
121 135 0
133 149 0
127 142 0
116 128 0
127 142 0
123 134 0
137 154 0
125 139 0
124 139 0
109 124 0
141 156 0
135 153 0
106 118 0
138 153 0
135 152 0
100 108 0
113 129 0
96 110 0
93 103 0
109 123 0
106 119 0
106 120 0
84 96 0
104 116 0
101 112 0
68 80 0
87 95 0
73 81 0
139 152 0
108 119 0
91 102 0
102 113 0
114 126 0
79 86 0
106 117 0
114 127 0
111 121 0
115 128 0
115 127 0
98 110 0
97 107 0
96 108 0
142 158 0
76 89 0
113 129 0
112 124 0
138 154 0
124 138 0
97 110 0
149 168 0
129 143 0
137 152 0
140 157 0
137 157 0
135 150 0
125 141 0
142 160 0
125 139 0
154 174 0
137 155 0
119 137 0
114 133 0
100 117 0
66 81 0
109 128 0
129 151 0
136 151 0
110 127 0
134 152 0
154 170 0
118 137 0
98 116 0
126 145 0
94 111 0
100 121 0
100 117 0
120 140 0
102 115 0
115 133 0
97 114 0
113 127 0
111 128 0
110 128 0
114 132 0
89 107 0
128 142 0
91 108 0
137 153 0
119 138 0
98 117 0
114 132 0
129 146 0
62 81 0
67 84 0
127 144 0
114 130 0
99 118 0
118 132 0
97 115 0
117 131 0
63 76 0
64 79 0
88 106 0
108 125 0
80 93 0
59 73 0
93 104 0
85 96 0
80 93 0
131 145 0
103 116 0
85 99 0
115 130 0
90 105 0
87 104 0
116 129 0
114 130 0
13 21 0
64 76 0
64 76 0
59 66 0
89 102 0
83 92 0
132 146 0
14 21 0
17 30 0
107 122 0
23 38 0
88 100 0
27 44 0
97 106 0
102 114 0
66 79 0
60 70 0
72 82 0
89 98 0
102 115 0
14 22 0
100 107 0
110 116 0
76 85 0
108 122 0
61 73 0
62 76 0
117 134 0
82 86 0
76 85 0
33 53 0
113 124 0
113 131 0
100 114 0
115 126 0
76 85 0
113 125 0
92 105 0
82 88 0
120 138 0
130 135 0
94 104 0
139 160 0
114 125 0
128 134 0
118 134 0
118 125 0
120 131 0
107 120 0
103 114 0
124 143 0
114 127 0
132 149 0
131 142 0
85 100 0
113 131 0
126 140 0
135 152 0
138 154 0
140 150 0
109 115 0
132 143 0
119 138 0
139 154 0
154 170 0
92 100 0
137 157 0
114 129 0
119 131 0
93 100 0
117 128 0
116 119 0
120 128 0
92 95 0
84 87 0
112 123 0
119 125 0
127 127 0
91 93 0
147 147 0
123 122 0
118 128 0
125 121 0
107 105 0
122 120 0
76 85 0
143 142 0
111 111 0
119 123 0
126 124 0
100 96 0
104 110 0
106 106 0
128 130 0
80 73 0
127 128 0
89 87 0
110 99 0
100 94 0
90 89 0
112 103 0
72 60 0
80 78 0
104 101 0
95 89 0
95 79 0
101 82 0
116 99 0
117 101 0
133 118 0
93 81 0
93 83 0
95 80 0
128 112 0
111 94 0
96 79 0
114 108 0
126 115 0
124 105 0
112 97 0
127 114 0
135 120 0
104 92 0
135 126 0
114 92 0
126 114 0
115 94 0
133 114 0
118 110 0
123 105 0
128 116 0
127 115 0
128 110 0
133 119 0
130 114 0
141 121 0
139 124 0
145 134 0
133 119 0
144 128 0
149 140 0
141 129 0
136 119 0
138 126 0
132 126 0
127 112 0
149 136 0
141 129 0
122 108 0
128 113 0
155 144 0
150 142 0
130 116 0
151 134 0
142 128 0
134 126 0
152 145 0
132 116 0
110 103 0
133 119 0
125 115 0
122 113 0
119 106 0
137 130 0
134 117 0
137 123 0
151 138 0
145 138 0
132 124 0
133 121 0
148 138 0
151 149 0
151 136 0
146 132 0
140 127 0
152 146 0
149 142 0
130 119 0
143 125 0
136 123 0
140 135 0
145 134 0
148 137 0
142 134 0
148 136 0
147 141 0
142 122 0
154 147 0
146 140 0
142 131 0
140 127 0
148 141 0
146 138 0
142 125 0
139 133 0
140 123 0
155 150 0
157 147 0
152 146 0
145 133 0
151 143 0
142 129 0
154 150 0
150 143 0
148 139 0
147 142 0
155 150 0
149 148 0
157 179 0
148 167 0
152 170 0
153 171 0
149 168 0
156 175 0
151 171 0
156 175 0
145 164 0
138 157 0
141 158 0
148 167 0
151 169 0
150 165 0
148 166 0
149 167 0
138 156 0
150 167 0
148 167 0
139 158 0
155 175 0
156 173 0
138 158 0
150 165 0
142 158 0
139 155 0
146 160 0
149 166 0
147 166 0
150 168 0
144 160 0
142 161 0
143 161 0
134 150 0
146 165 0
132 152 0
151 171 0
141 158 0
143 161 0
132 148 0
137 156 0
139 155 0
141 156 0
135 152 0
145 160 0
116 134 0
144 163 0
151 168 0
149 164 0
151 166 0
125 140 0
138 157 0
140 156 0
125 140 0
139 156 0
128 144 0
136 154 0
135 153 0
145 160 0
133 150 0
124 142 0
145 163 0
117 132 0
140 157 0
132 151 0
98 112 0
129 144 0
117 135 0
116 131 0
141 157 0
122 139 0
144 162 0
127 142 0
114 125 0
124 138 0
118 132 0
112 125 0
141 156 0
114 129 0
102 114 0
133 148 0
127 141 0
107 123 0
117 133 0
125 141 0
123 135 0
106 119 0
101 111 0
111 127 0
112 123 0
119 131 0
114 128 0
112 125 0
88 99 0
125 135 0
94 106 0
115 127 0
102 113 0
91 100 0
81 88 0
57 66 0
95 106 0
53 62 0
94 106 0
108 119 0
88 101 0
114 127 0
99 111 0
106 114 0
98 110 0
150 165 0
119 131 0
97 110 0
102 113 0
98 109 0
132 147 0
104 117 0
125 140 0
116 128 0
109 123 0
117 131 0
127 142 0
73 89 0
126 140 0
116 130 0
84 100 0
105 119 0
134 153 0
109 122 0
59 75 0
117 132 0
130 145 0
133 150 0
125 143 0
140 157 0
130 146 0
97 117 0
116 134 0
104 119 0
109 129 0
118 137 0
119 138 0
131 146 0
132 150 0
134 150 0
125 145 0
125 144 0
89 108 0
125 145 0
98 115 0
109 126 0
119 137 0
129 148 0
140 157 0
114 133 0
138 155 0
127 146 0
120 137 0
119 135 0
93 111 0
146 164 0
114 133 0
99 117 0
115 130 0
128 147 0
97 112 0
64 79 0
83 97 0
134 150 0
116 134 0
107 122 0
83 99 0
89 110 0
109 123 0
94 110 0
85 100 0
131 148 0
125 143 0
60 76 0
88 107 0
83 94 0
95 114 0
84 103 0
104 114 0
102 120 0
90 103 0
105 124 0
88 105 0
52 65 0
103 118 0
66 82 0
95 109 0
112 128 0
60 73 0
73 83 0
81 94 0
34 53 0
88 96 0
30 47 0
103 119 0
8 18 0
23 40 0
72 77 0
81 92 0
125 143 0
103 118 0
90 105 0
90 103 0
99 113 0
58 69 0
63 79 0
79 87 0
119 131 0
84 99 0
87 97 0
32 51 0
77 87 0
70 87 0
101 113 0
100 116 0
130 146 0
102 113 0
88 99 0
104 116 0
128 143 0
87 102 0
88 101 0
107 117 0
87 104 0
101 107 0
124 137 0
34 53 0
67 86 0
70 87 0
55 64 0
123 138 0
102 111 0
112 121 0
119 135 0
116 132 0
140 150 0
138 156 0
119 135 0
139 153 0
114 121 0
101 119 0
113 121 0
146 162 0
132 142 0
94 106 0
138 154 0
112 130 0
145 154 0
114 126 0
99 116 0
116 128 0
120 131 0
154 169 0
110 127 0
146 164 0
155 168 0
118 124 0
141 151 0
123 129 0
120 137 0
75 81 0
130 140 0
121 130 0
129 145 0
134 149 0
101 105 0
123 129 0
143 148 0
127 141 0
112 128 0
71 68 0
119 121 0
109 117 0
111 105 0
137 142 0
117 123 0
120 125 0
125 128 0
118 128 0
101 94 0
93 91 0
112 109 0
94 88 0
96 84 0
123 123 0
119 123 0
73 77 0
113 112 0
105 109 0
100 88 0
97 81 0
81 62 0
58 43 0
88 83 0
47 37 0
96 77 0
89 69 0
106 93 0
114 100 0
106 79 0
94 78 0
106 87 0
101 85 0
102 87 0
119 105 0
98 89 0
136 116 0
112 89 0
144 133 0
141 123 0
127 113 0
127 109 0
126 108 0
127 116 0
117 106 0
123 116 0
136 129 0
134 123 0
123 99 0
128 110 0
138 124 0
132 119 0
139 126 0
130 115 0
148 139 0
142 128 0
134 122 0
134 119 0
137 122 0
152 139 0
132 115 0
134 125 0
131 123 0
133 122 0
132 116 0
141 126 0
136 128 0
116 99 0
109 95 0
148 131 0
144 132 0
143 133 0
144 132 0
145 133 0
143 133 0
139 125 0
141 129 0
153 144 0
133 122 0
144 134 0
133 120 0
149 133 0
140 133 0
144 129 0
155 144 0
135 123 0
155 145 0
144 132 0
142 134 0
135 123 0
154 147 0
148 141 0
123 116 0
136 124 0
142 128 0
146 138 0
119 103 0
146 137 0
149 135 0
152 141 0
137 122 0
142 137 0
154 146 0
150 139 0
146 129 0
150 139 0
141 129 0
141 136 0
148 134 0
150 143 0
151 143 0
156 148 0
142 129 0
145 128 0
145 133 0
151 143 0
151 140 0
158 154 0
148 141 0
143 137 0
155 148 0
149 147 0
154 144 0
147 140 0
158 166 0
167 192 0
175 196 0
162 186 0
151 172 0
157 175 0
137 157 0
147 167 0
150 170 0
150 168 0
143 161 0
150 167 0
149 167 0
156 172 0
151 169 0
153 171 0
155 171 0
152 171 0
147 164 0
142 160 0
145 165 0
149 167 0
138 155 0
145 163 0
143 160 0
153 171 0
146 164 0
145 162 0
145 163 0
150 166 0
143 163 0
141 158 0
142 159 0
148 167 0
146 163 0
138 155 0
151 167 0
139 155 0
139 157 0
142 159 0
153 172 0
143 159 0
145 163 0
137 151 0
149 165 0
119 133 0
152 168 0
145 161 0
144 162 0
146 165 0
132 147 0
150 165 0
149 167 0
138 153 0
144 161 0
140 156 0
147 165 0
135 150 0
122 138 0
124 140 0
150 166 0
129 144 0
116 130 0
126 143 0
138 150 0
139 154 0
147 162 0
123 135 0
119 134 0
109 126 0
133 148 0
124 142 0
120 138 0
131 147 0
124 137 0
138 155 0
122 137 0
133 150 0
137 153 0
117 131 0
104 115 0
120 134 0
125 138 0
134 150 0
130 142 0
119 132 0
104 115 0
113 127 0
107 121 0
92 106 0
114 126 0
117 133 0
92 104 0
98 109 0
87 97 0
131 143 0
81 92 0
73 82 0
76 86 0
48 57 0
54 61 0
88 96 0
89 100 0
77 87 0
92 104 0
132 144 0
112 125 0
102 112 0
126 138 0
118 129 0
118 131 0
95 111 0
95 108 0
107 117 0
91 102 0
130 145 0
106 122 0
101 114 0
138 153 0
127 143 0
130 147 0
109 122 0
145 162 0
129 146 0
82 96 0
119 134 0
140 158 0
113 129 0
117 134 0
108 120 0
137 153 0
135 154 0
115 131 0
133 150 0
134 152 0
153 172 0
132 152 0
115 134 0
87 101 0
146 162 0
134 149 0
133 151 0
125 143 0
122 138 0
131 150 0
107 125 0
104 120 0
112 130 0
129 148 0
128 145 0
113 127 0
120 138 0
100 120 0
113 131 0
129 148 0
108 124 0
144 166 0
111 131 0
118 137 0
99 117 0
130 146 0
97 118 0
102 120 0
118 136 0
83 101 0
119 137 0
128 145 0
137 157 0
95 109 0
113 131 0
75 93 0
60 78 0
160 177 0
84 106 0
108 127 0
124 139 0
100 114 0
90 104 0
89 103 0
89 104 0
99 119 0
78 99 0
114 130 0
90 102 0
91 105 0
112 128 0
71 89 0
101 118 0
85 100 0
107 122 0
28 44 0
21 37 0
80 94 0
92 107 0
64 82 0
84 96 0
56 68 0
74 89 0
115 131 0
70 85 0
69 88 0
103 110 0
63 75 0
66 81 0
58 75 0
77 85 0
77 93 0
109 124 0
83 98 0
105 123 0
100 110 0
102 119 0
83 98 0
71 89 0
128 142 0
32 51 0
101 117 0
85 100 0
97 103 0
83 96 0
104 120 0
86 101 0
121 134 0
82 91 0
114 127 0
81 91 0
144 159 0
100 111 0
99 106 0
104 119 0
62 71 0
100 114 0
104 114 0
85 91 0
81 96 0
65 84 0
81 90 0
90 94 0
95 107 0
125 135 0
105 120 0
111 125 0
121 135 0
158 168 0
128 142 0
114 126 0
109 118 0
128 147 0
130 145 0
122 138 0
127 133 0
140 155 0
150 170 0
109 118 0
89 96 0
139 143 0
122 136 0
136 147 0
148 158 0
135 140 0
107 120 0
164 179 0
151 155 0
150 153 0
108 120 0
129 137 0
107 121 0
125 138 0
114 117 0
111 114 0
114 122 0
145 151 0
136 151 0
121 126 0
112 122 0
136 145 0
123 129 0
143 151 0
110 125 0
152 156 0
135 131 0
120 122 0
125 127 0
124 120 0
101 96 0
109 104 0
103 90 0
138 139 0
103 113 0
140 141 0
133 142 0
107 101 0
150 154 0
100 95 0
99 89 0
79 75 0
72 59 0
80 72 0
101 101 0
83 76 0
87 86 0
59 54 0
81 64 0
61 46 0
67 54 0
84 66 0
110 99 0
124 100 0
121 106 0
116 98 0
102 90 0
112 90 0
91 75 0
102 91 0
95 78 0
117 102 0
128 109 0
128 111 0
138 123 0
101 83 0
113 105 0
123 111 0
138 119 0
137 124 0
118 95 0
113 89 0
115 105 0
125 111 0
130 115 0
128 115 0
126 110 0
117 106 0
132 110 0
135 120 0
143 133 0
123 112 0
148 126 0
115 102 0
127 112 0
130 116 0
149 132 0
120 100 0
138 128 0
135 117 0
133 114 0
139 125 0
139 131 0
126 117 0
139 132 0
145 126 0
112 97 0
120 109 0
140 128 0
130 114 0
137 133 0
133 123 0
153 138 0
144 137 0
148 144 0
116 101 0
129 113 0
141 132 0
151 141 0
142 125 0
143 133 0
150 140 0
136 127 0
153 147 0
147 135 0
142 126 0
132 123 0
151 139 0
143 126 0
151 140 0
147 137 0
146 141 0
135 123 0
155 140 0
149 136 0
146 131 0
147 134 0
144 134 0
140 129 0
152 141 0
149 134 0
141 130 0
144 135 0
148 134 0
152 138 0
147 135 0
152 143 0
141 133 0
150 142 0
154 146 0
149 140 0
153 149 0
147 138 0
150 150 0
167 181 0
173 197 0
165 185 0
170 192 0
168 193 0
176 196 0
172 195 0
166 187 0
158 179 0
156 176 0
147 168 0
158 176 0
146 165 0
148 166 0
157 175 0
156 173 0
151 170 0
151 169 0
134 152 0
140 158 0
142 159 0
133 148 0
130 146 0
150 168 0
150 168 0
135 151 0
139 155 0
154 169 0
153 174 0
151 167 0
145 163 0
124 139 0
130 147 0
132 144 0
137 153 0
140 159 0
154 170 0
143 158 0
147 164 0
151 170 0
150 168 0
141 156 0
151 165 0
158 175 0
135 151 0
135 152 0
141 157 0
141 159 0
134 149 0
135 150 0
138 154 0
139 154 0
137 152 0
118 133 0
144 160 0
150 165 0
141 158 0
134 148 0
139 155 0
148 166 0
138 157 0
143 159 0
130 145 0
130 145 0
149 164 0
135 150 0
138 155 0
132 148 0
128 146 0
131 146 0
124 139 0
106 117 0
117 124 0
132 146 0
125 137 0
132 149 0
113 125 0
140 156 0
124 138 0
117 130 0
138 152 0
129 143 0
83 96 0
135 150 0
126 138 0
105 114 0
129 142 0
124 137 0
128 141 0
99 111 0
102 116 0
83 92 0
107 119 0
107 120 0
90 101 0
101 112 0
105 116 0
85 93 0
101 111 0
111 120 0
94 104 0
112 122 0
88 96 0
105 116 0
118 128 0
84 97 0
111 125 0
119 134 0
100 113 0
135 149 0
77 86 0
123 139 0
88 105 0
129 142 0
114 126 0
109 125 0
72 88 0
113 128 0
134 150 0
146 161 0
154 169 0
131 147 0
142 157 0
102 119 0
104 118 0
126 144 0
134 151 0
109 123 0
101 117 0
133 148 0
143 158 0
116 133 0
113 130 0
146 165 0
139 157 0
119 134 0
123 137 0
111 128 0
88 106 0
121 139 0
109 128 0
135 150 0
117 134 0
99 114 0
133 152 0
132 149 0
85 103 0
143 160 0
100 114 0
145 165 0
112 131 0
143 164 0
118 135 0
116 134 0
136 155 0
134 150 0
90 107 0
119 139 0
160 181 0
124 140 0
137 157 0
95 116 0
111 128 0
92 112 0
96 113 0
111 127 0
126 144 0
92 111 0
134 152 0
66 84 0
91 109 0
115 134 0
100 118 0
111 129 0
71 84 0
115 130 0
98 119 0
145 161 0
105 120 0
112 131 0
110 126 0
81 97 0
80 95 0
86 104 0
96 113 0
128 151 0
61 80 0
116 133 0
82 99 0
96 110 0
134 150 0
104 119 0
89 103 0
82 94 0
87 103 0
86 104 0
81 95 0
104 122 0
54 70 0
51 67 0
59 74 0
64 80 0
64 75 0
100 115 0
90 109 0
56 71 0
95 105 0
95 105 0
86 104 0
98 110 0
81 96 0
67 78 0
61 78 0
36 55 0
105 118 0
65 82 0
80 92 0
65 79 0
104 117 0
108 116 0
71 77 0
63 79 0
95 110 0
130 142 0
107 124 0
70 85 0
119 138 0
99 118 0
83 99 0
105 120 0
105 121 0
110 124 0
115 130 0
92 100 0
100 106 0
115 127 0
130 139 0
102 114 0
121 137 0
123 136 0
151 164 0
151 166 0
126 135 0
109 118 0
152 167 0
111 124 0
123 135 0
124 132 0
123 137 0
105 110 0
124 143 0
127 145 0
110 121 0
140 146 0
125 144 0
98 116 0
122 138 0
125 135 0
135 154 0
154 170 0
149 162 0
130 145 0
106 117 0
94 102 0
126 131 0
128 139 0
137 149 0
128 142 0
135 139 0
136 149 0
116 125 0
101 107 0
113 123 0
93 104 0
119 123 0
130 134 0
120 125 0
136 148 0
111 106 0
117 130 0
131 136 0
111 112 0
117 116 0
129 136 0
120 124 0
81 85 0
113 116 0
99 96 0
149 152 0
104 110 0
128 127 0
84 83 0
95 94 0
94 91 0
94 88 0
109 109 0
122 125 0
105 101 0
86 77 0
107 92 0
127 130 0
117 108 0
67 56 0
101 91 0
113 101 0
83 76 0
54 40 0
80 62 0
92 76 0
59 44 0
62 38 0
106 86 0
125 105 0
74 61 0
95 80 0
108 84 0
125 110 0
130 113 0
118 97 0
118 95 0
137 121 0
112 99 0
103 89 0
127 120 0
148 137 0
138 125 0
118 106 0
120 101 0
121 106 0
124 111 0
133 115 0
125 112 0
135 115 0
128 108 0
120 106 0
122 116 0
134 117 0
150 141 0
138 120 0
130 110 0
126 109 0
141 120 0
131 120 0
131 114 0
128 111 0
136 125 0
137 120 0
146 130 0
123 103 0
144 132 0
150 137 0
131 115 0
143 129 0
144 134 0
147 136 0
132 119 0
124 113 0
141 130 0
130 119 0
139 123 0
133 118 0
137 123 0
150 137 0
148 136 0
144 124 0
144 136 0
138 126 0
151 138 0
149 142 0
144 131 0
149 133 0
138 120 0
153 141 0
147 135 0
142 134 0
144 125 0
128 118 0
142 132 0
143 131 0
128 110 0
147 140 0
149 130 0
141 134 0
149 142 0
143 129 0
149 140 0
142 129 0
154 140 0
152 146 0
152 144 0
149 141 0
149 141 0
131 108 0
145 133 0
152 149 0
148 141 0
151 143 0
163 172 0
163 170 0
170 183 0
165 183 0
173 193 0
160 177 0
173 193 0
169 193 0
173 196 0
175 198 0
162 187 0
171 196 0
165 188 0
165 185 0
168 188 0
163 182 0
154 173 0
150 166 0
141 158 0
143 165 0
152 169 0
155 174 0
137 152 0
143 162 0
150 166 0
150 167 0
149 167 0
156 174 0
139 156 0
145 161 0
146 165 0
147 165 0
152 167 0
143 160 0
127 143 0
143 159 0
143 158 0
135 150 0
149 165 0
150 166 0
148 164 0
138 156 0
140 157 0
136 153 0
142 156 0
129 146 0
130 145 0
144 160 0
143 157 0
137 154 0
142 159 0
142 156 0
131 144 0
140 158 0
135 153 0
142 157 0
136 153 0
138 153 0
145 161 0
142 158 0
144 162 0
139 154 0
135 150 0
139 153 0
120 135 0
148 163 0
117 132 0
157 174 0
136 154 0
140 155 0
141 155 0
132 144 0
134 149 0
120 137 0
115 129 0
126 141 0
105 115 0
117 132 0
141 157 0
120 133 0
116 133 0
120 133 0
112 125 0
112 124 0
118 129 0
82 91 0
131 143 0
103 113 0
125 136 0
67 76 0
134 147 0
75 87 0
82 94 0
73 81 0
111 121 0
102 110 0
85 95 0
76 84 0
82 88 0
66 75 0
131 143 0
103 114 0
72 80 0
107 117 0
81 93 0
115 128 0
135 147 0
87 97 0
130 143 0
131 142 0
101 113 0
125 137 0
112 124 0
125 139 0
97 108 0
129 143 0
82 98 0
145 158 0
121 138 0
84 96 0
112 127 0
75 87 0
137 154 0
125 140 0
116 132 0
132 150 0
148 163 0
115 130 0
97 109 0
108 129 0
78 95 0
114 127 0
124 142 0
157 172 0
106 118 0
83 100 0
146 164 0
110 125 0
74 94 0
144 163 0
151 168 0
140 158 0
144 161 0
110 130 0
152 169 0
139 156 0
108 126 0
95 108 0
130 150 0
131 147 0
104 121 0
127 145 0
151 172 0
157 174 0
149 170 0
83 100 0
141 160 0
68 90 0
121 141 0
117 134 0
134 151 0
136 152 0
140 162 0
114 133 0
86 110 0
96 113 0
134 152 0
87 104 0
112 128 0
98 116 0
118 135 0
132 149 0
127 146 0
102 117 0
141 158 0
95 112 0
84 101 0
68 83 0
86 101 0
82 100 0
103 117 0
67 79 0
101 120 0
67 84 0
110 126 0
122 138 0
84 100 0
135 153 0
116 134 0
73 91 0
97 113 0
121 139 0
37 59 0
83 100 0
130 141 0
131 150 0
69 85 0
92 109 0
101 115 0
63 81 0
82 93 0
122 138 0
73 89 0
81 94 0
84 98 0
87 105 0
103 122 0
103 119 0
61 75 0
151 170 0
105 120 0
51 62 0
105 120 0
80 88 0
61 73 0
79 93 0
78 90 0
89 108 0
104 113 0
119 136 0
102 121 0
105 111 0
89 104 0
124 135 0
101 117 0
92 105 0
99 112 0
62 71 0
77 96 0
111 125 0
94 107 0
76 91 0
99 116 0
127 145 0
135 155 0
107 121 0
113 118 0
83 97 0
115 135 0
99 112 0
103 117 0
127 141 0
96 113 0
106 119 0
100 118 0
127 143 0
98 100 0
122 130 0
93 112 0
139 148 0
126 148 0
126 131 0
108 123 0
115 128 0
150 165 0
141 156 0
114 130 0
138 154 0
97 112 0
150 161 0
132 141 0
120 126 0
153 172 0
117 127 0
138 148 0
131 139 0
139 154 0
139 154 0
111 123 0
114 128 0
124 142 0
132 140 0
117 130 0
98 112 0
124 145 0
129 140 0
122 121 0
84 90 0
148 157 0
144 153 0
115 127 0
116 124 0
68 82 0
129 134 0
130 141 0
128 140 0
154 164 0
130 138 0
130 142 0
124 118 0
147 152 0
127 136 0
85 88 0
99 108 0
118 126 0
110 105 0
128 130 0
119 105 0
115 121 0
126 131 0
92 84 0
104 101 0
103 97 0
104 95 0
108 104 0
115 116 0
71 63 0
73 64 0
104 90 0
123 115 0
83 79 0
82 73 0
68 60 0
91 86 0
84 61 0
81 64 0
104 85 0
100 80 0
95 77 0
107 91 0
117 98 0
116 100 0
103 85 0
109 91 0
122 104 0
119 98 0
123 101 0
132 123 0
133 114 0
113 97 0
145 129 0
117 99 0
125 104 0
108 91 0
142 130 0
126 112 0
130 114 0
140 117 0
132 118 0
134 117 0
108 92 0
139 124 0
135 122 0
142 127 0
112 99 0
116 104 0
131 116 0
125 107 0
144 129 0
143 133 0
132 116 0
133 114 0
127 110 0
134 118 0
125 106 0
140 126 0
135 118 0
153 141 0
135 118 0
155 144 0
137 121 0
144 124 0
136 123 0
125 108 0
127 114 0
149 139 0
138 122 0
144 131 0
143 128 0
139 130 0
140 121 0
129 122 0
144 133 0
150 144 0
151 138 0
135 121 0
142 129 0
149 133 0
146 134 0
139 125 0
149 133 0
144 124 0
136 127 0
147 140 0
145 130 0
143 127 0
141 129 0
151 139 0
147 138 0
146 136 0
145 130 0
145 129 0
144 137 0
148 138 0
145 134 0
153 146 0
160 155 0
160 164 0
168 186 0
177 194 0
169 180 0
173 194 0
169 188 0
176 198 0
171 186 0
173 194 0
171 194 0
163 187 0
171 194 0
172 193 0
163 187 0
174 197 0
167 189 0
165 188 0
167 190 0
168 187 0
160 184 0
164 185 0
155 175 0
163 180 0
156 173 0
154 173 0
144 160 0
150 166 0
144 160 0
150 166 0
144 162 0
143 163 0
149 165 0
160 176 0
133 149 0
138 154 0
151 169 0
143 160 0
141 157 0
135 150 0
150 168 0
144 159 0
149 166 0
137 156 0
139 152 0
140 157 0
134 152 0
150 167 0
140 154 0
144 162 0
134 149 0
122 139 0
142 157 0
138 157 0
149 166 0
132 147 0
153 171 0
136 153 0
110 123 0
139 155 0
140 156 0
139 154 0
129 146 0
148 163 0
116 132 0
145 161 0
141 156 0
145 163 0
123 137 0
131 146 0
138 154 0
128 144 0
128 142 0
113 128 0
123 138 0
137 153 0
123 137 0
100 111 0
99 115 0
135 148 0
143 161 0
136 152 0
116 131 0
118 130 0
121 130 0
98 110 0
112 125 0
124 137 0
133 146 0
108 121 0
100 112 0
130 143 0
131 144 0
106 115 0
120 131 0
109 119 0
92 100 0
104 114 0
86 93 0
60 66 0
99 109 0
73 82 0
79 87 0
114 123 0
76 83 0
77 84 0
116 126 0
124 136 0
80 92 0
78 86 0
107 118 0
99 109 0
127 141 0
106 117 0
126 137 0
107 121 0
133 148 0
139 155 0
81 93 0
134 149 0
141 153 0
140 156 0
138 153 0
147 164 0
84 98 0
114 128 0
131 149 0
141 157 0
105 123 0
134 149 0
98 113 0
149 166 0
143 159 0
100 114 0
155 172 0
123 143 0
114 128 0
127 146 0
100 113 0
144 165 0
122 141 0
106 125 0
142 160 0
99 117 0
124 142 0
114 130 0
118 134 0
135 155 0
125 143 0
120 135 0
74 91 0
119 134 0
135 156 0
148 167 0
130 148 0
133 156 0
120 136 0
109 128 0
136 155 0
121 140 0
163 181 0
133 153 0
100 120 0
99 116 0
113 134 0
124 145 0
106 127 0
102 116 0
136 152 0
116 135 0
147 166 0
80 95 0
120 139 0
94 113 0
143 163 0
90 108 0
125 144 0
115 132 0
111 128 0
135 152 0
103 120 0
100 118 0
112 129 0
152 166 0
95 113 0
143 161 0
103 121 0
108 127 0
109 125 0
66 85 0
115 128 0
103 123 0
108 127 0
130 148 0
144 160 0
115 132 0
74 89 0
105 122 0
105 123 0
63 80 0
131 151 0
88 105 0
83 99 0
123 137 0
128 145 0
98 110 0
102 116 0
106 124 0
67 83 0
135 155 0
88 102 0
114 122 0
105 120 0
120 138 0
77 86 0
102 116 0
38 60 0
98 106 0
133 149 0
139 152 0
115 132 0
95 105 0
117 133 0
63 79 0
111 126 0
86 96 0
113 128 0
83 94 0
132 148 0
91 102 0
121 136 0
123 141 0
86 101 0
110 128 0
129 144 0
107 115 0
104 113 0
132 147 0
124 135 0
144 155 0
88 104 0
116 133 0
118 135 0
117 125 0
92 103 0
101 109 0
112 122 0
144 163 0
97 109 0
129 143 0
115 129 0
106 121 0
117 135 0
118 131 0
110 120 0
114 124 0
117 134 0
162 178 0
137 152 0
97 113 0
137 152 0
96 114 0
125 141 0
120 126 0
148 159 0
130 141 0
121 128 0
132 141 0
137 139 0
129 147 0
148 163 0
115 127 0
148 166 0
119 127 0
137 145 0
142 154 0
138 148 0
149 161 0
133 145 0
86 101 0
148 153 0
131 141 0
129 131 0
126 133 0
126 136 0
137 139 0
125 137 0
119 124 0
104 115 0
93 96 0
101 103 0
117 116 0
133 127 0
153 163 0
81 83 0
101 106 0
122 119 0
116 117 0
128 125 0
91 93 0
126 133 0
152 158 0
111 106 0
123 121 0
131 130 0
150 150 0
91 93 0
135 132 0
100 94 0
118 113 0
120 112 0
80 69 0
91 82 0
107 106 0
87 76 0
97 84 0
83 82 0
107 100 0
85 76 0
88 67 0
81 77 0
98 81 0
67 59 0
79 65 0
110 85 0
113 91 0
118 105 0
98 82 0
124 115 0
129 112 0
115 101 0
129 112 0
113 91 0
100 80 0
119 104 0
131 113 0
138 117 0
138 116 0
120 95 0
132 118 0
129 113 0
136 121 0
132 115 0
127 103 0
120 107 0
125 112 0
135 122 0
146 130 0
120 107 0
136 119 0
135 118 0
139 129 0
129 111 0
135 121 0
142 120 0
129 109 0
123 108 0
132 121 0
130 113 0
135 118 0
127 106 0
125 102 0
138 126 0
146 130 0
145 135 0
123 105 0
122 102 0
136 124 0
140 126 0
145 129 0
124 108 0
139 131 0
132 120 0
139 118 0
138 125 0
142 127 0
141 130 0
144 130 0
139 126 0
147 138 0
150 141 0
136 123 0
139 127 0
145 132 0
119 105 0
144 132 0
144 134 0
135 123 0
142 128 0
139 123 0
148 137 0
139 129 0
146 135 0
153 142 0
142 126 0
152 140 0
148 143 0
170 182 0
160 165 0
172 193 0
178 193 0
162 177 0
169 188 0
163 176 0
175 194 0
172 190 0
173 191 0
158 180 0
164 179 0
167 182 0
161 182 0
170 192 0
172 196 0
170 189 0
169 194 0
172 196 0
170 192 0
172 195 0
170 191 0
174 195 0
170 192 0
158 183 0
170 193 0
167 184 0
162 183 0
159 178 0
163 181 0
156 175 0
146 164 0
148 166 0
142 159 0
145 163 0
137 155 0
136 152 0
140 156 0
145 163 0
132 148 0
140 154 0
155 173 0
141 159 0
131 146 0
147 165 0
144 162 0
153 169 0
140 158 0
142 160 0
130 147 0
150 167 0
137 154 0
140 158 0
139 155 0
138 151 0
142 158 0
139 152 0
124 138 0
123 137 0
130 145 0
148 167 0
124 139 0
122 137 0
137 153 0
139 156 0
125 139 0
146 162 0
134 147 0
135 149 0
124 138 0
131 144 0
131 147 0
139 152 0
135 149 0
115 130 0
129 143 0
114 128 0
111 123 0
119 131 0
127 141 0
121 132 0
133 146 0
121 134 0
121 133 0
128 142 0
115 128 0
138 153 0
113 125 0
124 137 0
136 150 0
126 139 0
118 131 0
107 116 0
109 119 0
104 116 0
105 115 0
113 124 0
76 84 0
125 136 0
81 91 0
123 133 0
91 101 0
112 123 0
100 112 0
136 148 0
71 80 0
105 115 0
88 102 0
109 123 0
121 135 0
130 144 0
111 123 0
112 124 0
113 126 0
101 111 0
127 139 0
127 141 0
101 115 0
113 126 0
127 141 0
146 162 0
112 129 0
118 133 0
117 132 0
103 118 0
128 146 0
115 131 0
157 175 0
91 104 0
136 150 0
156 174 0
130 149 0
125 141 0
139 155 0
99 115 0
145 164 0
134 153 0
130 149 0
133 152 0
99 117 0
97 114 0
146 163 0
95 110 0
116 135 0
128 149 0
96 111 0
148 166 0
131 153 0
124 141 0
137 154 0
111 130 0
93 110 0
147 165 0
112 130 0
122 140 0
143 158 0
117 135 0
144 163 0
132 151 0
61 77 0
98 119 0
144 161 0
143 161 0
114 132 0
89 106 0
152 171 0
127 146 0
133 150 0
118 137 0
123 136 0
113 136 0
171 193 0
117 136 0
106 125 0
145 165 0
108 128 0
142 157 0
86 105 0
116 138 0
98 117 0
127 144 0
128 148 0
135 150 0
98 116 0
83 105 0
132 147 0
109 127 0
141 160 0
79 95 0
154 176 0
119 133 0
108 126 0
141 160 0
53 64 0
109 125 0
139 157 0
124 139 0
84 101 0
106 124 0
73 89 0
101 115 0
113 128 0
107 121 0
92 112 0
98 116 0
81 96 0
118 136 0
65 80 0
91 108 0
112 135 0
115 129 0
113 127 0
114 126 0
92 109 0
86 100 0
97 111 0
75 93 0
83 98 0
106 124 0
66 82 0
131 148 0
98 115 0
114 132 0
60 74 0
112 127 0
65 72 0
102 119 0
88 111 0
112 129 0
30 45 0
103 121 0
115 132 0
118 134 0
103 121 0
86 94 0
125 141 0
129 145 0
130 146 0
100 106 0
108 124 0
128 141 0
68 92 0
104 122 0
102 115 0
86 103 0
128 136 0
120 133 0
120 136 0
147 158 0
110 114 0
136 152 0
129 137 0
140 158 0
125 143 0
133 143 0
96 106 0
96 113 0
145 159 0
137 154 0
115 126 0
123 141 0
117 128 0
135 150 0
123 138 0
157 173 0
128 137 0
110 128 0
83 93 0
95 108 0
138 155 0
84 101 0
163 180 0
162 172 0
100 111 0
133 142 0
107 115 0
145 157 0
122 135 0
129 132 0
128 134 0
131 137 0
110 118 0
122 131 0
133 146 0
150 162 0
124 134 0
109 123 0
109 113 0
115 125 0
118 119 0
126 133 0
124 138 0
130 134 0
129 137 0
125 129 0
131 141 0
94 95 0
113 123 0
136 141 0
147 155 0
117 119 0
120 121 0
106 118 0
113 114 0
119 116 0
132 150 0
109 110 0
160 161 0
145 146 0
107 102 0
130 123 0
108 103 0
126 126 0
129 123 0
92 95 0
100 78 0
122 128 0
99 92 0
75 62 0
84 69 0
120 114 0
130 121 0
112 103 0
120 117 0
134 128 0
77 67 0
59 49 0
82 63 0
109 92 0
93 70 0
117 103 0
117 100 0
74 62 0
82 60 0
107 82 0
96 77 0
99 79 0
122 104 0
117 99 0
130 108 0
139 121 0
123 97 0
141 118 0
115 103 0
129 112 0
135 120 0
107 94 0
132 114 0
120 104 0
133 116 0
118 97 0
138 124 0
120 106 0
125 108 0
139 120 0
113 92 0
137 130 0
123 106 0
148 134 0
136 116 0
124 104 0
128 113 0
132 111 0
149 135 0
124 110 0
137 128 0
135 120 0
144 132 0
150 132 0
142 127 0
130 116 0
153 143 0
124 101 0
144 132 0
145 131 0
141 130 0
131 112 0
151 141 0
145 133 0
145 130 0
129 107 0
139 123 0
147 133 0
147 134 0
150 138 0
147 129 0
145 135 0
146 138 0
149 135 0
149 144 0
139 125 0
144 136 0
147 130 0
141 124 0
151 147 0
141 135 0
166 167 0
150 154 0
154 165 0
175 192 0
157 167 0
168 188 0
170 182 0
167 176 0
166 187 0
167 183 0
175 195 0
171 193 0
176 195 0
166 187 0
159 170 0
164 176 0
178 196 0
167 191 0
168 191 0
167 192 0
178 197 0
167 189 0
166 185 0
170 191 0
168 191 0
168 191 0
179 201 0
170 188 0
161 181 0
167 189 0
162 183 0
168 186 0
173 194 0
162 181 0
162 181 0
172 192 0
161 181 0
144 160 0
156 178 0
149 165 0
150 168 0
139 156 0
119 131 0
150 169 0
129 145 0
151 169 0
143 159 0
149 165 0
135 149 0
136 151 0
141 156 0
152 168 0
143 158 0
137 152 0
139 155 0
135 152 0
137 153 0
148 165 0
115 129 0
132 148 0
145 161 0
140 156 0
138 154 0
151 167 0
138 154 0
118 130 0
131 149 0
134 150 0
112 124 0
121 137 0
126 138 0
141 155 0
133 147 0
143 157 0
131 146 0
126 141 0
124 138 0
124 135 0
137 152 0
111 123 0
135 148 0
138 153 0
108 119 0
109 122 0
122 137 0
90 101 0
97 110 0
100 115 0
109 120 0
96 110 0
116 129 0
108 118 0
102 110 0
96 106 0
114 125 0
111 121 0
101 112 0
74 81 0
92 100 0
120 130 0
109 119 0
120 130 0
121 130 0
93 101 0
107 118 0
95 104 0
106 118 0
114 129 0
117 127 0
107 117 0
117 130 0
105 113 0
113 127 0
111 124 0
130 143 0
128 144 0
140 153 0
77 92 0
99 111 0
142 158 0
111 125 0
124 141 0
146 163 0
126 140 0
114 128 0
126 142 0
135 151 0
124 141 0
113 128 0
125 141 0
149 163 0
138 154 0
150 169 0
130 145 0
72 91 0
110 126 0
134 151 0
151 168 0
125 141 0
136 155 0
125 143 0
98 119 0
147 166 0
116 134 0
158 175 0
149 164 0
150 168 0
133 149 0
106 123 0
116 127 0
132 149 0
154 170 0
120 141 0
102 122 0
119 134 0
134 153 0
136 152 0
126 143 0
134 153 0
106 123 0
117 133 0
122 143 0
147 163 0
107 127 0
126 144 0
117 135 0
96 113 0
121 143 0
126 147 0
102 125 0
140 157 0
150 168 0
111 128 0
131 148 0
130 148 0
130 152 0
124 143 0
132 151 0
137 157 0
109 125 0
125 146 0
101 119 0
104 124 0
144 164 0
128 148 0
115 132 0
100 115 0
129 147 0
69 92 0
121 133 0
82 100 0
91 105 0
142 161 0
87 104 0
105 119 0
106 121 0
143 161 0
111 125 0
98 118 0
86 106 0
132 148 0
73 93 0
102 114 0
136 158 0
88 105 0
105 121 0
93 105 0
80 97 0
130 150 0
122 138 0
82 96 0
106 124 0
139 156 0
82 97 0
118 135 0
137 155 0
129 147 0
116 131 0
75 94 0
108 118 0
121 137 0
88 107 0
102 121 0
119 139 0
90 108 0
124 143 0
59 71 0
77 89 0
120 137 0
70 86 0
137 156 0
98 115 0
100 116 0
128 148 0
90 106 0
150 164 0
83 78 0
93 102 0
115 130 0
126 145 0
125 144 0
97 115 0
125 142 0
112 125 0
117 136 0
76 97 0
139 156 0
125 145 0
132 143 0
114 129 0
129 146 0
100 112 0
127 143 0
129 148 0
133 147 0
120 129 0
82 95 0
128 143 0
164 183 0
128 146 0
153 166 0
143 153 0
114 126 0
131 140 0
118 132 0
158 179 0
119 135 0
128 147 0
113 136 0
125 136 0
146 170 0
121 142 0
136 154 0
98 114 0
129 142 0
131 150 0
143 159 0
144 157 0
127 139 0
142 161 0
122 136 0
135 149 0
131 145 0
113 115 0
135 151 0
132 149 0
150 162 0
131 143 0
138 139 0
157 175 0
136 146 0
147 149 0
154 157 0
149 161 0
129 130 0
148 148 0
124 136 0
138 150 0
155 171 0
124 120 0
121 128 0
126 136 0
149 157 0
124 132 0
111 105 0
111 111 0
149 151 0
147 154 0
140 144 0
130 138 0
109 110 0
123 126 0
126 131 0
122 117 0
117 108 0
145 148 0
122 119 0
104 98 0
131 128 0
136 138 0
116 115 0
118 113 0
116 110 0
73 61 0
98 88 0
118 105 0
144 148 0
87 68 0
125 113 0
101 92 0
121 124 0
89 76 0
108 106 0
103 93 0
78 72 0
92 79 0
117 108 0
106 92 0
81 66 0
88 62 0
96 74 0
100 78 0
124 99 0
112 89 0
114 97 0
119 104 0
122 101 0
107 84 0
87 67 0
123 104 0
116 96 0
116 98 0
133 118 0
123 99 0
133 121 0
124 103 0
139 116 0
141 123 0
128 112 0
142 122 0
138 122 0
135 115 0
135 114 0
136 117 0
131 115 0
135 121 0
136 116 0
127 110 0
125 112 0
148 140 0
118 103 0
149 140 0
144 126 0
114 100 0
144 130 0
137 118 0
144 133 0
126 105 0
144 133 0
147 130 0
141 123 0
142 130 0
116 100 0
125 109 0
144 128 0
150 139 0
151 132 0
130 114 0
148 134 0
145 126 0
154 143 0
142 127 0
155 142 0
148 135 0
147 143 0
157 152 0
159 160 0
166 181 0
161 176 0
163 176 0
169 184 0
155 162 0
160 174 0
169 185 0
166 178 0
168 184 0
169 185 0
169 184 0
173 194 0
159 169 0
176 192 0
167 184 0
174 189 0
174 191 0
172 183 0
163 176 0
165 184 0
174 195 0
164 186 0
172 194 0
170 193 0
167 189 0
172 194 0
169 191 0
174 198 0
170 194 0
176 195 0
169 189 0
171 192 0
171 192 0
168 190 0
162 182 0
172 191 0
160 180 0
159 181 0
163 184 0
160 181 0
169 191 0
176 195 0
162 182 0
156 176 0
154 175 0
151 169 0
149 166 0
153 171 0
136 152 0
135 150 0
144 160 0
135 151 0
139 154 0
144 162 0
147 164 0
150 168 0
139 157 0
137 152 0
137 154 0
140 155 0
147 162 0
155 173 0
131 148 0
143 159 0
145 161 0
135 151 0
128 143 0
114 124 0
130 146 0
126 142 0
141 156 0
110 121 0
117 128 0
140 154 0
125 136 0
139 155 0
132 147 0
115 128 0
113 127 0
123 137 0
139 152 0
130 145 0
114 124 0
109 121 0
107 119 0
131 144 0
112 125 0
95 103 0
113 125 0
117 129 0
130 144 0
129 141 0
120 132 0
120 130 0
102 112 0
112 122 0
113 124 0
96 105 0
105 116 0
113 123 0
134 145 0
84 92 0
117 128 0
123 131 0
97 106 0
125 137 0
100 108 0
97 107 0
114 128 0
129 140 0
122 134 0
94 107 0
110 122 0
84 93 0
131 145 0
107 118 0
138 153 0
132 148 0
140 153 0
143 158 0
119 134 0
139 155 0
129 146 0
124 137 0
138 154 0
123 135 0
116 133 0
104 118 0
119 131 0
128 144 0
131 146 0
120 134 0
109 123 0
163 183 0
144 159 0
144 158 0
117 137 0
138 154 0
134 151 0
97 114 0
145 162 0
115 135 0
118 133 0
105 122 0
138 159 0
107 126 0
120 138 0
142 160 0
138 157 0
144 166 0
124 144 0
133 151 0
160 179 0
131 149 0
131 151 0
109 126 0
148 166 0
147 169 0
141 164 0
133 151 0
111 134 0
126 145 0
112 134 0
109 129 0
127 140 0
167 189 0
153 174 0
151 171 0
118 134 0
123 143 0
159 177 0
108 128 0
147 165 0
127 143 0
147 168 0
103 117 0
114 130 0
118 136 0
116 134 0
97 114 0
136 155 0
113 130 0
112 128 0
154 173 0
135 152 0
162 181 0
153 173 0
121 143 0
135 156 0
33 54 0
126 144 0
120 140 0
138 155 0
147 170 0
141 160 0
136 154 0
104 120 0
83 103 0
109 125 0
137 158 0
38 61 0
128 147 0
44 71 0
103 119 0
100 113 0
128 144 0
84 102 0
99 115 0
165 182 0
133 155 0
100 115 0
147 170 0
78 90 0
124 144 0
141 162 0
101 121 0
120 135 0
62 80 0
131 147 0
110 127 0
134 151 0
93 93 0
104 122 0
140 151 0
124 143 0
130 147 0
143 162 0
84 103 0
103 122 0
123 138 0
127 146 0
106 123 0
85 101 0
114 129 0
104 116 0
106 120 0
97 112 0
109 126 0
113 130 0
127 145 0
116 132 0
118 133 0
158 177 0
139 150 0
131 145 0
123 138 0
109 122 0
170 188 0
117 137 0
108 126 0
125 131 0
75 84 0
130 146 0
111 121 0
132 145 0
104 114 0
140 158 0
119 138 0
116 131 0
108 125 0
156 158 0
132 146 0
102 120 0
98 112 0
108 121 0
146 162 0
143 162 0
128 143 0
134 149 0
138 151 0
131 147 0
122 141 0
160 174 0
153 165 0
123 139 0
122 131 0
137 157 0
128 139 0
138 149 0
135 150 0
139 154 0
113 120 0
116 136 0
140 157 0
113 130 0
134 145 0
131 136 0
146 158 0
137 151 0
149 160 0
146 155 0
133 139 0
107 114 0
139 145 0
109 117 0
145 162 0
125 144 0
122 134 0
139 145 0
132 145 0
140 145 0
117 127 0
155 170 0
123 131 0
131 136 0
144 146 0
139 147 0
121 125 0
131 139 0
153 162 0
108 118 0
99 109 0
120 116 0
114 111 0
157 160 0
133 144 0
117 113 0
125 127 0
139 141 0
141 135 0
142 137 0
126 120 0
119 115 0
107 98 0
120 111 0
111 106 0
120 121 0
123 114 0
107 100 0
144 138 0
125 115 0
137 135 0
122 111 0
122 114 0
120 111 0
85 73 0
78 64 0
106 93 0
101 84 0
118 115 0
102 89 0
90 76 0
102 90 0
110 94 0
108 96 0
105 93 0
91 66 0
108 99 0
115 101 0
134 117 0
105 74 0
112 91 0
114 89 0
126 112 0
103 76 0
139 125 0
130 109 0
115 104 0
135 114 0
95 73 0
112 98 0
116 98 0
131 110 0
134 117 0
122 96 0
132 113 0
141 126 0
135 120 0
136 117 0
124 106 0
141 126 0
144 127 0
128 118 0
142 126 0
138 122 0
132 119 0
132 114 0
130 109 0
122 109 0
147 131 0
146 136 0
136 123 0
134 121 0
147 135 0
140 123 0
145 131 0
143 126 0
131 119 0
144 129 0
142 128 0
145 131 0
152 139 0
155 149 0
152 151 0
168 177 0
153 163 0
159 169 0
174 187 0
164 181 0
173 180 0
167 183 0
173 183 0
166 176 0
176 195 0
173 188 0
161 172 0
174 195 0
157 166 0
169 192 0
169 185 0
174 191 0
172 183 0
164 178 0
171 190 0
167 182 0
173 194 0
176 198 0
167 183 0
169 180 0
173 197 0
166 191 0
164 186 0
171 190 0
172 195 0
162 186 0
166 184 0
165 183 0
166 186 0
162 184 0
154 172 0
170 190 0
168 191 0
164 182 0
170 188 0
165 184 0
159 176 0
170 189 0
150 169 0
168 186 0
161 182 0
159 180 0
161 178 0
168 186 0
166 187 0
162 179 0
170 190 0
164 183 0
152 171 0
160 182 0
140 157 0
157 176 0
146 162 0
154 171 0
143 158 0
156 172 0
155 173 0
139 154 0
136 151 0
134 148 0
119 135 0
144 161 0
126 140 0
139 153 0
115 127 0
145 161 0
130 143 0
123 135 0
127 143 0
127 140 0
142 157 0
138 152 0
137 152 0
120 135 0
143 157 0
116 127 0
122 136 0
116 128 0
136 150 0
135 148 0
138 153 0
137 149 0
129 142 0
117 130 0
120 133 0
94 102 0
79 88 0
132 144 0
122 132 0
103 112 0
121 132 0
101 111 0
106 116 0
115 127 0
112 122 0
122 135 0
81 90 0
128 140 0
101 111 0
93 101 0
117 128 0
102 114 0
88 98 0
115 127 0
119 133 0
128 138 0
123 133 0
134 147 0
116 128 0
115 126 0
133 147 0
130 142 0
118 129 0
112 124 0
131 145 0
146 157 0
104 115 0
115 128 0
142 156 0
118 131 0
136 153 0
114 129 0
133 151 0
143 159 0
129 144 0
127 141 0
151 169 0
142 156 0
105 122 0
121 138 0
118 133 0
82 104 0
93 110 0
147 165 0
126 141 0
146 165 0
133 148 0
97 114 0
140 157 0
133 146 0
107 122 0
122 140 0
116 133 0
127 146 0
132 149 0
153 174 0
158 176 0
160 177 0
138 157 0
137 157 0
147 167 0
147 163 0
141 159 0
143 163 0
117 135 0
103 116 0
137 156 0
134 151 0
62 83 0
127 144 0
166 185 0
147 167 0
114 135 0
112 127 0
128 148 0
89 105 0
151 169 0
164 185 0
129 148 0
123 141 0
110 128 0
134 158 0
98 115 0
96 114 0
136 155 0
126 147 0
123 142 0
132 154 0
124 143 0
128 144 0
78 96 0
122 140 0
101 118 0
126 143 0
129 146 0
126 145 0
137 152 0
130 148 0
138 154 0
143 162 0
96 114 0
141 163 0
109 125 0
121 138 0
116 133 0
121 142 0
178 198 0
125 144 0
108 129 0
139 158 0
116 135 0
167 185 0
100 120 0
87 108 0
129 149 0
126 148 0
126 142 0
107 124 0
81 98 0
119 136 0
141 159 0
96 116 0
118 139 0
126 147 0
90 110 0
113 135 0
75 88 0
115 137 0
126 145 0
108 126 0
127 144 0
132 149 0
109 128 0
102 123 0
131 146 0
139 153 0
107 125 0
105 125 0
121 140 0
100 118 0
98 116 0
82 97 0
70 91 0
115 135 0
103 120 0
83 99 0
90 106 0
119 138 0
117 131 0
105 116 0
128 147 0
95 109 0
42 66 0
100 112 0
86 97 0
93 109 0
131 152 0
137 157 0
114 128 0
126 147 0
43 64 0
116 133 0
106 123 0
110 120 0
129 143 0
136 151 0
141 156 0
130 146 0
120 139 0
143 159 0
121 138 0
118 130 0
149 164 0
116 129 0
124 139 0
113 122 0
153 166 0
131 150 0
103 119 0
109 125 0
138 153 0
133 145 0
114 125 0
130 148 0
138 154 0
139 156 0
110 128 0
128 147 0
100 117 0
147 160 0
109 121 0
135 157 0
145 164 0
123 134 0
133 148 0
121 128 0
104 121 0
115 123 0
145 157 0
138 150 0
133 146 0
120 121 0
115 129 0
153 161 0
106 110 0
144 151 0
151 162 0
155 157 0
124 134 0
113 131 0
133 138 0
95 96 0
108 116 0
116 116 0
130 136 0
120 128 0
104 116 0
123 129 0
144 153 0
156 162 0
148 161 0
123 126 0
167 173 0
130 126 0
125 133 0
115 130 0
132 135 0
159 165 0
149 157 0
113 112 0
103 108 0
139 145 0
123 126 0
88 91 0
142 138 0
134 131 0
138 137 0
134 132 0
111 105 0
133 130 0
119 111 0
133 128 0
108 101 0
111 95 0
81 65 0
124 113 0
126 123 0
115 116 0
104 101 0
114 109 0
122 115 0
94 80 0
86 69 0
102 92 0
111 96 0
94 88 0
132 124 0
105 94 0
122 112 0
101 101 0
132 125 0
116 100 0
125 112 0
103 93 0
129 117 0
93 73 0
121 100 0
126 117 0
112 89 0
110 92 0
106 88 0
133 113 0
116 102 0
125 110 0
111 86 0
131 108 0
128 116 0
132 116 0
125 102 0
116 95 0
134 120 0
147 135 0
133 113 0
147 132 0
148 134 0
131 108 0
124 109 0
119 97 0
137 121 0
132 116 0
145 126 0
137 123 0
130 115 0
140 124 0
149 135 0
149 136 0
121 104 0
132 121 0
150 145 0
163 161 0
157 167 0
166 179 0
160 166 0
161 174 0
145 146 0
177 196 0
161 169 0
152 150 0
171 177 0
168 180 0
166 179 0
163 179 0
166 175 0
158 164 0
167 183 0
164 174 0
170 180 0
165 182 0
173 187 0
164 175 0
154 163 0
163 177 0
177 196 0
157 176 0
171 189 0
163 172 0
173 184 0
170 187 0
164 178 0
167 180 0
175 192 0
171 193 0
166 186 0
166 188 0
161 183 0
175 196 0
166 188 0
164 187 0
169 191 0
165 187 0
171 194 0
163 181 0
169 189 0
158 180 0
160 179 0
164 183 0
146 168 0
171 190 0
177 197 0
168 184 0
167 186 0
166 185 0
172 194 0
168 185 0
171 190 0
152 171 0
173 190 0
169 188 0
165 183 0
151 169 0
139 154 0
165 185 0
164 182 0
168 186 0
160 180 0
153 170 0
161 177 0
165 183 0
156 173 0
164 182 0
148 163 0
147 162 0
138 153 0
146 161 0
158 174 0
151 166 0
147 164 0
144 158 0
116 127 0
122 134 0
134 149 0
127 140 0
138 153 0
142 157 0
129 144 0
139 151 0
141 154 0
127 140 0
146 161 0
146 157 0
125 139 0
105 116 0
124 135 0
110 121 0
114 123 0
114 126 0
118 129 0
120 131 0
84 94 0
127 140 0
134 147 0
115 126 0
124 135 0
111 122 0
103 111 0
104 115 0
124 135 0
122 133 0
112 123 0
127 138 0
106 116 0
116 128 0
125 137 0
107 118 0
130 146 0
131 144 0
129 143 0
129 141 0
123 135 0
99 113 0
125 140 0
147 161 0
134 147 0
134 150 0
137 153 0
128 146 0
115 127 0
143 160 0
147 162 0
117 130 0
148 163 0
142 159 0
134 150 0
103 119 0
118 134 0
150 167 0
132 149 0
124 142 0
141 158 0
119 139 0
133 148 0
129 148 0
131 150 0
126 138 0
138 155 0
136 151 0
138 158 0
124 140 0
121 136 0
115 134 0
102 116 0
117 133 0
132 152 0
152 168 0
122 139 0
124 146 0
121 135 0
117 136 0
140 156 0
127 141 0
164 186 0
142 159 0
130 148 0
105 118 0
85 105 0
120 137 0
146 165 0
130 148 0
135 151 0
127 148 0
125 143 0
130 149 0
111 128 0
117 132 0
154 174 0
115 139 0
138 158 0
100 118 0
138 160 0
144 162 0
153 170 0
155 176 0
144 163 0
113 131 0
138 154 0
132 153 0
124 145 0
127 146 0
119 137 0
126 148 0
144 167 0
129 149 0
115 136 0
130 145 0
133 152 0
131 152 0
118 138 0
144 162 0
113 131 0
125 142 0
87 104 0
102 118 0
115 133 0
129 149 0
152 171 0
131 151 0
149 170 0
152 170 0
133 153 0
113 127 0
74 90 0
92 110 0
115 136 0
98 117 0
123 141 0
128 146 0
133 150 0
117 136 0
122 144 0
161 181 0
104 125 0
98 115 0
108 127 0
84 94 0
116 136 0
133 152 0
97 116 0
123 139 0
99 114 0
105 122 0
119 131 0
131 145 0
123 143 0
111 130 0
104 122 0
137 157 0
118 137 0
123 142 0
94 110 0
104 120 0
70 88 0
112 128 0
142 156 0
118 135 0
99 119 0
126 147 0
116 134 0
114 132 0
147 161 0
126 140 0
105 120 0
99 115 0
120 134 0
121 141 0
137 158 0
85 103 0
110 124 0
66 89 0
137 150 0
140 160 0
166 186 0
123 141 0
135 152 0
88 106 0
117 124 0
108 128 0
62 80 0
136 154 0
132 147 0
110 124 0
139 152 0
135 148 0
147 169 0
149 165 0
162 172 0
123 139 0
122 128 0
128 145 0
134 152 0
106 118 0
132 147 0
108 110 0
145 162 0
118 133 0
133 146 0
119 134 0
152 171 0
104 115 0
108 121 0
95 108 0
120 131 0
129 147 0
136 152 0
133 151 0
134 147 0
125 132 0
138 144 0
142 163 0
148 156 0
117 132 0
154 165 0
103 109 0
148 166 0
120 136 0
142 152 0
124 134 0
144 148 0
150 163 0
144 156 0
134 141 0
151 159 0
142 159 0
133 141 0
110 117 0
116 114 0
141 145 0
146 159 0
127 122 0
129 133 0
132 136 0
131 140 0
104 105 0
141 154 0
133 144 0
155 165 0
129 132 0
144 152 0
119 117 0
120 122 0
98 94 0
133 139 0
152 150 0
117 117 0
109 100 0
91 79 0
138 135 0
125 124 0
105 92 0
114 108 0
76 71 0
122 118 0
126 121 0
123 120 0
141 145 0
98 91 0
124 116 0
158 164 0
112 97 0
94 89 0
113 94 0
122 121 0
135 126 0
112 100 0
100 95 0
101 85 0
98 72 0
134 132 0
126 127 0
111 102 0
86 79 0
121 116 0
102 82 0
112 97 0
100 93 0
115 102 0
123 115 0
140 130 0
100 99 0
117 104 0
115 110 0
132 128 0
115 106 0
134 132 0
147 143 0
127 109 0
139 138 0
116 105 0
134 123 0
145 143 0
150 152 0
129 123 0
148 147 0
130 118 0
132 129 0
139 130 0
138 134 0
149 148 0
150 150 0
163 164 0
152 153 0
143 145 0
169 176 0
145 152 0
166 173 0
155 158 0
149 150 0
170 177 0
153 159 0
161 162 0
156 163 0
157 152 0
161 159 0
164 176 0
169 181 0
171 186 0
165 175 0
170 181 0
158 162 0
173 190 0
161 167 0
160 174 0
153 155 0
159 169 0
155 155 0
174 194 0
155 162 0
169 185 0
165 182 0
168 182 0
166 180 0
170 189 0
153 164 0
173 187 0
169 186 0
167 177 0
174 194 0
160 177 0
174 195 0
170 179 0
171 189 0
174 191 0
165 184 0
166 188 0
164 187 0
173 193 0
160 181 0
176 194 0
170 191 0
169 189 0
169 188 0
170 192 0
166 184 0
169 192 0
173 193 0
173 192 0
170 190 0
166 185 0
168 188 0
171 189 0
168 189 0
168 189 0
159 179 0
155 172 0
155 174 0
153 170 0
161 182 0
162 179 0
172 192 0
170 189 0
166 186 0
152 170 0
143 161 0
138 153 0
175 193 0
148 167 0
158 177 0
159 175 0
175 192 0
154 172 0
146 161 0
163 181 0
160 175 0
143 161 0
142 160 0
144 160 0
153 169 0
163 178 0
128 141 0
154 172 0
135 148 0
157 173 0
142 157 0
124 136 0
124 137 0
152 167 0
117 130 0
133 147 0
125 137 0
128 142 0
153 170 0
149 163 0
139 151 0
137 151 0
133 146 0
116 127 0
112 122 0
121 133 0
138 152 0
122 133 0
144 159 0
110 119 0
139 153 0
153 169 0
79 89 0
118 129 0
136 149 0
120 132 0
107 117 0
141 154 0
135 148 0
118 130 0
150 164 0
122 137 0
117 129 0
154 169 0
139 155 0
74 87 0
111 123 0
126 137 0
101 114 0
116 124 0
134 148 0
144 159 0
153 169 0
101 114 0
147 162 0
135 149 0
133 145 0
120 136 0
132 145 0
144 161 0
141 158 0
132 148 0
134 148 0
140 159 0
117 132 0
116 132 0
147 161 0
115 132 0
121 139 0
138 155 0
111 125 0
162 180 0
120 136 0
119 135 0
119 136 0
141 157 0
130 148 0
149 167 0
164 184 0
116 133 0
109 125 0
110 128 0
128 147 0
149 168 0
96 113 0
134 154 0
129 147 0
126 144 0
129 146 0
117 136 0
131 151 0
111 131 0
146 164 0
115 133 0
125 147 0
131 152 0
126 146 0
101 124 0
137 158 0
123 140 0
129 146 0
155 176 0
122 142 0
115 135 0
138 158 0
141 159 0
151 170 0
144 164 0
118 139 0
115 133 0
106 122 0
126 145 0
132 151 0
129 151 0
115 132 0
134 153 0
124 142 0
105 126 0
148 166 0
130 150 0
151 172 0
99 118 0
123 140 0
155 174 0
104 121 0
143 159 0
100 119 0
126 146 0
128 148 0
85 103 0
118 136 0
127 147 0
127 147 0
157 180 0
141 160 0
145 163 0
102 122 0
155 178 0
114 133 0
111 131 0
138 159 0
116 133 0
126 143 0
141 158 0
138 154 0
129 147 0
142 164 0
129 148 0
113 134 0
157 173 0
139 158 0
113 127 0
105 121 0
93 106 0
132 150 0
97 109 0
120 137 0
119 134 0
120 139 0
117 135 0
124 143 0
103 121 0
152 172 0
146 159 0
135 153 0
102 122 0
101 121 0
88 110 0
132 147 0
105 123 0
67 88 0
97 115 0
104 119 0
141 162 0
97 117 0
146 161 0
93 111 0
129 147 0
117 133 0
134 150 0
119 136 0
109 121 0
92 110 0
145 167 0
135 153 0
145 164 0
131 148 0
125 146 0
110 128 0
134 148 0
115 136 0
146 168 0
130 148 0
102 120 0
113 129 0
121 128 0
116 120 0
93 109 0
125 140 0
146 163 0
147 166 0
128 147 0
132 139 0
110 123 0
139 158 0
113 123 0
146 162 0
132 144 0
123 131 0
134 148 0
139 156 0
101 120 0
143 151 0
109 120 0
100 111 0
154 173 0
123 137 0
123 134 0
145 162 0
147 170 0
113 127 0
132 145 0
127 137 0
111 129 0
106 123 0
106 115 0
112 120 0
166 174 0
140 157 0
139 145 0
131 136 0
139 149 0
138 149 0
140 153 0
113 122 0
157 167 0
147 158 0
116 133 0
139 146 0
103 112 0
146 157 0
122 128 0
168 178 0
153 161 0
105 114 0
143 154 0
113 127 0
130 133 0
130 140 0
119 134 0
106 109 0
119 119 0
129 133 0
137 147 0
127 130 0
134 137 0
135 131 0
149 158 0
126 127 0
129 129 0
134 128 0
122 128 0
99 94 0
110 105 0
146 147 0
161 168 0
151 156 0
146 154 0
138 134 0
105 101 0
114 112 0
137 126 0
113 101 0
77 69 0
124 120 0
99 91 0
139 129 0
122 116 0
104 90 0
116 109 0
107 93 0
126 120 0
127 114 0
122 110 0
113 104 0
125 114 0
106 85 0
110 107 0
105 98 0
109 102 0
118 108 0
117 96 0
119 114 0
118 109 0
109 96 0
135 133 0
114 103 0
132 124 0
139 133 0
115 102 0
122 114 0
123 109 0
151 156 0
127 123 0
136 132 0
152 151 0
133 130 0
131 125 0
151 151 0
151 154 0
149 151 0
143 132 0
139 135 0
115 106 0
137 130 0
133 130 0
143 139 0
142 137 0
147 149 0
167 173 0
142 146 0
150 159 0
152 153 0
167 179 0
163 174 0
155 162 0
157 157 0
156 159 0
164 168 0
163 179 0
167 177 0
161 170 0
162 173 0
171 183 0
161 174 0
171 185 0
145 145 0
166 173 0
160 163 0
170 185 0
165 171 0
163 178 0
157 167 0
167 176 0
159 163 0
161 167 0
157 163 0
166 179 0
155 169 0
168 181 0
156 166 0
168 183 0
158 167 0
167 188 0
174 195 0
168 187 0
175 195 0
162 170 0
170 192 0
171 186 0
170 191 0
168 189 0
177 197 0
159 180 0
165 186 0
172 191 0
157 176 0
160 180 0
173 194 0
157 176 0
157 176 0
170 190 0
171 190 0
162 182 0
159 180 0
167 186 0
168 187 0
162 183 0
160 181 0
166 182 0
162 182 0
171 189 0
179 199 0
153 169 0
171 190 0
165 184 0
161 180 0
172 192 0
159 178 0
147 164 0
160 178 0
145 162 0
154 172 0
148 165 0
153 171 0
165 182 0
167 187 0
145 161 0
157 174 0
163 180 0
151 166 0
150 165 0
151 166 0
146 162 0
132 148 0
158 172 0
151 165 0
166 182 0
151 164 0
152 168 0
136 149 0
134 146 0
134 146 0
142 155 0
138 153 0
125 139 0
124 139 0
126 139 0
140 156 0
118 131 0
128 142 0
141 153 0
126 139 0
107 118 0
124 138 0
106 118 0
128 139 0
117 128 0
145 160 0
131 146 0
130 141 0
118 132 0
139 151 0
125 138 0
117 129 0
113 124 0
137 150 0
99 109 0
110 125 0
131 145 0
133 148 0
113 125 0
118 133 0
127 139 0
115 128 0
133 150 0
132 146 0
117 133 0
149 166 0
154 172 0
122 136 0
140 156 0
113 124 0
113 128 0
126 141 0
136 153 0
133 151 0
147 161 0
133 150 0
154 174 0
113 127 0
126 142 0
108 124 0
137 154 0
107 122 0
132 150 0
148 166 0
126 140 0
152 170 0
106 123 0
155 171 0
112 128 0
117 134 0
130 145 0
166 186 0
128 145 0
162 181 0
138 155 0
112 128 0
97 114 0
157 174 0
132 151 0
117 135 0
118 137 0
126 145 0
119 137 0
144 166 0
138 158 0
112 129 0
127 146 0
127 145 0
144 159 0
138 161 0
158 179 0
148 171 0
133 155 0
124 139 0
146 169 0
138 157 0
152 176 0
150 171 0
114 130 0
123 144 0
149 170 0
126 145 0
127 143 0
134 156 0
136 155 0
100 115 0
123 145 0
130 147 0
136 157 0
108 125 0
149 170 0
131 155 0
111 130 0
133 152 0
126 148 0
136 156 0
134 155 0
154 178 0
145 168 0
99 119 0
109 126 0
137 159 0
149 164 0
128 147 0
113 132 0
140 158 0
93 106 0
154 176 0
131 148 0
85 98 0
117 137 0
116 136 0
123 144 0
89 105 0
88 105 0
128 148 0
108 127 0
143 162 0
129 147 0
130 148 0
108 123 0
95 116 0
132 149 0
109 123 0
115 132 0
98 116 0
116 135 0
112 126 0
141 162 0
117 136 0
133 150 0
112 130 0
140 154 0
85 104 0
112 131 0
100 120 0
116 137 0
139 152 0
100 119 0
102 120 0
158 176 0
99 112 0
106 125 0
133 149 0
124 145 0
144 160 0
141 163 0
127 142 0
129 148 0
124 140 0
81 100 0
131 152 0
148 170 0
112 129 0
114 124 0
133 153 0
126 138 0
98 115 0
114 135 0
117 127 0
114 128 0
95 108 0
132 145 0
150 165 0
86 94 0
148 168 0
133 147 0
106 123 0
126 144 0
110 132 0
146 164 0
141 158 0
139 146 0
111 131 0
147 167 0
140 159 0
143 163 0
143 152 0
169 187 0
147 167 0
117 131 0
157 175 0
130 141 0
148 163 0
136 154 0
127 136 0
141 156 0
135 151 0
172 189 0
163 174 0
142 156 0
118 129 0
142 156 0
109 119 0
114 132 0
118 135 0
139 146 0
132 146 0
149 164 0
112 129 0
141 162 0
168 181 0
160 171 0
133 147 0
93 106 0
98 111 0
129 142 0
90 107 0
121 134 0
151 171 0
141 157 0
127 141 0
95 100 0
119 128 0
118 128 0
130 138 0
162 172 0
122 130 0
158 176 0
144 146 0
133 141 0
122 120 0
151 159 0
117 118 0
150 158 0
144 150 0
116 120 0
99 114 0
112 119 0
148 158 0
157 172 0
143 150 0
133 139 0
129 130 0
130 126 0
131 127 0
123 125 0
142 145 0
131 138 0
126 129 0
143 152 0
121 115 0
130 136 0
145 143 0
137 139 0
148 155 0
144 145 0
145 142 0
135 135 0
123 125 0
132 130 0
153 146 0
126 124 0
134 131 0
92 76 0
106 94 0
119 108 0
105 92 0
109 101 0
124 122 0
123 121 0
130 122 0
136 130 0
103 89 0
132 122 0
144 142 0
111 106 0
108 98 0
122 112 0
108 112 0
108 94 0
98 81 0
126 113 0
142 145 0
123 115 0
119 107 0
138 132 0
153 159 0
125 109 0
137 129 0
124 117 0
135 121 0
115 97 0
130 125 0
146 147 0
118 106 0
146 140 0
149 140 0
126 115 0
163 169 0
147 144 0
160 166 0
145 144 0
139 135 0
135 139 0
157 164 0
150 151 0
147 140 0
154 160 0
163 165 0
153 155 0
153 155 0
165 171 0
166 174 0
163 172 0
166 174 0
167 172 0
157 164 0
139 134 0
150 153 0
161 172 0
158 166 0
165 176 0
159 168 0
149 157 0
162 172 0
159 160 0
164 169 0
161 162 0
169 176 0
153 157 0
155 169 0
160 168 0
164 179 0
169 178 0
176 185 0
165 185 0
166 177 0
164 182 0
168 182 0
171 185 0
173 190 0
159 172 0
164 178 0
169 189 0
176 195 0
168 175 0
170 191 0
166 189 0
170 189 0
159 179 0
171 191 0
168 192 0
172 193 0
176 196 0
173 194 0
169 192 0
167 190 0
166 188 0
165 182 0
174 192 0
156 173 0
155 175 0
169 192 0
185 203 0
151 168 0
171 190 0
167 185 0
161 181 0
157 175 0
161 180 0
164 186 0
152 168 0
152 170 0
169 190 0
170 189 0
151 166 0
169 188 0
155 173 0
162 179 0
144 158 0
161 176 0
147 164 0
135 151 0
148 164 0
149 165 0
158 176 0
146 161 0
146 162 0
149 164 0
169 188 0
126 140 0
160 179 0
136 149 0
139 155 0
146 160 0
144 159 0
155 172 0
121 134 0
140 155 0
141 156 0
130 144 0
142 157 0
127 142 0
120 133 0
123 135 0
147 162 0
138 153 0
117 129 0
126 140 0
102 113 0
126 137 0
104 117 0
131 145 0
108 119 0
124 134 0
121 133 0
113 125 0
135 149 0
131 146 0
126 138 0
136 148 0
124 138 0
93 107 0
112 124 0
137 152 0
123 135 0
112 125 0
140 155 0
126 136 0
139 154 0
103 114 0
115 128 0
116 127 0
139 153 0
119 133 0
143 159 0
120 133 0
128 143 0
149 166 0
119 133 0
164 179 0
138 152 0
132 148 0
128 143 0
141 158 0
140 154 0
127 144 0
124 138 0
145 159 0
131 144 0
143 162 0
149 164 0
132 149 0
124 140 0
95 110 0
134 150 0
143 160 0
111 132 0
99 114 0
130 148 0
129 148 0
146 167 0
131 153 0
162 181 0
103 118 0
115 131 0
125 142 0
124 142 0
154 176 0
124 143 0
127 146 0
92 109 0
74 91 0
135 154 0
155 172 0
154 173 0
128 149 0
131 150 0
129 148 0
141 158 0
92 113 0
106 122 0
131 151 0
122 137 0
119 137 0
121 140 0
127 146 0
117 138 0
123 144 0
133 153 0
116 135 0
129 149 0
155 177 0
143 159 0
145 163 0
143 161 0
102 123 0
142 160 0
155 175 0
129 145 0
147 168 0
142 163 0
142 162 0
101 120 0
97 118 0
140 164 0
157 177 0
133 155 0
94 112 0
123 138 0
169 190 0
126 148 0
99 116 0
117 134 0
133 154 0
130 150 0
141 159 0
133 152 0
97 117 0
95 113 0
141 157 0
141 162 0
132 150 0
139 159 0
100 123 0
90 109 0
122 139 0
147 170 0
119 140 0
160 180 0
110 126 0
157 176 0
133 150 0
102 122 0
106 126 0
102 126 0
126 143 0
133 153 0
124 146 0
147 164 0
117 127 0
112 132 0
93 111 0
107 124 0
91 110 0
128 142 0
155 174 0
101 122 0
128 146 0
130 150 0
94 106 0
146 162 0
138 150 0
116 132 0
108 127 0
93 109 0
128 147 0
119 140 0
129 145 0
45 70 0
110 127 0
127 149 0
110 120 0
116 136 0
125 142 0
132 145 0
137 155 0
114 128 0
115 131 0
128 145 0
128 147 0
107 127 0
121 140 0
127 148 0
127 151 0
107 127 0
124 141 0
138 154 0
114 132 0
118 137 0
107 123 0
139 161 0
120 133 0
98 121 0
114 132 0
136 157 0
122 133 0
138 154 0
155 174 0
132 154 0
110 118 0
135 152 0
139 158 0
135 156 0
150 162 0
142 156 0
138 156 0
101 115 0
121 138 0
122 136 0
104 115 0
121 138 0
126 147 0
145 161 0
113 128 0
124 141 0
154 163 0
134 141 0
119 131 0
154 173 0
125 133 0
131 153 0
121 139 0
147 167 0
122 140 0
128 147 0
145 158 0
132 144 0
114 130 0
133 146 0
140 153 0
134 148 0
120 135 0
119 133 0
172 190 0
117 122 0
132 144 0
113 112 0
112 129 0
148 156 0
144 150 0
139 142 0
129 133 0
138 145 0
138 145 0
139 144 0
103 110 0
150 151 0
130 132 0
139 147 0
145 160 0
126 135 0
125 124 0
144 146 0
142 145 0
143 149 0
147 158 0
137 147 0
143 140 0
128 129 0
114 111 0
148 154 0
131 125 0
155 157 0
122 124 0
128 139 0
125 122 0
133 131 0
124 115 0
133 135 0
134 134 0
148 150 0
138 128 0
115 111 0
100 94 0
142 141 0
138 138 0
134 134 0
118 109 0
112 101 0
110 100 0
162 162 0
122 118 0
147 144 0
98 90 0
130 121 0
113 109 0
118 120 0
121 111 0
130 125 0
118 111 0
113 108 0
127 117 0
131 126 0
130 119 0
112 105 0
130 120 0
128 128 0
121 118 0
129 128 0
126 111 0
136 125 0
106 97 0
138 132 0
144 144 0
138 139 0
131 124 0
144 139 0
146 148 0
138 132 0
119 112 0
137 128 0
163 171 0
153 157 0
152 150 0
151 152 0
138 131 0
153 153 0
134 127 0
153 156 0
160 164 0
163 164 0
154 158 0
160 156 0
168 179 0
166 177 0
163 172 0
145 142 0
167 179 0
158 167 0
159 167 0
152 162 0
157 157 0
162 169 0
173 185 0
167 182 0
160 168 0
155 165 0
152 156 0
172 190 0
162 173 0
171 182 0
170 185 0
146 149 0
164 162 0
170 182 0
167 179 0
162 173 0
163 176 0
173 190 0
167 180 0
164 169 0
157 171 0
177 189 0
169 178 0
165 181 0
165 186 0
164 187 0
164 186 0
162 181 0
161 181 0
167 187 0
156 175 0
163 181 0
164 182 0
157 178 0
167 183 0
155 176 0
168 187 0
157 176 0
163 181 0
160 178 0
145 166 0
164 185 0
150 166 0
169 190 0
165 184 0
147 165 0
150 167 0
160 177 0
170 190 0
152 168 0
165 182 0
131 147 0
156 174 0
160 180 0
148 165 0
163 179 0
162 179 0
167 184 0
138 155 0
162 180 0
144 160 0
148 165 0
161 177 0
145 157 0
116 130 0
145 159 0
131 147 0
159 176 0
127 141 0
153 171 0
151 167 0
124 140 0
146 161 0
162 179 0
141 155 0
144 161 0
141 157 0
121 134 0
147 162 0
147 162 0
137 148 0
137 151 0
104 115 0
113 123 0
140 154 0
144 159 0
139 153 0
123 134 0
120 133 0
151 166 0
99 110 0
117 129 0
155 171 0
96 108 0
126 137 0
95 104 0
109 122 0
114 126 0
142 156 0
126 139 0
121 135 0
133 148 0
107 116 0
134 148 0
117 132 0
155 173 0
116 131 0
121 132 0
131 147 0
154 172 0
122 137 0
133 146 0
125 137 0
144 158 0
116 124 0
132 149 0
137 154 0
151 171 0
142 157 0
139 154 0
140 157 0
118 129 0
131 148 0
133 151 0
104 120 0
101 116 0
113 131 0
117 131 0
104 119 0
151 172 0
110 128 0
148 168 0
130 147 0
118 134 0
125 142 0
123 145 0
149 165 0
118 135 0
151 169 0
150 170 0
149 168 0
113 129 0
135 152 0
147 168 0
128 148 0
144 161 0
140 155 0
131 150 0
146 166 0
126 143 0
125 140 0
133 153 0
117 134 0
138 158 0
135 152 0
131 149 0
115 136 0
144 165 0
105 121 0
114 135 0
160 181 0
149 169 0
138 159 0
115 133 0
140 157 0
155 173 0
151 172 0
119 135 0
135 155 0
117 137 0
131 148 0
141 161 0
110 130 0
128 143 0
99 120 0
159 179 0
130 153 0
108 129 0
133 157 0
147 168 0
125 145 0
150 171 0
123 140 0
116 136 0
131 154 0
146 167 0
83 103 0
135 154 0
130 149 0
141 163 0
127 147 0
127 141 0
111 132 0
101 120 0
116 134 0
126 146 0
103 122 0
117 136 0
112 131 0
121 142 0
133 152 0
88 109 0
147 167 0
107 122 0
143 166 0
117 137 0
101 115 0
134 153 0
143 162 0
126 145 0
139 159 0
97 114 0
105 123 0
128 144 0
134 157 0
154 175 0
130 155 0
129 149 0
108 128 0
102 123 0
130 146 0
136 152 0
136 153 0
143 160 0
127 144 0
123 130 0
146 167 0
101 117 0
125 143 0
126 146 0
108 128 0
121 142 0
130 147 0
128 149 0
107 122 0
107 125 0
84 107 0
112 130 0
113 129 0
119 135 0
143 162 0
95 116 0
104 126 0
126 149 0
109 117 0
127 145 0
147 167 0
130 150 0
107 120 0
112 126 0
103 121 0
128 142 0
130 149 0
67 75 0
122 143 0
146 165 0
135 157 0
141 153 0
128 138 0
125 142 0
157 178 0
136 153 0
147 168 0
149 167 0
155 176 0
150 168 0
137 144 0
117 135 0
147 164 0
113 115 0
149 168 0
163 176 0
140 154 0
135 148 0
135 146 0
116 131 0
113 127 0
130 154 0
129 149 0
132 150 0
152 170 0
135 142 0
156 172 0
155 170 0
141 153 0
150 169 0
140 148 0
156 170 0
128 140 0
148 156 0
134 148 0
149 158 0
123 135 0
117 129 0
138 144 0
136 143 0
134 145 0
141 159 0
157 172 0
148 167 0
168 184 0
137 143 0
142 145 0
157 167 0
138 143 0
116 123 0
154 165 0
132 144 0
145 146 0
119 130 0
132 138 0
133 131 0
139 139 0
162 179 0
143 151 0
136 141 0
54 60 0
130 136 0
146 147 0
143 157 0
132 145 0
143 155 0
123 118 0
144 149 0
131 133 0
128 127 0
106 120 0
126 124 0
137 140 0
106 110 0
159 168 0
141 145 0
147 150 0
148 158 0
139 138 0
156 162 0
138 141 0
145 152 0
115 110 0
137 143 0
133 127 0
136 139 0
151 147 0
127 117 0
123 119 0
152 151 0
134 122 0
127 124 0
135 141 0
135 137 0
115 111 0
123 118 0
123 116 0
108 95 0
124 120 0
103 84 0
116 104 0
151 151 0
128 125 0
141 142 0
123 115 0
152 153 0
132 128 0
122 113 0
132 124 0
138 134 0
156 156 0
132 127 0
136 135 0
155 162 0
132 128 0
133 122 0
153 150 0
123 108 0
131 124 0
151 149 0
167 171 0
151 147 0
148 141 0
149 156 0
142 145 0
154 156 0
129 117 0
152 143 0
156 163 0
167 174 0
112 101 0
141 147 0
148 151 0
168 181 0
143 143 0
160 162 0
171 179 0
159 168 0
161 166 0
162 163 0
161 167 0
170 180 0
159 159 0
162 168 0
137 141 0
164 173 0
169 183 0
155 165 0
167 175 0
159 170 0
173 179 0
161 168 0
157 160 0
166 171 0
152 159 0
167 174 0
167 183 0
173 183 0
161 170 0
163 174 0
169 191 0
160 175 0
161 173 0
151 157 0
174 191 0
167 178 0
165 185 0
172 187 0
160 180 0
175 195 0
165 186 0
160 179 0
168 190 0
168 187 0
165 187 0
171 189 0
164 183 0
172 193 0
161 181 0
159 179 0
158 178 0
156 174 0
161 181 0
158 179 0
156 173 0
160 180 0
147 165 0
162 181 0
165 184 0
147 163 0
169 189 0
160 177 0
165 186 0
158 175 0
162 182 0
147 164 0
155 174 0
170 188 0
158 178 0
167 184 0
156 172 0
135 149 0
150 166 0
165 180 0
154 170 0
145 162 0
153 169 0
128 142 0
159 176 0
157 175 0
154 170 0
122 135 0
151 166 0
130 146 0
130 144 0
144 156 0
150 165 0
139 152 0
161 176 0
134 148 0
143 158 0
146 161 0
122 136 0
156 171 0
143 155 0
161 178 0
154 168 0
136 148 0
128 143 0
146 160 0
119 132 0
128 143 0
125 139 0
101 114 0
146 160 0
146 161 0
121 134 0
138 152 0
103 114 0
140 155 0
136 150 0
150 163 0
119 135 0
146 160 0
143 158 0
143 157 0
132 147 0
120 137 0
130 146 0
140 155 0
132 147 0
144 158 0
131 148 0
146 160 0
156 172 0
135 151 0
159 173 0
152 167 0
132 150 0
146 161 0
163 181 0
175 192 0
108 122 0
154 173 0
130 148 0
163 183 0
138 153 0
141 159 0
144 161 0
144 161 0
153 169 0
129 144 0
122 138 0
144 160 0
146 161 0
149 169 0
152 171 0
127 145 0
107 124 0
127 142 0
153 172 0
148 168 0
148 165 0
137 158 0
153 171 0
130 149 0
114 134 0
159 179 0
133 149 0
112 133 0
144 167 0
134 150 0
133 152 0
125 141 0
128 148 0
136 157 0
141 161 0
141 160 0
104 123 0
123 142 0
131 149 0
160 178 0
120 140 0
103 120 0
146 171 0
121 144 0
152 170 0
104 126 0
148 168 0
115 132 0
145 166 0
115 136 0
104 121 0
120 141 0
151 174 0
151 171 0
124 143 0
126 142 0
146 164 0
137 159 0
118 141 0
115 135 0
154 175 0
108 130 0
125 145 0
170 195 0
157 178 0
135 155 0
144 161 0
123 139 0
131 152 0
115 135 0
125 145 0
144 162 0
145 166 0
151 172 0
150 168 0
155 172 0
126 144 0
123 145 0
136 157 0
152 173 0
130 150 0
97 113 0
104 120 0
128 150 0
138 160 0
147 167 0
123 143 0
127 147 0
127 142 0
145 163 0
126 144 0
138 159 0
128 144 0
143 163 0
142 164 0
112 130 0
137 155 0
137 158 0
126 146 0
98 113 0
143 161 0
128 144 0
108 125 0
102 126 0
129 146 0
91 105 0
128 146 0
137 158 0
135 152 0
134 154 0
140 153 0
134 152 0
128 148 0
134 152 0
113 133 0
145 164 0
130 148 0
149 164 0
128 146 0
158 173 0
102 114 0
97 116 0
153 174 0
133 149 0
116 135 0
130 149 0
142 159 0
100 121 0
130 149 0
111 130 0
130 143 0
116 138 0
141 157 0
157 174 0
95 112 0
149 165 0
129 149 0
145 160 0
115 135 0
129 150 0
159 176 0
138 157 0
125 133 0
125 144 0
118 125 0
128 150 0
151 172 0
135 159 0
147 171 0
107 109 0
122 128 0
137 151 0
143 157 0
124 133 0
150 162 0
153 174 0
90 111 0
155 170 0
124 139 0
139 153 0
115 133 0
158 175 0
111 123 0
144 161 0
123 142 0
160 177 0
131 150 0
107 124 0
122 138 0
143 156 0
145 163 0
152 173 0
137 147 0
147 163 0
136 142 0
122 143 0
141 160 0
157 171 0
111 121 0
141 144 0
147 155 0
116 131 0
125 134 0
157 180 0
136 147 0
135 144 0
126 139 0
167 178 0
153 163 0
148 164 0
133 129 0
136 151 0
125 135 0
119 130 0
134 151 0
135 139 0
157 170 0
136 148 0
153 168 0
127 126 0
133 143 0
151 163 0
147 158 0
129 138 0
159 165 0
117 119 0
135 148 0
148 157 0
154 165 0
126 137 0
117 113 0
136 136 0
159 165 0
148 158 0
135 149 0
154 153 0
128 128 0
151 166 0
147 148 0
148 155 0
116 106 0
116 118 0
131 125 0
116 110 0
145 154 0
144 142 0
122 121 0
128 127 0
131 136 0
129 122 0
147 146 0
140 136 0
134 131 0
137 133 0
127 122 0
136 137 0
144 144 0
133 127 0
136 135 0
131 129 0
142 143 0
144 134 0
128 129 0
140 133 0
144 139 0
140 141 0
134 127 0
154 151 0
149 147 0
136 129 0
151 147 0
148 149 0
132 127 0
137 129 0
146 146 0
144 143 0
159 158 0
148 148 0
123 112 0
135 146 0
152 155 0
122 112 0
139 139 0
141 139 0
157 161 0
143 143 0
149 149 0
129 116 0
159 158 0
142 139 0
162 161 0
152 153 0
161 160 0
153 160 0
158 169 0
171 182 0
168 181 0
155 157 0
149 148 0
167 179 0
153 158 0
162 171 0
161 163 0
163 168 0
156 166 0
162 174 0
159 157 0
166 173 0
166 179 0
161 175 0
172 186 0
145 147 0
173 176 0
176 188 0
161 182 0
171 186 0
165 176 0
168 183 0
164 180 0
166 173 0
170 196 0
169 191 0
167 179 0
158 170 0
173 184 0
163 170 0
171 189 0
173 194 0
177 197 0
168 188 0
158 179 0
163 183 0
158 178 0
154 174 0
169 189 0
152 170 0
154 175 0
165 185 0
163 183 0
157 175 0
174 193 0
161 179 0
159 181 0
165 183 0
165 183 0
172 191 0
165 186 0
148 165 0
149 167 0
164 180 0
151 165 0
160 179 0
157 173 0
157 174 0
155 173 0
130 147 0
152 169 0
152 171 0
136 152 0
124 140 0
160 178 0
134 149 0
145 160 0
148 163 0
149 163 0
161 177 0
150 167 0
159 176 0
156 173 0
149 165 0
161 175 0
142 156 0
102 115 0
151 168 0
145 162 0
140 155 0
142 157 0
134 150 0
137 149 0
136 149 0
134 150 0
140 155 0
122 136 0
157 174 0
139 152 0
137 151 0
125 139 0
137 150 0
129 144 0
111 123 0
131 144 0
146 160 0
137 153 0
107 118 0
128 141 0
136 153 0
142 158 0
138 151 0
136 148 0
159 176 0
147 161 0
124 139 0
120 135 0
127 140 0
129 145 0
162 179 0
125 139 0
148 167 0
135 147 0
127 143 0
144 160 0
146 160 0
141 157 0
150 167 0
126 141 0
145 164 0
141 155 0
134 150 0
122 137 0
143 161 0
148 163 0
132 148 0
145 160 0
140 159 0
145 161 0
147 166 0
141 157 0
118 137 0
139 156 0
140 155 0
134 154 0
108 128 0
145 160 0
114 128 0
156 172 0
146 164 0
141 162 0
149 166 0
109 128 0
130 150 0
130 153 0
148 166 0
136 152 0
100 115 0
149 167 0
149 169 0
126 149 0
139 158 0
127 144 0
140 158 0
133 153 0
140 162 0
108 126 0
143 161 0
140 161 0
116 137 0
139 160 0
130 151 0
152 178 0
144 160 0
164 186 0
139 156 0
123 146 0
149 171 0
151 170 0
126 147 0
142 162 0
140 159 0
140 161 0
103 121 0
154 178 0
160 180 0
133 152 0
135 157 0
140 162 0
152 171 0
138 159 0
153 175 0
137 159 0
117 132 0
122 140 0
122 144 0
155 178 0
113 132 0
104 120 0
161 182 0
142 163 0
124 147 0
117 137 0
137 154 0
132 154 0
124 139 0
136 158 0
126 148 0
145 165 0
106 121 0
112 131 0
124 141 0
101 116 0
158 179 0
116 137 0
130 150 0
111 127 0
99 115 0
86 107 0
100 118 0
132 151 0
123 145 0
161 185 0
116 137 0
145 165 0
105 126 0
127 145 0
90 114 0
127 147 0
96 119 0
114 135 0
156 175 0
130 150 0
126 146 0
137 153 0
104 125 0
121 139 0
151 169 0
128 150 0
130 152 0
127 146 0
120 140 0
96 110 0
143 163 0
150 169 0
147 157 0
148 169 0
111 133 0
127 149 0
120 132 0
99 115 0
76 94 0
155 177 0
140 162 0
120 135 0
142 161 0
131 150 0
133 152 0
128 150 0
133 152 0
111 131 0
145 162 0
125 144 0
133 150 0
99 112 0
84 101 0
166 188 0
117 133 0
136 157 0
143 162 0
106 120 0
149 171 0
141 161 0
111 129 0
62 72 0
128 147 0
114 127 0
136 150 0
85 104 0
141 156 0
154 168 0
133 152 0
128 147 0
123 136 0
112 131 0
136 153 0
114 135 0
138 153 0
149 167 0
140 165 0
144 158 0
148 168 0
127 143 0
119 138 0
136 154 0
101 120 0
124 142 0
134 151 0
158 170 0
151 163 0
122 131 0
143 161 0
147 156 0
151 161 0
114 134 0
95 112 0
140 158 0
132 144 0
137 153 0
130 149 0
141 147 0
112 124 0
150 163 0
146 157 0
134 147 0
127 139 0
130 136 0
106 119 0
144 159 0
141 146 0
145 164 0
110 120 0
137 151 0
151 165 0
130 138 0
138 150 0
143 157 0
137 150 0
146 164 0
142 155 0
139 148 0
139 149 0
131 148 0
141 155 0
143 153 0
88 96 0
128 134 0
119 115 0
155 170 0
144 154 0
171 176 0
132 137 0
167 185 0
140 145 0
139 144 0
133 145 0
128 136 0
158 157 0
131 136 0
150 160 0
134 141 0
143 150 0
103 104 0
160 158 0
108 108 0
146 158 0
154 154 0
150 155 0
146 148 0
135 130 0
146 153 0
152 154 0
111 102 0
131 125 0
128 124 0
134 130 0
121 120 0
140 135 0
129 122 0
146 149 0
114 104 0
113 102 0
118 99 0
139 137 0
125 112 0
146 145 0
159 157 0
134 122 0
134 128 0
124 111 0
116 103 0
119 115 0
129 123 0
149 148 0
150 148 0
142 141 0
135 127 0
125 121 0
140 134 0
146 142 0
144 142 0
129 123 0
147 138 0
137 137 0
140 137 0
152 155 0
116 99 0
150 158 0
132 129 0
134 135 0
140 138 0
167 177 0
151 153 0
162 169 0
160 164 0
159 158 0
154 161 0
160 168 0
157 166 0
167 177 0
161 165 0
156 164 0
156 163 0
154 159 0
157 160 0
160 161 0
157 159 0
161 168 0
158 168 0
156 158 0
156 162 0
167 176 0
147 147 0
166 178 0
170 175 0
165 178 0
152 159 0
169 175 0
166 168 0
164 173 0
164 169 0
165 179 0
166 173 0
166 180 0
165 174 0
169 188 0
162 175 0
163 178 0
173 191 0
172 189 0
169 189 0
160 179 0
173 193 0
153 172 0
153 173 0
166 187 0
156 174 0
169 189 0
173 192 0
157 175 0
163 183 0
172 193 0
170 193 0
160 180 0
158 178 0
151 172 0
154 173 0
170 188 0
164 183 0
160 178 0
166 187 0
157 175 0
150 166 0
158 177 0
170 191 0
151 169 0
139 156 0
140 158 0
152 171 0
166 186 0
156 175 0
144 158 0
144 160 0
141 156 0
149 165 0
165 180 0
143 159 0
153 170 0
169 184 0
144 161 0
134 148 0
142 159 0
121 133 0
125 138 0
156 171 0
151 166 0
157 173 0
142 157 0
156 172 0
128 144 0
141 155 0
156 172 0
143 157 0
128 142 0
111 122 0
140 153 0
121 137 0
154 170 0
143 158 0
122 136 0
130 142 0
150 164 0
138 151 0
144 160 0
152 169 0
130 146 0
151 165 0
144 161 0
142 155 0
138 151 0
137 151 0
148 160 0
132 145 0
122 137 0
127 139 0
134 152 0
156 176 0
169 185 0
128 143 0
131 147 0
141 157 0
143 159 0
142 160 0
146 160 0
133 151 0
144 160 0
133 151 0
130 148 0
118 134 0
135 150 0
138 155 0
149 166 0
147 165 0
138 152 0
125 144 0
165 185 0
116 136 0
121 139 0
108 124 0
127 143 0
141 159 0
136 155 0
139 159 0
135 151 0
111 126 0
114 134 0
151 170 0
117 133 0
140 156 0
139 157 0
119 136 0
140 156 0
121 138 0
146 164 0
151 173 0
110 127 0
112 129 0
135 156 0
151 174 0
151 170 0
142 158 0
142 166 0
128 144 0
139 157 0
128 148 0
129 145 0
129 148 0
155 178 0
127 150 0
111 131 0
149 166 0
130 148 0
98 114 0
145 165 0
145 164 0
155 172 0
131 147 0
124 143 0
138 160 0
169 186 0
99 117 0
139 153 0
125 143 0
147 167 0
144 167 0
121 140 0
141 157 0
130 151 0
126 143 0
135 144 0
131 152 0
146 164 0
143 163 0
126 146 0
141 160 0
132 151 0
127 143 0
109 128 0
150 175 0
155 175 0
153 167 0
116 137 0
109 129 0
150 170 0
110 133 0
131 151 0
128 150 0
135 153 0
118 137 0
125 147 0
149 169 0
105 127 0
147 169 0
85 105 0
133 158 0
144 164 0
135 150 0
140 156 0
148 170 0
96 108 0
127 145 0
146 167 0
144 166 0
87 106 0
88 102 0
151 169 0
140 163 0
140 159 0
108 128 0
141 164 0
112 131 0
145 162 0
134 154 0
122 144 0
123 144 0
124 142 0
151 170 0
139 158 0
103 121 0
136 158 0
137 155 0
149 170 0
87 106 0
132 154 0
117 137 0
115 136 0
123 139 0
122 137 0
118 141 0
136 153 0
139 159 0
150 172 0
148 169 0
109 128 0
153 169 0
116 137 0
131 151 0
96 112 0
155 179 0
152 172 0
137 151 0
121 140 0
104 122 0
125 144 0
120 138 0
119 138 0
108 129 0
153 173 0
129 145 0
124 145 0
114 125 0
134 150 0
135 153 0
168 190 0
142 163 0
106 116 0
112 135 0
144 163 0
115 136 0
127 143 0
154 170 0
117 136 0
110 123 0
137 148 0
110 128 0
135 147 0
127 137 0
161 182 0
139 156 0
152 169 0
117 134 0
136 158 0
145 162 0
155 173 0
137 159 0
117 134 0
156 178 0
146 168 0
130 144 0
162 182 0
145 163 0
119 137 0
147 164 0
120 135 0
132 149 0
133 141 0
151 169 0
120 135 0
153 170 0
142 157 0
135 154 0
130 151 0
158 167 0
124 136 0
134 145 0
119 131 0
143 156 0
130 139 0
103 119 0
153 165 0
127 141 0
143 163 0
118 132 0
144 153 0
145 166 0
139 149 0
154 171 0
128 139 0
132 142 0
143 153 0
143 156 0
140 152 0
112 108 0
157 167 0
117 132 0
128 141 0
125 134 0
122 128 0
132 131 0
120 131 0
144 152 0
149 159 0
155 158 0
125 129 0
119 121 0
137 142 0
151 157 0
155 167 0
138 150 0
159 172 0
132 142 0
140 141 0
152 151 0
121 121 0
139 141 0
108 112 0
139 133 0
128 140 0
159 167 0
148 150 0
111 105 0
136 138 0
115 107 0
150 150 0
145 147 0
148 149 0
126 127 0
148 150 0
151 159 0
116 109 0
126 125 0
163 164 0
154 153 0
145 155 0
153 153 0
132 128 0
130 123 0
129 122 0
141 133 0
110 99 0
131 121 0
130 128 0
111 107 0
137 133 0
152 151 0
148 149 0
140 138 0
131 130 0
133 128 0
132 130 0
130 124 0
137 134 0
119 113 0
143 146 0
145 145 0
164 169 0
137 136 0
117 107 0
143 138 0
146 147 0
164 172 0
150 147 0
146 144 0
149 151 0
137 135 0
152 152 0
152 158 0
154 151 0
135 136 0
164 172 0
161 167 0
136 129 0
172 184 0
162 177 0
150 155 0
151 155 0
156 163 0
168 180 0
154 156 0
162 171 0
143 138 0
155 165 0
165 175 0
166 180 0
154 164 0
159 171 0
150 156 0
177 192 0
163 170 0
166 178 0
160 170 0
171 183 0
170 180 0
161 168 0
168 182 0
166 178 0
162 172 0
158 165 0
160 175 0
163 182 0
158 180 0
166 186 0
167 189 0
171 191 0
167 187 0
136 154 0
167 187 0
157 176 0
163 180 0
163 183 0
151 171 0
158 177 0
151 169 0
162 179 0
165 184 0
171 189 0
150 169 0
174 191 0
165 184 0
163 183 0
166 187 0
157 174 0
141 160 0
158 177 0
157 176 0
161 179 0
169 186 0
155 171 0
144 157 0
158 175 0
161 178 0
162 180 0
152 168 0
136 151 0
141 155 0
138 153 0
143 159 0
159 175 0
148 164 0
162 180 0
149 165 0
147 162 0
147 162 0
155 170 0
150 167 0
144 158 0
146 162 0
142 156 0
142 156 0
143 158 0
112 123 0
163 180 0
107 118 0
127 140 0
158 177 0
149 163 0
126 140 0
150 164 0
130 145 0
155 171 0
137 152 0
158 174 0
134 151 0
155 173 0
132 148 0
148 162 0
129 145 0
151 165 0
130 144 0
143 159 0
141 156 0
138 153 0
165 183 0
151 168 0
128 143 0
130 146 0
155 172 0
135 149 0
146 160 0
134 148 0
144 161 0
115 131 0
133 150 0
134 147 0
139 156 0
151 168 0
150 166 0
111 123 0
146 163 0
145 161 0
118 135 0
158 175 0
141 158 0
145 159 0
149 165 0
146 164 0
131 147 0
139 156 0
79 97 0
137 156 0
146 161 0
132 149 0
130 149 0
127 145 0
142 159 0
126 141 0
130 147 0
147 168 0
140 157 0
139 158 0
146 164 0
167 190 0
131 150 0
138 157 0
148 167 0
155 174 0
156 177 0
156 177 0
128 148 0
113 127 0
165 188 0
125 143 0
135 157 0
152 169 0
141 160 0
167 191 0
127 148 0
127 146 0
140 159 0
138 158 0
146 166 0
138 157 0
130 150 0
164 181 0
130 149 0
160 179 0
129 149 0
149 170 0
110 131 0
109 128 0
127 148 0
137 160 0
134 153 0
162 183 0
134 155 0
146 166 0
162 185 0
122 140 0
151 172 0
124 147 0
147 169 0
118 139 0
88 110 0
143 164 0
133 152 0
117 137 0
140 160 0
134 159 0
142 162 0
114 131 0
169 188 0
150 171 0
154 173 0
121 144 0
102 125 0
123 141 0
153 173 0
123 144 0
112 133 0
157 180 0
131 151 0
144 165 0
111 127 0
144 163 0
101 124 0
139 158 0
130 152 0
122 137 0
128 149 0
147 171 0
137 159 0
152 175 0
143 163 0
117 137 0
147 165 0
114 135 0
120 136 0
146 170 0
110 127 0
138 160 0
83 106 0
147 171 0
139 159 0
132 152 0
126 149 0
87 104 0
128 150 0
124 145 0
146 162 0
110 122 0
128 150 0
126 138 0
152 173 0
134 150 0
125 143 0
125 146 0
112 131 0
130 151 0
139 158 0
151 168 0
89 114 0
111 130 0
123 145 0
112 132 0
112 131 0
123 143 0
135 155 0
91 111 0
132 147 0
132 155 0
124 141 0
146 165 0
135 153 0
123 137 0
116 127 0
93 104 0
122 135 0
134 157 0
132 149 0
119 136 0
134 154 0
146 164 0
137 153 0
136 154 0
139 158 0
140 156 0
150 172 0
105 121 0
110 128 0
151 164 0
121 145 0
164 179 0
147 163 0
137 156 0
139 150 0
144 164 0
140 157 0
131 146 0
139 158 0
133 150 0
137 157 0
134 153 0
157 176 0
126 143 0
115 134 0
121 139 0
136 154 0
144 154 0
101 114 0
134 143 0
151 166 0
149 166 0
118 132 0
118 137 0
155 174 0
133 147 0
120 133 0
99 116 0
148 165 0
134 143 0
135 147 0
133 144 0
115 122 0
134 152 0
142 157 0
146 166 0
126 144 0
148 159 0
122 138 0
132 149 0
152 162 0
136 142 0
123 136 0
153 170 0
152 173 0
155 173 0
133 145 0
162 172 0
111 118 0
151 157 0
142 150 0
149 157 0
105 107 0
88 101 0
121 119 0
149 164 0
142 161 0
107 116 0
153 161 0
139 138 0
135 144 0
130 142 0
158 163 0
124 121 0
127 128 0
163 174 0
137 139 0
129 142 0
130 141 0
130 138 0
144 154 0
129 135 0
129 120 0
135 131 0
144 145 0
153 160 0
168 182 0
113 109 0
115 119 0
153 155 0
106 107 0
167 174 0
154 157 0
167 175 0
157 163 0
127 118 0
137 138 0
142 136 0
111 107 0
116 112 0
153 154 0
128 130 0
151 155 0
143 135 0
127 129 0
121 109 0
144 143 0
153 148 0
121 109 0
117 113 0
142 133 0
139 137 0
134 134 0
122 124 0
135 129 0
123 124 0
161 166 0
141 147 0
147 149 0
144 141 0
124 115 0
146 150 0
141 135 0
129 122 0
140 138 0
163 170 0
163 172 0
154 154 0
151 154 0
145 144 0
138 136 0
158 162 0
147 143 0
146 153 0
145 129 0
167 167 0
140 134 0
149 146 0
154 157 0
158 157 0
161 170 0
150 157 0
172 185 0
138 129 0
147 144 0
158 168 0
163 168 0
153 158 0
147 153 0
158 166 0
163 169 0
163 171 0
162 167 0
164 175 0
166 169 0
164 178 0
157 163 0
157 163 0
156 165 0
170 176 0
167 176 0
165 174 0
176 192 0
158 166 0
163 173 0
167 174 0
164 172 0
158 163 0
169 186 0
166 179 0
159 180 0
159 180 0
165 185 0
160 179 0
169 189 0
155 176 0
173 196 0
159 179 0
167 191 0
173 192 0
153 171 0
161 181 0
164 180 0
169 188 0
150 169 0
155 173 0
150 167 0
165 182 0
159 175 0
163 182 0
147 162 0
142 158 0
155 174 0
153 171 0
152 169 0
160 178 0
148 164 0
136 151 0
143 161 0
154 172 0
134 152 0
131 144 0
156 172 0
150 168 0
151 167 0
136 152 0
162 178 0
126 139 0
163 179 0
151 169 0
149 166 0
154 168 0
154 171 0
134 149 0
127 142 0
148 164 0
143 158 0
163 179 0
168 185 0
149 164 0
146 159 0
162 181 0
130 145 0
156 172 0
158 174 0
145 160 0
133 147 0
138 151 0
136 148 0
155 171 0
128 143 0
163 179 0
147 161 0
149 164 0
130 147 0
140 156 0
168 185 0
114 126 0
123 139 0
144 163 0
163 181 0
147 162 0
106 119 0
121 136 0
128 143 0
157 173 0
144 161 0
165 182 0
137 152 0
120 133 0
162 180 0
125 144 0
129 144 0
126 142 0
146 164 0
146 163 0
130 150 0
122 139 0
136 151 0
142 158 0
156 173 0
120 138 0
140 159 0
116 129 0
148 168 0
131 148 0
133 153 0
141 156 0
129 143 0
140 160 0
145 164 0
126 146 0
147 162 0
141 160 0
117 130 0
131 152 0
137 158 0
135 156 0
128 147 0
99 119 0
134 148 0
149 170 0
162 184 0
145 166 0
155 174 0
128 144 0
116 132 0
152 171 0
125 147 0
146 165 0
163 184 0
131 150 0
122 141 0
121 138 0
132 152 0
150 169 0
120 132 0
103 121 0
142 160 0
124 142 0
108 126 0
126 149 0
155 176 0
147 167 0
128 149 0
100 112 0
125 140 0
151 170 0
150 171 0
125 147 0
135 157 0
164 186 0
147 165 0
116 134 0
150 171 0
129 151 0
129 149 0
137 157 0
144 165 0
122 142 0
139 158 0
157 177 0
147 170 0
133 158 0
134 156 0
138 159 0
141 162 0
120 137 0
130 149 0
147 165 0
143 167 0
137 154 0
132 157 0
118 142 0
117 134 0
147 165 0
103 117 0
141 162 0
127 150 0
152 175 0
148 166 0
123 143 0
147 167 0
134 156 0
121 144 0
116 137 0
118 140 0
124 147 0
132 152 0
119 138 0
148 168 0
126 146 0
124 144 0
141 160 0
145 159 0
110 132 0
132 154 0
154 175 0
163 182 0
166 183 0
116 137 0
146 157 0
115 136 0
125 140 0
113 132 0
127 146 0
113 134 0
146 168 0
100 117 0
138 153 0
118 138 0
126 144 0
142 157 0
102 121 0
130 153 0
99 118 0
152 173 0
141 161 0
124 142 0
149 169 0
137 154 0
127 150 0
121 143 0
135 151 0
122 140 0
138 159 0
153 169 0
114 131 0
129 149 0
143 161 0
132 150 0
110 128 0
131 151 0
156 170 0
125 143 0
122 142 0
126 143 0
129 149 0
149 162 0
123 141 0
114 132 0
139 157 0
143 159 0
151 168 0
87 96 0
159 180 0
155 173 0
139 157 0
164 185 0
169 190 0
150 170 0
109 123 0
126 150 0
126 142 0
126 133 0
112 126 0
159 175 0
159 179 0
166 186 0
139 149 0
145 161 0
136 155 0
147 167 0
165 188 0
131 151 0
133 148 0
127 144 0
131 147 0
150 164 0
144 158 0
150 162 0
123 136 0
132 147 0
159 172 0
136 156 0
114 127 0
151 170 0
139 151 0
144 162 0
146 169 0
126 141 0
143 157 0
144 167 0
126 143 0
115 129 0
143 154 0
150 168 0
144 147 0
120 133 0
131 141 0
157 173 0
156 172 0
149 164 0
137 152 0
142 157 0
141 151 0
164 180 0
149 167 0
116 123 0
133 150 0
158 173 0
145 165 0
129 142 0
125 129 0
148 167 0
150 156 0
147 145 0
140 144 0
110 122 0
113 121 0
133 140 0
129 144 0
141 152 0
125 132 0
155 169 0
119 121 0
150 159 0
134 139 0
138 147 0
114 115 0
146 163 0
137 146 0
138 139 0
166 176 0
138 144 0
121 119 0
137 134 0
139 152 0
129 132 0
135 136 0
158 166 0
159 171 0
129 139 0
153 153 0
121 124 0
130 130 0
159 172 0
131 133 0
141 139 0
145 155 0
130 127 0
129 128 0
127 121 0
130 131 0
138 142 0
150 149 0
143 146 0
139 138 0
156 163 0
139 136 0
149 146 0
141 132 0
143 147 0
146 135 0
137 132 0
129 125 0
149 144 0
145 138 0
153 159 0
154 157 0
135 129 0
150 146 0
137 131 0
162 162 0
153 149 0
133 137 0
155 148 0
135 129 0
138 135 0
154 161 0
131 123 0
159 164 0
158 158 0
147 144 0
160 158 0
162 167 0
169 177 0
154 148 0
155 151 0
153 157 0
157 164 0
176 192 0
161 164 0
152 155 0
155 161 0
157 163 0
152 156 0
148 143 0
165 178 0
155 160 0
165 177 0
165 164 0
149 147 0
159 164 0
170 174 0
155 155 0
162 173 0
172 184 0
158 166 0
169 179 0
168 177 0
171 179 0
161 171 0
179 194 0
174 187 0
155 164 0
171 180 0
162 179 0
165 178 0
162 173 0
166 187 0
167 187 0
149 167 0
162 180 0
154 170 0
164 182 0
162 181 0
158 177 0
155 176 0
164 183 0
149 165 0
170 188 0
163 183 0
164 182 0
173 195 0
158 175 0
151 167 0
159 177 0
165 183 0
164 181 0
159 176 0
159 176 0
159 174 0
161 179 0
160 179 0
146 163 0
145 158 0
150 167 0
154 173 0
152 172 0
165 184 0
138 155 0
132 147 0
152 172 0
135 149 0
154 170 0
144 159 0
139 154 0
140 155 0
156 174 0
136 151 0
137 152 0
149 165 0
156 174 0
148 164 0
156 174 0
142 158 0
153 168 0
118 131 0
158 175 0
155 170 0
129 145 0
157 172 0
166 182 0
125 137 0
130 143 0
147 164 0
145 160 0
140 157 0
153 170 0
136 153 0
135 147 0
170 188 0
164 181 0
149 164 0
148 165 0
111 124 0
100 114 0
157 175 0
149 168 0
158 173 0
133 149 0
136 152 0
134 151 0
144 163 0
145 161 0
123 138 0
144 163 0
142 161 0
145 164 0
118 134 0
141 160 0
149 169 0
140 158 0
124 136 0
134 152 0
151 171 0
156 176 0
149 166 0
130 150 0
136 155 0
126 141 0
128 142 0
134 152 0
116 135 0
161 179 0
168 187 0
142 160 0
148 167 0
117 132 0
131 147 0
162 182 0
161 180 0
156 172 0
153 174 0
121 138 0
167 188 0
146 167 0
151 171 0
139 158 0
142 162 0
139 159 0
150 173 0
156 174 0
159 178 0
146 168 0
154 177 0
130 151 0
123 143 0
152 172 0
126 146 0
133 154 0
151 169 0
137 158 0
135 156 0
154 172 0
147 170 0
157 177 0
120 136 0
154 176 0
174 191 0
143 164 0
117 135 0
140 160 0
146 165 0
147 169 0
117 138 0
148 169 0
149 172 0
145 165 0
126 141 0
154 170 0
110 129 0
151 174 0
169 195 0
145 162 0
133 157 0
165 181 0
147 167 0
141 160 0
110 129 0
146 165 0
117 135 0
157 179 0
165 189 0
83 99 0
129 146 0
145 168 0
149 172 0
135 153 0
126 145 0
142 165 0
112 132 0
124 141 0
90 109 0
137 159 0
115 132 0
119 139 0
144 169 0
133 149 0
110 129 0
152 174 0
139 159 0
129 149 0
101 118 0
145 167 0
131 150 0
139 158 0
155 175 0
97 118 0
146 166 0
127 144 0
96 118 0
102 119 0
135 153 0
119 138 0
128 146 0
126 145 0
128 146 0
127 149 0
118 139 0
144 161 0
158 180 0
110 128 0
154 177 0
108 126 0
143 161 0
100 113 0
149 169 0
124 145 0
139 157 0
113 132 0
129 149 0
153 175 0
138 156 0
133 155 0
144 165 0
106 129 0
130 151 0
127 147 0
138 159 0
140 159 0
135 152 0
127 141 0
111 125 0
123 137 0
116 134 0
141 156 0
146 168 0
140 156 0
126 144 0
136 158 0
127 149 0
144 159 0
117 136 0
127 144 0
158 181 0
130 148 0
114 130 0
143 167 0
145 164 0
119 133 0
147 167 0
127 147 0
141 161 0
135 156 0
145 163 0
98 114 0
122 141 0
130 142 0
148 158 0
132 144 0
148 165 0
123 143 0
149 172 0
158 180 0
135 150 0
127 148 0
132 151 0
132 142 0
135 153 0
140 154 0
121 142 0
128 145 0
123 145 0
109 120 0
138 156 0
143 167 0
139 148 0
153 173 0
154 174 0
111 126 0
144 160 0
169 188 0
166 189 0
152 172 0
136 158 0
141 166 0
142 158 0
135 149 0
156 175 0
128 140 0
153 170 0
128 143 0
135 152 0
165 185 0
139 155 0
122 133 0
146 162 0
171 185 0
140 152 0
116 122 0
159 175 0
144 151 0
135 147 0
139 154 0
150 163 0
145 163 0
136 149 0
150 159 0
149 164 0
153 169 0
151 169 0
140 155 0
133 138 0
129 145 0
169 184 0
126 130 0
123 137 0
146 160 0
149 158 0
155 169 0
119 123 0
141 153 0
130 140 0
140 152 0
131 139 0
152 160 0
132 138 0
140 137 0
114 118 0
158 169 0
132 139 0
147 152 0
136 141 0
143 143 0
134 151 0
153 155 0
140 150 0
149 151 0
138 140 0
127 132 0
136 139 0
126 125 0
118 125 0
122 131 0
127 128 0
131 134 0
156 165 0
146 146 0
150 156 0
140 143 0
140 145 0
146 148 0
138 142 0
142 140 0
141 148 0
137 126 0
138 141 0
160 165 0
115 108 0
132 128 0
150 152 0
138 138 0
156 161 0
130 127 0
113 102 0
148 147 0
145 142 0
140 139 0
149 156 0
147 144 0
133 141 0
147 150 0
137 141 0
125 131 0
126 123 0
135 127 0
156 159 0
154 154 0
134 130 0
141 143 0
140 140 0
160 170 0
155 156 0
138 134 0
173 183 0
145 151 0
155 164 0
142 139 0
153 159 0
159 164 0
169 172 0
156 158 0
153 150 0
155 169 0
166 181 0
168 179 0
142 141 0
151 156 0
161 170 0
169 188 0
155 155 0
172 190 0
165 178 0
142 147 0
154 154 0
166 171 0
157 174 0
149 149 0
166 177 0
159 174 0
175 191 0
155 160 0
160 171 0
164 173 0
153 160 0
169 183 0
167 184 0
169 185 0
149 169 0
163 180 0
166 185 0
154 173 0
158 175 0
158 178 0
150 167 0
167 187 0
152 171 0
141 161 0
164 183 0
167 187 0
172 193 0
173 189 0
167 182 0
170 190 0
165 183 0
165 186 0
164 182 0
160 179 0
150 167 0
154 172 0
141 156 0
166 188 0
146 161 0
153 170 0
142 161 0
159 175 0
162 177 0
161 179 0
155 175 0
163 181 0
166 183 0
140 156 0
154 170 0
124 140 0
148 163 0
139 153 0
154 171 0
150 167 0
151 168 0
116 130 0
150 165 0
147 165 0
132 147 0
164 182 0
140 152 0
134 149 0
154 172 0
152 167 0
133 149 0
144 158 0
134 149 0
129 146 0
161 175 0
151 168 0
154 171 0
141 158 0
129 146 0
152 169 0
149 165 0
133 149 0
144 157 0
131 148 0
147 163 0
145 159 0
125 141 0
145 162 0
145 162 0
122 134 0
143 158 0
154 172 0
159 176 0
151 165 0
125 143 0
128 142 0
145 160 0
118 133 0
153 167 0
144 160 0
156 177 0
138 156 0
158 178 0
150 170 0
123 140 0
147 162 0
143 161 0
132 150 0
170 189 0
145 162 0
139 157 0
144 160 0
150 171 0
133 146 0
140 159 0
145 165 0
147 164 0
154 172 0
137 156 0
116 134 0
172 193 0
143 161 0
150 169 0
143 161 0
137 156 0
157 176 0
140 158 0
108 126 0
155 177 0
140 158 0
144 162 0
145 165 0
153 174 0
143 164 0
127 148 0
152 173 0
139 156 0
137 154 0
144 164 0
164 182 0
117 136 0
97 116 0
129 147 0
142 159 0
122 140 0
136 160 0
140 160 0
146 165 0
137 153 0
129 148 0
144 166 0
152 173 0
146 167 0
149 167 0
163 184 0
156 177 0
162 184 0
141 160 0
115 135 0
141 163 0
158 174 0
139 161 0
150 172 0
132 153 0
127 150 0
150 170 0
151 174 0
138 157 0
146 168 0
113 132 0
117 138 0
142 160 0
123 144 0
128 149 0
122 144 0
150 171 0
112 135 0
124 144 0
132 149 0
140 162 0
141 163 0
129 148 0
98 114 0
101 124 0
111 129 0
157 175 0
148 167 0
157 175 0
125 140 0
129 151 0
154 175 0
137 159 0
118 133 0
119 138 0
128 148 0
117 132 0
156 172 0
121 143 0
157 180 0
140 161 0
145 166 0
145 164 0
90 106 0
128 145 0
142 160 0
156 179 0
116 132 0
129 150 0
147 167 0
121 139 0
117 139 0
138 159 0
131 148 0
127 148 0
100 120 0
151 173 0
119 137 0
111 135 0
127 150 0
147 169 0
168 191 0
137 155 0
144 157 0
109 123 0
133 153 0
150 171 0
112 126 0
146 166 0
117 140 0
158 179 0
135 154 0
127 146 0
143 160 0
131 148 0
117 134 0
92 113 0
139 156 0
155 172 0
104 125 0
149 166 0
112 134 0
135 156 0
103 122 0
148 167 0
150 167 0
137 161 0
129 150 0
115 131 0
144 168 0
157 177 0
149 157 0
112 134 0
172 192 0
154 166 0
113 129 0
137 156 0
116 134 0
138 155 0
165 177 0
128 145 0
138 158 0
143 163 0
159 179 0
135 149 0
130 143 0
150 165 0
139 154 0
155 169 0
136 155 0
150 168 0
150 165 0
147 168 0
163 187 0
115 130 0
149 170 0
114 125 0
107 122 0
149 168 0
134 152 0
152 173 0
139 161 0
144 163 0
153 171 0
137 156 0
138 153 0
120 135 0
116 124 0
154 162 0
144 155 0
118 134 0
122 139 0
141 156 0
160 175 0
97 115 0
148 167 0
138 155 0
166 185 0
149 168 0
154 173 0
142 157 0
131 149 0
143 158 0
123 138 0
163 177 0
158 170 0
131 134 0
122 129 0
133 151 0
130 143 0
140 161 0
155 159 0
147 158 0
134 137 0
127 129 0
139 149 0
138 151 0
131 146 0
156 162 0
134 135 0
153 168 0
141 146 0
150 157 0
153 151 0
127 138 0
152 156 0
151 157 0
152 163 0
109 112 0
130 147 0
154 167 0
149 156 0
118 120 0
138 136 0
152 162 0
120 108 0
150 153 0
146 153 0
140 148 0
146 151 0
150 158 0
132 130 0
151 147 0
134 130 0
136 146 0
148 157 0
138 139 0
131 132 0
153 151 0
146 151 0
127 124 0
145 152 0
143 154 0
130 135 0
103 108 0
138 130 0
143 146 0
158 170 0
134 129 0
150 153 0
139 148 0
123 119 0
142 140 0
157 163 0
157 157 0
136 138 0
143 147 0
143 151 0
131 130 0
152 150 0
141 141 0
149 151 0
136 132 0
161 165 0
137 143 0
142 138 0
163 166 0
155 159 0
144 140 0
151 153 0
153 158 0
161 173 0
157 163 0
141 147 0
141 135 0
142 143 0
154 162 0
158 165 0
149 149 0
142 137 0
148 147 0
171 178 0
159 163 0
138 135 0
165 166 0
150 159 0
160 168 0
162 168 0
165 175 0
162 160 0
151 157 0
152 156 0
149 161 0
156 160 0
154 154 0
171 183 0
158 158 0
165 180 0
166 174 0
165 169 0
161 174 0
154 150 0
155 166 0
168 184 0
155 159 0
165 175 0
164 183 0
147 147 0
161 161 0
154 161 0
166 179 0
162 183 0
170 193 0
158 178 0
161 181 0
160 182 0
152 172 0
163 181 0
164 183 0
149 168 0
155 173 0
166 186 0
160 179 0
171 189 0
173 195 0
154 169 0
169 188 0
151 170 0
150 170 0
163 180 0
172 192 0
158 179 0
158 176 0
167 185 0
160 176 0
143 159 0
150 166 0
163 182 0
125 140 0
147 162 0
167 188 0
148 162 0
158 171 0
144 157 0
161 181 0
155 172 0
166 185 0
150 167 0
143 159 0
161 178 0
158 174 0
146 161 0
145 160 0
150 168 0
146 162 0
160 176 0
153 170 0
128 146 0
142 154 0
160 177 0
159 174 0
166 185 0
162 178 0
129 142 0
148 164 0
150 165 0
138 152 0
130 143 0
148 167 0
137 153 0
155 173 0
127 143 0
148 165 0
150 166 0
156 173 0
156 178 0
139 157 0
133 150 0
137 154 0
153 167 0
140 157 0
145 160 0
139 155 0
150 166 0
120 137 0
148 162 0
147 162 0
149 169 0
148 168 0
128 146 0
116 134 0
156 172 0
156 178 0
139 158 0
158 176 0
133 150 0
127 141 0
135 151 0
147 165 0
150 169 0
128 147 0
145 162 0
149 168 0
162 181 0
135 153 0
132 152 0
167 186 0
113 130 0
130 152 0
138 152 0
148 168 0
136 154 0
152 174 0
132 154 0
149 171 0
145 165 0
141 162 0
124 143 0
147 165 0
138 156 0
130 147 0
162 181 0
133 155 0
155 174 0
153 176 0
157 177 0
161 185 0
144 165 0
135 155 0
152 173 0
153 174 0
136 157 0
162 186 0
125 143 0
142 165 0
152 173 0
149 167 0
148 168 0
115 133 0
146 168 0
170 192 0
135 155 0
161 183 0
144 165 0
151 172 0
120 139 0
120 139 0
126 145 0
162 182 0
107 127 0
144 164 0
145 164 0
144 164 0
138 160 0
162 187 0
148 170 0
119 137 0
140 159 0
121 143 0
156 178 0
139 162 0
102 126 0
149 170 0
151 173 0
105 124 0
128 146 0
138 160 0
152 171 0
99 118 0
116 137 0
135 157 0
117 136 0
134 154 0
133 155 0
132 155 0
120 143 0
132 152 0
132 153 0
148 169 0
113 128 0
147 167 0
91 112 0
136 150 0
123 144 0
154 172 0
153 177 0
146 168 0
134 151 0
124 144 0
125 142 0
142 163 0
136 159 0
136 154 0
111 132 0
136 158 0
153 176 0
143 164 0
160 176 0
103 128 0
128 149 0
129 149 0
127 149 0
113 130 0
139 161 0
118 138 0
116 139 0
131 150 0
125 147 0
113 135 0
127 144 0
141 159 0
134 153 0
121 144 0
114 131 0
119 139 0
137 162 0
148 168 0
148 171 0
100 123 0
146 169 0
144 167 0
143 161 0
127 149 0
134 158 0
148 171 0
93 108 0
138 158 0
163 181 0
92 104 0
120 142 0
137 157 0
130 148 0
144 158 0
115 133 0
117 132 0
131 150 0
101 121 0
121 129 0
92 104 0
130 148 0
120 132 0
149 166 0
123 137 0
129 148 0
158 181 0
156 173 0
131 151 0
138 155 0
134 148 0
143 167 0
155 170 0
121 142 0
133 150 0
122 141 0
146 163 0
151 169 0
119 134 0
126 146 0
133 154 0
165 188 0
148 166 0
114 125 0
131 144 0
146 161 0
151 168 0
148 165 0
130 146 0
131 142 0
148 165 0
98 121 0
149 159 0
161 182 0
132 150 0
143 158 0
139 154 0
125 144 0
130 138 0
150 164 0
157 176 0
161 174 0
132 147 0
142 160 0
147 164 0
155 167 0
146 161 0
166 185 0
128 147 0
139 147 0
159 174 0
147 160 0
157 172 0
161 180 0
148 169 0
146 162 0
149 158 0
133 149 0
127 136 0
147 155 0
142 158 0
147 157 0
158 174 0
158 168 0
142 154 0
139 154 0
118 119 0
109 127 0
144 157 0
131 149 0
153 166 0
150 166 0
162 173 0
145 152 0
137 139 0
137 150 0
154 164 0
125 137 0
118 122 0
148 153 0
130 144 0
146 157 0
163 168 0
159 158 0
151 160 0
139 144 0
118 127 0
138 149 0
132 138 0
156 168 0
136 139 0
148 158 0
160 176 0
156 162 0
162 171 0
153 165 0
146 152 0
117 113 0
147 150 0
124 119 0
144 144 0
149 155 0
141 143 0
156 155 0
138 141 0
155 155 0
146 144 0
145 151 0
155 164 0
140 137 0
137 136 0
144 137 0
167 174 0
140 136 0
157 164 0
116 110 0
153 152 0
150 155 0
143 142 0
154 154 0
143 142 0
144 144 0
127 126 0
144 146 0
140 142 0
159 169 0
157 170 0
142 137 0
149 150 0
152 151 0
127 120 0
150 152 0
157 162 0
149 151 0
164 171 0
159 160 0
150 151 0
153 158 0
142 140 0
142 144 0
153 164 0
144 143 0
151 150 0
144 147 0
168 182 0
153 151 0
160 159 0
140 135 0
154 157 0
160 164 0
144 148 0
174 182 0
145 152 0
166 180 0
152 160 0
164 168 0
164 174 0
160 161 0
162 164 0
163 162 0
156 163 0
140 139 0
160 166 0
165 174 0
172 187 0
160 168 0
167 178 0
149 164 0
156 156 0
163 173 0
161 170 0
161 175 0
168 186 0
168 188 0
173 192 0
166 184 0
165 184 0
156 176 0
161 181 0
147 161 0
161 182 0
164 183 0
163 181 0
173 192 0
148 167 0
158 174 0
153 171 0
162 181 0
161 179 0
167 186 0
122 138 0
171 189 0
168 186 0
167 182 0
137 154 0
161 181 0
163 178 0
153 172 0
151 168 0
142 159 0
142 157 0
176 193 0
147 163 0
139 153 0
169 188 0
154 169 0
142 159 0
148 168 0
146 160 0
150 169 0
142 158 0
160 175 0
150 166 0
140 154 0
149 168 0
135 150 0
152 169 0
148 165 0
148 164 0
169 188 0
154 169 0
167 184 0
138 155 0
152 169 0
153 170 0
155 173 0
164 183 0
148 165 0
155 176 0
133 151 0
143 159 0
148 164 0
131 147 0
135 153 0
140 155 0
136 150 0
138 152 0
129 145 0
157 175 0
135 150 0
163 180 0
143 159 0
152 167 0
140 157 0
153 169 0
154 172 0
154 174 0
147 165 0
153 171 0
119 136 0
139 155 0
128 147 0
155 173 0
114 129 0
125 144 0
158 178 0
137 153 0
133 146 0
138 154 0
134 151 0
145 161 0
172 191 0
141 156 0
125 143 0
146 161 0
148 169 0
166 189 0
141 159 0
137 157 0
157 178 0
141 159 0
133 149 0
144 165 0
156 177 0
154 175 0
144 163 0
162 181 0
145 167 0
140 162 0
144 163 0
137 156 0
155 177 0
127 147 0
147 169 0
102 123 0
153 172 0
172 192 0
153 170 0
133 150 0
137 158 0
159 180 0
136 154 0
147 169 0
161 183 0
142 163 0
157 180 0
134 151 0
161 184 0
134 158 0
130 147 0
151 171 0
145 168 0
113 132 0
129 148 0
149 170 0
173 195 0
142 162 0
143 164 0
156 178 0
130 150 0
133 159 0
149 172 0
149 171 0
142 160 0
136 159 0
136 154 0
140 162 0
138 158 0
146 164 0
119 139 0
141 164 0
140 155 0
109 126 0
144 166 0
153 175 0
151 176 0
113 135 0
143 165 0
159 178 0
130 150 0
129 149 0
137 159 0
129 141 0
115 135 0
135 158 0
133 153 0
132 143 0
140 161 0
146 167 0
125 147 0
110 131 0
132 148 0
135 154 0
110 127 0
155 179 0
156 175 0
133 150 0
115 137 0
127 148 0
137 156 0
115 129 0
124 145 0
113 134 0
135 157 0
140 162 0
146 163 0
121 143 0
132 155 0
138 159 0
110 126 0
131 147 0
118 137 0
112 132 0
135 153 0
131 151 0
150 169 0
172 193 0
122 144 0
155 176 0
146 169 0
127 148 0
135 155 0
140 161 0
152 167 0
135 154 0
145 168 0
156 178 0
118 141 0
123 141 0
125 147 0
142 165 0
164 180 0
159 182 0
147 166 0
138 158 0
109 129 0
136 157 0
113 133 0
138 154 0
122 141 0
124 144 0
150 165 0
144 169 0
142 156 0
152 172 0
130 149 0
155 175 0
160 183 0
155 175 0
157 167 0
101 120 0
126 144 0
134 155 0
96 117 0
138 156 0
120 132 0
154 173 0
108 127 0
128 147 0
130 150 0
117 141 0
158 180 0
142 162 0
107 121 0
126 144 0
111 127 0
110 121 0
160 178 0
155 171 0
142 162 0
145 169 0
163 185 0
128 143 0
146 160 0
127 141 0
145 166 0
139 155 0
168 188 0
134 151 0
149 170 0
125 139 0
158 177 0
134 153 0
131 150 0
168 190 0
153 163 0
127 138 0
145 167 0
149 165 0
158 171 0
128 144 0
127 146 0
132 150 0
142 154 0
138 151 0
148 161 0
133 140 0
169 182 0
146 164 0
128 144 0
127 138 0
130 137 0
149 161 0
134 152 0
139 160 0
146 159 0
157 175 0
123 134 0
154 167 0
128 137 0
138 157 0
116 127 0
154 169 0
141 157 0
156 171 0
153 166 0
155 166 0
134 137 0
155 168 0
125 136 0
144 152 0
142 157 0
163 177 0
156 164 0
149 161 0
125 147 0
140 149 0
139 159 0
147 159 0
124 136 0
118 129 0
168 190 0
142 154 0
143 149 0
149 156 0
132 142 0
147 146 0
170 185 0
121 122 0
140 147 0
159 157 0
151 159 0
160 169 0
132 134 0
137 140 0
141 153 0
150 163 0
162 164 0
150 156 0
154 161 0
135 137 0
134 138 0
157 162 0
165 179 0
136 138 0
135 134 0
147 151 0
130 129 0
149 150 0
152 152 0
151 149 0
136 130 0
135 119 0
138 141 0
134 128 0
149 154 0
154 155 0
163 168 0
135 139 0
154 153 0
163 174 0
134 136 0
145 151 0
146 144 0
145 140 0
155 164 0
147 143 0
125 107 0
143 140 0
161 160 0
152 152 0
151 163 0
127 119 0
143 133 0
160 167 0
158 154 0
163 176 0
150 149 0
138 130 0
142 143 0
154 160 0
153 156 0
160 159 0
150 153 0
141 141 0
143 138 0
160 167 0
157 165 0
149 151 0
154 162 0
162 174 0
165 174 0
154 157 0
159 161 0
170 179 0
147 146 0
169 183 0
145 154 0
173 183 0
163 173 0
161 168 0
164 171 0
166 179 0
170 181 0
153 154 0
160 179 0
153 149 0
153 166 0
170 185 0
168 186 0
173 194 0
148 151 0
160 172 0
162 183 0
155 174 0
171 192 0
149 170 0
165 185 0
161 178 0
157 177 0
166 185 0
163 181 0
162 183 0
152 172 0
148 166 0
165 186 0
154 174 0
148 168 0
166 187 0
153 170 0
150 168 0
159 177 0
157 176 0
153 173 0
144 158 0
178 195 0
154 169 0
148 166 0
155 175 0
160 177 0
154 171 0
167 187 0
147 162 0
156 172 0
152 168 0
150 166 0
149 167 0
147 164 0
154 172 0
156 175 0
151 168 0
151 166 0
148 165 0
153 166 0
151 167 0
155 171 0
161 178 0
134 150 0
152 170 0
165 182 0
137 153 0
142 158 0
147 163 0
152 167 0
130 144 0
157 173 0
152 170 0
139 157 0
134 145 0
157 174 0
152 169 0
150 167 0
129 148 0
130 145 0
159 177 0
150 167 0
142 157 0
152 168 0
148 167 0
143 158 0
146 165 0
144 162 0
149 165 0
152 170 0
134 151 0
147 165 0
148 167 0
154 168 0
136 153 0
152 172 0
136 157 0
173 192 0
149 169 0
138 157 0
124 141 0
132 150 0
144 164 0
137 155 0
152 172 0
141 163 0
151 171 0
119 138 0
129 147 0
134 152 0
103 124 0
156 176 0
121 140 0
144 159 0
142 160 0
147 165 0
139 155 0
106 124 0
129 146 0
150 168 0
108 125 0
148 166 0
148 170 0
141 164 0
144 164 0
148 167 0
136 158 0
163 180 0
161 177 0
150 165 0
134 152 0
152 172 0
126 144 0
116 139 0
157 177 0
164 187 0
136 153 0
163 184 0
157 178 0
128 151 0
134 156 0
128 147 0
153 176 0
98 117 0
131 150 0
155 174 0
123 143 0
140 158 0
160 181 0
132 153 0
155 178 0
139 155 0
146 166 0
128 147 0
114 134 0
140 160 0
177 199 0
166 188 0
136 159 0
124 141 0
162 185 0
133 154 0
112 129 0
138 159 0
133 155 0
140 164 0
123 144 0
157 175 0
119 140 0
147 167 0
136 156 0
152 178 0
112 135 0
124 146 0
150 169 0
121 141 0
113 131 0
93 112 0
126 149 0
133 156 0
139 158 0
154 170 0
133 154 0
110 134 0
132 154 0
133 149 0
134 155 0
152 172 0
154 177 0
155 177 0
133 154 0
145 167 0
144 163 0
146 163 0
144 164 0
107 129 0
135 156 0
128 147 0
134 153 0
146 166 0
125 146 0
136 158 0
155 177 0
149 171 0
148 168 0
157 181 0
130 148 0
141 162 0
163 184 0
133 153 0
138 159 0
166 189 0
162 183 0
124 144 0
146 165 0
122 142 0
131 147 0
101 123 0
152 164 0
115 138 0
128 147 0
131 147 0
155 179 0
142 161 0
155 174 0
129 150 0
157 175 0
165 183 0
142 150 0
154 176 0
141 161 0
150 168 0
167 190 0
161 183 0
139 160 0
145 163 0
59 72 0
152 172 0
145 167 0
140 161 0
145 161 0
166 185 0
159 178 0
151 170 0
123 141 0
125 144 0
100 120 0
165 189 0
146 165 0
118 138 0
154 174 0
133 152 0
154 175 0
128 150 0
142 162 0
120 139 0
121 135 0
164 181 0
164 179 0
146 166 0
117 136 0
133 153 0
154 171 0
135 155 0
120 138 0
156 178 0
139 163 0
128 145 0
139 157 0
142 161 0
132 151 0
135 149 0
126 142 0
150 172 0
136 153 0
138 160 0
137 151 0
139 154 0
143 158 0
142 166 0
141 156 0
137 153 0
133 151 0
142 159 0
123 146 0
148 170 0
138 149 0
151 167 0
128 147 0
158 179 0
144 158 0
134 149 0
124 141 0
120 135 0
129 151 0
165 177 0
165 176 0
136 143 0
154 167 0
152 167 0
133 134 0
153 169 0
144 164 0
138 155 0
131 142 0
151 171 0
146 160 0
148 170 0
114 130 0
160 176 0
167 184 0
115 127 0
146 156 0
160 172 0
137 149 0
133 142 0
141 148 0
148 156 0
142 144 0
125 145 0
150 167 0
150 162 0
148 162 0
153 165 0
151 168 0
161 173 0
161 169 0
157 165 0
127 123 0
139 157 0
153 168 0
154 170 0
157 168 0
164 173 0
140 149 0
134 147 0
138 152 0
156 170 0
146 145 0
167 180 0
126 127 0
131 140 0
151 159 0
155 160 0
145 149 0
143 150 0
144 153 0
163 171 0
154 161 0
126 130 0
168 180 0
152 157 0
155 162 0
126 118 0
147 156 0
143 149 0
154 163 0
129 132 0
166 169 0
166 175 0
159 169 0
152 155 0
163 168 0
161 158 0
145 149 0
146 150 0
148 150 0
142 146 0
155 159 0
153 159 0
150 150 0
159 163 0
148 150 0
149 152 0
157 157 0
138 127 0
145 152 0
147 147 0
131 137 0
136 137 0
136 136 0
152 158 0
166 173 0
155 157 0
153 150 0
155 155 0
165 168 0
149 150 0
146 140 0
162 176 0
167 174 0
159 166 0
167 178 0
154 167 0
147 146 0
140 143 0
156 169 0
159 160 0
161 165 0
156 162 0
162 165 0
149 155 0
164 175 0
143 149 0
169 185 0
153 165 0
169 177 0
157 177 0
165 175 0
142 137 0
163 172 0
156 160 0
166 177 0
174 191 0
157 157 0
159 167 0
167 181 0
149 148 0
182 198 0
145 161 0
164 185 0
161 178 0
173 193 0
167 186 0
169 190 0
177 196 0
171 191 0
152 169 0
155 173 0
173 192 0
151 168 0
163 181 0
168 187 0
163 183 0
167 186 0
166 186 0
155 169 0
152 170 0
149 167 0
153 174 0
158 176 0
153 171 0
158 177 0
162 178 0
150 170 0
154 171 0
140 159 0
144 160 0
157 174 0
148 165 0
155 175 0
163 182 0
138 154 0
154 170 0
152 170 0
153 171 0
153 171 0
133 147 0
152 168 0
146 163 0
166 184 0
144 160 0
135 149 0
132 145 0
120 137 0
143 160 0
141 158 0
140 157 0
144 162 0
135 150 0
150 166 0
118 135 0
164 181 0
132 144 0
149 166 0
147 165 0
128 144 0
158 178 0
155 171 0
154 172 0
132 145 0
156 176 0
148 166 0
148 166 0
156 176 0
155 175 0
157 175 0
148 167 0
131 149 0
140 158 0
145 165 0
146 163 0
167 186 0
146 165 0
164 185 0
159 178 0
123 140 0
160 178 0
151 168 0
151 166 0
141 158 0
124 143 0
127 145 0
146 167 0
157 175 0
139 160 0
147 164 0
152 171 0
154 175 0
149 169 0
154 174 0
143 158 0
152 173 0
152 173 0
116 134 0
150 170 0
136 154 0
148 168 0
141 161 0
147 165 0
126 145 0
141 158 0
148 166 0
88 109 0
169 191 0
118 140 0
111 128 0
124 142 0
166 185 0
138 156 0
113 132 0
140 159 0
100 118 0
141 166 0
134 156 0
143 160 0
160 182 0
136 154 0
139 160 0
134 156 0
164 185 0
162 181 0
150 172 0
118 138 0
121 141 0
111 128 0
155 177 0
152 178 0
170 191 0
152 173 0
162 180 0
139 159 0
94 110 0
138 157 0
137 158 0
172 192 0
139 161 0
151 173 0
164 187 0
144 165 0
154 175 0
156 176 0
155 173 0
152 174 0
150 172 0
148 171 0
147 173 0
141 162 0
126 148 0
136 157 0
108 126 0
124 143 0
129 148 0
135 155 0
147 167 0
156 175 0
158 178 0
117 133 0
128 148 0
108 128 0
150 170 0
137 158 0
132 154 0
134 153 0
157 178 0
144 165 0
138 160 0
121 141 0
112 129 0
135 158 0
143 167 0
113 129 0
141 158 0
122 142 0
115 134 0
163 186 0
128 145 0
132 146 0
100 124 0
131 151 0
158 181 0
133 156 0
154 176 0
116 136 0
146 167 0
148 171 0
98 118 0
146 167 0
139 162 0
122 143 0
141 159 0
112 133 0
116 137 0
159 180 0
123 137 0
132 152 0
136 158 0
147 165 0
122 139 0
124 145 0
122 144 0
143 160 0
134 153 0
120 134 0
139 161 0
135 152 0
124 146 0
130 151 0
139 151 0
95 116 0
109 131 0
140 156 0
147 170 0
145 164 0
123 144 0
141 162 0
118 133 0
110 134 0
135 157 0
138 157 0
126 143 0
127 150 0
135 157 0
148 169 0
103 124 0
154 179 0
133 153 0
156 175 0
129 152 0
150 164 0
128 143 0
123 136 0
133 154 0
144 158 0
149 170 0
128 146 0
144 167 0
130 151 0
160 178 0
114 134 0
158 180 0
108 128 0
137 155 0
138 153 0
134 155 0
134 155 0
144 166 0
170 189 0
140 163 0
161 181 0
114 134 0
154 177 0
151 172 0
142 162 0
137 156 0
147 171 0
125 149 0
124 141 0
146 158 0
153 174 0
143 160 0
158 172 0
131 153 0
158 174 0
118 135 0
120 137 0
123 135 0
127 145 0
152 165 0
143 161 0
145 166 0
163 184 0
161 175 0
151 168 0
146 154 0
134 151 0
113 131 0
135 150 0
133 147 0
134 156 0
154 179 0
138 151 0
142 162 0
143 148 0
121 138 0
160 177 0
70 84 0
143 161 0
147 157 0
148 157 0
156 168 0
145 160 0
161 166 0
156 166 0
150 162 0
150 163 0
146 158 0
150 167 0
127 137 0
139 157 0
136 148 0
136 130 0
135 138 0
124 136 0
139 147 0
117 128 0
154 163 0
145 151 0
154 155 0
153 169 0
155 161 0
149 153 0
157 158 0
149 167 0
162 173 0
152 159 0
119 125 0
140 147 0
116 121 0
124 128 0
156 174 0
141 153 0
135 127 0
156 161 0
140 147 0
163 171 0
147 159 0
149 151 0
164 176 0
144 154 0
134 138 0
139 144 0
162 170 0
129 127 0
148 156 0
148 150 0
144 141 0
157 162 0
146 142 0
142 145 0
128 125 0
153 162 0
146 148 0
157 162 0
143 150 0
156 160 0
155 163 0
161 165 0
155 160 0
137 140 0
150 151 0
137 136 0
150 157 0
144 145 0
165 177 0
156 162 0
168 176 0
146 147 0
149 150 0
158 168 0
154 159 0
138 132 0
142 132 0
150 152 0
158 168 0
146 140 0
149 154 0
145 144 0
153 162 0
137 137 0
154 165 0
158 156 0
147 147 0
155 158 0
151 155 0
149 149 0
164 171 0
159 171 0
151 155 0
158 163 0
154 163 0
149 147 0
152 157 0
160 161 0
147 144 0
153 160 0
161 167 0
156 165 0
161 170 0
168 177 0
170 178 0
167 176 0
167 173 0
142 141 0
162 177 0
156 162 0
152 156 0
149 152 0
170 182 0
159 179 0
160 179 0
169 186 0
154 175 0
174 195 0
160 179 0
167 188 0
143 160 0
147 167 0
174 193 0
159 175 0
167 185 0
166 182 0
148 166 0
152 171 0
166 186 0
163 182 0
158 177 0
165 182 0
157 174 0
169 188 0
153 170 0
153 171 0
159 178 0
165 181 0
166 185 0
166 186 0
161 179 0
169 191 0
141 157 0
155 175 0
155 172 0
165 184 0
149 164 0
149 166 0
153 172 0
144 159 0
121 138 0
139 155 0
160 175 0
156 173 0
154 172 0
148 166 0
144 160 0
138 155 0
172 189 0
149 164 0
137 155 0
132 147 0
157 177 0
130 143 0
146 163 0
147 162 0
160 178 0
132 149 0
162 179 0
160 180 0
135 153 0
136 150 0
155 174 0
153 172 0
134 151 0
128 140 0
119 135 0
135 150 0
138 154 0
142 161 0
146 166 0
150 169 0
165 182 0
149 164 0
164 183 0
153 173 0
135 153 0
155 173 0
150 169 0
131 150 0
169 187 0
149 167 0
148 168 0
150 171 0
164 182 0
143 159 0
141 158 0
157 179 0
157 178 0
136 157 0
140 157 0
156 171 0
168 187 0
173 194 0
141 163 0
166 186 0
142 163 0
166 185 0
127 145 0
169 188 0
155 175 0
155 176 0
135 152 0
155 178 0
145 167 0
130 150 0
109 127 0
145 165 0
120 140 0
138 156 0
151 172 0
151 171 0
149 169 0
149 170 0
143 159 0
137 158 0
152 171 0
136 158 0
147 170 0
128 148 0
145 166 0
161 185 0
170 192 0
149 172 0
142 161 0
130 153 0
121 136 0
125 145 0
145 167 0
150 171 0
127 149 0
147 165 0
147 165 0
142 164 0
117 136 0
147 170 0
157 179 0
145 167 0
149 170 0
137 156 0
135 155 0
147 168 0
108 127 0
152 172 0
133 151 0
176 197 0
148 169 0
158 180 0
108 128 0
118 137 0
147 169 0
104 120 0
129 147 0
144 165 0
144 165 0
141 159 0
129 152 0
133 150 0
111 126 0
113 128 0
124 142 0
117 137 0
134 157 0
133 153 0
127 149 0
114 137 0
147 167 0
139 160 0
140 160 0
139 158 0
160 177 0
146 169 0
135 157 0
133 153 0
130 148 0
118 138 0
136 155 0
80 95 0
128 150 0
160 184 0
155 173 0
134 155 0
130 149 0
134 156 0
159 180 0
155 179 0
137 159 0
97 119 0
144 166 0
128 150 0
121 142 0
141 160 0
123 143 0
112 136 0
137 158 0
131 153 0
129 148 0
143 165 0
126 137 0
151 173 0
135 156 0
138 156 0
114 134 0
134 158 0
148 170 0
134 156 0
141 166 0
164 183 0
158 180 0
155 175 0
144 166 0
149 168 0
124 146 0
148 170 0
141 161 0
135 152 0
142 167 0
134 152 0
112 134 0
125 140 0
149 172 0
123 139 0
144 164 0
151 168 0
114 136 0
123 140 0
120 143 0
99 120 0
145 166 0
147 162 0
136 159 0
144 165 0
137 162 0
148 162 0
151 173 0
145 167 0
123 144 0
130 152 0
133 147 0
151 172 0
163 184 0
129 144 0
144 160 0
128 147 0
138 155 0
131 143 0
139 160 0
141 164 0
152 173 0
132 151 0
126 149 0
131 146 0
163 186 0
143 159 0
164 185 0
138 160 0
145 158 0
137 159 0
145 166 0
162 184 0
150 177 0
126 142 0
153 170 0
146 160 0
141 159 0
176 195 0
163 176 0
164 185 0
125 137 0
148 167 0
144 164 0
125 129 0
139 159 0
123 148 0
153 169 0
149 159 0
149 166 0
167 179 0
135 149 0
144 168 0
153 173 0
161 180 0
134 151 0
159 173 0
165 180 0
132 154 0
166 179 0
145 163 0
156 167 0
144 164 0
127 142 0
139 154 0
138 158 0
148 163 0
132 149 0
141 152 0
137 145 0
137 151 0
174 188 0
150 158 0
123 128 0
136 147 0
113 133 0
139 150 0
131 138 0
170 189 0
117 133 0
122 128 0
142 156 0
136 152 0
151 157 0
155 167 0
153 157 0
147 160 0
166 183 0
168 182 0
132 142 0
158 173 0
147 158 0
152 167 0
150 166 0
156 167 0
158 172 0
166 178 0
150 151 0
166 176 0
146 157 0
154 167 0
140 151 0
134 138 0
143 144 0
150 149 0
153 150 0
143 153 0
125 125 0
147 162 0
148 161 0
148 149 0
148 156 0
131 140 0
149 157 0
143 155 0
156 157 0
151 154 0
162 173 0
158 161 0
147 148 0
144 152 0
162 174 0
150 156 0
161 164 0
168 174 0
136 137 0
161 161 0
143 147 0
170 183 0
137 129 0
158 167 0
158 160 0
154 162 0
151 156 0
125 124 0
121 119 0
149 152 0
140 140 0
162 170 0
145 158 0
151 156 0
148 153 0
145 147 0
168 180 0
159 165 0
173 183 0
134 122 0
163 171 0
150 149 0
161 170 0
144 152 0
155 157 0
150 154 0
146 146 0
155 156 0
147 152 0
155 162 0
163 164 0
165 169 0
135 132 0
158 167 0
160 171 0
169 182 0
174 191 0
150 154 0
168 182 0
165 175 0
154 161 0
155 162 0
172 183 0
162 170 0
160 162 0
165 179 0
159 168 0
164 180 0
149 154 0
168 188 0
151 170 0
160 175 0
156 171 0
163 184 0
163 181 0
153 171 0
153 171 0
159 178 0
168 187 0
169 188 0
160 180 0
163 181 0
151 166 0
167 185 0
146 165 0
161 180 0
152 171 0
173 193 0
142 157 0
171 187 0
138 156 0
165 183 0
146 164 0
143 160 0
139 154 0
157 176 0
153 171 0
157 175 0
125 142 0
158 177 0
139 155 0
170 187 0
164 182 0
144 161 0
148 163 0
130 145 0
166 184 0
162 181 0
157 176 0
143 159 0
154 166 0
161 177 0
141 157 0
150 168 0
149 168 0
120 135 0
142 156 0
157 174 0
148 167 0
158 176 0
154 171 0
156 174 0
115 131 0
147 163 0
162 180 0
145 166 0
138 155 0
144 158 0
143 161 0
135 153 0
155 173 0
163 179 0
142 160 0
155 172 0
148 170 0
159 178 0
160 178 0
124 140 0
108 124 0
150 170 0
156 174 0
163 181 0
136 154 0
158 178 0
166 186 0
117 134 0
151 172 0
164 184 0
133 150 0
130 147 0
164 182 0
133 150 0
123 141 0
152 174 0
140 157 0
161 183 0
156 176 0
146 160 0
127 146 0
156 175 0
168 188 0
151 169 0
136 156 0
161 181 0
124 147 0
138 156 0
153 171 0
163 185 0
149 169 0
169 189 0
143 165 0
138 156 0
159 178 0
136 155 0
118 137 0
142 162 0
124 144 0
138 153 0
134 152 0
127 148 0
148 170 0
167 181 0
106 127 0
161 180 0
145 165 0
148 169 0
147 167 0
153 169 0
142 165 0
134 157 0
161 183 0
155 176 0
158 179 0
166 188 0
163 183 0
154 175 0
140 161 0
163 180 0
153 173 0
152 173 0
145 167 0
158 177 0
156 175 0
156 174 0
142 160 0
141 163 0
116 136 0
145 160 0
96 121 0
141 155 0
169 194 0
147 167 0
153 177 0
147 167 0
128 149 0
141 163 0
171 192 0
150 172 0
122 142 0
147 168 0
159 180 0
112 133 0
147 169 0
154 175 0
131 152 0
123 141 0
174 197 0
142 160 0
121 144 0
157 179 0
136 159 0
123 144 0
171 195 0
115 137 0
135 157 0
131 151 0
149 170 0
132 151 0
172 192 0
158 181 0
161 182 0
140 164 0
159 180 0
124 145 0
125 145 0
128 146 0
133 153 0
140 162 0
141 163 0
138 154 0
138 160 0
140 163 0
154 176 0
122 145 0
161 181 0
139 161 0
144 166 0
152 168 0
142 163 0
143 164 0
125 147 0
121 142 0
137 157 0
116 139 0
138 160 0
137 156 0
144 165 0
148 170 0
137 160 0
115 136 0
69 91 0
149 172 0
154 178 0
124 147 0
131 142 0
145 162 0
144 165 0
150 169 0
153 172 0
143 165 0
125 145 0
168 190 0
133 154 0
144 162 0
157 174 0
143 167 0
141 154 0
144 161 0
86 108 0
146 167 0
132 156 0
132 156 0
151 173 0
157 175 0
157 173 0
115 139 0
105 128 0
140 163 0
116 134 0
130 144 0
116 138 0
137 156 0
138 160 0
134 151 0
144 161 0
142 162 0
129 150 0
120 136 0
124 140 0
153 175 0
164 186 0
153 171 0
148 166 0
132 151 0
137 150 0
138 156 0
149 167 0
158 176 0
151 162 0
135 152 0
136 155 0
154 178 0
124 145 0
151 169 0
139 159 0
119 140 0
131 150 0
166 187 0
137 150 0
131 150 0
168 190 0
152 161 0
155 176 0
162 175 0
132 146 0
124 140 0
112 129 0
153 176 0
139 158 0
145 166 0
136 152 0
155 176 0
157 177 0
152 169 0
159 172 0
133 150 0
167 185 0
156 160 0
157 179 0
141 150 0
157 167 0
134 158 0
140 159 0
158 175 0
144 156 0
134 146 0
134 137 0
158 172 0
151 167 0
154 171 0
147 155 0
148 165 0
145 163 0
148 164 0
119 137 0
132 145 0
148 160 0
115 127 0
147 165 0
109 117 0
81 94 0
138 146 0
150 162 0
150 160 0
149 159 0
129 141 0
147 158 0
137 144 0
128 143 0
143 157 0
151 163 0
153 171 0
148 159 0
128 134 0
174 187 0
150 164 0
158 167 0
153 166 0
148 155 0
148 158 0
158 169 0
142 151 0
151 156 0
140 152 0
150 159 0
139 131 0
143 150 0
163 168 0
153 163 0
138 145 0
174 198 0
114 117 0
143 152 0
148 161 0
155 168 0
130 134 0
136 150 0
162 167 0
162 167 0
111 118 0
154 157 0
152 161 0
132 136 0
153 161 0
134 143 0
153 158 0
147 155 0
140 150 0
145 161 0
165 165 0
146 149 0
143 150 0
161 166 0
153 149 0
161 157 0
153 149 0
149 155 0
160 172 0
151 161 0
166 177 0
163 170 0
161 168 0
151 157 0
152 154 0
152 154 0
163 166 0
164 170 0
161 174 0
136 144 0
148 149 0
148 151 0
151 157 0
160 165 0
146 155 0
159 158 0
140 141 0
167 176 0
159 161 0
144 148 0
151 153 0
156 165 0
151 148 0
157 165 0
157 158 0
153 154 0
171 183 0
160 162 0
154 156 0
154 160 0
162 173 0
158 157 0
159 167 0
166 175 0
163 166 0
167 175 0
154 162 0
149 149 0
152 159 0
161 175 0
163 178 0
158 176 0
165 185 0
140 159 0
151 165 0
164 181 0
159 178 0
152 169 0
153 175 0
158 177 0
167 185 0
161 178 0
161 179 0
151 171 0
155 172 0
161 179 0
159 176 0
161 180 0
165 181 0
146 163 0
155 171 0
158 177 0
157 176 0
153 169 0
159 178 0
147 167 0
162 179 0
165 185 0
158 176 0
158 175 0
141 159 0
125 142 0
154 171 0
156 175 0
151 168 0
164 181 0
161 180 0
140 156 0
152 169 0
146 164 0
152 170 0
149 164 0
144 158 0
141 159 0
138 156 0
162 182 0
151 166 0
142 162 0
144 161 0
168 189 0
152 167 0
154 172 0
166 187 0
165 183 0
167 183 0
158 179 0
128 147 0
159 175 0
150 169 0
145 165 0
151 169 0
157 175 0
150 167 0
130 147 0
145 164 0
152 168 0
138 158 0
164 185 0
146 162 0
157 177 0
149 166 0
154 171 0
148 167 0
153 172 0
148 167 0
157 177 0
149 171 0
135 152 0
165 183 0
170 189 0
158 177 0
168 188 0
157 174 0
135 151 0
127 147 0
143 164 0
134 148 0
150 170 0
141 159 0
161 179 0
117 136 0
155 179 0
135 154 0
142 161 0
159 182 0
163 176 0
158 181 0
148 166 0
145 166 0
134 154 0
159 176 0
138 159 0
146 168 0
161 180 0
159 177 0
168 190 0
154 176 0
120 139 0
148 168 0
158 176 0
141 158 0
158 177 0
146 168 0
145 163 0
156 176 0
128 147 0
140 160 0
135 156 0
143 161 0
137 157 0
149 169 0
151 174 0
149 171 0
143 162 0
148 169 0
142 160 0
139 159 0
148 172 0
160 183 0
150 168 0
122 144 0
152 170 0
161 184 0
138 157 0
141 162 0
149 169 0
133 150 0
142 158 0
132 145 0
150 169 0
157 177 0
143 164 0
146 168 0
152 176 0
144 165 0
149 172 0
129 150 0
147 170 0
125 150 0
152 168 0
150 170 0
147 169 0
96 118 0
132 157 0
116 137 0
169 190 0
146 170 0
160 179 0
151 171 0
115 136 0
157 179 0
158 182 0
136 158 0
116 139 0
140 157 0
147 169 0
148 168 0
143 162 0
137 160 0
142 166 0
133 157 0
136 158 0
142 164 0
148 168 0
143 164 0
134 158 0
151 170 0
130 151 0
141 162 0
117 142 0
136 150 0
150 173 0
122 141 0
149 171 0
115 134 0
121 141 0
149 168 0
134 157 0
149 169 0
135 154 0
160 178 0
146 161 0
135 154 0
167 190 0
114 134 0
129 147 0
81 90 0
161 176 0
157 176 0
158 175 0
125 143 0
146 170 0
173 197 0
156 179 0
114 138 0
137 161 0
120 140 0
157 176 0
134 156 0
145 168 0
139 160 0
155 174 0
127 148 0
125 144 0
167 189 0
104 122 0
98 122 0
154 177 0
114 134 0
135 154 0
143 165 0
127 144 0
157 179 0
125 144 0
156 178 0
110 133 0
151 171 0
148 169 0
137 159 0
144 166 0
139 157 0
136 157 0
151 169 0
119 140 0
155 176 0
135 152 0
145 167 0
159 174 0
113 136 0
124 148 0
165 188 0
125 142 0
122 144 0
138 158 0
133 156 0
164 179 0
141 162 0
141 164 0
143 166 0
160 181 0
102 122 0
116 140 0
131 146 0
143 164 0
147 163 0
169 186 0
127 141 0
128 144 0
136 154 0
145 165 0
145 168 0
124 142 0
99 121 0
102 119 0
149 168 0
145 163 0
148 168 0
145 161 0
146 171 0
139 154 0
142 163 0
115 125 0
134 146 0
163 182 0
143 154 0
128 148 0
134 152 0
157 176 0
142 160 0
135 153 0
146 162 0
126 139 0
144 159 0
114 132 0
145 156 0
138 157 0
150 164 0
149 163 0
164 177 0
148 168 0
134 148 0
123 128 0
142 146 0
155 167 0
150 167 0
157 168 0
133 150 0
147 161 0
140 150 0
144 149 0
150 160 0
140 148 0
163 177 0
159 168 0
145 157 0
142 152 0
114 121 0
148 155 0
129 142 0
130 142 0
148 164 0
152 164 0
130 131 0
150 168 0
162 171 0
117 124 0
150 158 0
135 145 0
159 171 0
124 127 0
137 138 0
145 149 0
168 187 0
172 190 0
152 170 0
142 142 0
144 143 0
128 130 0
133 141 0
162 173 0
146 162 0
158 166 0
164 184 0
151 161 0
153 167 0
148 160 0
141 146 0
142 154 0
148 161 0
137 142 0
139 142 0
139 144 0
149 159 0
151 163 0
151 156 0
147 149 0
150 163 0
140 153 0
161 172 0
151 157 0
154 165 0
169 181 0
141 149 0
145 148 0
165 172 0
138 147 0
160 166 0
143 151 0
160 171 0
158 165 0
128 119 0
153 155 0
163 168 0
154 161 0
155 158 0
148 150 0
150 152 0
158 164 0
172 186 0
142 145 0
147 146 0
157 162 0
162 169 0
157 163 0
147 152 0
130 125 0
161 175 0
158 161 0
162 174 0
138 136 0
167 182 0
154 157 0
159 164 0
164 173 0
171 183 0
152 159 0
169 179 0
165 174 0
158 166 0
155 164 0
154 168 0
166 179 0
164 180 0
155 159 0
162 172 0
154 156 0
151 159 0
160 172 0
163 173 0
169 176 0
166 186 0
162 182 0
168 188 0
162 177 0
171 192 0
155 174 0
174 193 0
152 170 0
178 195 0
168 189 0
162 180 0
167 185 0
164 184 0
153 171 0
149 166 0
147 164 0
165 182 0
174 194 0
146 163 0
155 174 0
155 174 0
167 189 0
147 165 0
162 183 0
163 182 0
144 163 0
150 165 0
151 168 0
149 166 0
162 181 0
150 169 0
155 172 0
168 186 0
146 161 0
164 182 0
155 170 0
142 160 0
155 170 0
152 172 0
147 162 0
136 153 0
163 183 0
162 181 0
158 175 0
168 188 0
149 165 0
168 186 0
157 178 0
150 168 0
155 171 0
124 141 0
140 159 0
163 183 0
142 160 0
163 180 0
154 174 0
137 158 0
150 168 0
133 151 0
161 181 0
147 167 0
151 171 0
161 179 0
157 176 0
147 165 0
156 177 0
148 167 0
160 181 0
159 182 0
158 175 0
149 168 0
156 170 0
126 142 0
146 164 0
153 173 0
164 184 0
153 169 0
158 178 0
145 164 0
154 175 0
120 139 0
137 156 0
162 182 0
139 156 0
145 163 0
155 175 0
154 173 0
141 158 0
159 180 0
143 161 0
155 177 0
153 173 0
149 168 0
158 175 0
157 181 0
144 165 0
154 176 0
146 166 0
121 141 0
154 174 0
133 151 0
146 165 0
140 156 0
145 166 0
131 150 0
160 178 0
148 167 0
146 168 0
150 169 0
160 182 0
179 199 0
153 173 0
118 137 0
140 162 0
161 181 0
137 159 0
150 172 0
154 178 0
139 160 0
156 179 0
154 176 0
147 169 0
139 158 0
124 142 0
142 162 0
127 146 0
143 163 0
162 182 0
145 167 0
140 162 0
161 179 0
161 181 0
122 143 0
156 176 0
163 185 0
157 179 0
162 185 0
136 155 0
148 167 0
124 142 0
163 182 0
157 178 0
141 161 0
163 182 0
151 172 0
117 138 0
162 186 0
169 191 0
144 167 0
145 166 0
132 154 0
149 168 0
150 168 0
155 176 0
145 168 0
158 182 0
139 159 0
152 178 0
150 168 0
149 166 0
133 154 0
152 172 0
128 151 0
152 177 0
141 165 0
171 192 0
147 167 0
150 173 0
123 146 0
111 128 0
145 167 0
138 157 0
133 155 0
114 132 0
143 165 0
164 187 0
116 132 0
113 136 0
134 154 0
150 174 0
162 183 0
145 165 0
151 174 0
120 145 0
151 172 0
132 155 0
135 152 0
152 176 0
137 154 0
147 169 0
155 180 0
158 175 0
148 173 0
141 163 0
145 165 0
136 158 0
144 167 0
136 158 0
127 150 0
137 155 0
126 146 0
134 153 0
140 156 0
118 133 0
111 128 0
146 165 0
113 133 0
124 147 0
122 143 0
138 155 0
156 174 0
143 156 0
148 166 0
162 180 0
153 175 0
156 176 0
142 163 0
128 151 0
115 134 0
146 167 0
156 180 0
130 147 0
115 139 0
125 148 0
129 146 0
149 169 0
136 159 0
149 170 0
132 158 0
126 147 0
144 161 0
130 148 0
155 176 0
152 176 0
144 162 0
139 160 0
160 178 0
151 165 0
132 154 0
164 183 0
150 166 0
131 146 0
147 165 0
152 176 0
155 179 0
142 163 0
159 181 0
166 185 0
160 182 0
146 168 0
125 138 0
138 155 0
171 189 0
119 125 0
143 167 0
161 178 0
117 136 0
148 169 0
160 182 0
127 147 0
139 158 0
164 185 0
178 195 0
116 124 0
141 161 0
171 186 0
145 167 0
144 164 0
157 166 0
137 153 0
141 158 0
165 181 0
153 176 0
163 182 0
131 140 0
138 157 0
103 121 0
141 158 0
131 150 0
141 163 0
141 156 0
155 176 0
141 154 0
144 156 0
120 130 0
145 166 0
165 179 0
129 148 0
148 164 0
154 167 0
172 193 0
138 154 0
146 157 0
149 163 0
136 139 0
154 165 0
156 169 0
146 158 0
135 150 0
130 141 0
143 160 0
153 166 0
130 143 0
146 166 0
142 156 0
136 150 0
109 114 0
141 151 0
161 169 0
149 157 0
146 155 0
162 181 0
148 167 0
157 181 0
137 146 0
137 146 0
157 170 0
151 167 0
132 149 0
140 160 0
144 157 0
128 132 0
143 154 0
142 147 0
131 136 0
146 158 0
143 154 0
123 128 0
150 158 0
148 165 0
160 176 0
152 165 0
150 156 0
159 168 0
124 135 0
125 135 0
139 138 0
130 131 0
168 173 0
120 122 0
164 180 0
150 149 0
148 150 0
157 169 0
137 142 0
146 155 0
122 120 0
158 168 0
149 161 0
142 145 0
149 161 0
145 154 0
157 162 0
152 158 0
145 148 0
151 155 0
140 140 0
157 164 0
147 150 0
155 162 0
165 171 0
160 167 0
160 166 0
157 166 0
157 168 0
154 160 0
145 160 0
145 146 0
137 142 0
159 166 0
166 174 0
134 138 0
164 173 0
169 180 0
134 133 0
156 157 0
136 141 0
155 159 0
165 175 0
170 184 0
155 159 0
145 145 0
145 144 0
161 157 0
164 174 0
146 146 0
153 153 0
165 173 0
153 161 0
146 147 0
153 158 0
171 183 0
143 155 0
147 154 0
149 149 0
141 139 0
153 160 0
155 163 0
167 176 0
155 158 0
152 172 0
168 184 0
162 179 0
161 178 0
154 172 0
162 181 0
167 186 0
175 194 0
165 186 0
152 170 0
159 177 0
162 180 0
168 185 0
164 184 0
162 179 0
166 185 0
171 190 0
154 171 0
161 178 0
144 163 0
175 194 0
163 179 0
153 164 0
169 188 0
134 154 0
159 178 0
158 174 0
141 156 0
158 175 0
156 174 0
156 174 0
171 191 0
166 185 0
158 178 0
133 147 0
165 180 0
164 182 0
148 163 0
166 186 0
151 171 0
167 184 0
158 175 0
145 160 0
159 176 0
141 160 0
158 174 0
159 179 0
137 152 0
149 170 0
152 167 0
147 167 0
143 161 0
146 163 0
166 187 0
148 164 0
150 171 0
160 177 0
165 184 0
156 170 0
153 172 0
136 155 0
157 177 0
175 194 0
146 162 0
158 178 0
158 175 0
142 162 0
154 173 0
165 183 0
149 167 0
153 173 0
158 179 0
161 182 0
157 175 0
165 184 0
139 155 0
149 167 0
158 178 0
156 176 0
162 183 0
134 154 0
161 181 0
159 180 0
151 170 0
159 177 0
149 170 0
145 164 0
141 160 0
128 151 0
136 152 0
153 173 0
154 172 0
167 189 0
144 163 0
149 170 0
152 172 0
144 164 0
141 160 0
145 166 0
161 183 0
145 166 0
153 175 0
150 169 0
131 150 0
147 166 0
153 176 0
150 171 0
148 167 0
131 150 0
151 175 0
138 159 0
130 150 0
136 156 0
142 164 0
146 167 0
145 164 0
150 168 0
162 182 0
151 170 0
169 194 0
145 167 0
155 178 0
145 168 0
162 184 0
140 161 0
141 160 0
144 162 0
159 179 0
147 169 0
151 171 0
136 157 0
138 160 0
120 140 0
132 154 0
138 157 0
153 173 0
153 174 0
145 164 0
131 153 0
154 175 0
112 135 0
147 166 0
143 164 0
117 139 0
146 168 0
137 152 0
118 138 0
118 141 0
165 183 0
127 145 0
151 175 0
122 141 0
149 171 0
144 161 0
112 133 0
148 168 0
140 162 0
119 137 0
136 156 0
118 142 0
135 155 0
162 186 0
132 152 0
126 147 0
134 156 0
161 184 0
141 163 0
116 136 0
135 154 0
129 153 0
147 169 0
148 169 0
122 140 0
153 166 0
152 174 0
115 137 0
156 178 0
115 137 0
160 182 0
142 163 0
112 134 0
149 168 0
135 157 0
155 176 0
156 176 0
138 157 0
115 134 0
155 171 0
116 134 0
140 157 0
140 157 0
123 147 0
145 169 0
143 161 0
160 179 0
136 155 0
159 179 0
152 174 0
138 154 0
115 137 0
156 175 0
147 169 0
146 168 0
142 166 0
124 148 0
124 144 0
139 157 0
144 161 0
147 169 0
119 133 0
134 157 0
128 151 0
125 137 0
152 176 0
148 168 0
120 136 0
135 151 0
121 143 0
145 163 0
155 176 0
137 155 0
101 125 0
133 151 0
150 160 0
147 165 0
159 172 0
115 135 0
152 174 0
134 151 0
140 162 0
148 170 0
125 140 0
156 176 0
139 156 0
128 147 0
133 156 0
149 168 0
154 171 0
138 156 0
158 178 0
164 187 0
139 159 0
125 139 0
123 147 0
153 172 0
151 171 0
145 166 0
152 169 0
171 191 0
154 174 0
144 165 0
142 155 0
146 164 0
149 169 0
142 164 0
141 158 0
105 123 0
159 179 0
151 172 0
125 144 0
135 159 0
147 166 0
151 172 0
125 145 0
151 164 0
133 149 0
150 171 0
139 161 0
135 158 0
167 183 0
151 169 0
154 159 0
126 136 0
136 147 0
147 168 0
145 161 0
158 175 0
152 168 0
165 181 0
152 171 0
142 160 0
167 191 0
136 148 0
150 169 0
151 171 0
161 181 0
147 166 0
156 173 0
154 172 0
153 168 0
150 168 0
155 171 0
145 163 0
119 125 0
144 157 0
166 183 0
156 172 0
143 150 0
138 145 0
132 145 0
170 191 0
150 155 0
141 159 0
154 170 0
137 148 0
135 149 0
119 137 0
147 158 0
164 178 0
155 168 0
167 181 0
143 144 0
154 174 0
149 166 0
151 165 0
153 171 0
159 170 0
145 152 0
149 154 0
163 177 0
149 162 0
135 152 0
147 150 0
152 169 0
126 136 0
142 154 0
139 135 0
139 142 0
138 148 0
145 152 0
159 168 0
145 155 0
161 172 0
142 148 0
139 152 0
142 150 0
156 161 0
140 154 0
107 117 0
152 157 0
166 169 0
148 161 0
149 152 0
165 177 0
158 162 0
153 165 0
135 137 0
144 158 0
157 169 0
140 154 0
167 182 0
160 169 0
152 148 0
152 162 0
160 166 0
141 142 0
138 147 0
159 164 0
148 161 0
158 162 0
155 159 0
171 182 0
138 144 0
168 176 0
131 127 0
158 164 0
157 160 0
131 125 0
152 161 0
161 165 0
154 161 0
135 133 0
144 141 0
158 169 0
137 133 0
168 177 0
144 152 0
159 170 0
172 184 0
154 155 0
169 175 0
158 158 0
145 151 0
162 165 0
151 153 0
150 154 0
161 168 0
143 149 0
168 178 0
161 172 0
167 181 0
159 167 0
160 173 0
152 157 0
166 166 0
149 152 0
159 179 0
163 173 0
157 160 0
168 182 0
162 182 0
168 190 0
155 176 0
150 164 0
161 180 0
155 170 0
149 169 0
150 168 0
161 181 0
158 176 0
169 187 0
138 157 0
160 180 0
160 179 0
155 174 0
158 177 0
153 172 0
160 177 0
157 175 0
150 168 0
157 176 0
162 182 0
170 189 0
160 180 0
148 164 0
144 165 0
160 182 0
159 178 0
160 179 0
162 181 0
158 173 0
152 171 0
136 152 0
146 163 0
135 151 0
168 188 0
177 194 0
150 170 0
159 178 0
150 169 0
145 162 0
123 132 0
167 187 0
155 173 0
159 175 0
144 163 0
156 171 0
167 183 0
132 149 0
160 178 0
143 162 0
160 180 0
157 177 0
154 172 0
138 156 0
149 166 0
141 157 0
145 159 0
165 185 0
161 179 0
154 172 0
144 164 0
147 167 0
144 161 0
170 190 0
143 162 0
164 185 0
156 176 0
159 179 0
131 151 0
153 175 0
144 163 0
123 142 0
141 156 0
141 162 0
147 166 0
146 165 0
167 185 0
164 187 0
139 160 0
159 179 0
143 162 0
161 182 0
162 182 0
154 175 0
153 173 0
142 163 0
132 153 0
142 164 0
151 169 0
141 159 0
142 165 0
162 181 0
150 175 0
153 172 0
140 162 0
147 169 0
128 149 0
134 154 0
136 154 0
131 150 0
152 174 0
153 170 0
138 157 0
159 178 0
147 163 0
157 177 0
120 144 0
158 178 0
142 161 0
161 180 0
156 178 0
145 165 0
157 177 0
152 167 0
161 181 0
158 178 0
166 187 0
142 162 0
143 163 0
132 157 0
149 173 0
153 175 0
138 159 0
161 186 0
134 155 0
144 165 0
166 189 0
143 167 0
159 181 0
163 184 0
153 174 0
156 177 0
132 152 0
132 157 0
124 143 0
139 156 0
154 178 0
150 168 0
156 177 0
141 162 0
143 166 0
139 162 0
157 180 0
111 135 0
145 164 0
160 185 0
140 162 0
168 194 0
131 154 0
137 157 0
151 177 0
136 157 0
165 187 0
162 179 0
165 187 0
172 190 0
159 181 0
112 134 0
136 157 0
130 152 0
153 172 0
155 179 0
161 185 0
142 160 0
149 169 0
126 145 0
164 179 0
161 182 0
144 162 0
131 154 0
137 156 0
154 173 0
139 159 0
154 173 0
156 175 0
148 170 0
165 186 0
148 170 0
169 191 0
111 133 0
123 146 0
160 186 0
150 171 0
143 166 0
150 173 0
131 153 0
133 155 0
139 162 0
128 149 0
133 152 0
142 163 0
150 166 0
133 153 0
137 158 0
142 159 0
167 187 0
139 162 0
119 137 0
151 173 0
128 152 0
154 175 0
146 169 0
139 159 0
103 124 0
155 180 0
117 130 0
154 176 0
153 172 0
137 157 0
167 188 0
127 146 0
94 112 0
151 176 0
157 177 0
144 163 0
154 170 0
131 147 0
104 127 0
108 124 0
142 163 0
123 144 0
154 172 0
148 170 0
138 159 0
136 160 0
132 152 0
153 179 0
160 184 0
155 175 0
152 168 0
148 170 0
110 120 0
148 171 0
126 149 0
118 133 0
135 156 0
127 146 0
161 182 0
160 175 0
138 157 0
147 170 0
131 152 0
125 146 0
135 151 0
148 170 0
129 137 0
135 150 0
154 178 0
123 139 0
155 175 0
152 169 0
144 164 0
172 194 0
157 179 0
128 141 0
118 137 0
146 170 0
153 171 0
152 173 0
137 144 0
162 179 0
158 177 0
138 158 0
137 154 0
140 160 0
146 164 0
160 175 0
156 176 0
149 161 0
168 189 0
155 174 0
137 158 0
140 154 0
118 129 0
141 157 0
163 180 0
166 185 0
145 162 0
154 173 0
141 158 0
147 169 0
142 162 0
139 156 0
149 167 0
149 161 0
164 184 0
153 169 0
136 159 0
155 171 0
149 162 0
165 185 0
168 188 0
152 166 0
116 132 0
148 164 0
157 180 0
160 174 0
159 179 0
144 166 0
138 152 0
156 174 0
152 165 0
154 173 0
148 161 0
151 163 0
149 161 0
156 168 0
151 170 0
152 165 0
145 163 0
150 159 0
151 158 0
146 161 0
156 170 0
156 166 0
147 156 0
138 150 0
151 162 0
149 162 0
150 164 0
160 169 0
162 172 0
129 134 0
160 170 0
134 139 0
147 157 0
149 152 0
157 169 0
140 151 0
127 132 0
169 185 0
140 149 0
148 164 0
148 153 0
130 142 0
170 181 0
157 162 0
157 173 0
153 165 0
145 152 0
154 167 0
158 167 0
171 180 0
147 157 0
157 167 0
150 158 0
137 142 0
161 166 0
149 155 0
139 140 0
159 161 0
159 175 0
158 156 0
161 171 0
163 179 0
133 138 0
139 143 0
163 172 0
156 162 0
152 164 0
146 154 0
150 147 0
146 157 0
159 173 0
138 144 0
165 175 0
155 161 0
162 178 0
159 167 0
149 155 0
151 157 0
154 159 0
163 160 0
154 160 0
162 171 0
150 162 0
160 168 0
139 135 0
161 169 0
166 184 0
162 171 0
156 156 0
166 181 0
156 160 0
158 158 0
160 165 0
152 152 0
163 172 0
164 169 0
166 172 0
167 176 0
166 178 0
167 177 0
168 179 0
140 140 0
155 155 0
149 156 0
174 187 0
165 173 0
158 176 0
158 178 0
153 171 0
143 157 0
164 183 0
157 176 0
164 183 0
151 169 0
162 180 0
153 173 0
157 175 0
144 160 0
157 176 0
142 157 0
173 190 0
149 166 0
159 174 0
153 172 0
150 167 0
151 168 0
159 179 0
147 164 0
152 168 0
140 158 0
166 186 0
160 177 0
157 176 0
155 173 0
160 180 0
179 196 0
150 166 0
146 163 0
149 169 0
154 171 0
128 147 0
155 173 0
175 194 0
158 176 0
161 180 0
160 179 0
164 183 0
145 165 0
159 176 0
168 186 0
146 162 0
162 181 0
139 160 0
162 182 0
120 135 0
148 169 0
144 162 0
141 160 0
164 183 0
167 189 0
146 164 0
143 163 0
138 157 0
151 169 0
163 184 0
152 173 0
157 176 0
161 182 0
150 168 0
146 164 0
152 173 0
158 180 0
143 163 0
149 169 0
144 164 0
142 160 0
148 165 0
156 175 0
160 180 0
148 166 0
148 168 0
162 183 0
147 167 0
150 171 0
151 173 0
158 178 0
143 165 0
151 172 0
136 154 0
142 165 0
157 178 0
156 177 0
164 188 0
161 182 0
133 155 0
141 162 0
165 189 0
139 159 0
150 173 0
161 181 0
169 190 0
162 183 0
168 192 0
163 185 0
121 142 0
140 160 0
151 171 0
163 183 0
157 181 0
130 150 0
157 178 0
161 181 0
152 170 0
133 151 0
150 170 0
156 176 0
138 160 0
113 135 0
148 167 0
135 154 0
126 148 0
154 178 0
134 151 0
152 170 0
124 144 0
158 180 0
143 164 0
132 153 0
165 186 0
168 188 0
149 166 0
149 169 0
152 172 0
133 158 0
130 153 0
134 157 0
154 174 0
174 195 0
173 196 0
147 166 0
148 171 0
154 175 0
145 166 0
137 157 0
159 178 0
142 165 0
158 178 0
162 185 0
173 192 0
152 177 0
166 188 0
157 182 0
123 148 0
151 173 0
145 167 0
136 159 0
140 163 0
125 146 0
154 176 0
132 156 0
128 148 0
154 173 0
147 170 0
130 150 0
131 151 0
111 135 0
162 185 0
143 163 0
155 177 0
127 146 0
138 157 0
125 148 0
137 155 0
150 168 0
156 176 0
154 179 0
144 164 0
151 174 0
127 150 0
108 128 0
121 142 0
148 171 0
160 182 0
144 166 0
151 174 0
164 188 0
130 152 0
153 178 0
141 155 0
138 157 0
139 158 0
122 145 0
145 170 0
115 134 0
138 158 0
143 164 0
138 162 0
131 153 0
125 150 0
155 179 0
164 188 0
129 153 0
127 149 0
144 167 0
156 173 0
147 168 0
174 198 0
153 175 0
150 171 0
148 169 0
135 151 0
114 137 0
132 151 0
131 146 0
117 139 0
131 151 0
153 177 0
141 161 0
140 160 0
157 178 0
135 155 0
130 150 0
148 170 0
139 158 0
139 160 0
157 176 0
111 132 0
165 188 0
155 176 0
145 160 0
154 175 0
119 134 0
140 154 0
135 154 0
157 177 0
98 119 0
128 149 0
173 196 0
120 138 0
158 179 0
120 141 0
135 149 0
167 187 0
108 126 0
115 135 0
144 158 0
154 173 0
134 158 0
162 176 0
158 182 0
134 157 0
128 144 0
137 158 0
150 171 0
126 145 0
162 178 0
124 141 0
156 170 0
156 169 0
126 143 0
145 164 0
142 165 0
148 161 0
159 176 0
120 133 0
157 180 0
156 175 0
156 179 0
162 183 0
134 147 0
128 143 0
153 173 0
140 154 0
136 151 0
121 140 0
150 165 0
126 137 0
151 173 0
142 161 0
157 178 0
146 166 0
163 170 0
149 164 0
128 141 0
146 167 0
116 131 0
148 158 0
126 144 0
153 173 0
143 163 0
157 170 0
125 140 0
133 143 0
127 144 0
146 160 0
169 183 0
140 157 0
154 170 0
161 176 0
150 168 0
155 170 0
138 155 0
137 146 0
131 139 0
157 175 0
156 175 0
140 155 0
159 170 0
153 162 0
160 174 0
155 172 0
166 190 0
147 157 0
151 162 0
163 176 0
140 145 0
139 156 0
161 180 0
152 166 0
147 157 0
157 172 0
97 104 0
163 176 0
143 157 0
152 156 0
149 164 0
134 147 0
154 160 0
142 145 0
170 185 0
135 142 0
132 135 0
172 186 0
126 132 0
156 167 0
153 164 0
140 156 0
141 152 0
164 184 0
127 143 0
146 149 0
128 129 0
159 173 0
156 172 0
147 159 0
143 159 0
164 172 0
166 178 0
132 127 0
154 166 0
172 181 0
135 142 0
155 174 0
165 181 0
151 160 0
163 180 0
153 159 0
171 185 0
144 149 0
154 162 0
150 149 0
159 163 0
139 138 0
142 142 0
138 142 0
164 171 0
158 167 0
155 162 0
150 161 0
148 151 0
149 158 0
154 162 0
153 160 0
151 160 0
138 142 0
160 165 0
141 142 0
151 161 0
163 169 0
156 157 0
154 158 0
160 170 0
148 152 0
165 173 0
167 180 0
156 166 0
149 154 0
146 147 0
151 153 0
166 174 0
166 181 0
155 156 0
160 168 0
161 166 0
173 180 0
148 157 0
158 167 0
168 184 0
174 184 0
170 185 0
167 178 0
162 171 0
166 184 0
158 163 0
159 165 0
167 185 0
176 198 0
169 187 0
171 193 0
162 179 0
167 187 0
158 175 0
168 186 0
159 181 0
162 182 0
167 187 0
144 164 0
138 153 0
171 191 0
151 170 0
160 181 0
164 182 0
171 190 0
151 170 0
166 185 0
138 155 0
159 178 0
154 171 0
172 191 0
132 149 0
144 160 0
161 179 0
160 181 0
156 175 0
151 169 0
161 181 0
140 157 0
157 178 0
166 187 0
164 174 0
158 178 0
162 179 0
146 165 0
150 166 0
161 180 0
171 191 0
152 172 0
142 160 0
153 172 0
142 160 0
151 172 0
160 180 0
139 158 0
153 172 0
139 158 0
156 172 0
158 176 0
156 178 0
151 171 0
155 173 0
141 157 0
142 161 0
152 173 0
169 187 0
157 176 0
130 150 0
153 171 0
128 146 0
139 158 0
158 179 0
167 189 0
152 176 0
158 179 0
140 159 0
159 180 0
158 178 0
154 174 0
145 165 0
155 174 0
157 176 0
135 154 0
156 177 0
142 163 0
143 164 0
139 161 0
156 176 0
162 183 0
158 177 0
166 187 0
147 172 0
131 151 0
127 143 0
154 177 0
144 163 0
132 152 0
161 181 0
155 174 0
143 167 0
166 183 0
147 167 0
131 151 0
146 168 0
164 185 0
156 178 0
156 177 0
156 178 0
126 149 0
127 149 0
155 174 0
168 187 0
143 167 0
154 179 0
144 164 0
130 150 0
163 186 0
121 141 0
114 130 0
142 164 0
151 174 0
122 142 0
154 176 0
157 179 0
163 182 0
148 166 0
148 168 0
159 180 0
128 139 0
143 161 0
155 178 0
145 165 0
154 176 0
156 178 0
139 156 0
151 176 0
161 182 0
156 175 0
155 177 0
133 151 0
151 176 0
146 169 0
137 159 0
161 185 0
167 190 0
150 173 0
138 158 0
150 167 0
134 156 0
154 179 0
136 156 0
142 163 0
143 160 0
127 151 0
141 162 0
174 197 0
121 138 0
97 119 0
128 142 0
151 177 0
129 149 0
132 149 0
120 140 0
152 178 0
143 166 0
161 184 0
123 141 0
161 186 0
127 144 0
148 168 0
142 166 0
141 166 0
145 167 0
151 169 0
155 173 0
157 181 0
133 157 0
136 157 0
157 178 0
118 136 0
154 177 0
124 144 0
157 176 0
153 174 0
138 157 0
144 166 0
143 163 0
131 149 0
143 159 0
144 168 0
132 153 0
144 166 0
133 158 0
156 178 0
134 160 0
130 151 0
155 178 0
147 169 0
152 173 0
160 182 0
125 150 0
124 145 0
140 162 0
163 184 0
136 158 0
156 176 0
140 163 0
148 168 0
125 148 0
169 191 0
129 147 0
159 176 0
148 168 0
127 146 0
118 138 0
159 182 0
141 163 0
136 157 0
118 137 0
121 140 0
148 170 0
145 164 0
138 157 0
159 182 0
149 172 0
151 174 0
146 163 0
146 169 0
146 165 0
170 189 0
149 163 0
148 164 0
162 180 0
148 171 0
156 176 0
168 190 0
141 157 0
147 167 0
140 160 0
158 176 0
138 156 0
160 182 0
134 156 0
142 163 0
128 150 0
129 149 0
136 154 0
133 155 0
171 190 0
143 164 0
162 181 0
156 179 0
158 181 0
135 150 0
173 191 0
144 153 0
151 173 0
141 158 0
131 157 0
154 174 0
156 179 0
141 165 0
149 162 0
158 175 0
150 164 0
151 171 0
157 172 0
148 170 0
125 144 0
149 167 0
170 189 0
156 175 0
163 187 0
134 154 0
149 166 0
150 171 0
162 186 0
152 171 0
130 147 0
145 161 0
152 171 0
163 178 0
151 163 0
164 187 0
145 165 0
145 164 0
135 159 0
149 167 0
143 159 0
145 161 0
134 151 0
148 166 0
124 138 0
159 172 0
138 153 0
151 168 0
154 174 0
136 146 0
160 170 0
140 154 0
86 95 0
128 144 0
137 158 0
151 165 0
146 163 0
115 136 0
147 163 0
160 174 0
93 101 0
145 157 0
153 165 0
136 142 0
153 169 0
150 167 0
146 156 0
162 180 0
154 165 0
160 179 0
149 162 0
147 169 0
149 163 0
163 176 0
152 164 0
150 163 0
143 160 0
161 180 0
158 171 0
162 176 0
147 156 0
167 181 0
164 178 0
137 142 0
153 159 0
151 157 0
163 178 0
156 165 0
150 163 0
127 130 0
145 148 0
145 158 0
143 152 0
159 169 0
158 174 0
146 159 0
141 140 0
124 133 0
141 151 0
151 157 0
154 156 0
146 165 0
151 159 0
154 164 0
152 164 0
139 142 0
132 143 0
157 161 0
154 163 0
130 138 0
163 173 0
171 191 0
143 152 0
145 144 0
131 137 0
140 140 0
164 172 0
146 158 0
149 164 0
163 178 0
165 179 0
153 168 0
162 170 0
165 175 0
140 152 0
161 167 0
149 162 0
156 165 0
158 165 0
164 180 0
147 149 0
155 161 0
153 158 0
157 164 0
157 164 0
156 160 0
153 159 0
164 180 0
153 152 0
164 178 0
161 169 0
157 169 0
133 136 0
167 176 0
166 179 0
167 175 0
153 152 0
165 166 0
152 160 0
162 169 0
166 180 0
149 156 0
146 144 0
152 153 0
149 149 0
147 148 0
157 166 0
159 164 0
140 134 0
159 169 0
149 168 0
163 183 0
146 165 0
160 178 0
167 186 0
164 180 0
152 169 0
161 181 0
165 186 0
141 158 0
160 181 0
162 183 0
163 180 0
166 185 0
167 185 0
175 195 0
156 176 0
166 185 0
177 196 0
155 175 0
172 187 0
159 178 0
155 175 0
147 164 0
144 163 0
158 178 0
153 169 0
159 179 0
148 165 0
155 174 0
149 168 0
142 161 0
174 194 0
148 168 0
156 175 0
157 176 0
167 187 0
151 170 0
150 168 0
153 173 0
156 172 0
158 178 0
158 180 0
161 183 0
153 171 0
154 173 0
145 163 0
157 179 0
168 189 0
164 182 0
167 190 0
147 164 0
143 162 0
149 168 0
146 165 0
148 168 0
153 175 0
154 174 0
152 171 0
146 160 0
168 190 0
150 171 0
148 167 0
132 148 0
158 176 0
144 163 0
164 185 0
162 184 0
169 187 0
160 181 0
147 167 0
165 186 0
139 155 0
171 193 0
163 183 0
144 161 0
160 179 0
157 174 0
154 176 0
147 163 0
150 173 0
147 166 0
130 150 0
166 186 0
123 142 0
140 163 0
166 190 0
150 174 0
152 173 0
171 195 0
140 160 0
120 136 0
151 173 0
164 187 0
158 181 0
177 197 0
166 185 0
162 182 0
161 179 0
154 177 0
156 174 0
141 162 0
167 190 0
139 158 0
151 171 0
128 142 0
142 163 0
146 169 0
132 151 0
164 187 0
137 157 0
140 160 0
155 177 0
156 178 0
119 137 0
152 172 0
144 162 0
137 158 0
145 168 0
130 148 0
158 179 0
162 183 0
132 152 0
140 160 0
133 153 0
135 158 0
162 183 0
154 176 0
157 172 0
147 170 0
142 163 0
141 161 0
124 147 0
157 178 0
133 154 0
154 175 0
125 142 0
146 169 0
144 167 0
144 167 0
159 184 0
156 179 0
145 167 0
142 167 0
136 158 0
129 149 0
142 165 0
130 147 0
141 164 0
112 134 0
144 169 0
150 173 0
153 175 0
99 117 0
152 173 0
137 158 0
163 187 0
154 173 0
166 189 0
149 172 0
160 179 0
166 186 0
152 173 0
145 168 0
152 174 0
141 159 0
136 158 0
152 175 0
166 186 0
148 170 0
154 173 0
143 167 0
150 173 0
144 166 0
147 170 0
160 183 0
161 181 0
140 160 0
145 170 0
116 132 0
128 150 0
159 183 0
153 176 0
142 164 0
104 124 0
158 178 0
133 156 0
155 179 0
166 188 0
146 169 0
135 159 0
146 162 0
149 170 0
107 129 0
130 153 0
148 172 0
127 145 0
124 142 0
132 156 0
136 158 0
158 180 0
158 180 0
126 150 0
147 168 0
154 177 0
141 164 0
155 178 0
140 158 0
152 178 0
149 170 0
130 150 0
139 157 0
114 137 0
166 188 0
137 156 0
145 167 0
125 145 0
144 164 0
164 188 0
152 172 0
144 158 0
126 147 0
133 147 0
130 150 0
129 152 0
154 179 0
123 145 0
160 182 0
173 194 0
152 167 0
163 184 0
154 167 0
146 164 0
154 175 0
154 178 0
123 142 0
165 188 0
151 172 0
156 178 0
149 170 0
153 175 0
127 140 0
139 158 0
169 186 0
157 176 0
155 175 0
162 180 0
128 148 0
137 154 0
150 168 0
132 150 0
167 186 0
134 157 0
133 154 0
102 119 0
131 150 0
140 154 0
120 136 0
152 164 0
155 178 0
150 159 0
152 177 0
130 149 0
129 150 0
146 159 0
136 155 0
147 166 0
136 158 0
162 183 0
138 153 0
135 152 0
165 186 0
136 152 0
155 171 0
149 163 0
143 159 0
161 173 0
165 181 0
149 160 0
150 169 0
150 164 0
154 176 0
164 187 0
120 130 0
149 166 0
166 186 0
149 167 0
124 139 0
158 170 0
120 136 0
141 152 0
147 169 0
154 172 0
162 181 0
143 163 0
150 166 0
160 171 0
148 168 0
169 191 0
142 154 0
135 149 0
145 164 0
156 170 0
160 173 0
150 166 0
150 172 0
127 144 0
153 174 0
132 149 0
133 144 0
131 147 0
131 139 0
160 174 0
154 170 0
164 178 0
138 144 0
120 132 0
169 186 0
148 162 0
149 161 0
142 151 0
138 154 0
149 160 0
140 159 0
145 151 0
133 148 0
145 152 0
152 168 0
142 161 0
162 169 0
159 173 0
161 174 0
160 179 0
149 158 0
167 189 0
138 150 0
146 153 0
157 162 0
137 147 0
149 150 0
157 167 0
152 166 0
174 194 0
142 152 0
160 177 0
154 162 0
153 162 0
149 158 0
146 152 0
168 181 0
156 161 0
159 161 0
149 164 0
126 138 0
159 177 0
149 156 0
144 147 0
158 156 0
120 126 0
155 163 0
159 166 0
155 166 0
158 167 0
154 166 0
157 163 0
139 144 0
159 161 0
155 160 0
162 165 0
164 174 0
151 152 0
149 153 0
150 162 0
159 170 0
151 156 0
147 155 0
155 159 0
158 163 0
171 189 0
154 159 0
154 153 0
163 170 0
157 164 0
165 169 0
149 158 0
150 160 0
156 164 0
156 158 0
174 187 0
158 169 0
143 137 0
165 180 0
150 148 0
169 178 0
162 177 0
163 176 0
163 168 0
153 168 0
166 181 0
152 158 0
162 178 0
155 174 0
157 176 0
158 175 0
159 175 0
145 162 0
162 181 0
158 179 0
159 178 0
157 177 0
145 162 0
160 179 0
154 174 0
160 180 0
157 174 0
156 174 0
148 164 0
164 184 0
161 179 0
156 174 0
147 165 0
159 180 0
165 187 0
152 171 0
160 180 0
165 184 0
152 170 0
136 158 0
156 173 0
131 150 0
169 187 0
145 163 0
163 183 0
148 167 0
152 169 0
157 177 0
152 169 0
148 165 0
157 177 0
156 174 0
158 178 0
158 175 0
156 178 0
151 172 0
158 176 0
141 161 0
166 186 0
137 155 0
176 196 0
162 177 0
161 181 0
145 164 0
135 151 0
147 163 0
152 172 0
140 156 0
148 167 0
144 162 0
158 178 0
147 168 0
143 162 0
154 173 0
153 174 0
160 181 0
156 171 0
128 145 0
147 167 0
140 159 0
129 148 0
128 149 0
153 176 0
151 171 0
144 164 0
123 142 0
166 184 0
145 164 0
160 181 0
138 157 0
150 170 0
169 189 0
159 177 0
142 161 0
147 168 0
130 149 0
147 170 0
156 178 0
145 170 0
132 153 0
151 172 0
142 163 0
147 166 0
139 158 0
167 189 0
161 182 0
147 169 0
172 193 0
144 165 0
156 176 0
153 178 0
140 159 0
149 170 0
162 186 0
155 177 0
131 153 0
142 162 0
172 195 0
131 146 0
160 183 0
156 177 0
156 176 0
157 181 0
133 154 0
155 175 0
158 180 0
151 172 0
130 152 0
146 168 0
122 141 0
150 170 0
141 161 0
135 156 0
164 184 0
154 175 0
163 183 0
152 170 0
143 166 0
144 168 0
169 191 0
149 172 0
140 161 0
130 148 0
179 200 0
135 156 0
164 184 0
142 165 0
165 188 0
165 186 0
119 135 0
151 178 0
150 170 0
143 161 0
148 171 0
142 160 0
139 164 0
140 163 0
156 179 0
141 165 0
154 177 0
134 155 0
156 176 0
141 164 0
156 177 0
149 171 0
154 175 0
135 156 0
123 139 0
164 186 0
134 159 0
156 179 0
132 155 0
126 147 0
146 165 0
136 157 0
122 139 0
130 149 0
131 150 0
129 149 0
150 175 0
133 157 0
114 134 0
137 156 0
159 180 0
165 187 0
144 159 0
148 168 0
126 149 0
158 177 0
135 158 0
142 162 0
142 163 0
138 158 0
140 161 0
145 165 0
150 176 0
153 176 0
162 186 0
162 181 0
140 165 0
142 163 0
143 161 0
143 166 0
131 155 0
116 138 0
122 133 0
114 133 0
115 136 0
124 143 0
110 130 0
83 106 0
87 108 0
145 170 0
155 174 0
151 168 0
146 165 0
145 167 0
138 159 0
123 145 0
123 142 0
144 168 0
140 161 0
154 177 0
136 158 0
156 174 0
124 143 0
132 151 0
159 181 0
139 157 0
142 167 0
114 137 0
128 147 0
143 167 0
141 165 0
168 190 0
150 172 0
155 172 0
128 149 0
138 159 0
145 168 0
146 170 0
153 167 0
135 153 0
154 178 0
145 166 0
146 171 0
154 179 0
157 173 0
141 157 0
139 160 0
133 153 0
137 153 0
149 171 0
153 174 0
155 178 0
143 163 0
143 167 0
149 168 0
149 173 0
156 179 0
126 140 0
122 144 0
144 165 0
117 138 0
137 159 0
147 170 0
151 171 0
154 175 0
131 146 0
150 169 0
159 181 0
151 171 0
147 165 0
152 173 0
129 150 0
129 150 0
149 166 0
161 179 0
159 179 0
134 158 0
147 166 0
153 170 0
175 195 0
153 173 0
142 162 0
137 147 0
156 177 0
166 184 0
174 198 0
157 175 0
132 154 0
176 199 0
147 164 0
148 167 0
155 170 0
167 182 0
141 160 0
147 166 0
149 159 0
163 181 0
135 152 0
178 196 0
126 139 0
137 150 0
134 156 0
138 159 0
128 143 0
152 165 0
145 156 0
147 163 0
145 162 0
143 157 0
162 176 0
159 177 0
143 156 0
130 140 0
146 160 0
151 164 0
150 168 0
149 164 0
136 147 0
143 156 0
158 173 0
160 178 0
134 139 0
172 196 0
162 178 0
142 160 0
145 155 0
132 145 0
153 164 0
161 179 0
145 158 0
162 176 0
126 143 0
167 183 0
138 153 0
147 161 0
163 169 0
151 169 0
156 168 0
150 167 0
160 175 0
155 167 0
156 172 0
133 144 0
151 166 0
165 176 0
159 170 0
149 163 0
155 169 0
148 169 0
158 166 0
147 161 0
125 130 0
151 161 0
161 170 0
135 141 0
169 176 0
136 145 0
150 161 0
154 161 0
161 174 0
161 169 0
163 172 0
153 159 0
154 168 0
156 169 0
163 177 0
149 165 0
128 139 0
143 152 0
161 178 0
156 164 0
157 164 0
153 157 0
135 138 0
148 160 0
156 161 0
165 175 0
155 165 0
172 184 0
165 175 0
141 143 0
172 186 0
159 167 0
169 172 0
141 151 0
150 168 0
158 165 0
146 143 0
169 174 0
148 159 0
157 169 0
161 173 0
163 163 0
153 159 0
161 166 0
160 163 0
150 158 0
148 154 0
163 174 0
153 151 0
152 151 0
172 193 0
156 167 0
131 125 0
161 175 0
143 144 0
166 173 0
165 178 0
164 168 0
165 186 0
162 181 0
162 182 0
171 188 0
158 177 0
153 170 0
167 185 0
171 190 0
155 172 0
161 179 0
141 158 0
163 181 0
162 182 0
172 193 0
164 182 0
149 170 0
155 175 0
166 186 0
156 175 0
162 180 0
149 167 0
165 182 0
157 179 0
151 169 0
158 173 0
165 182 0
155 173 0
129 144 0
169 189 0
143 161 0
154 174 0
170 191 0
149 165 0
166 187 0
156 177 0
148 170 0
153 171 0
163 182 0
171 191 0
161 181 0
164 182 0
143 160 0
137 156 0
161 178 0
150 170 0
143 162 0
151 171 0
162 182 0
150 168 0
131 149 0
167 186 0
166 188 0
147 167 0
165 189 0
161 177 0
165 187 0
149 170 0
169 192 0
149 168 0
149 167 0
165 184 0
165 187 0
141 158 0
157 179 0
153 173 0
160 181 0
162 184 0
128 147 0
141 161 0
150 169 0
156 178 0
143 158 0
137 157 0
148 166 0
152 171 0
144 166 0
139 159 0
163 186 0
154 174 0
162 183 0
159 178 0
154 177 0
148 167 0
156 178 0
158 174 0
149 170 0
167 186 0
140 159 0
173 195 0
158 178 0
144 162 0
136 156 0
141 163 0
141 165 0
141 162 0
175 197 0
128 145 0
167 185 0
138 160 0
165 187 0
138 160 0
164 187 0
135 157 0
159 179 0
149 169 0
138 156 0
138 158 0
132 150 0
136 154 0
140 162 0
123 144 0
112 132 0
127 148 0
155 177 0
134 156 0
142 164 0
144 165 0
142 165 0
156 180 0
159 183 0
143 165 0
156 178 0
146 163 0
147 167 0
145 165 0
129 144 0
142 162 0
150 171 0
136 156 0
137 161 0
147 168 0
157 183 0
145 168 0
151 167 0
160 184 0
128 147 0
146 161 0
162 183 0
149 172 0
169 191 0
167 185 0
144 166 0
158 181 0
171 194 0
149 171 0
145 166 0
158 178 0
148 170 0
155 175 0
153 173 0
152 177 0
155 178 0
161 187 0
171 196 0
161 182 0
144 165 0
160 184 0
142 165 0
162 189 0
156 176 0
139 164 0
141 162 0
148 170 0
150 174 0
153 178 0
143 169 0
155 175 0
119 143 0
152 178 0
168 189 0
102 124 0
126 147 0
150 174 0
124 142 0
137 155 0
154 177 0
169 188 0
135 156 0
153 177 0
164 189 0
123 144 0
151 171 0
125 146 0
123 147 0
115 137 0
151 171 0
132 156 0
139 162 0
134 153 0
127 150 0
137 160 0
133 153 0
138 156 0
146 169 0
144 170 0
140 162 0
165 188 0
121 142 0
169 195 0
164 184 0
152 174 0
136 158 0
146 169 0
147 166 0
147 167 0
136 157 0
124 148 0
155 178 0
164 187 0
145 165 0
157 180 0
147 169 0
147 166 0
148 172 0
161 186 0
163 188 0
162 187 0
131 149 0
146 168 0
143 163 0
133 155 0
138 159 0
147 171 0
154 175 0
157 174 0
126 151 0
132 155 0
154 175 0
120 139 0
138 156 0
143 161 0
143 161 0
124 144 0
132 148 0
141 162 0
125 148 0
126 143 0
135 152 0
160 178 0
155 176 0
135 155 0
120 136 0
136 154 0
155 170 0
157 179 0
142 168 0
154 177 0
130 150 0
169 189 0
142 158 0
136 158 0
146 168 0
134 153 0
169 188 0
139 156 0
137 160 0
123 146 0
156 173 0
153 176 0
130 152 0
126 145 0
136 153 0
131 152 0
146 170 0
148 167 0
120 140 0
134 154 0
146 160 0
109 120 0
159 177 0
113 129 0
103 124 0
131 150 0
116 128 0
121 139 0
167 190 0
153 171 0
149 171 0
148 166 0
155 173 0
145 163 0
169 187 0
155 173 0
149 166 0
135 156 0
157 178 0
163 184 0
150 165 0
152 172 0
141 160 0
142 155 0
140 161 0
159 181 0
127 139 0
112 128 0
118 127 0
151 167 0
147 168 0
139 161 0
152 168 0
165 181 0
156 167 0
140 152 0
151 171 0
157 172 0
177 196 0
131 153 0
128 148 0
138 152 0
149 163 0
142 159 0
154 175 0
148 159 0
154 172 0
156 165 0
146 162 0
149 150 0
163 176 0
164 181 0
149 167 0
151 172 0
148 161 0
148 157 0
137 151 0
159 169 0
167 181 0
159 176 0
143 156 0
163 169 0
134 146 0
147 157 0
159 174 0
156 172 0
148 168 0
136 144 0
163 175 0
153 155 0
154 174 0
162 175 0
165 181 0
149 157 0
161 179 0
155 172 0
154 164 0
153 160 0
146 154 0
131 135 0
146 153 0
160 172 0
144 158 0
131 141 0
150 165 0
175 181 0
147 161 0
156 169 0
149 162 0
143 141 0
158 171 0
155 159 0
149 154 0
168 179 0
162 167 0
151 152 0
169 181 0
170 182 0
142 152 0
164 176 0
163 171 0
152 155 0
143 142 0
168 176 0
151 154 0
164 176 0
153 161 0
153 166 0
142 143 0
164 174 0
145 148 0
145 155 0
164 177 0
149 148 0
158 168 0
155 164 0
168 174 0
155 158 0
166 170 0
152 155 0
175 189 0
155 172 0
173 183 0
165 172 0
170 173 0
172 185 0
158 165 0
165 177 0
157 165 0
148 159 0
164 174 0
159 162 0
151 152 0
145 160 0
150 168 0
163 183 0
158 175 0
173 193 0
153 170 0
141 161 0
155 170 0
154 173 0
155 172 0
158 180 0
168 186 0
157 176 0
143 161 0
173 194 0
155 175 0
162 180 0
166 188 0
147 167 0
168 188 0
165 186 0
153 171 0
158 176 0
153 170 0
165 183 0
152 171 0
144 162 0
170 190 0
162 184 0
153 171 0
144 159 0
154 175 0
163 185 0
155 175 0
163 182 0
162 184 0
164 181 0
150 171 0
155 175 0
165 187 0
110 126 0
165 186 0
152 170 0
172 193 0
158 176 0
152 169 0
138 159 0
148 165 0
126 142 0
166 184 0
124 146 0
156 175 0
174 193 0
150 167 0
161 181 0
155 171 0
150 167 0
142 161 0
147 167 0
164 184 0
162 187 0
154 175 0
153 171 0
147 165 0
160 181 0
156 178 0
139 159 0
158 174 0
129 147 0
158 180 0
167 187 0
174 193 0
132 152 0
157 177 0
162 185 0
148 165 0
145 164 0
131 153 0
149 171 0
143 163 0
164 182 0
154 172 0
147 166 0
136 156 0
167 185 0
146 166 0
155 175 0
155 175 0
150 173 0
168 191 0
145 167 0
167 189 0
156 181 0
154 175 0
140 159 0
141 161 0
143 158 0
157 178 0
134 154 0
144 162 0
163 187 0
149 171 0
128 150 0
160 182 0
154 174 0
155 176 0
133 155 0
161 182 0
155 178 0
141 165 0
164 185 0
153 174 0
150 171 0
146 166 0
141 164 0
154 174 0
148 164 0
142 162 0
152 173 0
167 186 0
135 152 0
150 170 0
157 179 0
157 178 0
147 170 0
140 160 0
126 144 0
157 178 0
126 148 0
141 161 0
142 165 0
171 187 0
131 150 0
165 188 0
159 181 0
141 162 0
137 158 0
152 171 0
152 177 0
137 161 0
162 183 0
128 148 0
167 188 0
170 191 0
154 177 0
156 179 0
147 167 0
140 164 0
148 171 0
127 148 0
144 166 0
134 155 0
127 149 0
114 136 0
163 184 0
146 171 0
135 158 0
154 177 0
176 195 0
146 168 0
143 163 0
118 140 0
139 159 0
141 162 0
149 172 0
142 162 0
95 116 0
149 167 0
172 197 0
139 160 0
137 154 0
141 165 0
161 179 0
116 131 0
133 157 0
143 162 0
162 182 0
153 173 0
154 174 0
153 178 0
147 171 0
134 156 0
135 157 0
131 153 0
155 178 0
144 163 0
118 139 0
125 145 0
158 180 0
147 173 0
144 159 0
149 169 0
157 178 0
134 155 0
154 176 0
150 172 0
153 174 0
124 146 0
140 160 0
138 160 0
128 145 0
144 168 0
134 157 0
159 180 0
140 161 0
142 163 0
150 169 0
111 134 0
151 171 0
136 150 0
135 155 0
141 159 0
155 178 0
148 168 0
153 172 0
149 171 0
100 122 0
143 163 0
146 168 0
149 165 0
153 179 0
145 166 0
146 161 0
146 169 0
155 178 0
142 158 0
129 149 0
150 176 0
156 178 0
148 171 0
150 166 0
161 182 0
150 168 0
127 150 0
152 170 0
140 161 0
110 130 0
120 137 0
158 177 0
177 195 0
147 165 0
138 158 0
133 153 0
151 166 0
149 168 0
131 144 0
133 153 0
151 168 0
154 178 0
142 159 0
115 134 0
154 177 0
155 175 0
140 159 0
155 172 0
152 168 0
124 147 0
139 155 0
160 178 0
160 178 0
140 161 0
163 187 0
159 179 0
169 192 0
160 181 0
144 168 0
162 182 0
142 163 0
146 166 0
152 173 0
155 169 0
165 186 0
156 175 0
169 191 0
136 153 0
142 161 0
147 158 0
149 165 0
155 171 0
153 172 0
160 173 0
148 165 0
146 164 0
132 154 0
157 181 0
140 159 0
127 140 0
145 166 0
140 160 0
136 152 0
165 183 0
134 146 0
134 155 0
124 140 0
152 163 0
128 138 0
141 158 0
154 166 0
129 137 0
144 161 0
153 169 0
150 167 0
150 166 0
159 179 0
162 183 0
142 152 0
151 165 0
144 165 0
150 164 0
165 177 0
142 159 0
147 161 0
152 172 0
159 170 0
154 168 0
149 165 0
151 166 0
148 156 0
158 177 0
144 160 0
150 162 0
147 159 0
166 185 0
156 175 0
158 165 0
144 161 0
152 161 0
139 154 0
157 174 0
159 168 0
140 152 0
155 169 0
146 154 0
154 168 0
156 173 0
161 169 0
166 172 0
149 164 0
149 163 0
131 140 0
151 161 0
146 157 0
158 158 0
157 158 0
173 183 0
157 172 0
156 167 0
162 166 0
147 160 0
132 135 0
166 180 0
151 158 0
153 169 0
163 171 0
168 187 0
154 168 0
148 163 0
144 153 0
151 157 0
149 153 0
120 131 0
160 175 0
141 150 0
139 140 0
144 151 0
157 171 0
153 162 0
165 174 0
152 158 0
169 173 0
158 169 0
164 180 0
154 166 0
168 181 0
148 153 0
147 153 0
160 167 0
161 175 0
173 187 0
155 163 0
157 164 0
161 160 0
146 148 0
166 171 0
150 159 0
160 171 0
164 176 0
173 183 0
149 154 0
144 146 0
160 170 0
145 151 0
174 188 0
155 162 0
158 166 0
150 150 0
165 177 0
163 165 0
166 181 0
161 170 0
139 160 0
165 185 0
162 181 0
163 185 0
164 183 0
148 164 0
168 187 0
152 174 0
161 179 0
159 176 0
163 183 0
165 187 0
162 179 0
161 183 0
158 178 0
164 184 0
160 180 0
142 161 0
158 178 0
162 183 0
166 186 0
170 188 0
150 172 0
150 167 0
140 159 0
171 192 0
169 187 0
167 185 0
165 182 0
157 177 0
150 169 0
154 170 0
157 175 0
146 165 0
131 151 0
169 186 0
145 166 0
147 165 0
170 189 0
167 187 0
164 185 0
156 178 0
161 183 0
154 175 0
147 166 0
129 148 0
135 155 0
139 158 0
162 181 0
149 171 0
161 178 0
161 181 0
133 152 0
157 178 0
153 173 0
164 185 0
148 165 0
174 193 0
164 183 0
149 168 0
152 173 0
157 177 0
157 178 0
133 155 0
133 154 0
153 172 0
150 167 0
147 167 0
161 182 0
135 155 0
156 177 0
123 140 0
158 181 0
168 191 0
137 155 0
157 176 0
161 181 0
146 166 0
135 154 0
146 163 0
146 168 0
140 161 0
135 154 0
164 184 0
158 179 0
158 179 0
145 167 0
165 183 0
159 180 0
161 180 0
134 147 0
161 184 0
173 195 0
128 145 0
151 175 0
156 176 0
158 181 0
153 173 0
154 177 0
137 161 0
160 181 0
135 155 0
164 184 0
149 170 0
167 190 0
158 179 0
151 171 0
174 195 0
145 163 0
155 177 0
155 178 0
154 178 0
152 176 0
159 181 0
161 180 0
163 185 0
166 190 0
144 163 0
143 166 0
156 177 0
136 157 0
137 160 0
157 178 0
171 193 0
137 156 0
149 167 0
160 183 0
149 170 0
145 168 0
164 187 0
132 150 0
162 185 0
151 175 0
158 182 0
157 180 0
141 159 0
147 166 0
137 160 0
164 187 0
158 181 0
157 176 0
141 160 0
157 179 0
153 174 0
172 194 0
150 171 0
156 178 0
133 155 0
133 155 0
130 150 0
130 147 0
143 162 0
164 185 0
147 165 0
143 167 0
150 174 0
147 165 0
148 169 0
164 187 0
165 186 0
133 153 0
165 188 0
122 144 0
141 161 0
169 191 0
132 155 0
155 179 0
160 182 0
126 146 0
143 168 0
136 159 0
151 171 0
145 166 0
125 146 0
137 159 0
148 168 0
153 175 0
138 158 0
123 148 0
147 170 0
136 155 0
138 161 0
133 148 0
147 168 0
144 167 0
154 172 0
164 183 0
126 149 0
123 141 0
147 166 0
156 178 0
153 174 0
160 182 0
148 173 0
129 152 0
142 163 0
128 148 0
134 155 0
168 190 0
150 172 0
136 154 0
144 167 0
137 156 0
152 177 0
155 179 0
170 191 0
129 150 0
151 176 0
155 178 0
127 147 0
165 184 0
144 163 0
136 158 0
151 173 0
138 161 0
136 157 0
145 162 0
157 178 0
142 162 0
148 172 0
131 149 0
138 155 0
128 148 0
129 150 0
155 178 0
142 161 0
135 157 0
157 180 0
157 180 0
166 183 0
145 166 0
156 179 0
113 136 0
152 169 0
132 148 0
140 157 0
132 152 0
157 180 0
158 180 0
163 185 0
158 178 0
152 172 0
147 166 0
161 187 0
151 171 0
136 157 0
146 171 0
149 170 0
165 182 0
146 165 0
140 161 0
147 169 0
154 174 0
121 141 0
113 125 0
135 154 0
135 158 0
167 191 0
128 148 0
122 142 0
165 188 0
161 186 0
124 146 0
147 165 0
156 176 0
146 161 0
144 161 0
161 179 0
150 166 0
165 183 0
152 177 0
152 173 0
137 155 0
147 167 0
153 170 0
165 181 0
157 172 0
153 171 0
169 186 0
149 163 0
148 171 0
145 159 0
163 180 0
145 170 0
167 186 0
150 168 0
144 155 0
164 185 0
154 178 0
156 170 0
136 154 0
124 135 0
168 183 0
131 148 0
124 141 0
151 167 0
127 145 0
161 175 0
171 190 0
155 169 0
144 154 0
158 174 0
163 180 0
146 161 0
172 194 0
151 164 0
142 161 0
155 172 0
152 165 0
146 162 0
145 159 0
141 156 0
161 185 0
149 156 0
92 107 0
149 168 0
140 149 0
163 181 0
170 189 0
150 162 0
157 174 0
160 180 0
144 148 0
155 168 0
146 156 0
150 158 0
132 137 0
175 194 0
132 139 0
145 159 0
150 162 0
143 154 0
132 143 0
152 162 0
168 179 0
166 175 0
160 168 0
154 169 0
159 176 0
150 152 0
172 193 0
159 177 0
148 156 0
171 186 0
147 162 0
136 140 0
177 189 0
144 150 0
159 175 0
138 142 0
150 162 0
148 158 0
158 172 0
145 163 0
136 147 0
136 146 0
158 165 0
151 158 0
155 163 0
152 164 0
159 170 0
157 165 0
155 168 0
151 159 0
149 158 0
153 166 0
161 167 0
131 145 0
133 143 0
156 163 0
150 160 0
167 182 0
167 183 0
151 160 0
157 168 0
153 165 0
158 166 0
164 178 0
153 162 0
156 168 0
140 158 0
162 174 0
162 174 0
151 162 0
162 180 0
168 182 0
161 167 0
136 136 0
151 162 0
152 158 0
168 168 0
166 171 0
160 172 0
158 167 0
153 163 0
148 150 0
162 164 0
171 183 0
163 179 0
169 177 0
163 182 0
159 177 0
157 173 0
170 188 0
155 176 0
158 175 0
153 172 0
156 176 0
170 190 0
160 182 0
168 189 0
163 183 0
155 176 0
130 149 0
138 156 0
156 175 0
164 185 0
141 160 0
159 178 0
157 178 0
158 177 0
152 173 0
139 157 0
133 150 0
156 176 0
142 161 0
148 167 0
158 178 0
171 192 0
147 166 0
153 174 0
144 161 0
155 173 0
150 169 0
162 182 0
151 169 0
123 142 0
151 171 0
157 179 0
131 151 0
156 178 0
159 178 0
161 181 0
157 176 0
141 160 0
154 170 0
150 169 0
164 186 0
174 194 0
154 175 0
170 191 0
147 167 0
161 182 0
153 173 0
160 181 0
169 189 0
142 156 0
129 146 0
121 138 0
142 163 0
163 186 0
168 187 0
168 188 0
164 185 0
146 166 0
168 190 0
139 157 0
153 173 0
126 146 0
152 173 0
144 162 0
158 179 0
164 184 0
167 190 0
151 169 0
159 181 0
129 150 0
142 161 0
167 189 0
170 189 0
152 172 0
150 174 0
152 174 0
159 179 0
174 193 0
148 168 0
162 184 0
150 166 0
157 176 0
157 177 0
160 182 0
157 179 0
151 168 0
125 145 0
156 176 0
144 167 0
167 190 0
168 187 0
167 191 0
164 185 0
136 155 0
158 180 0
138 158 0
129 149 0
147 168 0
147 169 0
142 165 0
149 170 0
140 159 0
145 166 0
144 164 0
149 170 0
159 180 0
161 181 0
162 184 0
141 161 0
158 181 0
147 165 0
140 163 0
136 160 0
147 170 0
162 184 0
134 156 0
157 174 0
154 179 0
146 168 0
153 173 0
133 152 0
134 156 0
155 176 0
137 158 0
157 178 0
151 167 0
147 174 0
149 169 0
137 159 0
156 177 0
133 158 0
145 167 0
148 171 0
153 175 0
177 199 0
165 188 0
158 180 0
136 151 0
161 184 0
155 178 0
114 131 0
144 161 0
146 169 0
144 167 0
148 168 0
177 197 0
169 194 0
152 172 0
153 173 0
137 159 0
135 158 0
159 182 0
157 177 0
174 198 0
153 173 0
130 153 0
145 167 0
148 167 0
130 151 0
153 177 0
168 189 0
144 165 0
150 171 0
155 175 0
103 122 0
148 171 0
145 165 0
157 182 0
157 179 0
119 141 0
140 163 0
170 188 0
132 150 0
161 185 0
148 168 0
167 190 0
124 134 0
134 159 0
138 156 0
149 170 0
140 160 0
138 161 0
171 195 0
141 161 0
110 133 0
122 140 0
139 163 0
117 140 0
158 181 0
150 173 0
137 159 0
178 195 0
127 149 0
127 142 0
144 166 0
150 171 0
136 156 0
151 169 0
145 167 0
122 145 0
144 166 0
139 160 0
119 137 0
125 147 0
140 159 0
113 137 0
164 187 0
125 147 0
137 158 0
139 161 0
153 177 0
163 182 0
164 186 0
144 165 0
148 168 0
138 154 0
143 160 0
164 185 0
135 156 0
120 138 0
147 170 0
151 173 0
143 163 0
160 184 0
150 174 0
146 165 0
155 172 0
165 187 0
126 144 0
147 170 0
146 167 0
146 166 0
138 156 0
144 165 0
164 183 0
150 172 0
135 157 0
151 171 0
134 149 0
138 154 0
155 178 0
157 175 0
156 173 0
144 161 0
135 160 0
159 181 0
147 167 0
138 158 0
134 157 0
153 175 0
166 186 0
135 152 0
145 166 0
145 168 0
152 172 0
144 166 0
150 166 0
153 165 0
123 145 0
147 164 0
145 168 0
138 154 0
156 174 0
151 170 0
132 151 0
149 169 0
146 168 0
145 167 0
150 165 0
145 164 0
161 174 0
144 168 0
146 163 0
148 166 0
153 170 0
159 180 0
157 180 0
161 185 0
120 136 0
146 163 0
160 181 0
159 175 0
157 177 0
157 171 0
130 148 0
152 177 0
148 168 0
149 165 0
161 179 0
160 178 0
147 164 0
143 158 0
126 140 0
153 168 0
160 187 0
161 183 0
140 163 0
165 188 0
136 150 0
164 179 0
155 176 0
124 142 0
161 179 0
159 172 0
164 176 0
158 175 0
160 180 0
150 162 0
126 142 0
157 169 0
138 158 0
154 176 0
141 155 0
148 165 0
149 164 0
149 168 0
137 150 0
155 170 0
147 165 0
162 175 0
155 161 0
156 167 0
136 151 0
157 177 0
160 172 0
125 132 0
155 162 0
139 145 0
136 138 0
142 162 0
168 184 0
157 174 0
149 166 0
160 171 0
158 168 0
135 146 0
134 138 0
159 175 0
178 193 0
154 160 0
147 165 0
157 168 0
139 152 0
166 180 0
164 177 0
168 177 0
143 150 0
151 151 0
154 166 0
140 143 0
150 168 0
159 174 0
159 172 0
158 174 0
164 168 0
174 191 0
151 157 0
155 163 0
175 192 0
158 169 0
141 145 0
141 150 0
126 134 0
157 167 0
160 168 0
152 157 0
160 170 0
156 179 0
167 181 0
139 151 0
168 180 0
147 157 0
162 168 0
134 143 0
158 168 0
157 170 0
160 173 0
155 162 0
161 177 0
166 176 0
156 163 0
163 176 0
169 181 0
163 178 0
157 162 0
159 171 0
176 194 0
161 168 0
156 162 0
156 162 0
153 161 0
162 167 0
173 181 0
157 174 0
158 178 0
174 192 0
159 179 0
149 167 0
159 178 0
154 171 0
163 181 0
175 196 0
164 186 0
149 168 0
166 186 0
152 171 0
163 185 0
159 180 0
161 182 0
155 175 0
162 182 0
163 187 0
168 190 0
154 173 0
164 180 0
172 192 0
164 184 0
154 175 0
163 183 0
131 150 0
151 170 0
146 165 0
166 187 0
161 181 0
166 186 0
156 174 0
159 179 0
153 174 0
166 186 0
157 177 0
150 169 0
147 165 0
167 186 0
154 174 0
127 142 0
151 170 0
138 153 0
141 162 0
157 176 0
148 167 0
163 183 0
144 160 0
136 158 0
145 165 0
152 174 0
145 166 0
160 181 0
156 178 0
151 173 0
137 154 0
162 182 0
149 170 0
160 177 0
139 157 0
138 157 0
154 175 0
152 171 0
143 165 0
164 187 0
142 162 0
157 181 0
151 172 0
141 160 0
141 161 0
146 166 0
151 173 0
157 180 0
144 162 0
138 156 0
155 179 0
148 166 0
151 172 0
135 157 0
150 166 0
135 153 0
154 174 0
126 147 0
161 185 0
164 186 0
140 159 0
149 165 0
154 170 0
160 182 0
162 185 0
147 167 0
137 160 0
148 168 0
143 163 0
148 174 0
153 172 0
149 172 0
157 175 0
149 167 0
150 176 0
144 163 0
176 197 0
144 163 0
136 160 0
144 165 0
142 161 0
168 192 0
156 178 0
130 151 0
144 167 0
146 168 0
140 159 0
160 182 0
162 185 0
159 181 0
126 145 0
164 186 0
119 140 0
160 184 0
160 182 0
166 188 0
153 175 0
147 170 0
163 187 0
145 167 0
161 184 0
153 176 0
143 167 0
155 175 0
171 190 0
156 175 0
126 146 0
162 184 0
168 191 0
156 179 0
145 165 0
135 152 0
138 157 0
128 147 0
165 189 0
144 164 0
166 188 0
137 158 0
149 172 0
147 168 0
150 172 0
152 173 0
144 168 0
134 151 0
170 196 0
162 186 0
152 176 0
143 165 0
130 155 0
156 178 0
144 164 0
173 191 0
154 173 0
140 158 0
156 177 0
144 168 0
160 184 0
162 186 0
145 165 0
151 176 0
146 167 0
166 187 0
147 169 0
140 164 0
113 134 0
131 150 0
134 156 0
110 128 0
149 170 0
147 165 0
148 171 0
127 152 0
147 170 0
157 178 0
135 156 0
142 165 0
128 150 0
127 149 0
164 187 0
157 179 0
132 151 0
135 149 0
167 190 0
131 144 0
114 135 0
153 172 0
140 158 0
133 151 0
136 155 0
134 151 0
138 161 0
143 167 0
111 133 0
138 162 0
149 169 0
150 172 0
156 179 0
102 121 0
161 185 0
138 158 0
130 154 0
158 177 0
153 176 0
146 170 0
157 177 0
154 177 0
142 163 0
156 179 0
163 186 0
151 169 0
146 165 0
163 188 0
132 155 0
155 178 0
143 168 0
142 166 0
157 177 0
137 162 0
160 179 0
150 166 0
140 165 0
148 170 0
155 173 0
163 184 0
151 165 0
156 181 0
132 145 0
152 173 0
154 175 0
167 191 0
155 173 0
154 174 0
160 185 0
143 163 0
140 156 0
153 172 0
160 179 0
160 183 0
146 161 0
148 167 0
148 170 0
150 170 0
108 122 0
158 179 0
166 189 0
168 190 0
125 142 0
138 158 0
138 159 0
146 169 0
138 158 0
164 184 0
164 185 0
142 162 0
153 174 0
153 172 0
161 181 0
129 148 0
139 154 0
169 187 0
120 138 0
150 172 0
152 172 0
154 177 0
139 160 0
135 155 0
166 178 0
165 187 0
145 163 0
163 184 0
118 137 0
156 176 0
150 168 0
135 146 0
132 149 0
138 154 0
141 155 0
152 165 0
121 145 0
140 148 0
154 177 0
160 174 0
150 177 0
125 148 0
140 157 0
143 147 0
156 179 0
131 149 0
159 177 0
132 147 0
135 149 0
128 142 0
147 164 0
160 181 0
154 175 0
157 177 0
133 147 0
133 146 0
142 155 0
155 177 0
151 169 0
160 167 0
114 127 0
129 147 0
165 175 0
135 149 0
135 154 0
145 163 0
153 167 0
151 165 0
160 180 0
153 169 0
142 158 0
159 172 0
132 149 0
148 158 0
150 163 0
160 169 0
176 193 0
143 158 0
147 161 0
159 174 0
154 174 0
155 171 0
144 158 0
149 164 0
166 179 0
157 176 0
145 161 0
148 161 0
160 170 0
144 163 0
140 148 0
164 181 0
133 143 0
157 168 0
172 187 0
162 179 0
169 190 0
155 168 0
142 151 0
157 174 0
167 180 0
154 168 0
165 175 0
160 166 0
169 186 0
140 148 0
166 181 0
135 143 0
171 187 0
143 145 0
159 177 0
151 160 0
130 140 0
162 175 0
162 177 0
150 166 0
158 164 0
157 176 0
152 160 0
163 185 0
167 179 0
122 141 0
159 176 0
166 181 0
151 162 0
160 173 0
157 162 0
151 158 0
151 156 0
155 167 0
158 164 0
163 174 0
168 184 0
159 170 0
148 152 0
158 169 0
158 165 0
162 179 0
158 168 0
154 159 0
137 142 0
160 181 0
156 173 0
160 172 0
163 173 0
155 163 0
159 169 0
166 175 0
172 186 0
146 160 0
162 179 0
166 179 0
160 179 0
173 192 0
161 181 0
153 173 0
164 186 0
161 179 0
153 168 0
158 179 0
142 161 0
154 173 0
155 173 0
163 182 0
161 181 0
156 177 0
147 168 0
164 184 0
166 187 0
161 181 0
165 186 0
162 182 0
161 179 0
172 190 0
158 174 0
147 165 0
152 171 0
159 179 0
170 193 0
154 176 0
152 170 0
155 172 0
157 178 0
155 175 0
156 175 0
137 157 0
147 161 0
163 180 0
165 184 0
159 179 0
176 198 0
154 174 0
157 178 0
150 172 0
165 184 0
138 157 0
151 171 0
163 182 0
160 179 0
154 178 0
149 169 0
171 189 0
168 188 0
166 185 0
163 182 0
162 183 0
152 170 0
160 177 0
143 162 0
144 164 0
165 187 0
166 187 0
147 168 0
158 179 0
141 163 0
150 173 0
145 163 0
142 163 0
165 183 0
172 192 0
145 164 0
152 172 0
132 151 0
138 157 0
157 178 0
151 169 0
149 170 0
171 191 0
165 189 0
132 152 0
155 175 0
130 151 0
151 171 0
142 164 0
165 187 0
148 170 0
159 179 0
166 185 0
163 183 0
164 186 0
142 163 0
141 162 0
142 162 0
145 164 0
141 161 0
144 166 0
150 173 0
147 169 0
149 171 0
165 189 0
144 165 0
157 178 0
157 180 0
155 177 0
159 178 0
163 184 0
147 167 0
161 179 0
151 172 0
154 179 0
138 157 0
154 176 0
172 193 0
141 162 0
151 173 0
151 171 0
160 184 0
135 158 0
111 132 0
149 171 0
164 184 0
131 151 0
145 169 0
142 165 0
150 173 0
138 161 0
139 159 0
163 183 0
159 182 0
160 178 0
160 181 0
152 176 0
153 175 0
156 177 0
156 178 0
151 176 0
136 158 0
154 175 0
156 176 0
130 152 0
125 147 0
132 154 0
152 176 0
157 180 0
168 186 0
148 170 0
145 161 0
159 181 0
149 170 0
147 167 0
163 187 0
147 170 0
125 148 0
149 168 0
136 158 0
155 179 0
154 174 0
146 169 0
168 189 0
149 170 0
138 157 0
130 153 0
162 187 0
157 182 0
135 155 0
164 186 0
121 142 0
134 153 0
132 153 0
141 164 0
135 161 0
131 150 0
145 165 0
158 182 0
130 154 0
160 184 0
160 184 0
151 172 0
142 164 0
146 164 0
165 188 0
154 173 0
149 169 0
149 169 0
157 180 0
133 150 0
142 164 0
152 171 0
149 170 0
132 152 0
169 191 0
157 180 0
167 189 0
169 190 0
147 169 0
135 157 0
156 178 0
140 161 0
151 171 0
146 168 0
133 154 0
158 179 0
156 176 0
127 149 0
113 132 0
137 160 0
174 198 0
150 173 0
142 162 0
149 174 0
155 176 0
134 154 0
143 164 0
153 175 0
146 167 0
136 160 0
138 155 0
103 124 0
143 163 0
127 146 0
137 155 0
115 134 0
159 181 0
170 191 0
146 165 0
155 171 0
140 160 0
148 170 0
142 156 0
148 172 0
139 157 0
148 171 0
156 176 0
161 181 0
152 169 0
131 157 0
137 161 0
136 158 0
164 184 0
152 172 0
151 173 0
138 160 0
131 148 0
142 161 0
151 173 0
153 176 0
160 179 0
164 188 0
154 170 0
163 180 0
151 173 0
161 184 0
158 181 0
143 168 0
83 103 0
153 169 0
157 175 0
137 154 0
150 172 0
152 175 0
129 144 0
139 162 0
142 157 0
158 182 0
146 166 0
145 168 0
155 170 0
131 155 0
161 175 0
155 171 0
153 177 0
142 160 0
154 162 0
144 165 0
145 168 0
132 147 0
146 166 0
139 159 0
158 175 0
146 167 0
171 193 0
140 161 0
153 174 0
167 190 0
138 154 0
161 186 0
147 169 0
153 168 0
153 177 0
132 149 0
145 168 0
121 140 0
161 174 0
159 177 0
122 142 0
165 183 0
147 162 0
152 166 0
163 180 0
156 180 0
167 182 0
135 159 0
167 186 0
152 165 0
138 149 0
144 154 0
158 174 0
155 177 0
167 180 0
151 165 0
165 185 0
148 157 0
150 169 0
160 178 0
151 150 0
159 171 0
164 185 0
150 163 0
126 148 0
161 176 0
143 158 0
155 169 0
154 162 0
162 184 0
164 181 0
143 146 0
163 180 0
168 183 0
152 157 0
153 172 0
104 112 0
162 179 0
167 184 0
162 176 0
175 189 0
171 188 0
152 167 0
161 172 0
164 176 0
156 172 0
173 197 0
146 162 0
147 165 0
168 187 0
163 181 0
155 165 0
168 174 0
146 164 0
134 143 0
119 130 0
158 173 0
152 161 0
151 159 0
153 170 0
138 150 0
148 159 0
140 144 0
161 176 0
159 174 0
147 152 0
157 172 0
155 165 0
152 165 0
157 167 0
154 172 0
148 166 0
167 176 0
161 173 0
163 181 0
163 174 0
162 178 0
163 172 0
170 180 0
136 151 0
156 163 0
155 163 0
152 153 0
169 181 0
174 184 0
173 187 0
164 171 0
161 176 0
165 173 0
164 168 0
154 159 0
156 171 0
165 169 0
173 187 0
152 158 0
167 182 0
155 172 0
166 179 0
174 194 0
159 173 0
166 172 0
164 182 0
146 149 0
164 170 0
171 183 0
156 166 0
168 175 0
160 170 0
163 184 0
155 176 0
165 185 0
156 178 0
166 186 0
169 190 0
142 160 0
148 165 0
173 191 0
167 187 0
154 171 0
158 179 0
169 192 0
157 176 0
169 187 0
162 182 0
170 189 0
165 183 0
153 173 0
148 167 0
158 180 0
152 172 0
167 187 0
166 186 0
168 188 0
148 170 0
163 184 0
159 176 0
154 173 0
143 162 0
167 188 0
156 174 0
171 193 0
166 187 0
168 189 0
161 179 0
158 179 0
160 181 0
137 154 0
156 179 0
151 169 0
145 162 0
148 168 0
163 183 0
130 148 0
166 188 0
140 162 0
156 176 0
141 162 0
162 183 0
149 166 0
140 161 0
156 174 0
150 169 0
156 177 0
163 186 0
160 177 0
146 170 0
149 171 0
150 173 0
159 178 0
161 181 0
164 185 0
146 165 0
151 173 0
152 172 0
150 172 0
154 173 0
144 164 0
152 173 0
160 180 0
166 183 0
165 185 0
162 186 0
129 149 0
148 167 0
157 177 0
175 196 0
167 191 0
126 145 0
152 172 0
164 183 0
126 146 0
145 165 0
141 162 0
145 166 0
162 183 0
147 165 0
134 152 0
163 186 0
160 182 0
137 158 0
161 184 0
138 158 0
142 161 0
137 160 0
151 176 0
115 134 0
140 162 0
137 156 0
145 166 0
156 179 0
151 173 0
135 153 0
134 153 0
153 176 0
144 166 0
154 176 0
148 174 0
158 180 0
142 159 0
164 183 0
143 166 0
147 169 0
141 164 0
162 186 0
151 174 0
147 166 0
144 169 0
142 165 0
135 157 0
155 177 0
163 187 0
159 180 0
149 170 0
153 178 0
162 186 0
126 143 0
177 199 0
143 165 0
138 157 0
154 175 0
137 158 0
108 121 0
150 174 0
134 156 0
152 172 0
165 189 0
151 174 0
157 177 0
160 182 0
151 176 0
166 189 0
154 176 0
135 155 0
156 178 0
136 157 0
140 163 0
171 195 0
155 175 0
132 151 0
150 175 0
107 120 0
152 173 0
141 164 0
144 168 0
125 147 0
142 164 0
143 167 0
157 180 0
159 181 0
148 169 0
176 198 0
128 149 0
155 178 0
136 159 0
152 173 0
112 132 0
147 164 0
132 154 0
152 177 0
150 174 0
166 186 0
128 147 0
154 179 0
163 186 0
156 178 0
153 176 0
153 177 0
136 159 0
136 156 0
137 158 0
128 149 0
122 146 0
156 176 0
159 179 0
149 171 0
145 165 0
135 157 0
139 158 0
111 133 0
123 145 0
150 170 0
153 178 0
153 172 0
137 160 0
143 165 0
163 184 0
150 176 0
139 164 0
165 192 0
135 158 0
135 157 0
140 161 0
159 181 0
145 169 0
142 166 0
153 177 0
127 145 0
131 150 0
167 186 0
142 167 0
158 177 0
128 147 0
127 150 0
136 161 0
149 169 0
141 164 0
153 175 0
156 180 0
145 167 0
132 149 0
155 175 0
131 151 0
162 186 0
148 172 0
154 174 0
166 188 0
164 186 0
133 148 0
128 151 0
138 151 0
153 173 0
155 178 0
132 156 0
154 175 0
153 171 0
155 179 0
141 164 0
141 161 0
145 166 0
147 170 0
170 192 0
157 180 0
154 174 0
130 152 0
160 183 0
119 130 0
141 156 0
163 187 0
154 174 0
150 170 0
172 193 0
138 153 0
161 183 0
129 151 0
137 152 0
158 180 0
145 162 0
171 192 0
146 169 0
159 182 0
148 170 0
151 171 0
160 176 0
161 182 0
148 165 0
164 186 0
155 176 0
152 173 0
170 188 0
153 175 0
154 172 0
136 154 0
145 164 0
137 157 0
163 184 0
160 184 0
164 185 0
143 156 0
130 150 0
151 164 0
163 186 0
140 156 0
149 172 0
152 173 0
151 168 0
149 167 0
147 161 0
148 171 0
146 163 0
160 176 0
126 136 0
135 150 0
158 177 0
154 163 0
147 166 0
162 184 0
138 156 0
152 171 0
172 197 0
145 164 0
167 183 0
138 149 0
133 152 0
152 173 0
165 176 0
160 175 0
165 180 0
154 172 0
161 182 0
153 164 0
166 186 0
165 179 0
159 175 0
139 155 0
154 156 0
137 152 0
174 191 0
136 156 0
175 191 0
130 140 0
165 188 0
154 171 0
156 170 0
146 159 0
164 183 0
148 169 0
143 159 0
146 157 0
161 183 0
117 128 0
155 171 0
160 184 0
164 180 0
119 123 0
162 179 0
162 177 0
134 141 0
162 174 0
174 192 0
159 171 0
133 145 0
166 182 0
161 171 0
127 135 0
151 158 0
144 156 0
161 174 0
158 175 0
151 153 0
155 165 0
159 170 0
167 184 0
157 167 0
145 154 0
169 188 0
152 158 0
136 143 0
161 178 0
160 181 0
148 160 0
154 166 0
151 152 0
148 157 0
163 179 0
141 147 0
156 167 0
134 139 0
173 189 0
170 181 0
171 189 0
158 161 0
141 161 0
159 171 0
162 170 0
166 181 0
160 175 0
160 183 0
152 148 0
155 164 0
154 165 0
157 170 0
152 158 0
155 160 0
149 170 0
153 164 0
149 159 0
165 181 0
166 179 0
161 175 0
143 146 0
159 174 0
163 170 0
162 181 0
165 180 0
150 166 0
162 175 0
161 167 0
160 174 0
167 187 0
138 155 0
151 170 0
150 169 0
159 179 0
153 172 0
148 169 0
149 168 0
166 187 0
153 170 0
158 178 0
151 171 0
170 189 0
143 163 0
159 174 0
162 180 0
155 177 0
164 183 0
167 186 0
149 168 0
157 176 0
146 164 0
167 185 0
164 183 0
152 174 0
160 180 0
155 174 0
164 187 0
150 170 0
167 188 0
152 172 0
154 176 0
157 178 0
159 179 0
149 170 0
167 190 0
122 140 0
172 195 0
155 173 0
145 164 0
158 181 0
158 180 0
150 170 0
157 175 0
158 176 0
143 163 0
149 171 0
163 181 0
158 180 0
152 176 0
162 183 0
163 184 0
166 187 0
163 183 0
151 170 0
149 170 0
168 188 0
171 191 0
159 180 0
143 164 0
125 144 0
154 176 0
167 190 0
176 196 0
171 195 0
168 191 0
163 185 0
159 182 0
142 163 0
146 167 0
164 187 0
140 161 0
172 194 0
167 188 0
145 166 0
134 154 0
149 168 0
147 168 0
169 192 0
126 141 0
158 177 0
156 179 0
134 150 0
152 175 0
147 168 0
151 172 0
137 161 0
149 169 0
155 179 0
163 184 0
142 163 0
139 159 0
146 168 0
117 131 0
169 190 0
134 155 0
149 171 0
156 181 0
161 181 0
144 166 0
165 188 0
170 191 0
111 127 0
158 179 0
165 185 0
148 172 0
150 173 0
130 151 0
154 177 0
135 155 0
170 189 0
148 171 0
141 162 0
149 173 0
160 181 0
164 184 0
149 172 0
159 182 0
162 183 0
142 161 0
153 174 0
159 177 0
162 182 0
161 185 0
146 169 0
145 169 0
146 167 0
144 162 0
112 130 0
164 181 0
154 179 0
164 186 0
168 185 0
157 179 0
161 184 0
151 169 0
176 197 0
161 183 0
114 134 0
156 179 0
166 186 0
147 166 0
157 178 0
166 186 0
133 156 0
153 175 0
141 162 0
149 168 0
168 185 0
165 190 0
160 182 0
104 125 0
160 182 0
131 151 0
163 186 0
170 194 0
150 171 0
147 168 0
163 187 0
171 193 0
158 177 0
179 200 0
161 182 0
127 148 0
150 165 0
131 150 0
141 168 0
166 187 0
158 171 0
138 160 0
127 150 0
134 155 0
153 172 0
146 169 0
134 155 0
111 135 0
157 180 0
156 177 0
140 161 0
151 174 0
162 185 0
137 160 0
112 132 0
166 189 0
157 177 0
145 166 0
160 181 0
146 166 0
113 129 0
157 180 0
149 170 0
145 164 0
151 173 0
150 170 0
148 166 0
133 153 0
156 170 0
162 186 0
137 159 0
169 186 0
147 168 0
143 164 0
143 163 0
152 172 0
160 183 0
153 176 0
134 154 0
152 175 0
149 169 0
155 172 0
160 185 0
130 149 0
162 187 0
137 153 0
155 179 0
153 175 0
155 177 0
169 191 0
145 170 0
133 149 0
162 180 0
160 178 0
156 179 0
151 169 0
161 182 0
152 176 0
145 170 0
141 163 0
144 161 0
141 165 0
167 187 0
162 182 0
136 159 0
134 155 0
140 159 0
154 177 0
149 175 0
122 134 0
152 173 0
135 151 0
150 171 0
163 183 0
164 185 0
167 187 0
145 169 0
147 168 0
160 179 0
127 144 0
165 184 0
156 179 0
125 148 0
156 179 0
128 149 0
158 172 0
125 148 0
141 164 0
134 148 0
143 165 0
128 150 0
150 171 0
157 176 0
147 167 0
145 164 0
145 157 0
154 169 0
156 179 0
171 193 0
144 164 0
133 155 0
156 171 0
151 166 0
159 181 0
154 178 0
142 163 0
128 143 0
162 186 0
155 166 0
144 168 0
143 161 0
160 182 0
133 153 0
146 169 0
125 136 0
152 169 0
173 197 0
134 152 0
157 175 0
143 166 0
152 166 0
152 169 0
158 179 0
158 175 0
129 139 0
142 163 0
142 161 0
149 161 0
154 168 0
145 160 0
169 179 0
141 152 0
153 172 0
165 177 0
143 161 0
142 163 0
147 160 0
155 171 0
164 177 0
153 169 0
136 147 0
143 158 0
136 156 0
170 189 0
164 185 0
169 188 0
138 158 0
135 153 0
152 161 0
127 145 0
155 175 0
151 164 0
148 167 0
148 166 0
159 176 0
139 158 0
159 169 0
168 182 0
138 155 0
167 186 0
165 185 0
159 172 0
165 185 0
169 183 0
161 179 0
149 163 0
161 175 0
152 165 0
172 190 0
137 146 0
167 179 0
141 147 0
146 164 0
120 134 0
163 172 0
161 171 0
153 163 0
162 176 0
154 172 0
172 180 0
148 164 0
157 170 0
161 177 0
167 180 0
171 182 0
173 183 0
157 170 0
160 171 0
143 154 0
177 192 0
153 172 0
161 170 0
159 176 0
159 178 0
155 165 0
154 165 0
138 152 0
164 173 0
143 152 0
163 176 0
149 161 0
155 170 0
151 161 0
159 172 0
172 184 0
168 176 0
141 150 0
168 177 0
154 162 0
157 174 0
159 172 0
155 170 0
155 158 0
150 162 0
170 189 0
155 156 0
173 183 0
166 181 0
151 162 0
136 147 0
144 154 0
163 176 0
166 181 0
149 155 0
180 195 0
165 177 0
172 188 0
162 179 0
161 168 0
137 143 0
164 163 0
171 181 0
177 197 0
150 169 0
167 186 0
145 166 0
158 177 0
156 172 0
168 189 0
167 188 0
173 194 0
163 186 0
152 171 0
162 181 0
156 177 0
174 196 0
168 186 0
157 179 0
135 154 0
155 173 0
158 177 0
155 174 0
161 183 0
153 173 0
145 167 0
160 183 0
148 168 0
118 132 0
145 161 0
150 170 0
167 191 0
154 173 0
141 156 0
160 177 0
165 187 0
163 181 0
153 173 0
137 156 0
142 162 0
153 172 0
165 184 0
164 183 0
156 171 0
162 181 0
165 185 0
160 183 0
155 174 0
158 178 0
156 180 0
153 172 0
170 192 0
144 165 0
158 179 0
166 189 0
149 169 0
166 189 0
168 186 0
150 170 0
150 172 0
122 137 0
178 198 0
149 172 0
163 182 0
149 170 0
156 177 0
140 158 0
146 168 0
145 168 0
141 159 0
162 184 0
169 188 0
136 155 0
125 145 0
126 144 0
170 192 0
170 193 0
168 189 0
170 191 0
150 175 0
130 151 0
139 158 0
136 157 0
152 170 0
162 180 0
155 177 0
162 184 0
149 171 0
143 164 0
160 182 0
161 182 0
162 185 0
150 172 0
158 183 0
152 174 0
168 191 0
143 167 0
149 172 0
138 158 0
167 187 0
165 186 0
159 180 0
140 162 0
163 179 0
154 178 0
153 173 0
122 147 0
148 169 0
127 148 0
158 182 0
165 184 0
162 185 0
141 164 0
154 172 0
133 155 0
135 158 0
159 180 0
124 145 0
150 174 0
151 175 0
138 162 0
157 178 0
149 169 0
147 165 0
144 165 0
125 140 0
122 142 0
153 169 0
151 175 0
149 170 0
124 145 0
155 176 0
163 187 0
166 190 0
145 168 0
162 180 0
161 183 0
157 178 0
158 182 0
159 179 0
103 125 0
162 185 0
134 154 0
137 156 0
171 191 0
144 166 0
162 184 0
162 185 0
162 187 0
174 196 0
147 171 0
121 140 0
135 158 0
163 185 0
135 157 0
163 184 0
134 160 0
152 174 0
147 169 0
152 176 0
133 157 0
145 169 0
133 159 0
141 162 0
162 186 0
142 163 0
167 188 0
156 180 0
147 169 0
160 181 0
131 152 0
138 160 0
134 156 0
123 143 0
154 176 0
159 180 0
138 156 0
133 151 0
178 200 0
126 145 0
152 172 0
165 188 0
142 162 0
156 181 0
146 167 0
152 175 0
145 165 0
130 152 0
146 171 0
123 146 0
130 155 0
143 161 0
141 166 0
106 128 0
153 176 0
149 171 0
148 171 0
141 161 0
165 185 0
170 191 0
149 172 0
159 181 0
143 162 0
135 156 0
156 176 0
151 174 0
154 175 0
129 151 0
143 165 0
144 164 0
159 180 0
162 186 0
147 170 0
121 137 0
127 146 0
146 165 0
122 141 0
154 176 0
143 165 0
150 167 0
125 147 0
127 145 0
154 177 0
157 180 0
168 190 0
141 159 0
163 185 0
153 167 0
157 179 0
142 163 0
142 162 0
122 146 0
156 178 0
156 174 0
166 188 0
141 164 0
112 135 0
159 177 0
147 165 0
134 150 0
162 185 0
153 175 0
131 151 0
164 184 0
145 167 0
146 167 0
138 161 0
157 179 0
148 168 0
155 172 0
144 164 0
165 188 0
142 166 0
138 158 0
161 181 0
131 150 0
139 160 0
153 171 0
132 153 0
161 179 0
150 166 0
150 164 0
155 175 0
130 149 0
144 163 0
131 144 0
156 174 0
145 165 0
157 179 0
156 175 0
143 160 0
131 152 0
130 151 0
147 168 0
164 187 0
153 164 0
151 172 0
161 183 0
157 180 0
156 172 0
155 172 0
146 167 0
163 185 0
130 150 0
165 189 0
144 159 0
171 189 0
170 192 0
134 155 0
139 153 0
150 168 0
143 149 0
144 157 0
151 170 0
159 180 0
158 174 0
141 153 0
161 180 0
153 173 0
167 186 0
152 176 0
161 182 0
144 164 0
152 163 0
174 191 0
151 167 0
152 169 0
155 164 0
165 177 0
134 157 0
148 165 0
161 182 0
161 181 0
166 186 0
157 177 0
160 180 0
139 148 0
144 165 0
171 189 0
151 165 0
166 181 0
160 179 0
158 179 0
152 167 0
161 181 0
153 174 0
162 181 0
145 164 0
140 142 0
124 142 0
135 154 0
141 159 0
147 163 0
149 162 0
147 155 0
140 156 0
151 168 0
150 166 0
156 177 0
147 157 0
149 163 0
162 177 0
146 165 0
148 159 0
144 160 0
145 148 0
147 156 0
155 156 0
155 163 0
151 164 0
177 196 0
147 151 0
161 170 0
166 183 0
160 176 0
169 179 0
154 171 0
164 182 0
155 165 0
165 179 0
164 178 0
144 152 0
167 180 0
170 186 0
146 157 0
164 181 0
154 170 0
139 150 0
136 149 0
141 158 0
145 144 0
170 189 0
160 178 0
145 158 0
156 164 0
135 147 0
160 178 0
156 167 0
170 186 0
147 160 0
146 157 0
165 173 0
150 160 0
168 182 0
154 158 0
153 165 0
157 170 0
172 185 0
154 162 0
160 163 0
162 175 0
152 162 0
164 171 0
169 184 0
163 172 0
172 189 0
158 167 0
165 178 0
167 173 0
154 166 0
159 166 0
158 172 0
170 181 0
137 156 0
158 180 0
161 183 0
171 192 0
166 186 0
178 197 0
127 145 0
161 182 0
154 173 0
152 172 0
168 189 0
169 189 0
151 170 0
165 182 0
139 158 0
156 178 0
149 166 0
160 179 0
155 177 0
172 194 0
165 187 0
164 186 0
162 183 0
160 177 0
157 176 0
159 175 0
155 173 0
163 181 0
155 175 0
159 178 0
159 176 0
157 178 0
146 165 0
164 184 0
163 185 0
153 171 0
155 175 0
167 184 0
144 165 0
149 169 0
126 144 0
172 194 0
160 179 0
151 169 0
166 184 0
164 186 0
151 173 0
151 174 0
164 187 0
147 167 0
152 174 0
168 192 0
158 179 0
164 186 0
169 187 0
148 167 0
169 189 0
154 178 0
154 175 0
160 184 0
146 165 0
170 190 0
132 149 0
171 194 0
154 176 0
132 152 0
167 187 0
154 175 0
144 166 0
144 167 0
173 197 0
173 195 0
150 166 0
158 178 0
153 174 0
152 170 0
154 179 0
159 181 0
152 173 0
163 185 0
147 172 0
155 174 0
139 158 0
124 143 0
157 181 0
129 145 0
152 175 0
177 198 0
140 160 0
139 161 0
165 187 0
163 185 0
164 185 0
101 118 0
136 156 0
160 183 0
155 180 0
161 183 0
134 154 0
155 175 0
151 175 0
139 155 0
155 178 0
158 179 0
143 166 0
171 193 0
145 167 0
152 175 0
144 163 0
150 172 0
166 188 0
156 178 0
156 180 0
165 186 0
165 190 0
152 175 0
168 186 0
134 152 0
155 178 0
167 188 0
138 160 0
134 154 0
160 180 0
137 157 0
145 168 0
162 185 0
141 164 0
145 165 0
166 186 0
154 176 0
157 176 0
162 187 0
164 184 0
147 168 0
153 176 0
157 179 0
154 176 0
118 139 0
160 184 0
136 156 0
142 161 0
139 158 0
144 163 0
150 170 0
146 165 0
149 172 0
156 180 0
126 145 0
145 170 0
151 174 0
162 184 0
118 138 0
156 174 0
144 165 0
149 167 0
154 177 0
151 174 0
146 166 0
146 169 0
156 174 0
161 183 0
152 171 0
153 173 0
131 153 0
175 198 0
166 188 0
160 180 0
157 184 0
131 154 0
152 172 0
161 180 0
159 182 0
140 161 0
149 172 0
133 157 0
158 180 0
142 164 0
139 161 0
146 169 0
155 172 0
126 148 0
156 179 0
126 145 0
155 177 0
152 178 0
141 160 0
150 175 0
159 180 0
133 155 0
153 172 0
142 163 0
152 175 0
146 169 0
139 161 0
168 189 0
156 181 0
148 171 0
154 175 0
119 141 0
164 184 0
146 166 0
145 161 0
171 193 0
162 185 0
151 171 0
153 173 0
157 182 0
155 180 0
154 177 0
174 198 0
117 141 0
129 150 0
160 182 0
162 183 0
156 179 0
138 158 0
127 139 0
156 178 0
165 188 0
137 157 0
155 178 0
147 164 0
158 181 0
165 189 0
163 188 0
158 180 0
144 164 0
158 178 0
151 174 0
142 164 0
140 162 0
138 162 0
137 159 0
151 174 0
161 182 0
161 180 0
161 182 0
140 161 0
171 190 0
136 158 0
157 177 0
154 176 0
163 185 0
153 178 0
144 165 0
135 154 0
151 173 0
134 158 0
151 172 0
94 109 0
145 162 0
138 153 0
160 178 0
136 155 0
168 190 0
109 128 0
133 152 0
142 160 0
139 160 0
144 166 0
174 194 0
114 132 0
156 179 0
143 163 0
167 186 0
139 153 0
152 165 0
141 161 0
148 166 0
163 184 0
132 151 0
144 169 0
145 163 0
125 143 0
168 186 0
136 155 0
138 154 0
150 168 0
154 172 0
141 160 0
173 195 0
140 162 0
128 142 0
149 171 0
156 176 0
150 169 0
148 168 0
135 150 0
148 165 0
131 144 0
155 175 0
139 159 0
133 153 0
157 178 0
115 137 0
136 156 0
144 165 0
154 173 0
154 174 0
134 143 0
157 172 0
145 166 0
165 188 0
146 165 0
154 166 0
163 179 0
161 179 0
149 170 0
138 161 0
151 170 0
171 192 0
165 182 0
175 198 0
150 170 0
130 140 0
132 156 0
137 152 0
144 163 0
157 171 0
163 179 0
141 156 0
137 152 0
147 166 0
166 184 0
153 174 0
156 171 0
109 111 0
155 178 0
152 171 0
154 171 0
171 190 0
134 151 0
162 176 0
123 126 0
144 160 0
157 168 0
156 175 0
163 178 0
152 168 0
163 170 0
148 163 0
162 182 0
164 181 0
149 163 0
157 172 0
162 179 0
154 165 0
176 192 0
158 165 0
163 176 0
148 160 0
158 172 0
154 169 0
153 161 0
158 168 0
171 185 0
163 180 0
142 157 0
159 165 0
124 142 0
157 172 0
145 158 0
163 181 0
155 164 0
157 176 0
149 147 0
153 167 0
169 182 0
165 184 0
166 189 0
161 171 0
149 169 0
158 164 0
156 168 0
159 170 0
156 172 0
162 167 0
157 168 0
152 159 0
139 149 0
165 181 0
158 173 0
163 178 0
167 178 0
166 175 0
149 159 0
153 167 0
160 172 0
141 153 0
159 176 0
160 173 0
164 178 0
171 192 0
155 172 0
161 161 0
149 156 0
157 165 0
156 176 0
159 173 0
161 177 0
159 178 0
158 178 0
156 175 0
169 191 0
167 188 0
176 198 0
157 179 0
169 191 0
170 191 0
162 182 0
157 177 0
149 169 0
159 180 0
173 193 0
146 167 0
149 171 0
154 177 0
159 176 0
154 169 0
170 191 0
171 193 0
144 161 0
145 165 0
148 169 0
165 183 0
170 189 0
155 175 0
150 167 0
160 183 0
166 187 0
163 185 0
150 165 0
146 166 0
156 177 0
160 182 0
146 166 0
147 165 0
154 174 0
147 163 0
153 176 0
167 191 0
169 187 0
136 159 0
164 187 0
155 176 0
153 173 0
158 177 0
157 179 0
143 164 0
155 175 0
160 182 0
158 178 0
151 170 0
132 153 0
164 186 0
159 181 0
124 140 0
164 186 0
142 166 0
149 171 0
170 190 0
171 194 0
141 162 0
147 164 0
148 166 0
130 148 0
163 184 0
139 161 0
138 162 0
163 188 0
167 188 0
152 178 0
158 173 0
166 187 0
143 163 0
172 193 0
129 152 0
166 187 0
162 182 0
158 178 0
169 191 0
161 182 0
165 189 0
151 173 0
155 176 0
155 178 0
159 182 0
136 159 0
135 150 0
146 165 0
150 172 0
167 187 0
160 184 0
166 181 0
153 173 0
135 155 0
137 155 0
103 126 0
164 187 0
159 178 0
152 172 0
158 180 0
135 158 0
157 181 0
153 175 0
144 166 0
148 168 0
155 177 0
148 170 0
170 192 0
170 190 0
153 175 0
149 170 0
169 192 0
134 156 0
158 183 0
141 162 0
162 185 0
143 167 0
163 187 0
150 171 0
145 167 0
141 154 0
162 182 0
154 178 0
136 159 0
157 181 0
145 169 0
153 176 0
149 172 0
149 167 0
143 165 0
156 178 0
152 175 0
158 178 0
152 174 0
169 192 0
153 179 0
159 179 0
125 141 0
125 143 0
159 179 0
158 179 0
161 182 0
123 144 0
155 179 0
129 152 0
119 140 0
154 171 0
149 174 0
132 157 0
134 154 0
149 166 0
150 172 0
148 172 0
173 195 0
165 185 0
153 178 0
141 165 0
158 181 0
156 176 0
134 155 0
157 180 0
136 161 0
148 171 0
146 169 0
168 190 0
115 134 0
146 158 0
112 135 0
152 175 0
133 153 0
134 156 0
133 158 0
171 195 0
156 179 0
152 177 0
144 164 0
134 155 0
153 173 0
157 179 0
121 144 0
134 158 0
131 151 0
174 192 0
138 160 0
162 186 0
163 184 0
147 169 0
113 135 0
156 176 0
162 186 0
125 149 0
156 175 0
157 179 0
132 152 0
144 165 0
165 185 0
142 163 0
157 173 0
156 173 0
147 168 0
145 164 0
146 165 0
153 170 0
158 177 0
155 178 0
158 181 0
153 174 0
140 163 0
148 169 0
136 153 0
170 188 0
165 186 0
165 184 0
164 188 0
152 176 0
148 166 0
143 162 0
155 178 0
164 184 0
141 158 0
149 171 0
160 185 0
156 176 0
134 152 0
126 147 0
140 159 0
155 173 0
164 183 0
169 189 0
124 144 0
159 185 0
133 148 0
167 185 0
137 155 0
150 170 0
153 175 0
162 184 0
137 154 0
155 171 0
127 149 0
153 166 0
128 146 0
164 179 0
138 153 0
164 188 0
137 161 0
145 166 0
158 180 0
158 179 0
143 163 0
170 192 0
131 151 0
125 141 0
164 182 0
145 164 0
135 160 0
143 162 0
129 145 0
144 166 0
158 185 0
135 156 0
134 152 0
156 179 0
130 150 0
148 168 0
125 148 0
145 164 0
170 194 0
153 169 0
166 189 0
145 170 0
139 149 0
140 163 0
147 170 0
161 173 0
155 178 0
155 175 0
148 169 0
162 179 0
152 174 0
142 155 0
169 187 0
153 171 0
154 169 0
157 178 0
147 170 0
127 147 0
154 172 0
162 179 0
154 178 0
143 159 0
161 178 0
150 164 0
154 175 0
172 190 0
159 180 0
158 178 0
166 180 0
146 166 0
157 179 0
154 178 0
162 184 0
154 168 0
148 165 0
166 181 0
157 173 0
164 185 0
153 177 0
160 182 0
156 179 0
157 177 0
128 141 0
161 183 0
157 174 0
161 176 0
159 173 0
160 183 0
154 172 0
145 161 0
163 185 0
152 171 0
131 147 0
154 173 0
165 186 0
156 173 0
134 144 0
166 178 0
170 193 0
145 154 0
163 179 0
152 162 0
155 163 0
163 176 0
149 164 0
163 180 0
160 167 0
105 116 0
145 155 0
149 160 0
166 183 0
155 169 0
170 184 0
159 178 0
157 164 0
148 155 0
166 186 0
171 186 0
170 186 0
164 181 0
171 191 0
155 166 0
163 170 0
116 127 0
172 183 0
149 159 0
158 167 0
169 185 0
162 171 0
159 172 0
153 170 0
155 167 0
154 162 0
149 150 0
151 164 0
149 163 0
179 194 0
150 165 0
160 170 0
157 166 0
158 169 0
147 154 0
152 167 0
162 174 0
153 161 0
161 172 0
164 185 0
160 174 0
156 175 0
156 167 0
144 154 0
175 188 0
159 169 0
170 190 0
159 173 0
152 173 0
163 173 0
164 174 0
149 160 0
156 168 0
153 164 0
154 166 0
160 175 0
169 185 0
163 173 0
161 174 0
149 169 0
156 171 0
158 175 0
157 174 0
151 170 0
138 156 0
153 172 0
156 174 0
136 156 0
159 179 0
153 177 0
157 176 0
144 160 0
170 190 0
162 183 0
182 198 0
150 170 0
158 177 0
141 159 0
166 186 0
166 189 0
161 182 0
149 170 0
162 180 0
155 176 0
164 184 0
135 157 0
145 165 0
161 181 0
154 173 0
156 175 0
148 166 0
161 182 0
154 174 0
147 170 0
170 192 0
132 153 0
151 172 0
138 153 0
139 158 0
165 186 0
142 162 0
142 161 0
116 133 0
149 168 0
169 191 0
165 186 0
135 155 0
161 183 0
148 164 0
144 166 0
155 177 0
140 160 0
160 181 0
162 182 0
160 179 0
170 188 0
142 164 0
171 189 0
145 166 0
150 169 0
152 172 0
159 181 0
160 179 0
157 177 0
152 174 0
159 183 0
139 161 0
152 173 0
164 185 0
179 200 0
158 180 0
152 176 0
156 181 0
153 176 0
152 173 0
154 176 0
152 173 0
155 179 0
137 156 0
150 171 0
152 174 0
152 172 0
159 179 0
142 166 0
146 169 0
161 181 0
140 158 0
146 167 0
153 172 0
155 173 0
145 170 0
148 167 0
155 177 0
151 174 0
146 169 0
164 187 0
128 150 0
151 174 0
145 167 0
166 188 0
155 176 0
161 184 0
161 183 0
150 174 0
158 178 0
133 157 0
157 179 0
171 194 0
116 134 0
162 187 0
160 181 0
170 192 0
152 173 0
172 194 0
150 172 0
150 174 0
148 173 0
153 175 0
167 192 0
134 152 0
148 172 0
156 183 0
147 171 0
146 169 0
160 185 0
161 178 0
150 175 0
173 194 0
139 162 0
147 169 0
136 159 0
128 150 0
138 159 0
170 196 0
162 185 0
146 168 0
168 190 0
162 185 0
146 168 0
154 175 0
162 180 0
130 152 0
152 174 0
153 172 0
147 170 0
161 186 0
138 162 0
157 179 0
151 173 0
148 167 0
165 188 0
118 141 0
158 174 0
149 175 0
132 154 0
157 179 0
148 170 0
169 193 0
174 198 0
153 179 0
139 160 0
139 161 0
133 153 0
135 160 0
146 169 0
152 174 0
147 166 0
155 179 0
125 146 0
148 168 0
166 186 0
154 172 0
146 166 0
116 136 0
146 165 0
132 156 0
134 156 0
144 168 0
122 144 0
145 168 0
157 179 0
132 152 0
154 176 0
143 164 0
140 161 0
147 167 0
125 147 0
136 156 0
162 184 0
136 159 0
124 143 0
144 167 0
152 173 0
142 163 0
153 174 0
110 130 0
161 186 0
159 181 0
153 174 0
151 171 0
159 182 0
164 184 0
165 185 0
137 161 0
108 129 0
147 163 0
123 143 0
149 171 0
144 162 0
156 176 0
150 174 0
159 182 0
133 148 0
144 163 0
135 159 0
157 176 0
143 160 0
137 161 0
137 156 0
135 156 0
147 170 0
137 157 0
142 166 0
157 178 0
169 195 0
156 178 0
163 176 0
146 162 0
155 176 0
169 191 0
156 178 0
152 169 0
134 157 0
158 176 0
132 153 0
135 156 0
150 164 0
130 151 0
161 187 0
126 146 0
145 160 0
162 184 0
122 139 0
164 189 0
159 177 0
155 171 0
138 156 0
155 178 0
132 155 0
164 184 0
166 184 0
161 180 0
164 187 0
140 165 0
138 161 0
172 192 0
162 183 0
155 179 0
153 177 0
164 183 0
168 193 0
150 174 0
164 182 0
101 122 0
150 172 0
157 175 0
158 181 0
162 182 0
168 187 0
119 135 0
144 164 0
137 153 0
138 148 0
162 183 0
149 169 0
168 190 0
128 142 0
156 177 0
152 171 0
152 163 0
145 161 0
161 180 0
150 167 0
160 176 0
165 182 0
134 153 0
154 168 0
139 161 0
156 175 0
158 174 0
142 159 0
159 177 0
132 145 0
150 171 0
148 167 0
150 166 0
169 183 0
136 156 0
149 169 0
153 170 0
140 155 0
157 176 0
159 171 0
161 182 0
171 191 0
167 189 0
156 172 0
163 180 0
160 179 0
168 188 0
133 143 0
129 148 0
162 180 0
133 148 0
158 177 0
160 180 0
155 158 0
155 169 0
156 170 0
159 177 0
156 176 0
131 143 0
168 189 0
149 166 0
148 166 0
146 158 0
151 166 0
139 156 0
153 170 0
148 165 0
143 161 0
163 182 0
125 138 0
149 172 0
145 154 0
162 176 0
156 169 0
158 173 0
155 172 0
144 158 0
165 178 0
145 157 0
130 143 0
150 162 0
151 158 0
153 174 0
144 162 0
156 177 0
169 188 0
150 162 0
140 150 0
162 173 0
166 184 0
167 174 0
134 146 0
168 183 0
170 187 0
161 174 0
150 154 0
170 190 0
140 153 0
150 168 0
162 171 0
151 166 0
163 172 0
157 171 0
142 154 0
160 171 0
162 170 0
149 166 0
172 190 0
167 180 0
149 160 0
164 177 0
167 183 0
154 166 0
152 164 0
159 170 0
148 165 0
152 165 0
169 188 0
157 172 0
164 180 0
165 176 0
164 172 0
161 172 0
164 176 0
150 164 0
169 187 0
147 164 0
160 167 0
152 159 0
147 148 0
173 187 0
149 165 0
165 181 0
167 183 0
156 170 0
153 166 0
164 171 0
140 150 0
158 168 0
157 179 0
162 181 0
170 192 0
158 181 0
163 183 0
155 176 0
152 173 0
157 177 0
147 166 0
165 186 0
163 185 0
148 169 0
159 180 0
143 161 0
142 160 0
166 185 0
172 191 0
160 181 0
139 156 0
156 178 0
168 188 0
155 174 0
167 186 0
163 179 0
132 154 0
156 179 0
160 181 0
167 189 0
141 160 0
135 153 0
164 185 0
168 184 0
160 182 0
173 196 0
164 188 0
155 178 0
131 151 0
142 162 0
152 171 0
138 154 0
153 174 0
156 176 0
148 172 0
163 184 0
169 191 0
150 170 0
144 161 0
162 185 0
151 171 0
149 166 0
156 175 0
143 165 0
154 175 0
121 139 0
165 189 0
158 176 0
154 175 0
156 177 0
166 189 0
155 177 0
145 165 0
150 171 0
145 165 0
140 163 0
150 169 0
129 151 0
158 177 0
147 167 0
147 168 0
150 171 0
167 190 0
155 177 0
150 170 0
162 185 0
152 174 0
158 176 0
137 158 0
161 185 0
154 179 0
147 169 0
151 173 0
122 140 0
152 173 0
158 179 0
147 169 0
149 170 0
144 165 0
147 167 0
168 190 0
143 162 0
141 163 0
156 178 0
164 186 0
172 196 0
160 178 0
152 171 0
159 180 0
156 178 0
156 173 0
160 183 0
164 187 0
150 168 0
150 172 0
121 143 0
149 168 0
157 177 0
155 176 0
168 190 0
148 173 0
157 178 0
166 191 0
147 169 0
168 193 0
164 188 0
152 173 0
160 183 0
149 175 0
136 155 0
147 169 0
135 146 0
156 180 0
150 171 0
153 175 0
148 171 0
158 181 0
144 167 0
129 148 0
161 186 0
160 181 0
146 168 0
148 169 0
147 160 0
155 180 0
140 162 0
156 177 0
159 177 0
149 161 0
160 179 0
133 154 0
154 175 0
150 168 0
162 186 0
137 159 0
153 169 0
160 183 0
168 188 0
162 183 0
136 158 0
145 166 0
154 174 0
122 144 0
146 168 0
152 173 0
151 171 0
135 157 0
148 171 0
139 161 0
156 179 0
129 155 0
160 184 0
159 180 0
109 131 0
164 186 0
136 161 0
151 176 0
141 163 0
137 162 0
116 133 0
150 173 0
147 169 0
130 149 0
179 200 0
153 175 0
163 187 0
149 169 0
150 174 0
128 154 0
138 153 0
147 170 0
151 169 0
136 157 0
156 179 0
168 187 0
145 168 0
157 179 0
123 148 0
140 164 0
153 174 0
146 169 0
174 198 0
147 169 0
162 186 0
158 179 0
128 153 0
134 159 0
142 163 0
135 154 0
160 181 0
115 139 0
113 133 0
151 170 0
144 168 0
135 154 0
142 163 0
143 161 0
163 187 0
139 160 0
171 195 0
149 170 0
136 154 0
126 149 0
140 160 0
131 152 0
163 180 0
162 185 0
157 178 0
129 150 0
124 147 0
128 150 0
142 158 0
157 178 0
137 155 0
153 173 0
159 172 0
150 166 0
154 174 0
144 167 0
150 165 0
129 145 0
123 146 0
155 178 0
167 190 0
166 187 0
134 153 0
155 178 0
142 169 0
163 188 0
150 174 0
155 172 0
135 159 0
161 186 0
118 134 0
131 151 0
167 189 0
161 177 0
153 169 0
166 186 0
146 169 0
144 162 0
151 167 0
169 192 0
145 165 0
143 162 0
154 177 0
154 174 0
153 172 0
159 175 0
138 152 0
139 159 0
141 156 0
116 137 0
139 158 0
171 196 0
144 163 0
163 188 0
156 170 0
147 169 0
146 163 0
168 187 0
148 171 0
169 184 0
154 174 0
140 160 0
131 151 0
124 134 0
166 183 0
155 175 0
160 174 0
163 179 0
153 173 0
135 153 0
158 173 0
146 167 0
157 175 0
130 151 0
162 184 0
141 166 0
144 168 0
171 189 0
141 153 0
160 182 0
166 184 0
162 184 0
160 179 0
158 175 0
163 187 0
152 167 0
162 178 0
165 185 0
152 171 0
153 170 0
149 165 0
154 173 0
156 177 0
148 159 0
150 169 0
135 153 0
155 174 0
154 164 0
175 195 0
137 155 0
152 165 0
158 176 0
145 161 0
139 151 0
139 161 0
167 186 0
150 166 0
149 164 0
168 184 0
144 163 0
157 176 0
147 162 0
162 182 0
150 165 0
158 175 0
160 174 0
160 179 0
148 157 0
162 171 0
132 145 0
166 182 0
165 181 0
150 159 0
165 184 0
131 139 0
133 136 0
130 136 0
148 160 0
161 180 0
156 172 0
169 185 0
165 184 0
150 165 0
152 168 0
167 182 0
159 174 0
150 160 0
162 176 0
154 168 0
149 165 0
128 142 0
138 151 0
140 153 0
149 167 0
170 189 0
166 181 0
150 162 0
162 183 0
152 165 0
156 168 0
167 180 0
157 173 0
152 169 0
163 176 0
172 190 0
162 180 0
159 179 0
138 143 0
160 166 0
169 186 0
157 173 0
176 192 0
150 162 0
155 177 0
166 183 0
140 159 0
147 148 0
135 145 0
153 163 0
156 167 0
159 177 0
158 175 0
157 165 0
149 160 0
143 151 0
161 175 0
162 173 0
164 177 0
159 166 0
158 169 0
154 154 0
139 153 0
161 175 0
159 173 0
155 169 0
170 190 0
163 166 0
159 176 0
153 165 0
163 183 0
164 186 0
168 184 0
141 161 0
163 185 0
162 182 0
137 155 0
154 174 0
144 162 0
157 179 0
154 171 0
154 173 0
168 190 0
152 174 0
157 175 0
154 172 0
168 191 0
157 176 0
156 175 0
153 172 0
151 170 0
156 176 0
143 165 0
160 181 0
137 157 0
169 193 0
160 180 0
162 186 0
161 186 0
159 181 0
172 195 0
154 171 0
150 169 0
154 174 0
150 173 0
140 164 0
171 191 0
162 179 0
157 177 0
150 171 0
167 187 0
162 180 0
165 186 0
148 168 0
156 176 0
164 182 0
166 186 0
151 173 0
152 171 0
167 189 0
151 173 0
157 174 0
159 181 0
168 188 0
165 186 0
155 173 0
163 185 0
149 171 0
137 159 0
165 186 0
143 163 0
150 170 0
170 192 0
153 174 0
144 163 0
147 170 0
160 180 0
159 180 0
150 171 0
156 177 0
164 185 0
155 175 0
146 165 0
159 183 0
153 176 0
161 183 0
143 163 0
144 165 0
139 159 0
150 175 0
160 181 0
160 181 0
137 156 0
162 183 0
123 138 0
156 179 0
132 152 0
153 176 0
162 181 0
143 160 0
145 164 0
167 190 0
158 180 0
160 184 0
166 188 0
168 190 0
135 154 0
148 167 0
158 176 0
161 184 0
158 180 0
166 187 0
168 189 0
145 165 0
146 166 0
154 176 0
155 177 0
153 176 0
169 193 0
155 176 0
139 160 0
147 165 0
149 171 0
156 179 0
174 196 0
141 165 0
153 177 0
156 179 0
135 157 0
154 178 0
153 175 0
160 181 0
130 151 0
128 148 0
158 178 0
160 175 0
168 187 0
152 171 0
148 170 0
134 155 0
162 184 0
141 165 0
172 195 0
150 173 0
159 186 0
167 187 0
153 178 0
143 167 0
152 173 0
152 174 0
147 169 0
153 174 0
164 184 0
167 186 0
140 162 0
175 197 0
156 176 0
161 187 0
148 169 0
153 173 0
148 166 0
156 178 0
149 173 0
139 160 0
130 151 0
130 151 0
140 162 0
146 165 0
118 142 0
159 184 0
168 190 0
123 144 0
167 191 0
160 182 0
135 158 0
159 183 0
156 174 0
127 150 0
173 196 0
153 172 0
153 177 0
139 164 0
148 170 0
145 169 0
145 168 0
159 185 0
166 189 0
153 170 0
150 171 0
153 175 0
154 176 0
121 143 0
165 186 0
160 180 0
160 185 0
124 144 0
155 172 0
142 164 0
133 156 0
154 177 0
142 165 0
112 133 0
146 169 0
146 169 0
163 185 0
165 186 0
136 160 0
140 162 0
141 163 0
148 169 0
150 174 0
154 173 0
122 143 0
156 179 0
164 189 0
154 174 0
157 178 0
156 179 0
154 178 0
140 162 0
159 175 0
142 160 0
147 170 0
146 165 0
145 166 0
151 171 0
113 136 0
136 154 0
155 180 0
153 170 0
147 170 0
133 157 0
159 180 0
147 169 0
146 163 0
163 187 0
155 174 0
146 164 0
144 169 0
160 182 0
139 160 0
123 140 0
142 167 0
176 192 0
136 160 0
146 167 0
167 188 0
161 182 0
167 190 0
141 161 0
137 157 0
149 171 0
144 166 0
147 165 0
123 142 0
125 148 0
170 187 0
155 172 0
140 157 0
155 178 0
138 155 0
143 164 0
157 179 0
166 186 0
156 179 0
133 156 0
123 140 0
147 170 0
142 163 0
129 148 0
140 161 0
159 182 0
160 178 0
156 172 0
147 168 0
156 179 0
160 174 0
148 173 0
163 179 0
145 167 0
154 174 0
153 175 0
139 159 0
165 183 0
167 191 0
160 185 0
154 172 0
141 159 0
164 185 0
163 183 0
164 182 0
152 172 0
146 167 0
145 163 0
153 169 0
163 184 0
142 147 0
150 172 0
165 183 0
174 198 0
147 165 0
158 175 0
158 179 0
144 160 0
137 148 0
147 156 0
148 170 0
145 163 0
128 148 0
150 170 0
135 154 0
151 165 0
149 168 0
158 172 0
167 183 0
166 189 0
111 125 0
138 147 0
164 184 0
131 149 0
129 149 0
133 142 0
138 155 0
158 173 0
164 180 0
165 184 0
147 167 0
169 186 0
149 170 0
160 178 0
140 155 0
161 173 0
143 160 0
170 189 0
150 169 0
138 152 0
132 139 0
156 169 0
165 183 0
144 163 0
157 175 0
137 147 0
150 167 0
151 167 0
162 171 0
161 171 0
140 153 0
138 154 0
145 160 0
155 174 0
144 159 0
152 167 0
165 184 0
164 182 0
143 155 0
160 173 0
152 162 0
167 187 0
155 173 0
142 149 0
137 142 0
164 181 0
162 178 0
154 174 0
165 179 0
144 152 0
142 154 0
164 181 0
144 150 0
145 161 0
159 175 0
153 163 0
148 163 0
148 163 0
155 171 0
162 173 0
159 164 0
149 155 0
167 180 0
163 177 0
168 185 0
167 189 0
164 180 0
159 180 0
158 177 0
161 175 0
150 163 0
150 169 0
150 160 0
160 164 0
151 164 0
167 178 0
162 175 0
167 181 0
156 168 0
155 166 0
165 180 0
145 153 0
172 194 0
165 184 0
160 166 0
152 164 0
167 179 0
162 178 0
141 146 0
165 175 0
155 156 0
165 174 0
159 165 0
162 173 0
167 188 0
163 186 0
172 192 0
163 182 0
161 181 0
166 188 0
155 176 0
153 174 0
152 169 0
151 171 0
170 190 0
163 182 0
154 174 0
152 169 0
154 173 0
164 184 0
133 152 0
159 179 0
167 186 0
161 178 0
152 174 0
153 176 0
147 168 0
160 181 0
163 185 0
158 180 0
174 195 0
157 179 0
170 191 0
169 190 0
165 184 0
168 188 0
167 189 0
147 169 0
172 191 0
140 158 0
164 186 0
149 171 0
133 154 0
149 168 0
135 157 0
175 197 0
156 178 0
158 182 0
164 183 0
135 154 0
141 164 0
166 188 0
150 170 0
166 187 0
163 186 0
169 189 0
121 143 0
156 177 0
147 168 0
153 171 0
137 160 0
171 195 0
156 176 0
171 193 0
161 182 0
132 153 0
161 181 0
157 178 0
136 157 0
138 158 0
164 187 0
126 149 0
139 159 0
141 163 0
135 155 0
150 172 0
141 161 0
160 180 0
150 170 0
156 177 0
153 178 0
152 169 0
159 184 0
151 173 0
152 175 0
160 185 0
162 184 0
149 169 0
149 172 0
150 171 0
165 187 0
155 178 0
132 153 0
146 165 0
163 187 0
149 170 0
160 184 0
160 184 0
135 152 0
165 182 0
139 158 0
119 141 0
152 172 0
161 184 0
161 182 0
148 171 0
158 179 0
155 178 0
151 176 0
173 194 0
137 155 0
163 186 0
143 161 0
146 168 0
158 177 0
150 172 0
149 171 0
155 174 0
133 153 0
149 170 0
149 169 0
161 185 0
156 176 0
151 173 0
107 128 0
161 187 0
152 173 0
144 165 0
137 160 0
150 173 0
167 189 0
152 175 0
176 198 0
157 180 0
158 182 0
169 194 0
155 175 0
135 155 0
151 175 0
157 181 0
156 175 0
163 184 0
163 178 0
148 171 0
158 184 0
144 166 0
163 183 0
154 178 0
140 162 0
144 168 0
154 174 0
159 180 0
152 172 0
147 168 0
168 189 0
159 183 0
142 163 0
163 187 0
144 164 0
136 157 0
150 173 0
151 174 0
150 172 0
145 163 0
149 168 0
165 189 0
160 181 0
148 165 0
125 150 0
145 169 0
172 195 0
149 173 0
128 150 0
149 170 0
139 160 0
138 162 0
146 171 0
146 170 0
147 168 0
161 183 0
163 186 0
155 179 0
155 176 0
146 167 0
149 170 0
152 176 0
151 172 0
143 164 0
150 173 0
123 148 0
157 180 0
132 153 0
136 151 0
142 163 0
157 178 0
139 156 0
142 163 0
148 171 0
145 167 0
159 173 0
152 173 0
144 166 0
167 186 0
138 157 0
156 174 0
148 167 0
132 149 0
152 173 0
165 188 0
160 177 0
160 183 0
146 169 0
168 190 0
156 179 0
170 192 0
151 171 0
130 152 0
144 166 0
138 156 0
143 169 0
152 173 0
159 182 0
136 155 0
150 169 0
139 160 0
172 192 0
162 188 0
127 148 0
144 170 0
133 151 0
158 177 0
141 159 0
144 166 0
146 169 0
148 163 0
134 156 0
165 185 0
145 167 0
164 185 0
165 182 0
116 140 0
146 167 0
139 158 0
135 154 0
132 152 0
163 186 0
146 170 0
163 184 0
156 175 0
162 177 0
158 184 0
137 157 0
133 147 0
128 150 0
151 174 0
141 155 0
126 143 0
157 175 0
169 187 0
156 177 0
142 164 0
163 183 0
170 190 0
145 162 0
160 182 0
144 166 0
153 176 0
166 184 0
134 149 0
154 170 0
153 175 0
152 163 0
153 175 0
153 177 0
147 170 0
156 166 0
155 175 0
151 168 0
130 151 0
140 163 0
153 177 0
141 164 0
152 175 0
145 168 0
141 159 0
161 183 0
160 180 0
141 157 0
145 163 0
153 170 0
141 156 0
168 186 0
165 190 0
137 157 0
134 152 0
157 178 0
161 177 0
138 160 0
137 157 0
164 179 0
162 182 0
165 187 0
170 185 0
163 183 0
162 174 0
146 167 0
162 181 0
143 162 0
141 160 0
147 166 0
118 139 0
154 172 0
160 175 0
148 166 0
165 184 0
159 179 0
152 157 0
158 170 0
130 148 0
122 146 0
152 168 0
170 190 0
151 163 0
151 168 0
160 178 0
168 187 0
155 178 0
156 176 0
150 162 0
152 168 0
171 184 0
153 170 0
138 156 0
149 169 0
154 177 0
148 167 0
156 175 0
162 177 0
130 140 0
147 165 0
167 181 0
166 180 0
147 162 0
152 164 0
161 182 0
129 140 0
136 148 0
157 171 0
155 171 0
167 178 0
145 158 0
150 162 0
147 164 0
148 161 0
164 182 0
159 173 0
142 153 0
162 179 0
168 187 0
173 191 0
150 165 0
160 175 0
155 178 0
156 175 0
159 172 0
171 189 0
140 155 0
140 158 0
150 160 0
165 174 0
150 164 0
170 189 0
160 171 0
154 171 0
157 168 0
155 167 0
148 157 0
161 171 0
166 182 0
164 177 0
166 177 0
156 169 0
153 167 0
170 183 0
161 179 0
138 153 0
158 167 0
153 169 0
161 175 0
164 177 0
155 166 0
161 182 0
165 178 0
166 183 0
171 193 0
158 173 0
174 178 0
170 189 0
161 176 0
162 172 0
174 191 0
163 174 0
159 173 0
158 177 0
171 192 0
163 187 0
167 190 0
157 174 0
162 182 0
143 162 0
159 179 0
159 178 0
169 188 0
154 176 0
161 180 0
153 169 0
154 173 0
157 177 0
164 185 0
164 183 0
148 169 0
133 152 0
172 192 0
164 183 0
159 176 0
133 152 0
161 183 0
160 180 0
154 175 0
169 191 0
165 186 0
158 178 0
155 177 0
171 191 0
149 164 0
168 188 0
173 193 0
159 182 0
147 168 0
152 173 0
166 187 0
153 177 0
167 190 0
142 162 0
172 195 0
151 173 0
144 161 0
160 181 0
170 190 0
169 193 0
150 172 0
160 179 0
164 182 0
167 186 0
140 162 0
172 195 0
158 179 0
154 176 0
137 156 0
164 185 0
157 180 0
141 159 0
159 179 0
149 170 0
165 189 0
152 174 0
168 189 0
145 164 0
159 181 0
162 183 0
132 148 0
161 185 0
144 168 0
156 177 0
144 162 0
136 160 0
168 188 0
147 169 0
153 172 0
155 177 0
144 165 0
159 177 0
162 184 0
154 177 0
175 194 0
154 173 0
147 167 0
161 184 0
154 174 0
167 189 0
167 190 0
138 162 0
172 197 0
153 175 0
157 177 0
155 174 0
158 180 0
154 169 0
111 128 0
146 168 0
138 157 0
154 179 0
139 161 0
144 166 0
163 188 0
139 161 0
145 165 0
152 171 0
140 162 0
164 187 0
147 171 0
169 192 0
148 170 0
158 178 0
153 172 0
163 185 0
147 167 0
166 187 0
154 177 0
143 164 0
159 183 0
121 145 0
157 178 0
153 172 0
154 178 0
159 183 0
147 171 0
155 179 0
159 180 0
153 175 0
175 198 0
140 161 0
126 149 0
153 173 0
163 186 0
164 188 0
146 171 0
124 146 0
162 184 0
156 176 0
143 167 0
135 157 0
155 178 0
157 179 0
125 144 0
168 190 0
158 181 0
146 170 0
154 175 0
116 132 0
152 176 0
159 185 0
146 167 0
159 181 0
131 152 0
164 188 0
122 146 0
157 180 0
161 183 0
166 189 0
157 175 0
175 191 0
151 177 0
168 191 0
141 161 0
163 184 0
163 184 0
134 156 0
144 163 0
146 164 0
154 177 0
137 160 0
160 181 0
159 182 0
159 182 0
169 192 0
171 192 0
126 149 0
133 155 0
137 157 0
143 163 0
149 173 0
169 190 0
141 162 0
134 157 0
164 188 0
144 167 0
170 195 0
160 185 0
158 180 0
147 162 0
169 194 0
154 177 0
165 185 0
163 184 0
174 197 0
146 167 0
151 174 0
146 167 0
156 179 0
164 188 0
163 187 0
155 174 0
164 184 0
152 173 0
157 181 0
134 151 0
144 167 0
132 158 0
139 164 0
132 156 0
161 182 0
135 159 0
153 178 0
154 172 0
148 172 0
165 189 0
150 170 0
170 193 0
114 136 0
153 165 0
155 173 0
161 186 0
125 148 0
150 171 0
153 172 0
143 163 0
147 167 0
144 167 0
169 191 0
146 165 0
156 178 0
154 176 0
167 187 0
165 189 0
140 162 0
157 179 0
135 154 0
153 174 0
134 153 0
144 165 0
146 168 0
147 170 0
149 171 0
163 183 0
169 195 0
139 161 0
142 160 0
124 143 0
155 179 0
159 175 0
163 180 0
155 178 0
140 164 0
153 175 0
155 175 0
160 182 0
154 168 0
138 158 0
153 169 0
162 184 0
170 190 0
149 172 0
138 160 0
159 177 0
155 176 0
152 170 0
132 152 0
152 171 0
183 202 0
157 178 0
160 184 0
150 166 0
159 176 0
165 181 0
127 143 0
156 177 0
159 182 0
164 187 0
156 174 0
156 177 0
156 175 0
149 168 0
156 172 0
140 162 0
170 192 0
155 178 0
160 181 0
160 182 0
142 161 0
149 167 0
167 183 0
148 171 0
170 191 0
155 170 0
151 169 0
136 153 0
145 163 0
149 169 0
131 148 0
142 163 0
148 170 0
133 154 0
166 186 0
147 165 0
133 149 0
136 158 0
173 197 0
155 179 0
171 193 0
146 169 0
135 154 0
155 174 0
143 161 0
158 179 0
164 185 0
147 162 0
164 188 0
155 174 0
175 194 0
163 180 0
163 181 0
165 184 0
162 182 0
144 164 0
158 173 0
149 165 0
147 167 0
170 195 0
144 159 0
168 185 0
152 170 0
158 172 0
154 166 0
141 155 0
176 195 0
164 182 0
169 180 0
146 164 0
166 180 0
154 171 0
106 122 0
144 163 0
158 176 0
154 172 0
151 165 0
143 154 0
164 178 0
166 185 0
146 159 0
159 178 0
137 155 0
136 148 0
157 176 0
144 162 0
137 153 0
130 147 0
146 163 0
166 187 0
170 192 0
166 176 0
161 172 0
157 174 0
157 171 0
149 154 0
136 147 0
170 189 0
156 171 0
145 164 0
167 184 0
135 152 0
171 185 0
159 176 0
166 181 0
163 177 0
131 141 0
164 181 0
166 181 0
150 168 0
159 172 0
151 167 0
150 167 0
162 183 0
139 145 0
142 145 0
169 186 0
165 184 0
174 198 0
153 166 0
146 162 0
151 157 0
164 180 0
164 177 0
164 177 0
122 128 0
159 181 0
165 187 0
158 173 0
172 193 0
170 178 0
146 156 0
164 182 0
163 183 0
166 186 0
162 182 0
154 173 0
157 176 0
158 181 0
169 192 0
140 158 0
159 179 0
145 165 0
174 196 0
159 180 0
149 167 0
159 183 0
155 176 0
161 181 0
167 188 0
162 181 0
151 170 0
160 180 0
145 164 0
160 180 0
171 192 0
157 179 0
155 177 0
162 182 0
162 182 0
155 175 0
146 169 0
156 174 0
165 188 0
154 176 0
156 175 0
154 176 0
158 180 0
163 185 0
162 185 0
173 195 0
161 181 0
161 183 0
160 182 0
162 184 0
162 180 0
141 157 0
156 179 0
152 173 0
157 181 0
167 188 0
165 189 0
172 192 0
169 192 0
153 178 0
122 141 0
141 157 0
135 156 0
148 166 0
174 193 0
148 168 0
147 169 0
143 166 0
161 186 0
150 172 0
169 190 0
142 166 0
159 183 0
168 189 0
150 167 0
161 185 0
137 156 0
163 186 0
162 177 0
148 167 0
155 179 0
152 173 0
153 175 0
156 178 0
165 186 0
159 180 0
154 177 0
145 168 0
166 185 0
156 177 0
145 167 0
168 188 0
153 175 0
173 197 0
152 168 0
135 152 0
134 154 0
133 153 0
167 185 0
149 172 0
137 159 0
158 178 0
143 164 0
151 172 0
155 172 0
152 172 0
163 187 0
161 182 0
141 162 0
167 192 0
158 182 0
159 182 0
166 186 0
152 176 0
151 172 0
160 179 0
128 145 0
158 179 0
164 184 0
153 172 0
170 195 0
160 184 0
153 177 0
144 165 0
142 164 0
154 178 0
167 192 0
157 178 0
152 174 0
156 182 0
124 144 0
128 148 0
129 153 0
154 176 0
140 163 0
150 170 0
132 152 0
162 188 0
154 179 0
170 191 0
143 164 0
153 177 0
162 184 0
144 163 0
132 155 0
156 178 0
141 161 0
156 178 0
151 171 0
157 179 0
154 170 0
155 176 0
154 178 0
136 157 0
126 147 0
165 189 0
134 156 0
138 159 0
137 158 0
150 167 0
135 157 0
158 180 0
141 164 0
160 183 0
171 192 0
156 178 0
136 159 0
164 184 0
156 180 0
155 174 0
147 170 0
166 184 0
142 164 0
131 150 0
152 170 0
133 154 0
156 176 0
167 187 0
131 149 0
167 190 0
154 179 0
163 187 0
153 173 0
146 171 0
131 153 0
167 190 0
155 179 0
153 177 0
138 159 0
133 158 0
169 183 0
153 176 0
145 163 0
138 161 0
158 181 0
154 176 0
126 150 0
131 151 0
146 167 0
121 144 0
161 184 0
121 139 0
143 163 0
157 179 0
152 176 0
150 172 0
142 164 0
139 161 0
172 193 0
145 167 0
149 174 0
161 183 0
169 186 0
171 189 0
143 169 0
146 171 0
122 143 0
149 167 0
150 170 0
167 190 0
157 180 0
128 150 0
114 133 0
138 157 0
148 171 0
160 181 0
162 188 0
156 176 0
109 129 0
148 165 0
161 183 0
149 168 0
155 177 0
162 181 0
145 168 0
157 180 0
140 160 0
153 165 0
148 172 0
141 161 0
153 179 0
140 164 0
135 153 0
162 187 0
143 164 0
152 173 0
137 159 0
167 190 0
153 173 0
140 161 0
124 147 0
138 159 0
134 154 0
153 172 0
123 146 0
156 180 0
163 182 0
154 174 0
146 165 0
156 176 0
162 181 0
157 176 0
148 168 0
146 162 0
156 176 0
163 184 0
157 181 0
130 152 0
161 183 0
138 160 0
176 198 0
119 135 0
143 163 0
154 172 0
157 172 0
140 163 0
152 173 0
165 188 0
159 176 0
156 176 0
163 183 0
159 181 0
141 157 0
140 160 0
149 172 0
171 193 0
137 160 0
153 176 0
129 149 0
144 162 0
129 146 0
170 184 0
159 169 0
146 165 0
156 175 0
165 188 0
144 163 0
138 154 0
156 180 0
150 166 0
165 182 0
152 171 0
147 170 0
157 177 0
146 158 0
149 171 0
156 175 0
159 177 0
161 186 0
143 152 0
170 192 0
168 180 0
160 181 0
158 171 0
154 169 0
161 178 0
151 168 0
169 191 0
161 182 0
164 184 0
159 176 0
154 164 0
171 196 0
172 191 0
152 169 0
155 172 0
156 176 0
164 180 0
150 162 0
158 174 0
149 165 0
163 181 0
147 170 0
154 171 0
144 157 0
164 181 0
158 181 0
165 186 0
154 169 0
149 156 0
147 161 0
154 178 0
147 165 0
138 153 0
164 184 0
164 180 0
148 152 0
143 162 0
155 163 0
165 184 0
128 138 0
155 175 0
165 180 0
138 153 0
150 157 0
145 157 0
160 172 0
176 195 0
152 173 0
164 183 0
169 185 0
159 174 0
140 157 0
160 176 0
158 169 0
158 172 0
164 165 0
166 186 0
158 175 0
165 174 0
173 194 0
148 163 0
156 162 0
152 174 0
157 166 0
157 169 0
157 172 0
154 166 0
158 173 0
166 179 0
165 179 0
150 158 0
156 168 0
163 183 0
145 151 0
143 159 0
157 172 0
164 175 0
177 196 0
157 176 0
172 190 0
165 176 0
171 189 0
156 166 0
149 159 0
159 170 0
173 187 0
164 180 0
161 180 0
170 183 0
132 142 0
157 176 0
168 183 0
167 185 0
148 167 0
148 156 0
149 157 0
156 165 0
166 185 0
168 187 0
152 173 0
159 182 0
161 183 0
166 187 0
158 177 0
166 187 0
150 169 0
166 185 0
163 182 0
143 164 0
165 183 0
145 166 0
168 189 0
172 193 0
170 192 0
170 189 0
165 187 0
173 194 0
163 183 0
160 183 0
164 183 0
146 169 0
158 180 0
175 198 0
154 175 0
164 185 0
152 172 0
143 162 0
170 190 0
173 192 0
144 161 0
162 185 0
166 186 0
154 175 0
157 178 0
169 190 0
166 183 0
164 185 0
166 186 0
146 169 0
162 185 0
161 179 0
163 182 0
145 165 0
159 182 0
166 188 0
163 185 0
142 163 0
169 190 0
142 159 0
164 189 0
162 181 0
156 177 0
155 176 0
151 169 0
173 194 0
170 192 0
129 151 0
146 166 0
139 163 0
166 186 0
156 175 0
164 185 0
165 185 0
147 168 0
157 180 0
162 183 0
162 181 0
146 169 0
168 188 0
165 186 0
174 196 0
163 189 0
172 195 0
159 183 0
116 135 0
149 170 0
136 158 0
139 160 0
166 187 0
168 192 0
167 188 0
159 181 0
145 167 0
159 179 0
172 196 0
162 187 0
147 170 0
153 177 0
134 158 0
144 164 0
151 169 0
173 197 0
153 173 0
150 172 0
149 173 0
137 159 0
160 184 0
162 184 0
156 180 0
166 187 0
154 173 0
164 187 0
151 175 0
153 177 0
155 177 0
164 186 0
143 165 0
147 167 0
166 190 0
117 142 0
143 162 0
162 187 0
153 179 0
170 190 0
166 187 0
155 178 0
141 163 0
156 180 0
175 196 0
135 155 0
137 156 0
154 177 0
171 194 0
160 178 0
153 176 0
125 139 0
156 180 0
160 183 0
170 194 0
153 174 0
160 182 0
165 189 0
141 160 0
161 183 0
165 187 0
166 188 0
124 144 0
134 155 0
150 169 0
155 177 0
155 171 0
140 164 0
151 167 0
152 178 0
177 196 0
145 166 0
154 178 0
166 188 0
169 190 0
122 143 0
172 194 0
168 193 0
138 160 0
154 177 0
148 169 0
147 170 0
172 197 0
126 145 0
145 167 0
157 179 0
143 166 0
149 175 0
153 176 0
166 188 0
158 178 0
146 167 0
155 178 0
168 191 0
134 157 0
144 167 0
146 169 0
152 175 0
142 165 0
144 166 0
144 163 0
143 169 0
140 161 0
170 195 0
147 169 0
154 174 0
138 157 0
151 172 0
143 168 0
143 164 0
153 178 0
142 163 0
135 155 0
135 155 0
73 92 0
177 197 0
170 195 0
161 185 0
128 150 0
157 178 0
142 165 0
147 166 0
157 182 0
150 174 0
148 166 0
124 151 0
125 139 0
146 169 0
142 162 0
163 188 0
144 165 0
167 185 0
144 167 0
153 173 0
173 197 0
142 161 0
156 175 0
153 177 0
154 177 0
137 157 0
141 163 0
157 176 0
163 188 0
153 173 0
161 185 0
145 167 0
162 187 0
168 186 0
154 164 0
165 189 0
158 175 0
134 154 0
154 179 0
166 184 0
161 181 0
154 172 0
115 135 0
143 169 0
156 176 0
145 162 0
157 177 0
151 166 0
145 168 0
153 178 0
144 168 0
136 156 0
163 179 0
156 180 0
161 182 0
145 165 0
149 165 0
164 185 0
147 170 0
162 183 0
155 175 0
154 177 0
125 147 0
148 168 0
166 190 0
142 165 0
165 185 0
158 182 0
153 171 0
129 152 0
150 171 0
141 161 0
142 162 0
152 173 0
125 143 0
149 166 0
152 168 0
153 172 0
151 172 0
153 178 0
170 196 0
155 176 0
168 190 0
161 170 0
175 198 0
158 179 0
136 152 0
158 181 0
156 175 0
117 135 0
153 170 0
158 181 0
171 193 0
143 157 0
156 178 0
121 140 0
157 175 0
157 176 0
154 166 0
154 166 0
154 175 0
159 184 0
161 181 0
172 186 0
149 167 0
161 181 0
147 163 0
140 154 0
159 180 0
147 167 0
165 184 0
172 187 0
146 164 0
166 182 0
150 172 0
140 152 0
155 176 0
145 160 0
167 180 0
148 160 0
164 187 0
138 155 0
160 176 0
144 167 0
159 176 0
144 169 0
153 170 0
152 171 0
159 180 0
133 146 0
162 186 0
144 167 0
138 149 0
144 156 0
151 172 0
165 182 0
136 153 0
119 137 0
155 175 0
147 165 0
146 166 0
138 157 0
161 174 0
138 155 0
148 159 0
135 152 0
154 167 0
166 186 0
131 140 0
167 174 0
168 184 0
155 176 0
176 196 0
163 172 0
161 175 0
152 166 0
141 153 0
161 183 0
151 163 0
165 184 0
154 168 0
152 160 0
163 176 0
150 168 0
154 176 0
168 180 0
157 173 0
157 174 0
158 178 0
176 195 0
162 169 0
169 188 0
161 176 0
168 187 0
160 168 0
173 191 0
159 174 0
162 179 0
181 195 0
148 159 0
152 173 0
157 173 0
163 177 0
170 182 0
169 186 0
155 175 0
162 168 0
157 172 0
152 166 0
140 149 0
148 160 0
145 151 0
164 178 0
166 190 0
152 164 0
161 175 0
157 168 0
164 179 0
163 173 0
148 171 0
162 171 0
153 173 0
140 147 0
175 195 0
163 184 0
169 184 0
161 173 0
167 185 0
160 170 0
153 166 0
155 169 0
162 183 0
167 190 0
171 194 0
170 195 0
170 190 0
147 170 0
155 175 0
145 167 0
159 180 0
162 184 0
165 184 0
155 175 0
149 169 0
156 177 0
164 178 0
172 191 0
153 173 0
165 183 0
139 158 0
161 179 0
170 193 0
167 188 0
160 183 0
152 172 0
168 191 0
153 175 0
159 180 0
161 180 0
160 183 0
143 162 0
163 182 0
141 161 0
163 182 0
173 194 0
154 177 0
164 186 0
172 194 0
156 178 0
132 149 0
151 174 0
144 162 0
165 189 0
145 167 0
157 179 0
150 173 0
162 184 0
158 176 0
157 179 0
158 181 0
152 176 0
154 175 0
148 163 0
136 156 0
132 157 0
157 179 0
160 185 0
165 187 0
151 172 0
140 163 0
173 195 0
146 168 0
159 178 0
157 179 0
156 177 0
141 164 0
150 174 0
133 153 0
132 154 0
146 170 0
164 185 0
154 171 0
162 182 0
162 186 0
152 174 0
155 180 0
152 176 0
135 156 0
136 157 0
154 176 0
165 187 0
152 174 0
167 189 0
161 183 0
135 156 0
154 174 0
158 176 0
150 174 0
155 177 0
159 184 0
156 179 0
162 184 0
155 179 0
137 158 0
154 178 0
146 167 0
159 182 0
160 178 0
161 181 0
167 188 0
152 173 0
161 185 0
139 158 0
139 161 0
157 179 0
140 158 0
164 188 0
148 174 0
168 190 0
161 182 0
165 188 0
153 173 0
165 187 0
153 171 0
134 155 0
160 180 0
169 193 0
166 191 0
159 179 0
154 172 0
133 155 0
137 155 0
143 165 0
149 169 0
120 143 0
134 149 0
153 176 0
137 157 0
159 183 0
167 187 0
152 173 0
166 188 0
157 179 0
131 153 0
153 174 0
170 196 0
152 172 0
136 160 0
145 167 0
154 179 0
154 179 0
153 173 0
146 167 0
164 188 0
155 177 0
142 160 0
135 155 0
154 178 0
157 179 0
154 179 0
138 162 0
131 154 0
117 135 0
158 186 0
156 177 0
142 164 0
160 175 0
172 196 0
153 174 0
149 173 0
145 169 0
165 185 0
144 163 0
140 161 0
162 185 0
147 169 0
115 131 0
121 145 0
168 187 0
162 185 0
135 158 0
174 198 0
145 165 0
131 154 0
154 177 0
163 188 0
164 184 0
140 162 0
169 191 0
142 163 0
160 179 0
131 132 0
135 159 0
168 193 0
158 180 0
147 168 0
154 175 0
124 145 0
163 186 0
142 161 0
164 188 0
169 190 0
148 166 0
142 165 0
136 151 0
156 180 0
156 177 0
156 180 0
122 141 0
152 176 0
159 183 0
125 149 0
122 142 0
130 151 0
152 177 0
172 191 0
117 139 0
137 157 0
156 178 0
156 180 0
150 168 0
141 162 0
141 166 0
143 164 0
156 178 0
155 179 0
153 174 0
152 177 0
128 144 0
152 172 0
167 190 0
164 185 0
143 164 0
149 168 0
140 155 0
148 172 0
161 175 0
145 164 0
145 165 0
166 189 0
152 178 0
156 174 0
143 165 0
151 166 0
162 183 0
145 160 0
157 180 0
154 178 0
147 163 0
136 158 0
141 160 0
129 144 0
159 183 0
164 186 0
149 171 0
152 170 0
145 168 0
134 155 0
158 178 0
137 154 0
161 180 0
132 151 0
150 173 0
113 132 0
142 165 0
125 145 0
149 172 0
166 185 0
142 162 0
160 178 0
153 170 0
141 161 0
154 177 0
165 184 0
153 171 0
150 170 0
143 167 0
132 155 0
167 190 0
170 185 0
159 182 0
156 181 0
156 175 0
154 172 0
139 160 0
156 170 0
145 168 0
155 171 0
155 171 0
163 185 0
155 176 0
159 177 0
155 173 0
159 177 0
161 179 0
154 174 0
157 175 0
157 178 0
147 162 0
161 182 0
169 192 0
164 185 0
141 159 0
154 174 0
159 181 0
161 176 0
148 169 0
147 167 0
160 183 0
161 175 0
153 168 0
149 164 0
168 189 0
165 182 0
150 172 0
140 155 0
155 171 0
149 168 0
143 162 0
155 173 0
148 170 0
145 168 0
136 152 0
166 186 0
163 177 0
163 185 0
151 165 0
162 175 0
164 175 0
160 178 0
148 175 0
170 189 0
148 167 0
158 175 0
138 157 0
159 172 0
165 185 0
172 187 0
128 142 0
132 148 0
151 166 0
143 159 0
142 157 0
153 167 0
154 170 0
154 170 0
122 140 0
149 171 0
158 178 0
153 168 0
158 177 0
159 174 0
136 148 0
160 172 0
162 181 0
152 168 0
162 174 0
166 179 0
156 173 0
144 157 0
164 178 0
138 153 0
165 177 0
164 177 0
152 164 0
158 175 0
165 188 0
158 170 0
165 183 0
150 159 0
162 174 0
162 183 0
162 186 0
152 169 0
165 185 0
157 174 0
161 180 0
148 161 0
159 176 0
162 171 0
160 172 0
176 195 0
146 160 0
165 181 0
160 175 0
145 155 0
152 161 0
173 189 0
166 186 0
155 169 0
176 189 0
161 175 0
160 175 0
159 173 0
149 162 0
154 171 0
158 176 0
153 165 0
156 170 0
153 173 0
141 160 0
156 175 0
160 174 0
170 181 0
157 162 0
156 166 0
158 169 0
147 161 0
176 190 0
171 189 0
161 179 0
157 175 0
160 181 0
154 172 0
157 177 0
166 187 0
176 196 0
169 189 0
159 178 0
167 190 0
154 174 0
154 176 0
158 178 0
175 196 0
166 187 0
164 187 0
158 181 0
144 163 0
155 174 0
163 184 0
169 188 0
169 189 0
149 169 0
161 182 0
160 181 0
170 193 0
148 169 0
162 181 0
162 182 0
175 195 0
157 177 0
143 165 0
172 193 0
154 175 0
168 192 0
162 182 0
154 171 0
157 177 0
152 174 0
172 191 0
151 172 0
117 139 0
161 183 0
145 164 0
157 179 0
161 184 0
153 173 0
155 177 0
152 173 0
167 189 0
168 190 0
152 170 0
143 163 0
145 166 0
165 185 0
164 182 0
145 165 0
139 162 0
166 186 0
139 162 0
148 169 0
164 186 0
118 139 0
150 170 0
166 188 0
133 155 0
162 184 0
174 197 0
162 185 0
154 174 0
155 176 0
154 177 0
173 197 0
159 181 0
157 178 0
147 169 0
139 163 0
148 170 0
160 183 0
161 185 0
164 187 0
147 168 0
164 185 0
154 175 0
161 182 0
164 188 0
149 170 0
154 174 0
137 162 0
156 177 0
164 187 0
154 177 0
166 188 0
146 168 0
150 171 0
156 178 0
145 166 0
150 173 0
167 187 0
156 178 0
144 165 0
133 155 0
169 194 0
158 180 0
160 182 0
112 134 0
169 192 0
152 172 0
136 157 0
153 175 0
141 161 0
154 173 0
157 180 0
136 154 0
173 194 0
145 166 0
165 188 0
144 166 0
160 183 0
149 169 0
139 159 0
154 174 0
164 188 0
144 167 0
174 197 0
162 187 0
136 157 0
164 186 0
160 184 0
159 182 0
128 151 0
144 167 0
147 168 0
138 163 0
143 165 0
168 191 0
133 156 0
149 170 0
135 158 0
165 184 0
155 178 0
160 181 0
144 167 0
153 171 0
172 197 0
166 188 0
159 176 0
130 153 0
162 188 0
149 172 0
125 144 0
178 200 0
165 189 0
151 168 0
161 183 0
156 173 0
117 136 0
138 163 0
161 183 0
160 182 0
145 169 0
150 171 0
153 174 0
153 172 0
152 172 0
138 155 0
148 171 0
151 170 0
155 176 0
158 180 0
162 183 0
137 157 0
152 177 0
131 149 0
166 188 0
153 176 0
153 175 0
147 170 0
143 163 0
155 179 0
141 163 0
166 187 0
157 181 0
152 175 0
146 167 0
164 182 0
158 179 0
169 194 0
154 177 0
158 181 0
158 184 0
119 142 0
166 189 0
167 191 0
134 158 0
159 181 0
160 186 0
175 195 0
141 160 0
137 157 0
154 177 0
146 168 0
161 183 0
153 172 0
154 180 0
158 178 0
159 181 0
145 169 0
153 173 0
149 167 0
171 193 0
132 152 0
170 196 0
146 170 0
151 172 0
139 160 0
135 153 0
143 165 0
146 168 0
152 174 0
146 167 0
157 180 0
152 167 0
150 171 0
140 160 0
164 188 0
164 188 0
139 157 0
144 166 0
160 176 0
148 167 0
173 194 0
167 182 0
144 168 0
129 148 0
146 165 0
144 163 0
164 186 0
163 188 0
149 171 0
155 171 0
163 182 0
136 159 0
152 174 0
154 173 0
161 187 0
154 176 0
167 187 0
159 183 0
117 139 0
160 181 0
174 197 0
148 168 0
153 170 0
144 162 0
171 188 0
156 174 0
157 174 0
157 180 0
174 189 0
147 170 0
161 179 0
154 172 0
153 171 0
148 169 0
141 162 0
154 174 0
151 168 0
154 173 0
150 173 0
153 175 0
172 197 0
166 186 0
148 166 0
146 171 0
152 172 0
125 141 0
148 169 0
164 186 0
170 194 0
149 162 0
173 197 0
156 177 0
141 162 0
163 187 0
152 173 0
138 156 0
151 167 0
156 179 0
124 137 0
161 180 0
173 197 0
171 193 0
134 152 0
154 169 0
169 195 0
166 185 0
154 176 0
158 181 0
164 181 0
138 156 0
148 171 0
166 182 0
130 152 0
128 146 0
150 167 0
149 162 0
146 161 0
158 181 0
163 185 0
153 176 0
158 178 0
172 194 0
160 180 0
135 156 0
148 162 0
149 161 0
163 182 0
159 174 0
136 152 0
165 181 0
146 161 0
171 196 0
146 160 0
142 159 0
146 165 0
166 182 0
131 144 0
144 161 0
158 178 0
167 187 0
138 157 0
151 166 0
164 183 0
153 162 0
124 133 0
162 179 0
143 159 0
158 171 0
173 197 0
160 172 0
146 156 0
148 166 0
162 177 0
150 172 0
147 166 0
154 172 0
151 162 0
167 187 0
156 175 0
151 168 0
133 143 0
154 173 0
176 192 0
166 183 0
159 180 0
139 159 0
141 151 0
178 197 0
159 177 0
152 161 0
157 173 0
164 180 0
145 162 0
153 163 0
154 175 0
159 181 0
131 147 0
161 178 0
159 174 0
163 183 0
148 162 0
144 155 0
169 187 0
179 200 0
156 172 0
147 166 0
166 176 0
161 175 0
161 177 0
156 167 0
165 186 0
139 148 0
157 170 0
154 159 0
154 156 0
130 139 0
169 187 0
153 169 0
172 182 0
162 173 0
165 169 0
162 172 0
146 154 0
162 174 0
174 188 0
153 164 0
167 190 0
151 165 0
164 178 0
161 175 0
146 166 0
145 166 0
163 185 0
158 179 0
174 189 0
153 173 0
162 185 0
151 171 0
154 175 0
163 186 0
166 185 0
170 191 0
162 184 0
153 171 0
172 193 0
157 179 0
156 174 0
167 189 0
171 192 0
162 180 0
165 185 0
166 188 0
162 181 0
159 179 0
146 165 0
171 189 0
162 183 0
143 163 0
146 167 0
154 175 0
161 177 0
157 179 0
159 180 0
149 171 0
158 175 0
169 190 0
152 172 0
174 194 0
159 178 0
155 178 0
165 189 0
140 162 0
143 164 0
170 188 0
155 177 0
163 183 0
149 169 0
170 190 0
155 175 0
163 184 0
161 183 0
164 188 0
157 177 0
127 146 0
167 188 0
164 185 0
152 172 0
149 168 0
160 180 0
152 172 0
148 170 0
158 180 0
137 158 0
153 174 0
147 167 0
165 188 0
171 192 0
162 185 0
142 162 0
158 179 0
133 157 0
160 186 0
162 184 0
135 155 0
173 196 0
167 190 0
154 177 0
141 164 0
144 166 0
164 185 0
164 189 0
156 178 0
156 178 0
156 175 0
166 185 0
162 186 0
158 176 0
153 176 0
153 177 0
154 172 0
153 174 0
159 183 0
157 178 0
152 175 0
174 194 0
148 170 0
154 177 0
145 164 0
155 176 0
148 169 0
157 180 0
168 194 0
147 170 0
145 167 0
147 169 0
162 182 0
151 173 0
160 184 0
160 179 0
159 179 0
150 171 0
150 173 0
174 197 0
172 194 0
137 158 0
157 177 0
162 184 0
153 173 0
156 180 0
165 186 0
143 168 0
109 133 0
156 176 0
143 167 0
138 159 0
152 175 0
162 184 0
163 187 0
170 192 0
170 193 0
129 150 0
175 198 0
156 177 0
144 166 0
158 182 0
157 180 0
161 181 0
160 182 0
107 129 0
157 180 0
144 168 0
149 170 0
152 173 0
137 158 0
152 177 0
168 191 0
133 156 0
156 177 0
170 194 0
152 177 0
136 160 0
132 154 0
119 141 0
161 184 0
157 178 0
147 170 0
118 139 0
134 159 0
157 179 0
136 160 0
140 165 0
169 187 0
157 183 0
161 184 0
133 157 0
123 144 0
146 170 0
133 157 0
156 179 0
132 154 0
172 193 0
170 191 0
159 181 0
173 193 0
170 191 0
136 158 0
143 162 0
146 169 0
169 189 0
132 154 0
162 184 0
145 166 0
173 195 0
143 168 0
127 149 0
155 174 0
145 165 0
160 186 0
146 168 0
163 183 0
145 170 0
137 160 0
146 166 0
143 163 0
148 170 0
137 160 0
155 178 0
164 180 0
145 168 0
159 180 0
155 177 0
155 180 0
165 189 0
156 179 0
131 151 0
147 169 0
154 176 0
137 160 0
162 187 0
153 173 0
178 200 0
144 166 0
160 186 0
164 186 0
140 162 0
169 187 0
110 130 0
149 170 0
147 169 0
160 181 0
126 148 0
167 191 0
147 170 0
154 177 0
137 154 0
148 169 0
163 188 0
164 187 0
160 183 0
147 173 0
146 167 0
125 149 0
161 186 0
147 168 0
142 165 0
168 187 0
146 165 0
162 187 0
161 183 0
156 179 0
152 175 0
152 171 0
162 188 0
144 158 0
158 181 0
156 180 0
144 165 0
150 172 0
131 154 0
159 179 0
160 186 0
143 162 0
152 172 0
161 183 0
157 179 0
126 142 0
148 164 0
163 181 0
156 178 0
148 168 0
151 176 0
166 186 0
137 156 0
153 170 0
148 171 0
173 194 0
155 174 0
163 177 0
142 162 0
157 180 0
148 169 0
162 182 0
173 193 0
124 146 0
148 170 0
160 179 0
153 174 0
156 170 0
159 173 0
139 152 0
129 143 0
160 182 0
136 155 0
155 174 0
160 181 0
130 144 0
138 161 0
160 183 0
143 162 0
165 185 0
139 159 0
147 165 0
148 171 0
136 151 0
166 183 0
167 190 0
157 179 0
167 191 0
170 195 0
162 183 0
154 177 0
163 182 0
158 178 0
142 161 0
153 175 0
156 178 0
147 162 0
152 166 0
153 169 0
165 188 0
173 183 0
143 157 0
151 164 0
163 177 0
137 158 0
150 168 0
150 172 0
158 177 0
160 176 0
153 165 0
150 168 0
144 163 0
155 175 0
137 152 0
163 182 0
154 170 0
171 192 0
138 154 0
158 178 0
138 152 0
139 161 0
162 183 0
164 182 0
160 177 0
164 180 0
166 180 0
163 180 0
169 189 0
144 160 0
165 179 0
160 179 0
150 164 0
169 188 0
155 168 0
150 169 0
146 169 0
146 169 0
161 177 0
138 154 0
147 163 0
159 178 0
153 164 0
164 184 0
160 183 0
157 177 0
158 176 0
173 193 0
163 180 0
158 181 0
155 174 0
153 172 0
147 165 0
148 160 0
143 155 0
165 177 0
149 164 0
165 183 0
160 170 0
153 173 0
142 158 0
157 178 0
161 178 0
144 161 0
165 182 0
169 181 0
164 180 0
152 178 0
169 174 0
172 185 0
146 156 0
152 162 0
161 175 0
167 184 0
165 185 0
158 178 0
164 188 0
161 177 0
153 170 0
164 185 0
170 192 0
170 185 0
150 163 0
169 185 0
167 182 0
146 163 0
157 173 0
154 168 0
168 188 0
171 189 0
163 176 0
155 175 0
160 183 0
164 183 0
157 174 0
160 184 0
170 193 0
162 185 0
144 164 0
161 182 0
169 191 0
155 172 0
152 176 0
167 187 0
162 182 0
134 155 0
162 185 0
177 196 0
177 196 0
160 180 0
172 195 0
162 183 0
164 185 0
158 178 0
157 179 0
163 185 0
167 189 0
147 168 0
168 186 0
163 188 0
167 190 0
149 172 0
159 177 0
149 168 0
167 189 0
160 185 0
153 175 0
139 158 0
165 184 0
149 170 0
152 176 0
166 188 0
152 175 0
157 178 0
144 166 0
151 172 0
163 184 0
144 167 0
163 184 0
147 169 0
143 165 0
163 185 0
156 181 0
174 198 0
139 158 0
157 179 0
158 181 0
147 166 0
158 180 0
160 178 0
160 185 0
141 164 0
154 174 0
155 178 0
143 164 0
175 198 0
136 159 0
133 154 0
163 186 0
153 176 0
151 171 0
167 187 0
169 189 0
163 184 0
154 176 0
147 173 0
159 180 0
165 189 0
151 175 0
147 164 0
171 192 0
158 179 0
171 192 0
148 170 0
168 190 0
158 178 0
150 171 0
153 174 0
136 159 0
160 181 0
137 158 0
150 172 0
150 173 0
130 149 0
164 185 0
149 172 0
148 167 0
144 167 0
171 195 0
147 166 0
140 155 0
150 169 0
114 135 0
151 175 0
155 179 0
156 174 0
127 145 0
153 176 0
159 184 0
161 186 0
163 180 0
148 172 0
152 174 0
153 171 0
164 184 0
154 177 0
149 167 0
142 166 0
141 162 0
161 184 0
120 142 0
136 158 0
137 155 0
150 170 0
148 172 0
138 161 0
160 184 0
167 188 0
155 175 0
161 182 0
163 182 0
177 198 0
166 191 0
159 181 0
142 165 0
160 183 0
158 182 0
157 177 0
153 175 0
171 191 0
154 177 0
143 169 0
133 157 0
160 181 0
156 176 0
152 174 0
157 181 0
174 198 0
160 184 0
160 185 0
163 185 0
125 147 0
130 151 0
157 177 0
173 192 0
166 190 0
130 152 0
151 173 0
153 175 0
151 172 0
148 168 0
172 192 0
173 192 0
136 160 0
163 185 0
160 182 0
166 188 0
159 182 0
149 175 0
143 168 0
122 143 0
156 178 0
139 163 0
130 152 0
143 165 0
155 174 0
143 166 0
151 174 0
134 155 0
125 143 0
147 171 0
141 165 0
137 157 0
146 161 0
156 174 0
155 176 0
153 175 0
168 190 0
142 162 0
159 177 0
165 184 0
145 170 0
174 197 0
177 199 0
160 183 0
152 174 0
143 167 0
164 185 0
161 180 0
152 172 0
139 162 0
145 164 0
146 168 0
155 178 0
164 184 0
160 184 0
129 146 0
115 139 0
137 155 0
155 171 0
163 188 0
169 191 0
108 131 0
140 160 0
163 184 0
159 184 0
134 153 0
164 186 0
145 163 0
123 141 0
160 182 0
154 174 0
160 183 0
147 168 0
143 165 0
158 180 0
135 159 0
171 193 0
171 196 0
164 187 0
140 163 0
144 165 0
146 168 0
146 167 0
164 187 0
136 160 0
145 169 0
142 166 0
155 180 0
151 173 0
168 191 0
145 169 0
146 170 0
158 177 0
148 168 0
144 167 0
153 172 0
155 179 0
153 173 0
164 183 0
162 180 0
141 162 0
144 167 0
165 187 0
151 172 0
138 159 0
145 165 0
138 155 0
176 199 0
153 171 0
145 165 0
158 180 0
175 191 0
160 186 0
151 173 0
148 170 0
144 165 0
132 147 0
169 191 0
117 140 0
168 188 0
167 182 0
161 182 0
161 183 0
137 148 0
143 163 0
160 186 0
154 178 0
154 176 0
149 169 0
160 181 0
153 175 0
155 173 0
146 170 0
172 190 0
137 152 0
157 175 0
170 189 0
162 186 0
167 186 0
158 178 0
162 187 0
149 165 0
158 178 0
145 166 0
142 162 0
144 163 0
156 174 0
132 148 0
136 152 0
142 166 0
151 169 0
166 187 0
155 174 0
147 169 0
160 174 0
143 160 0
152 171 0
164 187 0
157 172 0
170 192 0
153 166 0
162 184 0
144 163 0
161 183 0
142 158 0
145 165 0
144 161 0
169 188 0
163 188 0
152 170 0
138 155 0
160 175 0
163 181 0
152 168 0
152 166 0
140 160 0
163 181 0
176 196 0
146 168 0
159 178 0
156 175 0
147 167 0
152 170 0
171 196 0
164 184 0
156 173 0
164 186 0
146 171 0
160 178 0
159 182 0
159 173 0
153 171 0
163 181 0
154 179 0
136 154 0
150 168 0
127 149 0
154 164 0
167 187 0
140 158 0
143 158 0
157 168 0
145 162 0
155 168 0
163 176 0
156 171 0
149 168 0
164 185 0
157 167 0
157 176 0
149 165 0
154 167 0
153 166 0
155 175 0
164 177 0
163 172 0
160 176 0
167 182 0
150 167 0
158 175 0
162 181 0
169 187 0
174 191 0
138 146 0
174 187 0
155 175 0
147 166 0
160 181 0
154 169 0
162 170 0
164 180 0
166 180 0
176 192 0
165 188 0
164 179 0
164 179 0
166 181 0
142 156 0
177 196 0
155 168 0
159 174 0
152 155 0
153 164 0
158 177 0
160 171 0
160 170 0
167 187 0
166 185 0
167 184 0
152 166 0
