P3
400 225
255
204 226 255
204 226 255
204 226 255
204 226 255
204 226 255
204 226 255
204 226 255
204 226 255
204 226 255
204 226 255
204 226 255
204 226 255
204 226 255
204 226 255
204 226 255
204 226 255
203 226 255
203 226 255
203 226 255
203 226 255
203 226 255
203 226 255
203 226 255
203 225 255
203 225 255
203 225 255
203 225 255
203 225 255
203 225 255
203 225 255
203 225 255
203 225 255
202 225 255
202 225 255
202 225 255
202 225 255
202 225 255
202 225 255
202 225 255
202 225 255
202 225 255
202 225 255
202 225 255
202 225 255
202 225 255
202 225 255
202 225 255
202 225 255
201 225 255
201 225 255
201 225 255
201 225 255
201 224 255
201 224 255
201 224 255
201 224 255
201 224 255
201 224 255
201 224 255
201 224 255
201 224 255
201 224 255
201 224 255
200 224 255
200 224 255
200 224 255
200 224 255
200 224 255
200 224 255
200 224 255
200 224 255
200 224 255
200 224 255
200 224 255
200 224 255
200 224 255
200 224 255
200 224 255
199 224 255
199 224 255
199 224 255
199 223 255
199 223 255
199 223 255
199 223 255
199 223 255
199 223 255
199 223 255
199 223 255
199 223 255
199 223 255
199 223 255
198 223 255
198 223 255
198 223 255
198 223 255
198 223 255
198 223 255
198 223 255
198 223 255
198 223 255
198 223 255
198 223 255
198 223 255
198 223 255
198 223 255
197 223 255
197 222 255
197 222 255
197 222 255
197 222 255
197 222 255
197 222 255
197 222 255
197 222 255
197 222 255
197 222 255
197 222 255
197 222 255
197 222 255
196 222 255
196 222 255
196 222 255
196 222 255
196 222 255
196 222 255
196 222 255
196 222 255
196 222 255
196 222 255
196 222 255
196 222 255
196 222 255
196 222 255
196 222 255
196 221 255
196 221 255
195 221 255
195 221 255
195 221 255
195 221 255
195 221 255
195 221 255
195 221 255
195 221 255
195 221 255
195 221 255
195 221 255
195 221 255
195 221 255
195 221 255
195 221 255
195 221 255
195 221 255
195 221 255
194 221 255
194 221 255
194 221 255
194 221 255
194 221 255
194 221 255
194 221 255
194 221 255
194 221 255
194 221 255
194 221 255
194 221 255
194 221 255
194 221 255
194 221 255
194 221 255
194 221 255
194 221 255
194 221 255
194 221 255
194 221 255
194 221 255
194 221 255
194 220 255
194 220 255
194 220 255
194 220 255
194 220 255
194 220 255
193 220 255
193 220 255
193 220 255
193 220 255
193 220 255
193 220 255
193 220 255
193 220 255
193 220 255
193 220 255
193 220 255
193 220 255
193 220 255
193 220 255
193 220 255
193 220 255
193 220 255
193 220 255
193 220 255
193 220 255
193 220 255
193 220 255
193 220 255
193 220 255
193 220 255
193 220 255
193 220 255
194 220 255
193 220 255
193 220 255
193 220 255
194 220 255
194 220 255
194 220 255
194 220 255
194 220 255
194 221 255
194 221 255
194 221 255
194 221 255
194 221 255
194 221 255
194 221 255
194 221 255
194 221 255
194 221 255
194 221 255
194 221 255
194 221 255
194 221 255
194 221 255
194 221 255
194 221 255
194 221 255
194 221 255
194 221 255
194 221 255
194 221 255
194 221 255
194 221 255
195 221 255
195 221 255
195 221 255
195 221 255
195 221 255
195 221 255
195 221 255
195 221 255
195 221 255
195 221 255
195 221 255
195 221 255
195 221 255
195 221 255
195 221 255
195 221 255
195 221 255
195 221 255
195 221 255
195 221 255
196 222 255
196 222 255
196 222 255
196 222 255
196 222 255
196 222 255
196 222 255
196 222 255
196 222 255
196 222 255
196 222 255
196 222 255
196 222 255
196 222 255
196 222 255
197 222 255
197 222 255
197 222 255
197 222 255
197 222 255
197 222 255
197 222 255
197 222 255
197 222 255
197 222 255
197 222 255
197 222 255
197 222 255
197 222 255
197 222 255
198 223 255
198 223 255
198 223 255
198 223 255
198 223 255
198 223 255
198 223 255
198 223 255
198 223 255
198 223 255
198 223 255
198 223 255
198 223 255
198 223 255
198 223 255
199 223 255
199 223 255
199 223 255
199 223 255
199 223 255
199 223 255
199 223 255
199 223 255
199 223 255
199 223 255
199 223 255
199 224 255
199 224 255
200 224 255
200 224 255
200 224 255
200 224 255
200 224 255
200 224 255
200 224 255
200 224 255
200 224 255
200 224 255
200 224 255
200 224 255
200 224 255
200 224 255
200 224 255
201 224 255
201 224 255
201 224 255
201 224 255
201 224 255
201 224 255
201 224 255
201 224 255
201 224 255
201 224 255
201 224 255
201 225 255
201 225 255
201 225 255
201 225 255
202 225 255
202 225 255
202 225 255
202 225 255
202 225 255
202 225 255
202 225 255
202 225 255
202 225 255
202 225 255
202 225 255
202 225 255
202 225 255
202 225 255
202 225 255
202 225 255
203 225 255
203 225 255
203 225 255
203 225 255
203 225 255
203 225 255
203 225 255
203 225 255
203 226 255
203 225 255
203 226 255
203 226 255
203 226 255
203 226 255
203 226 255
203 226 255
204 226 255
204 226 255
204 226 255
204 226 255
204 226 255
204 226 255
204 226 255
204 226 255
204 226 255
204 226 255
204 226 255
204 226 255
204 226 255
204 226 255
204 226 255
204 226 255
204 226 255
204 226 255
204 226 255
204 226 255
204 226 255
204 226 255
204 226 255
204 226 255
204 226 255
204 226 255
204 226 255
204 226 255
204 226 255
204 226 255
204 226 255
204 226 255
204 226 255
204 226 255
203 226 255
203 226 255
203 226 255
203 226 255
203 226 255
203 226 255
203 226 255
203 226 255
203 225 255
203 225 255
203 225 255
203 225 255
203 225 255
203 225 255
203 225 255
203 225 255
202 225 255
202 225 255
202 225 255
202 225 255
202 225 255
202 225 255
202 225 255
202 225 255
202 225 255
202 225 255
202 225 255
202 225 255
202 225 255
202 225 255
202 225 255
202 225 255
201 225 255
201 225 255
201 225 255
201 225 255
201 225 255
201 224 255
201 224 255
201 224 255
201 224 255
201 224 255
201 224 255
201 224 255
201 224 255
201 224 255
200 224 255
200 224 255
200 224 255
200 224 255
200 224 255
200 224 255
200 224 255
200 224 255
200 224 255
200 224 255
200 224 255
200 224 255
200 224 255
200 224 255
200 224 255
200 224 255
199 224 255
199 224 255
199 223 255
199 223 255
199 223 255
199 223 255
199 223 255
199 223 255
199 223 255
199 223 255
199 223 255
199 223 255
199 223 255
198 223 255
198 223 255
198 223 255
198 223 255
198 223 255
198 223 255
198 223 255
198 223 255
198 223 255
198 223 255
198 223 255
198 223 255
198 223 255
198 223 255
197 222 255
198 223 255
197 222 255
197 222 255
197 222 255
197 222 255
197 222 255
197 222 255
197 222 255
197 222 255
197 222 255
197 222 255
197 222 255
197 222 255
197 222 255
197 222 255
196 222 255
196 222 255
196 222 255
196 222 255
196 222 255
196 222 255
196 222 255
196 222 255
196 222 255
196 222 255
196 222 255
196 222 255
196 222 255
196 222 255
196 221 255
195 221 255
195 221 255
195 221 255
195 221 255
195 221 255
195 221 255
195 221 255
195 221 255
195 221 255
195 221 255
195 221 255
195 221 255
195 221 255
195 221 255
195 221 255
195 221 255
195 221 255
195 221 255
195 221 255
195 221 255
194 221 255
194 221 255
194 221 255
194 221 255
194 221 255
194 221 255
194 221 255
194 221 255
194 221 255
194 221 255
194 221 255
194 221 255
194 221 255
194 221 255
194 221 255
194 221 255
194 221 255
194 221 255
194 221 255
194 221 255
194 221 255
194 221 255
194 221 255
194 220 255
194 221 255
194 221 255
194 220 255
194 220 255
194 220 255
194 220 255
194 220 255
194 220 255
194 220 255
194 220 255
194 220 255
194 220 255
194 220 255
194 220 255
194 220 255
194 220 255
194 220 255
194 220 255
194 220 255
194 220 255
193 220 255
194 220 255
194 220 255
194 220 255
194 220 255
193 220 255
194 220 255
194 220 255
194 220 255
194 220 255
194 220 255
194 220 255
194 220 255
194 220 255
194 220 255
194 221 255
194 221 255
194 221 255
194 221 255
194 221 255
194 221 255
194 221 255
194 221 255
194 221 255
194 221 255
194 221 255
194 221 255
194 221 255
194 221 255
194 221 255
194 221 255
194 221 255
194 221 255
194 221 255
194 221 255
194 221 255
194 221 255
194 221 255
194 221 255
194 221 255
194 221 255
195 221 255
195 221 255
195 221 255
195 221 255
195 221 255
195 221 255
195 221 255
195 221 255
195 221 255
195 221 255
195 221 255
195 221 255
195 221 255
195 221 255
195 221 255
195 221 255
195 221 255
195 221 255
196 221 255
196 222 255
196 222 255
196 222 255
196 222 255
196 222 255
196 222 255
196 222 255
196 222 255
196 222 255
196 222 255
196 222 255
196 222 255
196 222 255
196 222 255
196 222 255
197 222 255
197 222 255
197 222 255
197 222 255
197 222 255
197 222 255
197 222 255
197 222 255
197 222 255
197 222 255
197 222 255
197 222 255
197 222 255
197 222 255
197 222 255
198 223 255
198 223 255
198 223 255
198 223 255
198 223 255
198 223 255
198 223 255
198 223 255
198 223 255
198 223 255
198 223 255
198 223 255
198 223 255
198 223 255
199 223 255
199 223 255
199 223 255
199 223 255
199 223 255
199 223 255
199 223 255
199 223 255
199 223 255
199 223 255
199 223 255
199 223 255
199 223 255
199 224 255
199 224 255
200 224 255
200 224 255
200 224 255
200 224 255
200 224 255
200 224 255
200 224 255
200 224 255
200 224 255
200 224 255
200 224 255
200 224 255
200 224 255
200 224 255
201 224 255
201 224 255
201 224 255
201 224 255
201 224 255
201 224 255
201 224 255
201 224 255
201 224 255
201 224 255
201 224 255
201 225 255
201 225 255
201 225 255
201 225 255
202 225 255
202 225 255
202 225 255
202 225 255
202 225 255
202 225 255
202 225 255
202 225 255
202 225 255
202 225 255
202 225 255
202 225 255
202 225 255
202 225 255
202 225 255
202 225 255
203 225 255
203 225 255
203 225 255
203 225 255
203 225 255
203 225 255
203 225 255
203 225 255
203 225 255
203 226 255
203 226 255
203 226 255
203 226 255
203 226 255
203 226 255
203 226 255
204 226 255
204 226 255
204 226 255
204 226 255
204 226 255
204 226 255
204 226 255
204 226 255
204 226 255
204 226 255
204 226 255
204 226 255
204 226 255
204 226 255
204 226 255
204 226 255
204 226 255
204 226 255
205 226 255
205 226 255
204 226 255
204 226 255
204 226 255
204 226 255
204 226 255
204 226 255
204 226 255
204 226 255
204 226 255
204 226 255
204 226 255
204 226 255
204 226 255
204 226 255
204 226 255
204 226 255
204 226 255
204 226 255
203 226 255
203 226 255
203 226 255
203 226 255
203 226 255
203 226 255
203 226 255
203 225 255
203 225 255
203 225 255
203 225 255
203 225 255
203 225 255
203 225 255
203 225 255
203 225 255
202 225 255
202 225 255
202 225 255
202 225 255
202 225 255
202 225 255
202 225 255
202 225 255
202 225 255
202 225 255
202 225 255
202 225 255
202 225 255
202 225 255
202 225 255
201 225 255
201 225 255
201 225 255
201 225 255
201 225 255
201 224 255
201 224 255
201 224 255
201 224 255
201 224 255
201 224 255
201 224 255
201 224 255
201 224 255
201 224 255
200 224 255
201 224 255
200 224 255
200 224 255
200 224 255
200 224 255
200 224 255
200 224 255
200 224 255
200 224 255
200 224 255
200 224 255
200 224 255
200 224 255
200 224 255
199 224 255
199 224 255
199 224 255
199 223 255
199 223 255
199 223 255
199 223 255
199 223 255
199 223 255
199 223 255
199 223 255
199 223 255
199 223 255
199 223 255
199 223 255
198 223 255
198 223 255
198 223 255
198 223 255
198 223 255
198 223 255
198 223 255
198 223 255
198 223 255
198 223 255
198 223 255
198 223 255
198 223 255
197 223 255
198 223 255
197 222 255
197 222 255
197 222 255
197 222 255
197 222 255
197 222 255
197 222 255
197 222 255
197 222 255
197 222 255
197 222 255
197 222 255
197 222 255
196 222 255
196 222 255
196 222 255
196 222 255
196 222 255
196 222 255
196 222 255
196 222 255
196 222 255
196 222 255
196 222 255
196 222 255
196 222 255
196 222 255
196 222 255
196 222 255
196 221 255
195 221 255
195 221 255
195 221 255
195 221 255
195 221 255
195 221 255
195 221 255
195 221 255
195 221 255
195 221 255
195 221 255
195 221 255
195 221 255
195 221 255
195 221 255
195 221 255
195 221 255
195 221 255
195 221 255
194 221 255
194 221 255
195 221 255
194 221 255
194 221 255
194 221 255
194 221 255
194 221 255
194 221 255
194 221 255
194 221 255
194 221 255
194 221 255
194 221 255
194 221 255
194 221 255
194 221 255
194 221 255
194 221 255
194 221 255
194 221 255
194 221 255
194 221 255
194 221 255
194 221 255
194 221 255
194 221 255
194 221 255
194 221 255
194 221 255
194 221 255
194 221 255
194 220 255
194 221 255
194 221 255
194 221 255
194 220 255
194 221 255
194 221 255
194 220 255
194 220 255
194 220 255
194 221 255
194 220 255
194 221 255
194 221 255
194 220 255
194 221 255
194 221 255
194 221 255
194 221 255
194 221 255
194 221 255
194 221 255
194 221 255
194 221 255
194 221 255
194 221 255
194 221 255
194 221 255
194 221 255
194 221 255
194 221 255
194 221 255
194 221 255
194 221 255
194 221 255
194 221 255
194 221 255
194 221 255
194 221 255
194 221 255
194 221 255
194 221 255
194 221 255
194 221 255
194 221 255
195 221 255
194 221 255
195 221 255
195 221 255
195 221 255
195 221 255
195 221 255
195 221 255
195 221 255
195 221 255
195 221 255
195 221 255
195 221 255
195 221 255
195 221 255
195 221 255
195 221 255
195 221 255
195 221 255
195 221 255
195 221 255
195 221 255
196 222 255
196 221 255
196 222 255
196 222 255
196 222 255
196 222 255
196 222 255
196 222 255
196 222 255
196 222 255
196 222 255
196 222 255
196 222 255
196 222 255
196 222 255
196 222 255
196 222 255
197 222 255
197 222 255
197 222 255
197 222 255
197 222 255
197 222 255
197 222 255
197 222 255
197 222 255
197 222 255
197 222 255
197 222 255
197 223 255
197 222 255
198 223 255
198 223 255
198 223 255
198 223 255
198 223 255
198 223 255
198 223 255
198 223 255
198 223 255
198 223 255
198 223 255
198 223 255
198 223 255
198 223 255
199 223 255
199 223 255
199 223 255
199 223 255
199 223 255
199 223 255
199 223 255
199 223 255
199 223 255
199 223 255
199 223 255
199 224 255
199 224 255
199 224 255
200 224 255
200 224 255
200 224 255
200 224 255
200 224 255
200 224 255
200 224 255
200 224 255
200 224 255
200 224 255
200 224 255
200 224 255
200 224 255
200 224 255
200 224 255
201 224 255
201 224 255
201 224 255
201 224 255
201 224 255
201 224 255
201 224 255
201 224 255
201 224 255
201 224 255
201 225 255
201 225 255
201 225 255
201 225 255
201 225 255
202 225 255
202 225 255
202 225 255
202 225 255
202 225 255
202 225 255
202 225 255
202 225 255
202 225 255
202 225 255
202 225 255
202 225 255
202 225 255
202 225 255
203 225 255
203 225 255
202 225 255
203 225 255
203 225 255
203 225 255
203 225 255
203 225 255
203 225 255
203 225 255
203 225 255
203 226 255
203 226 255
203 226 255
203 226 255
203 226 255
203 226 255
203 226 255
204 226 255
204 226 255
204 226 255
204 226 255
204 226 255
204 226 255
204 226 255
204 226 255
204 226 255
204 226 255
204 226 255
204 226 255
204 226 255
204 226 255
204 226 255
204 226 255
204 226 255
205 226 255
205 226 255
205 226 255
205 226 255
205 226 255
205 226 255
205 226 255
205 226 255
204 226 255
204 226 255
204 226 255
204 226 255
204 226 255
204 226 255
204 226 255
204 226 255
204 226 255
204 226 255
204 226 255
204 226 255
204 226 255
204 226 255
204 226 255
204 226 255
204 226 255
203 226 255
203 226 255
203 226 255
203 226 255
203 226 255
203 226 255
203 226 255
203 226 255
203 225 255
203 225 255
203 225 255
203 225 255
203 225 255
203 225 255
203 225 255
203 225 255
203 225 255
202 225 255
202 225 255
202 225 255
202 225 255
202 225 255
202 225 255
202 225 255
202 225 255
202 225 255
202 225 255
202 225 255
202 225 255
202 225 255
202 225 255
202 225 255
201 225 255
201 225 255
201 225 255
201 225 255
201 225 255
201 224 255
201 224 255
201 224 255
201 224 255
201 224 255
201 224 255
201 224 255
201 224 255
201 224 255
201 224 255
200 224 255
200 224 255
200 224 255
200 224 255
200 224 255
200 224 255
200 224 255
200 224 255
200 224 255
200 224 255
200 224 255
200 224 255
200 224 255
200 224 255
199 224 255
199 224 255
199 223 255
199 223 255
199 223 255
199 223 255
199 223 255
199 223 255
199 223 255
199 223 255
199 223 255
199 223 255
199 223 255
199 223 255
198 223 255
198 223 255
198 223 255
198 223 255
198 223 255
198 223 255
198 223 255
198 223 255
198 223 255
198 223 255
198 223 255
198 223 255
198 223 255
198 223 255
198 223 255
198 223 255
197 223 255
197 222 255
197 222 255
197 222 255
197 222 255
197 222 255
197 222 255
197 222 255
197 222 255
197 222 255
197 222 255
197 222 255
197 222 255
197 222 255
197 222 255
196 222 255
196 222 255
196 222 255
196 222 255
196 222 255
196 222 255
196 222 255
196 222 255
196 222 255
196 222 255
196 222 255
196 222 255
196 222 255
196 222 255
196 221 255
195 221 255
195 221 255
195 221 255
195 221 255
195 221 255
195 221 255
195 221 255
195 221 255
195 221 255
195 221 255
195 221 255
195 221 255
195 221 255
195 221 255
195 221 255
195 221 255
195 221 255
195 221 255
195 221 255
195 221 255
195 221 255
195 221 255
195 221 255
194 221 255
194 221 255
194 221 255
194 221 255
194 221 255
194 221 255
194 221 255
194 221 255
194 221 255
194 221 255
194 221 255
194 221 255
194 221 255
194 221 255
194 221 255
194 221 255
194 221 255
194 221 255
194 221 255
194 221 255
194 221 255
194 221 255
194 221 255
194 221 255
194 221 255
194 221 255
194 221 255
194 221 255
194 221 255
194 221 255
194 221 255
194 221 255
194 221 255
194 221 255
194 221 255
194 221 255
194 221 255
194 221 255
194 221 255
194 221 255
194 221 255
194 221 255
194 221 255
194 221 255
194 221 255
194 221 255
194 221 255
194 221 255
194 221 255
194 221 255
194 221 255
194 221 255
194 221 255
194 221 255
194 221 255
194 221 255
194 221 255
194 221 255
194 221 255
194 221 255
194 221 255
194 221 255
194 221 255
194 221 255
194 221 255
194 221 255
194 221 255
194 221 255
194 221 255
194 221 255
194 221 255
195 221 255
195 221 255
195 221 255
195 221 255
195 221 255
195 221 255
195 221 255
195 221 255
195 221 255
195 221 255
195 221 255
195 221 255
195 221 255
195 221 255
195 221 255
195 221 255
195 221 255
195 221 255
195 221 255
196 221 255
196 222 255
196 222 255
196 222 255
196 222 255
196 222 255
196 222 255
196 222 255
196 222 255
196 222 255
196 222 255
196 222 255
196 222 255
196 222 255
196 222 255
196 222 255
197 222 255
197 222 255
197 222 255
197 222 255
197 222 255
197 222 255
197 222 255
197 222 255
197 222 255
197 222 255
197 222 255
197 222 255
197 222 255
197 222 255
197 222 255
198 223 255
198 223 255
198 223 255
198 223 255
198 223 255
198 223 255
198 223 255
198 223 255
198 223 255
198 223 255
198 223 255
198 223 255
198 223 255
198 223 255
198 223 255
198 223 255
199 223 255
199 223 255
199 223 255
199 223 255
199 223 255
199 223 255
199 223 255
199 223 255
199 223 255
199 223 255
199 223 255
199 223 255
199 224 255
199 224 255
200 224 255
200 224 255
200 224 255
200 224 255
200 224 255
200 224 255
200 224 255
200 224 255
200 224 255
200 224 255
200 224 255
200 224 255
200 224 255
200 224 255
201 224 255
201 224 255
201 224 255
201 224 255
201 224 255
201 224 255
201 224 255
201 224 255
201 224 255
201 224 255
201 224 255
201 225 255
201 225 255
201 225 255
202 225 255
202 225 255
202 225 255
202 225 255
202 225 255
202 225 255
202 225 255
202 225 255
202 225 255
202 225 255
202 225 255
202 225 255
202 225 255
202 225 255
202 225 255
202 225 255
203 225 255
203 225 255
203 225 255
203 225 255
203 225 255
203 225 255
203 225 255
203 225 255
203 225 255
203 226 255
203 226 255
203 226 255
203 226 255
203 226 255
203 226 255
203 226 255
203 226 255
204 226 255
204 226 255
204 226 255
204 226 255
204 226 255
204 226 255
204 226 255
204 226 255
204 226 255
204 226 255
204 226 255
204 226 255
204 226 255
204 226 255
204 226 255
204 226 255
204 226 255
204 226 255
205 226 255
205 226 255
205 226 255
205 226 255
205 226 255
205 226 255
205 226 255
205 226 255
205 226 255
205 226 255
205 226 255
204 226 255
204 226 255
204 226 255
204 226 255
204 226 255
204 226 255
204 226 255
204 226 255
204 226 255
204 226 255
204 226 255
204 226 255
204 226 255
204 226 255
204 226 255
204 226 255
204 226 255
203 226 255
203 226 255
203 226 255
203 226 255
203 226 255
203 226 255
203 226 255
203 226 255
203 225 255
203 225 255
203 225 255
203 225 255
203 225 255
203 225 255
203 225 255
203 225 255
202 225 255
203 225 255
202 225 255
202 225 255
202 225 255
202 225 255
202 225 255
202 225 255
202 225 255
202 225 255
202 225 255
202 225 255
202 225 255
202 225 255
202 225 255
202 225 255
201 225 255
201 225 255
201 225 255
201 225 255
201 225 255
201 224 255
201 224 255
201 224 255
201 224 255
201 224 255
201 224 255
201 224 255
201 224 255
201 224 255
201 224 255
201 224 255
200 224 255
200 224 255
200 224 255
200 224 255
200 224 255
200 224 255
200 224 255
200 224 255
200 224 255
200 224 255
200 224 255
200 224 255
200 224 255
199 224 255
199 224 255
199 223 255
199 223 255
199 223 255
199 223 255
199 223 255
199 223 255
199 223 255
199 223 255
199 223 255
199 223 255
199 223 255
199 223 255
199 223 255
198 223 255
198 223 255
198 223 255
198 223 255
198 223 255
198 223 255
198 223 255
198 223 255
198 223 255
198 223 255
198 223 255
198 223 255
198 223 255
198 223 255
197 223 255
197 223 255
197 222 255
197 222 255
197 222 255
197 222 255
197 222 255
197 222 255
197 222 255
197 222 255
197 222 255
197 222 255
197 222 255
197 222 255
197 222 255
196 222 255
196 222 255
196 222 255
196 222 255
196 222 255
196 222 255
196 222 255
196 222 255
196 222 255
196 222 255
196 222 255
196 222 255
196 222 255
196 222 255
196 222 255
196 222 255
196 222 255
195 221 255
195 221 255
195 221 255
195 221 255
195 221 255
195 221 255
195 221 255
195 221 255
195 221 255
195 221 255
195 221 255
195 221 255
195 221 255
195 221 255
195 221 255
195 221 255
195 221 255
195 221 255
195 221 255
195 221 255
195 221 255
195 221 255
195 221 255
194 221 255
194 221 255
194 221 255
194 221 255
194 221 255
194 221 255
194 221 255
194 221 255
194 221 255
194 221 255
194 221 255
194 221 255
194 221 255
194 221 255
194 221 255
194 221 255
194 221 255
194 221 255
194 221 255
194 221 255
194 221 255
194 221 255
194 221 255
194 221 255
194 221 255
194 221 255
194 221 255
194 221 255
194 221 255
194 221 255
194 221 255
194 221 255
194 221 255
194 221 255
194 221 255
194 221 255
194 221 255
194 221 255
194 221 255
194 221 255
194 221 255
194 221 255
194 221 255
194 221 255
194 221 255
194 221 255
194 221 255
194 221 255
194 221 255
194 221 255
194 221 255
194 221 255
194 221 255
194 221 255
194 221 255
194 221 255
194 221 255
194 221 255
194 221 255
194 221 255
194 221 255
194 221 255
195 221 255
195 221 255
195 221 255
195 221 255
195 221 255
195 221 255
195 221 255
195 221 255
195 221 255
195 221 255
195 221 255
195 221 255
195 221 255
195 221 255
195 221 255
195 221 255
195 221 255
195 221 255
195 221 255
195 221 255
195 221 255
195 221 255
196 221 255
196 221 255
196 222 255
196 222 255
196 222 255
196 222 255
196 222 255
196 222 255
196 222 255
196 222 255
196 222 255
196 222 255
196 222 255
196 222 255
196 222 255
196 222 255
196 222 255
197 222 255
197 222 255
197 222 255
197 222 255
197 222 255
197 222 255
197 222 255
197 222 255
197 222 255
197 222 255
197 222 255
197 222 255
197 222 255
197 222 255
197 223 255
197 223 255
198 223 255
198 223 255
198 223 255
198 223 255
198 223 255
198 223 255
198 223 255
198 223 255
198 223 255
198 223 255
198 223 255
198 223 255
198 223 255
198 223 255
198 223 255
199 223 255
199 223 255
199 223 255
199 223 255
199 223 255
199 223 255
199 223 255
199 223 255
199 223 255
199 223 255
199 223 255
199 224 255
199 224 255
199 224 255
200 224 255
200 224 255
200 224 255
200 224 255
200 224 255
200 224 255
200 224 255
200 224 255
200 224 255
200 224 255
200 224 255
200 224 255
200 224 255
200 224 255
201 224 255
201 224 255
201 224 255
201 224 255
201 224 255
201 224 255
201 224 255
201 224 255
201 224 255
201 224 255
201 224 255
201 225 255
201 225 255
201 225 255
202 225 255
202 225 255
202 225 255
202 225 255
202 225 255
202 225 255
202 225 255
202 225 255
202 225 255
202 225 255
202 225 255
202 225 255
202 225 255
202 225 255
202 225 255
202 225 255
202 225 255
203 225 255
203 225 255
203 225 255
203 225 255
203 225 255
203 225 255
203 225 255
203 225 255
203 226 255
203 226 255
203 226 255
203 226 255
203 226 255
203 226 255
203 226 255
204 226 255
203 226 255
204 226 255
204 226 255
204 226 255
204 226 255
204 226 255
204 226 255
204 226 255
204 226 255
204 226 255
204 226 255
204 226 255
204 226 255
204 226 255
204 226 255
204 226 255
204 226 255
205 226 255
205 226 255
205 226 255
205 226 255
205 226 255
205 226 255
205 226 255
205 227 255
205 227 255
205 226 255
205 226 255
205 226 255
205 226 255
205 226 255
205 226 255
205 226 255
204 226 255
204 226 255
204 226 255
204 226 255
204 226 255
204 226 255
204 226 255
204 226 255
204 226 255
204 226 255
204 226 255
204 226 255
204 226 255
204 226 255
204 226 255
204 226 255
204 226 255
203 226 255
203 226 255
203 226 255
203 226 255
203 226 255
203 226 255
203 226 255
203 226 255
203 225 255
203 225 255
203 225 255
203 225 255
203 225 255
203 225 255
203 225 255
203 225 255
203 225 255
203 225 255
202 225 255
202 225 255
202 225 255
202 225 255
202 225 255
202 225 255
202 225 255
202 225 255
202 225 255
202 225 255
202 225 255
202 225 255
202 225 255
202 225 255
201 225 255
201 225 255
201 225 255
201 225 255
201 224 255
201 225 255
201 224 255
201 224 255
201 224 255
201 224 255
201 224 255
201 224 255
201 224 255
201 224 255
200 224 255
201 224 255
200 224 255
200 224 255
200 224 255
200 224 255
200 224 255
200 224 255
200 224 255
200 224 255
200 224 255
200 224 255
200 224 255
200 224 255
200 224 255
199 224 255
199 224 255
199 223 255
199 223 255
199 223 255
199 223 255
199 223 255
199 223 255
199 223 255
199 223 255
199 223 255
199 223 255
199 223 255
199 223 255
199 223 255
198 223 255
198 223 255
198 223 255
198 223 255
198 223 255
198 223 255
198 223 255
198 223 255
198 223 255
198 223 255
198 223 255
198 223 255
198 223 255
198 223 255
197 222 255
197 222 255
197 222 255
197 222 255
197 222 255
197 222 255
197 222 255
197 222 255
197 222 255
197 222 255
197 222 255
197 222 255
197 222 255
197 222 255
197 222 255
197 222 255
196 222 255
196 222 255
196 222 255
196 222 255
196 222 255
196 222 255
196 222 255
196 222 255
196 222 255
196 222 255
196 222 255
196 222 255
196 222 255
196 222 255
196 222 255
196 222 255
196 221 255
195 221 255
195 221 255
195 221 255
195 221 255
195 221 255
195 221 255
195 221 255
195 221 255
195 221 255
195 221 255
195 221 255
195 221 255
195 221 255
195 221 255
195 221 255
195 221 255
195 221 255
195 221 255
195 221 255
195 221 255
195 221 255
195 221 255
195 221 255
194 221 255
194 221 255
194 221 255
194 221 255
194 221 255
194 221 255
194 221 255
194 221 255
194 221 255
194 221 255
194 221 255
194 221 255
194 221 255
194 221 255
194 221 255
194 221 255
194 221 255
194 221 255
194 221 255
194 221 255
194 221 255
194 221 255
194 221 255
194 221 255
194 221 255
194 221 255
194 221 255
194 221 255
194 221 255
194 221 255
194 221 255
194 221 255
194 221 255
194 221 255
194 221 255
194 221 255
194 221 255
194 221 255
194 221 255
194 221 255
194 221 255
194 221 255
194 221 255
194 221 255
194 221 255
194 221 255
194 221 255
194 221 255
194 221 255
194 221 255
194 221 255
194 221 255
194 221 255
194 221 255
194 221 255
194 221 255
195 221 255
195 221 255
195 221 255
195 221 255
195 221 255
195 221 255
195 221 255
195 221 255
195 221 255
195 221 255
195 221 255
195 221 255
195 221 255
195 221 255
195 221 255
195 221 255
195 221 255
195 221 255
195 221 255
195 221 255
195 221 255
195 221 255
196 221 255
196 221 255
196 221 255
196 222 255
196 222 255
196 222 255
196 222 255
196 222 255
196 222 255
196 222 255
196 222 255
196 222 255
196 222 255
196 222 255
196 222 255
196 222 255
196 222 255
197 222 255
196 222 255
197 222 255
197 222 255
197 222 255
197 222 255
197 222 255
197 222 255
197 222 255
197 222 255
197 222 255
197 222 255
197 222 255
197 222 255
197 222 255
197 222 255
197 222 255
198 223 255
198 223 255
198 223 255
198 223 255
198 223 255
198 223 255
198 223 255
198 223 255
198 223 255
198 223 255
198 223 255
198 223 255
198 223 255
198 223 255
199 223 255
199 223 255
199 223 255
199 223 255
199 223 255
199 223 255
199 223 255
199 223 255
199 223 255
199 223 255
199 223 255
199 223 255
199 224 255
199 224 255
200 224 255
200 224 255
200 224 255
200 224 255
200 224 255
200 224 255
200 224 255
200 224 255
200 224 255
200 224 255
200 224 255
200 224 255
200 224 255
200 224 255
201 224 255
201 224 255
201 224 255
201 224 255
201 224 255
201 224 255
201 224 255
201 224 255
201 224 255
201 224 255
201 225 255
201 225 255
201 225 255
201 225 255
201 225 255
201 225 255
202 225 255
202 225 255
202 225 255
202 225 255
202 225 255
202 225 255
202 225 255
202 225 255
202 225 255
202 225 255
202 225 255
202 225 255
202 225 255
202 225 255
202 225 255
203 225 255
203 225 255
203 225 255
203 225 255
203 225 255
203 225 255
203 225 255
203 225 255
203 225 255
203 225 255
203 226 255
203 226 255
203 226 255
203 226 255
203 226 255
203 226 255
203 226 255
204 226 255
204 226 255
204 226 255
204 226 255
204 226 255
204 226 255
204 226 255
204 226 255
204 226 255
204 226 255
204 226 255
204 226 255
204 226 255
204 226 255
204 226 255
204 226 255
204 226 255
205 226 255
205 226 255
205 226 255
205 226 255
205 226 255
205 226 255
205 226 255
205 227 255
205 227 255
205 227 255
205 227 255
205 227 255
205 227 255
205 226 255
205 226 255
205 226 255
205 226 255
205 226 255
205 226 255
205 226 255
205 226 255
204 226 255
204 226 255
204 226 255
204 226 255
204 226 255
204 226 255
204 226 255
204 226 255
204 226 255
204 226 255
204 226 255
204 226 255
204 226 255
204 226 255
204 226 255
204 226 255
204 226 255
204 226 255
203 226 255
203 226 255
203 226 255
203 226 255
203 226 255
203 225 255
203 225 255
203 226 255
203 225 255
203 225 255
203 225 255
203 225 255
203 225 255
203 225 255
203 225 255
203 225 255
202 225 255
202 225 255
202 225 255
202 225 255
202 225 255
202 225 255
202 225 255
202 225 255
202 225 255
202 225 255
202 225 255
202 225 255
202 225 255
202 225 255
201 225 255
202 225 255
201 225 255
201 225 255
201 225 255
201 225 255
201 224 255
201 224 255
201 224 255
201 224 255
201 224 255
201 224 255
201 224 255
201 224 255
201 224 255
201 224 255
200 224 255
200 224 255
200 224 255
200 224 255
200 224 255
200 224 255
200 224 255
200 224 255
200 224 255
200 224 255
200 224 255
200 224 255
200 224 255
200 224 255
199 224 255
199 224 255
199 224 255
199 223 255
199 223 255
199 223 255
199 223 255
199 223 255
199 223 255
199 223 255
199 223 255
199 223 255
199 223 255
199 223 255
199 223 255
198 223 255
198 223 255
198 223 255
198 223 255
198 223 255
198 223 255
198 223 255
198 223 255
198 223 255
198 223 255
198 223 255
198 223 255
198 223 255
197 223 255
198 223 255
197 222 255
197 222 255
197 222 255
197 222 255
197 222 255
197 222 255
197 222 255
197 222 255
197 222 255
197 222 255
197 222 255
197 222 255
197 222 255
197 222 255
197 222 255
196 222 255
196 222 255
196 222 255
196 222 255
196 222 255
196 222 255
196 222 255
196 222 255
196 222 255
196 222 255
196 222 255
196 222 255
196 222 255
196 222 255
196 222 255
196 221 255
195 221 255
196 221 255
195 221 255
195 221 255
195 221 255
195 221 255
195 221 255
195 221 255
195 221 255
195 221 255
195 221 255
195 221 255
195 221 255
195 221 255
195 221 255
195 221 255
195 221 255
195 221 255
195 221 255
195 221 255
195 221 255
195 221 255
195 221 255
195 221 255
195 221 255
195 221 255
194 221 255
194 221 255
194 221 255
194 221 255
194 221 255
194 221 255
194 221 255
194 221 255
194 221 255
194 221 255
194 221 255
194 221 255
194 221 255
194 221 255
194 221 255
194 221 255
194 221 255
194 221 255
194 221 255
194 221 255
194 221 255
194 221 255
194 221 255
194 221 255
194 221 255
194 221 255
194 221 255
194 221 255
194 221 255
194 221 255
194 221 255
194 221 255
194 221 255
194 221 255
194 221 255
194 221 255
194 221 255
194 221 255
194 221 255
194 221 255
194 221 255
194 221 255
194 221 255
195 221 255
194 221 255
195 221 255
195 221 255
195 221 255
195 221 255
195 221 255
195 221 255
195 221 255
195 221 255
195 221 255
195 221 255
195 221 255
195 221 255
195 221 255
195 221 255
195 221 255
195 221 255
195 221 255
195 221 255
195 221 255
195 221 255
195 221 255
195 221 255
195 221 255
195 221 255
195 221 255
195 221 255
196 221 255
196 222 255
196 222 255
196 222 255
196 222 255
196 222 255
196 222 255
196 222 255
196 222 255
196 222 255
196 222 255
196 222 255
196 222 255
196 222 255
196 222 255
196 222 255
196 222 255
197 222 255
196 222 255
197 222 255
197 222 255
197 222 255
197 222 255
197 222 255
197 222 255
197 222 255
197 222 255
197 222 255
197 222 255
197 222 255
197 222 255
197 222 255
197 222 255
198 223 255
198 223 255
198 223 255
198 223 255
198 223 255
198 223 255
198 223 255
198 223 255
198 223 255
198 223 255
198 223 255
198 223 255
198 223 255
198 223 255
199 223 255
199 223 255
199 223 255
199 223 255
199 223 255
199 223 255
199 223 255
199 223 255
199 223 255
199 223 255
199 223 255
199 223 255
199 223 255
199 223 255
199 224 255
199 224 255
199 224 255
200 224 255
200 224 255
200 224 255
200 224 255
200 224 255
200 224 255
200 224 255
200 224 255
200 224 255
200 224 255
200 224 255
200 224 255
201 224 255
201 224 255
201 224 255
201 224 255
201 224 255
201 224 255
201 224 255
201 224 255
201 224 255
201 224 255
201 224 255
201 225 255
201 225 255
201 225 255
202 225 255
202 225 255
202 225 255
202 225 255
202 225 255
202 225 255
202 225 255
202 225 255
202 225 255
202 225 255
202 225 255
202 225 255
202 225 255
202 225 255
202 225 255
202 225 255
202 225 255
203 225 255
203 225 255
203 225 255
203 225 255
203 225 255
203 225 255
203 225 255
203 225 255
203 225 255
203 226 255
203 226 255
203 226 255
203 226 255
203 226 255
203 226 255
203 226 255
204 226 255
204 226 255
204 226 255
204 226 255
204 226 255
204 226 255
204 226 255
204 226 255
204 226 255
204 226 255
204 226 255
204 226 255
204 226 255
204 226 255
204 226 255
204 226 255
204 226 255
205 226 255
205 226 255
205 226 255
205 226 255
205 226 255
205 226 255
205 227 255
205 227 255
205 226 255
205 227 255
205 227 255
205 227 255
205 227 255
205 227 255
205 227 255
205 227 255
205 227 255
205 226 255
205 227 255
205 227 255
205 226 255
205 226 255
205 226 255
205 226 255
205 226 255
205 226 255
204 226 255
204 226 255
204 226 255
204 226 255
204 226 255
204 226 255
204 226 255
204 226 255
204 226 255
204 226 255
204 226 255
204 226 255
204 226 255
204 226 255
204 226 255
204 226 255
204 226 255
204 226 255
203 226 255
203 226 255
203 226 255
203 226 255
203 226 255
203 226 255
203 226 255
203 225 255
203 225 255
203 225 255
203 225 255
203 225 255
203 225 255
203 225 255
203 225 255
202 225 255
202 225 255
202 225 255
202 225 255
202 225 255
202 225 255
202 225 255
202 225 255
202 225 255
202 225 255
202 225 255
202 225 255
202 225 255
202 225 255
202 225 255
202 225 255
201 225 255
201 225 255
201 225 255
201 225 255
201 224 255
201 224 255
201 224 255
201 224 255
201 224 255
201 224 255
201 224 255
201 224 255
201 224 255
201 224 255
200 224 255
201 224 255
200 224 255
200 224 255
200 224 255
200 224 255
200 224 255
200 224 255
200 224 255
200 224 255
200 224 255
200 224 255
200 224 255
200 224 255
199 224 255
200 224 255
199 224 255
199 223 255
199 223 255
199 223 255
199 223 255
199 223 255
199 223 255
199 223 255
199 223 255
199 223 255
199 223 255
199 223 255
199 223 255
198 223 255
198 223 255
198 223 255
198 223 255
198 223 255
198 223 255
198 223 255
198 223 255
198 223 255
198 223 255
198 223 255
198 223 255
198 223 255
198 223 255
198 223 255
197 223 255
197 222 255
197 222 255
197 222 255
197 222 255
197 222 255
197 222 255
197 222 255
197 222 255
197 222 255
197 222 255
197 222 255
197 222 255
197 222 255
197 222 255
197 222 255
196 222 255
196 222 255
196 222 255
196 222 255
196 222 255
196 222 255
196 222 255
196 222 255
196 222 255
196 222 255
196 222 255
196 222 255
196 222 255
196 222 255
196 222 255
196 222 255
196 221 255
196 221 255
195 221 255
195 221 255
195 221 255
195 221 255
195 221 255
195 221 255
195 221 255
195 221 255
195 221 255
195 221 255
195 221 255
195 221 255
195 221 255
195 221 255
195 221 255
195 221 255
195 221 255
195 221 255
195 221 255
195 221 255
195 221 255
195 221 255
195 221 255
195 221 255
195 221 255
195 221 255
195 221 255
195 221 255
195 221 255
195 221 255
194 221 255
194 221 255
194 221 255
194 221 255
194 221 255
194 221 255
194 221 255
194 221 255
194 221 255
194 221 255
194 221 255
194 221 255
194 221 255
194 221 255
194 221 255
194 221 255
194 221 255
194 221 255
194 221 255
194 221 255
194 221 255
194 221 255
194 221 255
194 221 255
194 221 255
194 221 255
194 221 255
194 221 255
194 221 255
195 221 255
195 221 255
195 221 255
194 221 255
195 221 255
195 221 255
195 221 255
195 221 255
195 221 255
195 221 255
195 221 255
195 221 255
195 221 255
195 221 255
195 221 255
195 221 255
195 221 255
195 221 255
195 221 255
195 221 255
195 221 255
195 221 255
195 221 255
195 221 255
195 221 255
195 221 255
195 221 255
195 221 255
195 221 255
195 221 255
195 221 255
196 221 255
196 222 255
196 222 255
196 222 255
196 222 255
196 222 255
196 222 255
196 222 255
196 222 255
196 222 255
196 222 255
196 222 255
196 222 255
196 222 255
196 222 255
196 222 255
196 222 255
196 222 255
197 222 255
197 222 255
197 222 255
197 222 255
197 222 255
197 222 255
197 222 255
197 222 255
197 222 255
197 222 255
197 222 255
197 222 255
197 222 255
197 222 255
197 222 255
197 222 255
198 223 255
198 223 255
198 223 255
198 223 255
198 223 255
198 223 255
198 223 255
198 223 255
198 223 255
198 223 255
198 223 255
198 223 255
198 223 255
198 223 255
199 223 255
199 223 255
199 223 255
199 223 255
199 223 255
199 223 255
199 223 255
199 223 255
199 223 255
199 223 255
199 223 255
199 223 255
199 224 255
199 224 255
199 224 255
199 224 255
200 224 255
200 224 255
200 224 255
200 224 255
200 224 255
200 224 255
200 224 255
200 224 255
200 224 255
200 224 255
200 224 255
200 224 255
200 224 255
200 224 255
201 224 255
201 224 255
201 224 255
201 224 255
201 224 255
201 224 255
201 224 255
201 224 255
201 224 255
201 224 255
201 225 255
201 225 255
201 225 255
201 225 255
202 225 255
202 225 255
202 225 255
202 225 255
202 225 255
202 225 255
202 225 255
202 225 255
202 225 255
202 225 255
202 225 255
202 225 255
202 225 255
202 225 255
202 225 255
203 225 255
203 225 255
203 225 255
203 225 255
203 225 255
203 225 255
203 225 255
203 225 255
203 225 255
203 225 255
203 226 255
203 226 255
203 226 255
203 226 255
203 226 255
203 226 255
203 226 255
204 226 255
204 226 255
204 226 255
204 226 255
204 226 255
204 226 255
204 226 255
204 226 255
204 226 255
204 226 255
204 226 255
204 226 255
204 226 255
204 226 255
204 226 255
204 226 255
204 226 255
204 226 255
205 226 255
205 226 255
205 226 255
205 226 255
205 226 255
205 227 255
205 226 255
205 227 255
205 227 255
205 227 255
205 227 255
205 227 255
205 227 255
205 227 255
205 227 255
205 227 255
205 227 255
205 227 255
205 227 255
205 227 255
205 227 255
205 227 255
205 227 255
205 226 255
205 226 255
205 226 255
205 226 255
205 226 255
205 226 255
205 226 255
204 226 255
204 226 255
204 226 255
204 226 255
204 226 255
204 226 255
204 226 255
204 226 255
204 226 255
204 226 255
204 226 255
204 226 255
204 226 255
204 226 255
204 226 255
204 226 255
203 226 255
203 226 255
203 226 255
203 226 255
203 226 255
203 226 255
203 226 255
203 225 255
203 225 255
203 225 255
203 225 255
203 225 255
203 225 255
203 225 255
203 225 255
203 225 255
202 225 255
202 225 255
202 225 255
202 225 255
202 225 255
202 225 255
202 225 255
202 225 255
202 225 255
202 225 255
202 225 255
202 225 255
202 225 255
202 225 255
202 225 255
202 225 255
202 225 255
201 225 255
201 225 255
201 225 255
201 225 255
201 225 255
201 224 255
201 224 255
201 224 255
201 224 255
201 224 255
201 224 255
201 224 255
201 224 255
201 224 255
200 224 255
200 224 255
200 224 255
200 224 255
200 224 255
200 224 255
200 224 255
200 224 255
200 224 255
200 224 255
200 224 255
200 224 255
200 224 255
200 224 255
199 224 255
199 224 255
199 223 255
199 224 255
199 223 255
199 223 255
199 223 255
199 223 255
199 223 255
199 223 255
199 223 255
199 223 255
199 223 255
199 223 255
199 223 255
198 223 255
198 223 255
198 223 255
198 223 255
198 223 255
198 223 255
198 223 255
198 223 255
198 223 255
198 223 255
198 223 255
198 223 255
198 223 255
198 223 255
198 223 255
198 223 255
197 222 255
197 222 255
197 222 255
197 222 255
197 222 255
197 222 255
197 222 255
197 222 255
197 222 255
197 222 255
197 222 255
197 222 255
197 222 255
197 222 255
197 222 255
196 222 255
196 222 255
196 222 255
196 222 255
196 222 255
196 222 255
196 222 255
196 222 255
196 222 255
196 222 255
196 222 255
196 222 255
196 222 255
196 222 255
196 222 255
196 221 255
196 222 255
196 221 255
196 222 255
195 221 255
195 221 255
195 221 255
195 221 255
195 221 255
195 221 255
195 221 255
195 221 255
195 221 255
195 221 255
195 221 255
195 221 255
195 221 255
195 221 255
195 221 255
195 221 255
195 221 255
195 221 255
195 221 255
195 221 255
195 221 255
195 221 255
195 221 255
195 221 255
195 221 255
195 221 255
195 221 255
195 221 255
195 221 255
195 221 255
195 221 255
195 221 255
195 221 255
195 221 255
195 221 255
194 221 255
195 221 255
195 221 255
194 221 255
194 221 255
194 221 255
194 221 255
194 221 255
195 221 255
194 221 255
195 221 255
195 221 255
194 221 255
195 221 255
194 221 255
195 221 255
195 221 255
195 221 255
195 221 255
195 221 255
195 221 255
195 221 255
195 221 255
195 221 255
195 221 255
195 221 255
195 221 255
195 221 255
195 221 255
195 221 255
195 221 255
195 221 255
195 221 255
195 221 255
195 221 255
195 221 255
195 221 255
195 221 255
195 221 255
195 221 255
195 221 255
195 221 255
195 221 255
195 221 255
195 221 255
195 221 255
195 221 255
196 221 255
195 221 255
196 222 255
196 222 255
196 222 255
196 222 255
196 222 255
196 222 255
196 222 255
196 222 255
196 222 255
196 222 255
196 222 255
196 222 255
196 222 255
196 222 255
196 222 255
196 222 255
196 222 255
196 222 255
197 222 255
197 222 255
197 222 255
197 222 255
197 222 255
197 222 255
197 222 255
197 222 255
197 222 255
197 222 255
197 222 255
197 222 255
197 222 255
197 222 255
197 222 255
198 223 255
198 223 255
198 223 255
198 223 255
198 223 255
198 223 255
198 223 255
198 223 255
198 223 255
198 223 255
198 223 255
198 223 255
198 223 255
198 223 255
199 223 255
198 223 255
199 223 255
199 223 255
199 223 255
199 223 255
199 223 255
199 223 255
199 223 255
199 223 255
199 223 255
199 223 255
199 223 255
199 223 255
199 224 255
199 224 255
200 224 255
200 224 255
200 224 255
200 224 255
200 224 255
200 224 255
200 224 255
200 224 255
200 224 255
200 224 255
200 224 255
200 224 255
200 224 255
200 224 255
201 224 255
201 224 255
201 224 255
201 224 255
201 224 255
201 224 255
201 224 255
201 224 255
201 224 255
201 224 255
201 225 255
201 225 255
201 225 255
201 225 255
201 225 255
202 225 255
202 225 255
202 225 255
202 225 255
202 225 255
202 225 255
202 225 255
202 225 255
202 225 255
202 225 255
202 225 255
202 225 255
202 225 255
202 225 255
202 225 255
203 225 255
203 225 255
203 225 255
203 225 255
203 225 255
203 225 255
203 225 255
203 225 255
203 225 255
203 226 255
203 226 255
203 226 255
203 226 255
203 226 255
203 226 255
203 226 255
203 226 255
204 226 255
204 226 255
204 226 255
204 226 255
204 226 255
204 226 255
204 226 255
204 226 255
204 226 255
204 226 255
204 226 255
204 226 255
204 226 255
204 226 255
204 226 255
204 226 255
205 226 255
205 226 255
205 226 255
205 226 255
205 226 255
205 226 255
205 226 255
205 226 255
205 227 255
205 227 255
205 227 255
205 227 255
205 227 255
205 227 255
205 227 255
205 227 255
205 227 255
206 227 255
205 227 255
205 227 255
205 227 255
205 227 255
205 227 255
205 227 255
205 227 255
205 227 255
205 227 255
205 227 255
205 226 255
205 226 255
205 226 255
205 226 255
205 226 255
205 226 255
205 226 255
204 226 255
204 226 255
204 226 255
204 226 255
204 226 255
204 226 255
204 226 255
204 226 255
204 226 255
204 226 255
204 226 255
204 226 255
204 226 255
204 226 255
204 226 255
204 226 255
204 226 255
204 226 255
203 226 255
203 226 255
203 226 255
203 226 255
203 226 255
203 226 255
203 226 255
203 226 255
203 225 255
203 225 255
203 225 255
203 225 255
203 225 255
203 225 255
203 225 255
203 225 255
202 225 255
202 225 255
202 225 255
202 225 255
202 225 255
202 225 255
202 225 255
202 225 255
202 225 255
202 225 255
202 225 255
202 225 255
202 225 255
202 225 255
202 225 255
202 225 255
201 225 255
201 225 255
201 225 255
201 225 255
201 225 255
201 224 255
201 224 255
201 224 255
201 224 255
201 224 255
201 224 255
201 224 255
201 224 255
200 224 255
201 224 255
200 224 255
200 224 255
200 224 255
200 224 255
200 224 255
200 224 255
200 224 255
200 224 255
200 224 255
200 224 255
200 224 255
200 224 255
200 224 255
200 224 255
199 224 255
199 224 255
199 223 255
199 223 255
199 223 255
199 223 255
199 223 255
199 223 255
199 223 255
199 223 255
199 223 255
199 223 255
199 223 255
198 223 255
198 223 255
198 223 255
198 223 255
198 223 255
198 223 255
198 223 255
198 223 255
198 223 255
198 223 255
198 223 255
198 223 255
198 223 255
198 223 255
198 223 255
197 222 255
197 223 255
197 222 255
197 222 255
197 222 255
197 222 255
197 222 255
197 222 255
197 222 255
197 222 255
197 222 255
197 222 255
197 222 255
197 222 255
197 222 255
197 222 255
197 222 255
196 222 255
196 222 255
196 222 255
196 222 255
196 222 255
196 222 255
196 222 255
196 222 255
196 222 255
196 222 255
196 222 255
196 222 255
196 222 255
196 222 255
196 222 255
196 222 255
196 222 255
196 221 255
196 221 255
196 222 255
196 221 255
195 221 255
195 221 255
195 221 255
195 221 255
195 221 255
195 221 255
195 221 255
195 221 255
195 221 255
195 221 255
195 221 255
195 221 255
195 221 255
195 221 255
195 221 255
195 221 255
195 221 255
195 221 255
195 221 255
195 221 255
195 221 255
195 221 255
195 221 255
195 221 255
195 221 255
195 221 255
195 221 255
195 221 255
195 221 255
195 221 255
195 221 255
195 221 255
195 221 255
195 221 255
195 221 255
195 221 255
195 221 255
195 221 255
195 221 255
195 221 255
195 221 255
195 221 255
195 221 255
195 221 255
195 221 255
195 221 255
195 221 255
195 221 255
195 221 255
195 221 255
195 221 255
195 221 255
195 221 255
195 221 255
195 221 255
195 221 255
195 221 255
195 221 255
195 221 255
195 221 255
195 221 255
195 221 255
195 221 255
195 221 255
195 221 255
195 221 255
195 221 255
195 221 255
195 221 255
195 221 255
195 221 255
195 221 255
195 221 255
195 221 255
196 221 255
196 221 255
196 222 255
196 222 255
196 222 255
196 222 255
196 222 255
196 222 255
196 222 255
196 222 255
196 222 255
196 222 255
196 222 255
196 222 255
196 222 255
196 222 255
196 222 255
196 222 255
196 222 255
196 222 255
196 222 255
197 222 255
197 222 255
197 222 255
197 222 255
197 222 255
197 222 255
197 222 255
197 222 255
197 222 255
197 222 255
197 222 255
197 222 255
197 222 255
197 222 255
197 222 255
197 223 255
197 223 255
198 223 255
198 223 255
198 223 255
198 223 255
198 223 255
198 223 255
198 223 255
198 223 255
198 223 255
198 223 255
198 223 255
198 223 255
198 223 255
198 223 255
199 223 255
199 223 255
199 223 255
199 223 255
199 223 255
199 223 255
199 223 255
199 223 255
199 223 255
199 223 255
199 223 255
199 223 255
199 223 255
200 224 255
199 224 255
200 224 255
200 224 255
200 224 255
200 224 255
200 224 255
200 224 255
200 224 255
200 224 255
200 224 255
200 224 255
200 224 255
200 224 255
200 224 255
201 224 255
201 224 255
201 224 255
201 224 255
201 224 255
201 224 255
201 224 255
201 224 255
201 224 255
201 224 255
201 224 255
201 225 255
201 225 255
201 225 255
201 225 255
202 225 255
202 225 255
202 225 255
202 225 255
202 225 255
202 225 255
202 225 255
202 225 255
202 225 255
202 225 255
202 225 255
202 225 255
202 225 255
202 225 255
202 225 255
203 225 255
203 225 255
203 225 255
203 225 255
203 225 255
203 225 255
203 225 255
203 225 255
203 225 255
203 225 255
203 226 255
203 226 255
203 226 255
203 226 255
203 226 255
203 226 255
203 226 255
204 226 255
204 226 255
204 226 255
204 226 255
204 226 255
204 226 255
204 226 255
204 226 255
204 226 255
204 226 255
204 226 255
204 226 255
204 226 255
204 226 255
204 226 255
204 226 255
204 226 255
205 226 255
205 226 255
205 226 255
205 226 255
205 226 255
205 226 255
205 226 255
205 226 255
205 227 255
205 227 255
205 227 255
205 227 255
205 227 255
205 227 255
205 227 255
205 227 255
205 227 255
205 227 255
205 227 255
206 227 255
206 227 255
206 227 255
205 227 255
205 227 255
205 227 255
205 227 255
205 227 255
205 227 255
205 227 255
205 227 255
205 227 255
205 227 255
205 226 255
205 227 255
205 226 255
205 226 255
205 226 255
205 226 255
205 226 255
205 226 255
205 226 255
204 226 255
204 226 255
204 226 255
204 226 255
204 226 255
204 226 255
204 226 255
204 226 255
204 226 255
204 226 255
204 226 255
204 226 255
204 226 255
204 226 255
204 226 255
203 226 255
204 226 255
203 226 255
203 226 255
203 226 255
203 226 255
203 226 255
203 226 255
203 225 255
203 225 255
203 225 255
203 225 255
203 225 255
203 225 255
203 225 255
203 225 255
203 225 255
203 225 255
202 225 255
202 225 255
202 225 255
202 225 255
202 225 255
202 225 255
202 225 255
202 225 255
202 225 255
202 225 255
202 225 255
202 225 255
202 225 255
202 225 255
202 225 255
201 225 255
201 225 255
201 225 255
201 224 255
201 224 255
201 224 255
201 224 255
201 224 255
201 224 255
201 224 255
201 224 255
201 224 255
201 224 255
201 224 255
200 224 255
200 224 255
200 224 255
200 224 255
200 224 255
200 224 255
200 224 255
200 224 255
200 224 255
200 224 255
200 224 255
200 224 255
200 224 255
200 224 255
200 224 255
200 224 255
199 224 255
199 224 255
199 223 255
199 223 255
199 223 255
199 223 255
199 223 255
199 223 255
199 223 255
199 223 255
199 223 255
199 223 255
199 223 255
199 223 255
198 223 255
198 223 255
198 223 255
198 223 255
198 223 255
198 223 255
198 223 255
198 223 255
198 223 255
198 223 255
198 223 255
198 223 255
198 223 255
198 223 255
198 223 255
197 223 255
197 222 255
197 222 255
197 222 255
197 222 255
197 222 255
197 222 255
197 222 255
197 222 255
197 222 255
197 222 255
197 222 255
197 222 255
197 222 255
197 222 255
197 222 255
196 222 255
196 222 255
196 222 255
196 222 255
196 222 255
196 222 255
196 222 255
196 222 255
196 222 255
196 222 255
196 222 255
196 222 255
196 222 255
196 222 255
196 222 255
196 222 255
196 222 255
196 222 255
196 222 255
195 221 255
196 221 255
195 221 255
195 221 255
195 221 255
195 221 255
195 221 255
195 221 255
195 221 255
195 221 255
195 221 255
195 221 255
195 221 255
195 221 255
195 221 255
195 221 255
195 221 255
195 221 255
195 221 255
195 221 255
195 221 255
195 221 255
195 221 255
195 221 255
195 221 255
195 221 255
195 221 255
195 221 255
195 221 255
195 221 255
195 221 255
195 221 255
195 221 255
195 221 255
195 221 255
195 221 255
195 221 255
195 221 255
195 221 255
195 221 255
195 221 255
195 221 255
195 221 255
195 221 255
195 221 255
195 221 255
195 221 255
195 221 255
195 221 255
195 221 255
195 221 255
195 221 255
195 221 255
195 221 255
195 221 255
195 221 255
195 221 255
195 221 255
195 221 255
195 221 255
195 221 255
195 221 255
195 221 255
195 221 255
195 221 255
195 221 255
195 221 255
195 221 255
195 221 255
195 221 255
196 221 255
196 221 255
196 222 255
196 222 255
196 222 255
196 222 255
196 222 255
196 222 255
196 222 255
196 222 255
196 222 255
196 222 255
196 222 255
196 222 255
196 222 255
196 222 255
196 222 255
196 222 255
196 222 255
196 222 255
196 222 255
197 222 255
196 222 255
197 222 255
197 222 255
197 222 255
197 222 255
197 222 255
197 222 255
197 222 255
197 222 255
197 222 255
197 222 255
197 222 255
197 222 255
197 222 255
197 223 255
197 223 255
198 223 255
198 223 255
198 223 255
198 223 255
198 223 255
198 223 255
198 223 255
198 223 255
198 223 255
198 223 255
198 223 255
198 223 255
198 223 255
198 223 255
198 223 255
198 223 255
199 223 255
199 223 255
199 223 255
199 223 255
199 223 255
199 223 255
199 223 255
199 223 255
199 223 255
199 223 255
199 223 255
199 223 255
199 224 255
200 224 255
200 224 255
200 224 255
200 224 255
200 224 255
200 224 255
200 224 255
200 224 255
200 224 255
200 224 255
200 224 255
200 224 255
200 224 255
200 224 255
200 224 255
201 224 255
201 224 255
201 224 255
201 224 255
201 224 255
201 224 255
201 224 255
201 224 255
201 224 255
201 224 255
201 225 255
201 225 255
201 225 255
202 225 255
202 225 255
202 225 255
202 225 255
202 225 255
202 225 255
202 225 255
202 225 255
202 225 255
202 225 255
202 225 255
202 225 255
202 225 255
202 225 255
202 225 255
202 225 255
203 225 255
203 225 255
203 225 255
203 225 255
203 225 255
203 225 255
203 225 255
203 225 255
203 225 255
203 225 255
203 226 255
203 226 255
203 226 255
203 226 255
203 226 255
203 226 255
203 226 255
204 226 255
204 226 255
204 226 255
204 226 255
204 226 255
204 226 255
204 226 255
204 226 255
204 226 255
204 226 255
204 226 255
204 226 255
204 226 255
204 226 255
204 226 255
204 226 255
204 226 255
205 226 255
205 226 255
205 226 255
205 226 255
205 226 255
205 226 255
205 227 255
205 226 255
205 227 255
205 227 255
205 227 255
205 227 255
205 227 255
205 227 255
205 227 255
205 227 255
205 227 255
206 227 255
206 227 255
206 227 255
206 227 255
206 227 255
206 227 255
206 227 255
206 227 255
206 227 255
205 227 255
205 227 255
205 227 255
205 227 255
205 227 255
205 227 255
205 227 255
205 227 255
205 227 255
205 227 255
205 227 255
205 226 255
205 226 255
205 226 255
205 226 255
205 226 255
205 226 255
205 226 255
204 226 255
204 226 255
204 226 255
204 226 255
204 226 255
204 226 255
204 226 255
204 226 255
204 226 255
204 226 255
204 226 255
204 226 255
204 226 255
204 226 255
204 226 255
204 226 255
204 226 255
204 226 255
203 226 255
203 226 255
203 226 255
203 226 255
203 226 255
203 226 255
203 225 255
203 225 255
203 225 255
203 225 255
203 225 255
203 225 255
203 225 255
203 225 255
203 225 255
203 225 255
202 225 255
202 225 255
202 225 255
202 225 255
202 225 255
202 225 255
202 225 255
202 225 255
202 225 255
202 225 255
202 225 255
202 225 255
202 225 255
202 225 255
202 225 255
201 225 255
201 225 255
201 225 255
201 224 255
201 224 255
201 224 255
201 224 255
201 224 255
201 224 255
201 224 255
201 224 255
201 224 255
201 224 255
200 224 255
200 224 255
200 224 255
200 224 255
200 224 255
200 224 255
200 224 255
200 224 255
200 224 255
200 224 255
200 224 255
200 224 255
200 224 255
200 224 255
200 224 255
199 224 255
199 224 255
199 223 255
199 223 255
199 223 255
199 223 255
199 223 255
199 223 255
199 223 255
199 223 255
199 223 255
199 223 255
199 223 255
199 223 255
199 223 255
199 223 255
198 223 255
198 223 255
198 223 255
198 223 255
198 223 255
198 223 255
198 223 255
198 223 255
198 223 255
198 223 255
198 223 255
198 223 255
198 223 255
198 223 255
198 223 255
197 222 255
197 222 255
197 222 255
197 222 255
197 222 255
197 222 255
197 222 255
197 222 255
197 222 255
197 222 255
197 222 255
197 222 255
197 222 255
197 222 255
197 222 255
197 222 255
196 222 255
196 222 255
196 222 255
196 222 255
196 222 255
196 222 255
196 222 255
196 222 255
196 222 255
196 222 255
196 222 255
196 222 255
196 222 255
196 222 255
196 222 255
196 222 255
196 222 255
196 222 255
196 222 255
196 222 255
196 222 255
196 221 255
195 221 255
195 221 255
195 221 255
195 221 255
195 221 255
195 221 255
195 221 255
195 221 255
195 221 255
195 221 255
195 221 255
195 221 255
195 221 255
195 221 255
195 221 255
195 221 255
195 221 255
195 221 255
195 221 255
195 221 255
195 221 255
195 221 255
195 221 255
195 221 255
195 221 255
195 221 255
195 221 255
195 221 255
195 221 255
195 221 255
195 221 255
195 221 255
195 221 255
195 221 255
195 221 255
195 221 255
195 221 255
195 221 255
195 221 255
195 221 255
195 221 255
195 221 255
195 221 255
195 221 255
195 221 255
195 221 255
195 221 255
195 221 255
195 221 255
195 221 255
195 221 255
195 221 255
195 221 255
195 221 255
195 221 255
195 221 255
195 221 255
195 221 255
195 221 255
195 221 255
195 221 255
195 221 255
195 221 255
196 222 255
196 222 255
196 222 255
196 222 255
196 222 255
196 222 255
196 222 255
196 222 255
196 222 255
196 222 255
196 222 255
196 222 255
196 222 255
196 222 255
196 222 255
196 222 255
196 222 255
196 222 255
196 222 255
197 222 255
197 222 255
197 222 255
197 222 255
197 222 255
197 222 255
197 222 255
197 222 255
197 222 255
197 222 255
197 222 255
197 222 255
197 222 255
197 222 255
197 222 255
197 222 255
197 222 255
197 222 255
197 223 255
198 223 255
198 223 255
198 223 255
198 223 255
198 223 255
198 223 255
198 223 255
198 223 255
198 223 255
198 223 255
198 223 255
198 223 255
198 223 255
198 223 255
198 223 255
199 223 255
199 223 255
199 223 255
199 223 255
199 223 255
199 223 255
199 223 255
199 223 255
199 223 255
199 223 255
199 223 255
199 223 255
199 224 255
199 224 255
200 224 255
200 224 255
200 224 255
200 224 255
200 224 255
200 224 255
200 224 255
200 224 255
200 224 255
200 224 255
200 224 255
200 224 255
200 224 255
200 224 255
200 224 255
201 224 255
201 224 255
201 224 255
201 224 255
201 224 255
201 224 255
201 224 255
201 224 255
201 224 255
201 224 255
201 225 255
201 225 255
201 225 255
201 225 255
201 225 255
202 225 255
202 225 255
202 225 255
202 225 255
202 225 255
202 225 255
202 225 255
202 225 255
202 225 255
202 225 255
202 225 255
202 225 255
202 225 255
202 225 255
203 225 255
203 225 255
203 225 255
203 225 255
203 225 255
203 225 255
203 225 255
203 225 255
203 225 255
203 225 255
203 226 255
203 226 255
203 226 255
203 226 255
203 226 255
204 226 255
203 226 255
204 226 255
204 226 255
204 226 255
204 226 255
204 226 255
204 226 255
204 226 255
204 226 255
204 226 255
204 226 255
204 226 255
204 226 255
204 226 255
204 226 255
204 226 255
204 226 255
204 226 255
205 226 255
205 226 255
205 226 255
205 226 255
205 226 255
205 226 255
205 226 255
205 227 255
205 227 255
205 227 255
205 227 255
205 227 255
205 227 255
205 227 255
205 227 255
205 227 255
205 227 255
205 227 255
205 227 255
206 227 255
206 227 255
206 227 255
206 227 255
206 227 255
206 227 255
206 227 255
206 227 255
206 227 255
206 227 255
206 227 255
206 227 255
205 227 255
205 227 255
205 227 255
205 227 255
205 227 255
205 227 255
205 227 255
205 227 255
205 227 255
205 227 255
205 227 255
205 227 255
205 226 255
205 226 255
205 226 255
205 226 255
205 226 255
205 226 255
204 226 255
204 226 255
204 226 255
204 226 255
204 226 255
204 226 255
204 226 255
204 226 255
204 226 255
204 226 255
204 226 255
204 226 255
204 226 255
204 226 255
204 226 255
204 226 255
204 226 255
204 226 255
203 226 255
203 226 255
203 226 255
203 226 255
203 226 255
203 226 255
203 225 255
203 225 255
203 225 255
203 225 255
203 225 255
203 225 255
203 225 255
203 225 255
202 225 255
203 225 255
202 225 255
202 225 255
202 225 255
202 225 255
202 225 255
202 225 255
202 225 255
202 225 255
202 225 255
202 225 255
202 225 255
202 225 255
202 225 255
202 225 255
202 225 255
201 225 255
201 225 255
201 225 255
201 224 255
201 224 255
201 224 255
201 224 255
201 224 255
201 224 255
201 224 255
201 224 255
201 224 255
201 224 255
200 224 255
200 224 255
200 224 255
200 224 255
200 224 255
200 224 255
200 224 255
200 224 255
200 224 255
200 224 255
200 224 255
200 224 255
200 224 255
200 224 255
199 224 255
199 224 255
199 224 255
199 224 255
199 223 255
199 223 255
199 223 255
199 223 255
199 223 255
199 223 255
199 223 255
199 223 255
199 223 255
199 223 255
199 223 255
198 223 255
198 223 255
198 223 255
198 223 255
198 223 255
198 223 255
198 223 255
198 223 255
198 223 255
198 223 255
198 223 255
198 223 255
198 223 255
198 223 255
198 223 255
197 223 255
197 222 255
197 222 255
197 222 255
197 222 255
197 222 255
197 222 255
197 222 255
197 222 255
197 222 255
197 222 255
197 222 255
197 222 255
197 222 255
197 222 255
197 222 255
197 222 255
197 222 255
196 222 255
197 222 255
196 222 255
196 222 255
196 222 255
196 222 255
196 222 255
196 222 255
196 222 255
196 222 255
196 222 255
196 222 255
196 222 255
196 222 255
196 222 255
196 222 255
196 222 255
196 222 255
196 222 255
196 222 255
196 221 255
196 222 255
196 221 255
196 221 255
196 221 255
196 221 255
195 221 255
195 221 255
195 221 255
195 221 255
195 221 255
195 221 255
195 221 255
195 221 255
195 221 255
195 221 255
195 221 255
195 221 255
195 221 255
195 221 255
195 221 255
195 221 255
195 221 255
195 221 255
195 221 255
195 221 255
195 221 255
195 221 255
195 221 255
195 221 255
195 221 255
195 221 255
195 221 255
195 221 255
195 221 255
195 221 255
195 221 255
195 221 255
195 221 255
195 221 255
195 221 255
195 221 255
195 221 255
195 221 255
195 221 255
195 221 255
195 221 255
195 221 255
195 221 255
195 221 255
195 221 255
195 221 255
195 221 255
195 221 255
195 221 255
196 221 255
196 221 255
196 221 255
196 222 255
196 221 255
196 222 255
196 222 255
196 222 255
196 222 255
196 222 255
196 222 255
196 222 255
196 222 255
196 222 255
196 222 255
196 222 255
196 222 255
196 222 255
196 222 255
196 222 255
196 222 255
196 222 255
196 222 255
196 222 255
197 222 255
197 222 255
197 222 255
197 222 255
197 222 255
197 222 255
197 222 255
197 222 255
197 222 255
197 222 255
197 222 255
197 222 255
197 222 255
197 222 255
197 222 255
197 222 255
197 222 255
197 223 255
198 223 255
198 223 255
198 223 255
198 223 255
198 223 255
198 223 255
198 223 255
198 223 255
198 223 255
198 223 255
198 223 255
198 223 255
198 223 255
198 223 255
198 223 255
199 223 255
199 223 255
199 223 255
199 223 255
199 223 255
199 223 255
199 223 255
199 223 255
199 223 255
199 223 255
199 223 255
199 223 255
199 223 255
199 224 255
199 224 255
200 224 255
200 224 255
200 224 255
200 224 255
200 224 255
200 224 255
200 224 255
200 224 255
200 224 255
200 224 255
200 224 255
200 224 255
200 224 255
201 224 255
200 224 255
201 224 255
201 224 255
201 224 255
201 224 255
201 224 255
201 224 255
201 224 255
201 224 255
201 224 255
201 224 255
201 225 255
201 225 255
201 225 255
201 225 255
202 225 255
202 225 255
202 225 255
202 225 255
202 225 255
202 225 255
202 225 255
202 225 255
202 225 255
202 225 255
202 225 255
202 225 255
202 225 255
202 225 255
203 225 255
203 225 255
203 225 255
203 225 255
203 225 255
203 225 255
203 225 255
203 225 255
203 225 255
203 225 255
203 225 255
203 226 255
203 226 255
203 226 255
203 226 255
203 226 255
203 226 255
203 226 255
204 226 255
204 226 255
204 226 255
204 226 255
204 226 255
204 226 255
204 226 255
204 226 255
204 226 255
204 226 255
204 226 255
204 226 255
204 226 255
204 226 255
204 226 255
204 226 255
205 226 255
205 226 255
205 226 255
205 226 255
205 226 255
205 226 255
205 227 255
205 227 255
205 227 255
205 227 255
205 227 255
205 227 255
205 227 255
205 227 255
205 227 255
205 227 255
205 227 255
205 227 255
205 227 255
206 227 255
206 227 255
206 227 255
206 227 255
206 227 255
206 227 255
206 227 255
206 227 255
206 227 255
206 227 255
206 227 255
206 227 255
206 227 255
206 227 255
206 227 255
206 227 255
206 227 255
205 227 255
205 227 255
205 227 255
205 227 255
205 227 255
205 227 255
205 227 255
205 227 255
205 227 255
205 227 255
205 227 255
205 227 255
205 227 255
205 226 255
205 226 255
205 226 255
205 226 255
205 226 255
205 226 255
204 226 255
204 226 255
204 226 255
204 226 255
204 226 255
204 226 255
204 226 255
204 226 255
204 226 255
204 226 255
204 226 255
204 226 255
204 226 255
204 226 255
204 226 255
204 226 255
204 226 255
203 226 255
203 226 255
203 226 255
203 226 255
203 226 255
203 226 255
203 226 255
203 225 255
203 225 255
203 225 255
203 225 255
203 225 255
203 225 255
203 225 255
202 225 255
202 225 255
202 225 255
202 225 255
202 225 255
202 225 255
202 225 255
202 225 255
202 225 255
202 225 255
202 225 255
202 225 255
202 225 255
202 225 255
202 225 255
202 225 255
202 225 255
201 225 255
201 225 255
201 225 255
201 225 255
201 224 255
201 224 255
201 224 255
201 224 255
201 224 255
201 224 255
201 224 255
201 224 255
201 224 255
201 224 255
200 224 255
200 224 255
200 224 255
200 224 255
200 224 255
200 224 255
200 224 255
200 224 255
200 224 255
200 224 255
200 224 255
200 224 255
200 224 255
200 224 255
200 224 255
199 224 255
199 223 255
199 224 255
199 223 255
199 223 255
199 223 255
199 223 255
199 223 255
199 223 255
199 223 255
199 223 255
199 223 255
199 223 255
199 223 255
198 223 255
198 223 255
198 223 255
198 223 255
198 223 255
198 223 255
198 223 255
198 223 255
198 223 255
198 223 255
198 223 255
198 223 255
198 223 255
198 223 255
198 223 255
198 223 255
197 222 255
197 222 255
197 222 255
197 222 255
197 222 255
197 222 255
197 222 255
197 222 255
197 222 255
197 222 255
197 222 255
197 222 255
197 222 255
197 222 255
197 222 255
197 222 255
196 222 255
197 222 255
197 222 255
196 222 255
196 222 255
196 222 255
196 222 255
196 222 255
196 222 255
196 222 255
196 222 255
196 222 255
196 222 255
196 222 255
196 222 255
196 222 255
196 222 255
196 222 255
196 222 255
196 222 255
196 222 255
196 222 255
196 222 255
196 222 255
196 221 255
196 221 255
196 222 255
196 222 255
196 221 255
196 221 255
195 221 255
195 221 255
195 221 255
195 221 255
195 221 255
195 221 255
195 221 255
195 221 255
195 221 255
195 221 255
195 221 255
195 221 255
195 221 255
195 221 255
195 221 255
195 221 255
195 221 255
195 221 255
195 221 255
195 221 255
195 221 255
195 221 255
195 221 255
195 221 255
195 221 255
195 221 255
195 221 255
195 221 255
195 221 255
195 221 255
195 221 255
195 221 255
195 221 255
195 221 255
195 221 255
195 221 255
196 221 255
196 221 255
196 222 255
196 221 255
196 221 255
196 222 255
196 222 255
196 222 255
196 222 255
196 222 255
196 222 255
196 222 255
196 222 255
196 222 255
196 222 255
196 222 255
196 222 255
196 222 255
196 222 255
196 222 255
196 222 255
196 222 255
196 222 255
196 222 255
196 222 255
196 222 255
196 222 255
196 222 255
196 222 255
197 222 255
197 222 255
197 222 255
197 222 255
197 222 255
197 222 255
197 222 255
197 222 255
197 222 255
197 222 255
197 222 255
197 222 255
197 222 255
197 222 255
197 222 255
197 222 255
197 223 255
197 222 255
198 223 255
198 223 255
198 223 255
198 223 255
198 223 255
198 223 255
198 223 255
198 223 255
198 223 255
198 223 255
198 223 255
198 223 255
198 223 255
198 223 255
199 223 255
198 223 255
199 223 255
199 223 255
199 223 255
199 223 255
199 223 255
199 223 255
199 223 255
199 223 255
199 223 255
199 223 255
199 223 255
199 223 255
199 224 255
199 224 255
200 224 255
200 224 255
200 224 255
200 224 255
200 224 255
200 224 255
200 224 255
200 224 255
200 224 255
200 224 255
200 224 255
200 224 255
200 224 255
200 224 255
201 224 255
201 224 255
201 224 255
201 224 255
201 224 255
201 224 255
201 224 255
201 224 255
201 224 255
201 224 255
201 224 255
201 225 255
201 225 255
201 225 255
201 225 255
201 225 255
202 225 255
202 225 255
202 225 255
202 225 255
202 225 255
202 225 255
202 225 255
202 225 255
202 225 255
202 225 255
202 225 255
202 225 255
202 225 255
202 225 255
203 225 255
203 225 255
203 225 255
203 225 255
203 225 255
203 225 255
203 225 255
203 225 255
203 225 255
203 226 255
203 226 255
203 226 255
203 226 255
203 226 255
203 226 255
203 226 255
204 226 255
204 226 255
204 226 255
204 226 255
204 226 255
204 226 255
204 226 255
204 226 255
204 226 255
204 226 255
204 226 255
204 226 255
204 226 255
204 226 255
204 226 255
204 226 255
205 226 255
205 226 255
205 226 255
205 226 255
205 226 255
205 226 255
205 226 255
205 227 255
205 227 255
205 227 255
205 227 255
205 227 255
205 227 255
205 227 255
205 227 255
205 227 255
205 227 255
205 227 255
206 227 255
206 227 255
206 227 255
206 227 255
206 227 255
206 227 255
206 227 255
206 227 255
206 227 255
206 227 255
206 227 255
206 227 255
206 227 255
206 227 255
206 227 255
206 227 255
206 227 255
206 227 255
206 227 255
206 227 255
206 227 255
206 227 255
206 227 255
206 227 255
205 227 255
205 227 255
205 227 255
205 227 255
205 227 255
205 227 255
205 227 255
205 227 255
205 227 255
205 227 255
205 227 255
205 226 255
205 226 255
205 226 255
205 226 255
205 226 255
205 226 255
205 226 255
205 226 255
204 226 255
204 226 255
204 226 255
204 226 255
204 226 255
204 226 255
204 226 255
204 226 255
204 226 255
204 226 255
204 226 255
204 226 255
204 226 255
204 226 255
204 226 255
204 226 255
204 226 255
203 226 255
203 226 255
203 226 255
203 226 255
203 226 255
203 226 255
203 225 255
203 225 255
203 225 255
203 225 255
203 225 255
203 225 255
203 225 255
203 225 255
203 225 255
203 225 255
202 225 255
202 225 255
202 225 255
202 225 255
202 225 255
202 225 255
202 225 255
202 225 255
202 225 255
202 225 255
202 225 255
202 225 255
202 225 255
202 225 255
201 225 255
201 225 255
201 225 255
201 224 255
201 225 255
201 224 255
201 224 255
201 224 255
201 224 255
201 224 255
201 224 255
201 224 255
201 224 255
201 224 255
200 224 255
200 224 255
200 224 255
200 224 255
200 224 255
200 224 255
200 224 255
200 224 255
200 224 255
200 224 255
200 224 255
200 224 255
200 224 255
200 224 255
200 224 255
200 224 255
199 224 255
199 223 255
199 223 255
199 223 255
199 223 255
199 223 255
199 223 255
199 223 255
199 223 255
199 223 255
199 223 255
199 223 255
199 223 255
199 223 255
198 223 255
198 223 255
198 223 255
198 223 255
198 223 255
198 223 255
198 223 255
198 223 255
198 223 255
198 223 255
198 223 255
198 223 255
198 223 255
198 223 255
198 223 255
197 222 255
197 222 255
197 222 255
197 222 255
197 222 255
197 222 255
197 222 255
197 222 255
197 222 255
197 222 255
197 222 255
197 222 255
197 222 255
197 222 255
197 222 255
197 222 255
197 222 255
197 222 255
197 222 255
197 222 255
196 222 255
196 222 255
196 222 255
196 222 255
196 222 255
196 222 255
196 222 255
196 222 255
196 222 255
196 222 255
196 222 255
196 222 255
196 222 255
196 222 255
196 222 255
196 222 255
196 222 255
196 222 255
196 222 255
196 222 255
196 222 255
196 222 255
196 222 255
196 222 255
196 222 255
196 222 255
196 222 255
196 221 255
196 221 255
195 221 255
196 221 255
195 221 255
195 221 255
196 221 255
195 221 255
195 221 255
195 221 255
195 221 255
195 221 255
195 221 255
195 221 255
195 221 255
195 221 255
195 221 255
195 221 255
196 221 255
196 221 255
195 221 255
195 221 255
195 221 255
195 221 255
195 221 255
195 221 255
196 222 255
196 222 255
196 221 255
196 222 255
196 222 255
196 222 255
196 222 255
196 222 255
196 222 255
196 222 255
196 222 255
196 222 255
196 222 255
196 222 255
196 222 255
196 222 255
196 222 255
196 222 255
196 222 255
196 222 255
196 222 255
196 222 255
196 222 255
196 222 255
196 222 255
196 222 255
196 222 255
196 222 255
196 222 255
196 222 255
196 222 255
196 222 255
197 222 255
197 222 255
197 222 255
197 222 255
197 222 255
197 222 255
197 222 255
197 222 255
197 222 255
197 222 255
197 222 255
197 222 255
197 222 255
197 222 255
197 222 255
197 222 255
197 222 255
197 222 255
197 222 255
197 223 255
198 223 255
198 223 255
198 223 255
198 223 255
198 223 255
198 223 255
198 223 255
198 223 255
198 223 255
198 223 255
198 223 255
198 223 255
198 223 255
198 223 255
199 223 255
199 223 255
199 223 255
199 223 255
199 223 255
199 223 255
199 223 255
199 223 255
199 223 255
199 223 255
199 223 255
199 223 255
199 223 255
199 224 255
199 224 255
200 224 255
200 224 255
200 224 255
200 224 255
200 224 255
200 224 255
200 224 255
200 224 255
200 224 255
200 224 255
200 224 255
200 224 255
200 224 255
200 224 255
201 224 255
201 224 255
201 224 255
201 224 255
201 224 255
201 224 255
201 224 255
201 224 255
201 224 255
201 224 255
201 225 255
201 224 255
201 225 255
201 225 255
201 225 255
202 225 255
202 225 255
202 225 255
202 225 255
202 225 255
202 225 255
202 225 255
202 225 255
202 225 255
202 225 255
202 225 255
202 225 255
202 225 255
202 225 255
202 225 255
203 225 255
203 225 255
203 225 255
203 225 255
203 225 255
203 225 255
203 225 255
203 225 255
203 225 255
203 225 255
203 226 255
203 226 255
203 226 255
203 226 255
203 226 255
203 226 255
204 226 255
204 226 255
204 226 255
204 226 255
204 226 255
204 226 255
204 226 255
204 226 255
204 226 255
204 226 255
204 226 255
204 226 255
204 226 255
204 226 255
204 226 255
204 226 255
205 226 255
204 226 255
205 226 255
205 226 255
205 226 255
205 226 255
205 226 255
205 226 255
205 226 255
205 227 255
205 227 255
205 227 255
205 227 255
205 227 255
205 227 255
205 227 255
205 227 255
205 227 255
205 227 255
206 227 255
206 227 255
206 227 255
206 227 255
206 227 255
206 227 255
206 227 255
206 227 255
206 227 255
206 227 255
206 227 255
206 227 255
206 227 255
206 227 255
206 227 255
206 227 255
206 227 255
206 227 255
206 227 255
206 227 255
206 227 255
206 227 255
206 227 255
206 227 255
206 227 255
206 227 255
206 227 255
206 227 255
205 227 255
206 227 255
205 227 255
205 227 255
205 227 255
205 227 255
205 227 255
205 227 255
205 227 255
205 227 255
205 227 255
205 227 255
205 226 255
205 226 255
205 226 255
205 226 255
205 226 255
205 226 255
205 226 255
204 226 255
204 226 255
204 226 255
204 226 255
204 226 255
204 226 255
204 226 255
204 226 255
204 226 255
204 226 255
204 226 255
204 226 255
204 226 255
204 226 255
204 226 255
203 226 255
204 226 255
203 226 255
203 226 255
203 226 255
203 226 255
203 226 255
203 226 255
203 226 255
203 225 255
203 225 255
203 225 255
203 225 255
203 225 255
203 225 255
203 225 255
203 225 255
202 225 255
202 225 255
202 225 255
202 225 255
202 225 255
202 225 255
202 225 255
202 225 255
202 225 255
202 225 255
202 225 255
202 225 255
202 225 255
202 225 255
202 225 255
201 225 255
201 225 255
201 225 255
201 225 255
201 224 255
201 224 255
201 224 255
201 224 255
201 224 255
201 224 255
201 224 255
201 224 255
201 224 255
201 224 255
201 224 255
200 224 255
200 224 255
200 224 255
200 224 255
200 224 255
200 224 255
200 224 255
200 224 255
200 224 255
200 224 255
200 224 255
200 224 255
200 224 255
200 224 255
199 224 255
199 224 255
199 224 255
199 223 255
199 223 255
199 223 255
199 223 255
199 223 255
199 223 255
199 223 255
199 223 255
199 223 255
199 223 255
199 223 255
198 223 255
199 223 255
198 223 255
198 223 255
198 223 255
198 223 255
198 223 255
198 223 255
198 223 255
198 223 255
198 223 255
198 223 255
198 223 255
198 223 255
198 223 255
198 223 255
198 223 255
197 222 255
197 222 255
197 222 255
197 222 255
197 222 255
197 222 255
197 222 255
197 222 255
197 222 255
197 222 255
197 222 255
197 222 255
197 222 255
197 222 255
197 222 255
197 222 255
197 222 255
197 222 255
197 222 255
197 222 255
196 222 255
196 222 255
196 222 255
196 222 255
196 222 255
196 222 255
196 222 255
196 222 255
196 222 255
196 222 255
196 222 255
196 222 255
196 222 255
196 222 255
196 222 255
196 222 255
196 222 255
196 222 255
196 222 255
196 222 255
196 222 255
196 222 255
196 222 255
196 222 255
196 222 255
196 222 255
196 222 255
196 222 255
196 222 255
196 222 255
196 222 255
196 222 255
196 222 255
196 221 255
196 222 255
196 222 255
196 221 255
196 222 255
196 222 255
196 222 255
196 221 255
196 222 255
196 222 255
196 222 255
196 222 255
196 221 255
196 221 255
196 222 255
196 222 255
196 222 255
196 222 255
196 222 255
196 222 255
196 222 255
196 222 255
196 222 255
196 222 255
196 222 255
196 222 255
196 222 255
196 222 255
196 222 255
196 222 255
196 222 255
196 222 255
196 222 255
196 222 255
196 222 255
196 222 255
196 222 255
196 222 255
196 222 255
196 222 255
196 222 255
196 222 255
196 222 255
196 222 255
197 222 255
197 222 255
197 222 255
197 222 255
197 222 255
197 222 255
197 222 255
197 222 255
197 222 255
197 222 255
197 222 255
197 222 255
197 222 255
197 222 255
197 222 255
197 222 255
197 222 255
197 222 255
197 222 255
197 223 255
197 223 255
198 223 255
198 223 255
198 223 255
198 223 255
198 223 255
198 223 255
198 223 255
198 223 255
198 223 255
198 223 255
198 223 255
198 223 255
198 223 255
198 223 255
198 223 255
198 223 255
198 223 255
199 223 255
199 223 255
199 223 255
199 223 255
199 223 255
199 223 255
199 223 255
199 223 255
199 223 255
199 223 255
199 223 255
199 224 255
199 224 255
199 224 255
200 224 255
200 224 255
200 224 255
200 224 255
200 224 255
200 224 255
200 224 255
200 224 255
200 224 255
200 224 255
200 224 255
200 224 255
200 224 255
200 224 255
201 224 255
201 224 255
201 224 255
201 224 255
201 224 255
201 224 255
201 224 255
201 224 255
201 224 255
201 225 255
201 224 255
201 225 255
201 225 255
201 225 255
201 225 255
202 225 255
202 225 255
202 225 255
202 225 255
202 225 255
202 225 255
202 225 255
202 225 255
202 225 255
202 225 255
202 225 255
202 225 255
202 225 255
202 225 255
202 225 255
203 225 255
203 225 255
203 225 255
203 225 255
203 225 255
203 225 255
203 225 255
203 225 255
203 225 255
203 226 255
203 226 255
203 226 255
203 226 255
203 226 255
203 226 255
204 226 255
204 226 255
204 226 255
204 226 255
204 226 255
204 226 255
204 226 255
204 226 255
204 226 255
204 226 255
204 226 255
204 226 255
204 226 255
204 226 255
204 226 255
204 226 255
205 226 255
205 226 255
205 226 255
205 226 255
205 226 255
205 226 255
205 226 255
205 226 255
205 227 255
205 227 255
205 227 255
205 227 255
205 227 255
205 227 255
205 227 255
205 227 255
205 227 255
205 227 255
205 227 255
206 227 255
206 227 255
206 227 255
206 227 255
206 227 255
206 227 255
206 227 255
206 227 255
206 227 255
206 227 255
206 227 255
206 227 255
206 227 255
206 227 255
206 227 255
206 227 255
206 227 255
206 227 255
206 227 255
206 227 255
206 227 255
206 227 255
206 227 255
206 227 255
206 227 255
206 227 255
206 227 255
206 227 255
206 227 255
206 227 255
206 227 255
206 227 255
206 227 255
206 227 255
206 227 255
205 227 255
205 227 255
205 227 255
205 227 255
205 227 255
205 227 255
205 227 255
205 227 255
205 227 255
205 227 255
205 226 255
205 226 255
205 226 255
205 226 255
205 226 255
205 226 255
205 226 255
205 226 255
204 226 255
204 226 255
204 226 255
204 226 255
204 226 255
204 226 255
204 226 255
204 226 255
204 226 255
204 226 255
204 226 255
204 226 255
204 226 255
204 226 255
204 226 255
204 226 255
203 226 255
203 226 255
203 226 255
203 226 255
203 226 255
203 226 255
203 225 255
203 226 255
203 225 255
203 225 255
203 225 255
203 225 255
203 225 255
203 225 255
202 225 255
203 225 255
202 225 255
202 225 255
202 225 255
202 225 255
202 225 255
202 225 255
202 225 255
202 225 255
202 225 255
202 225 255
202 225 255
202 225 255
202 225 255
202 225 255
202 225 255
201 225 255
201 225 255
201 225 255
201 225 255
201 224 255
201 224 255
201 224 255
201 224 255
201 224 255
201 224 255
201 224 255
201 224 255
201 224 255
201 224 255
201 224 255
200 224 255
200 224 255
200 224 255
200 224 255
200 224 255
200 224 255
200 224 255
200 224 255
200 224 255
200 224 255
200 224 255
200 224 255
200 224 255
200 224 255
199 224 255
199 224 255
199 223 255
199 223 255
199 223 255
199 223 255
199 223 255
199 223 255
199 223 255
199 223 255
199 223 255
199 223 255
199 223 255
199 223 255
198 223 255
198 223 255
198 223 255
198 223 255
198 223 255
198 223 255
198 223 255
198 223 255
198 223 255
198 223 255
198 223 255
198 223 255
198 223 255
198 223 255
198 223 255
198 223 255
198 223 255
197 222 255
197 223 255
197 222 255
197 222 255
197 222 255
197 222 255
197 222 255
197 222 255
197 222 255
197 222 255
197 222 255
197 222 255
197 222 255
197 222 255
197 222 255
197 222 255
197 222 255
197 222 255
197 222 255
197 222 255
196 222 255
196 222 255
196 222 255
196 222 255
196 222 255
196 222 255
196 222 255
196 222 255
196 222 255
196 222 255
196 222 255
196 222 255
196 222 255
196 222 255
196 222 255
196 222 255
196 222 255
196 222 255
196 222 255
196 222 255
196 222 255
196 222 255
196 222 255
196 222 255
196 222 255
196 222 255
196 222 255
196 222 255
196 222 255
196 222 255
196 222 255
196 222 255
196 222 255
196 222 255
196 222 255
196 222 255
196 222 255
196 222 255
196 222 255
196 222 255
196 222 255
196 222 255
196 222 255
196 222 255
196 222 255
196 222 255
196 222 255
196 222 255
196 222 255
196 222 255
196 222 255
196 222 255
196 222 255
196 222 255
196 222 255
196 222 255
196 222 255
196 222 255
196 222 255
196 222 255
196 222 255
196 222 255
196 222 255
196 222 255
196 222 255
196 222 255
196 222 255
196 222 255
196 222 255
196 222 255
196 222 255
197 222 255
197 222 255
197 222 255
197 222 255
197 222 255
197 222 255
197 222 255
197 222 255
197 222 255
197 222 255
197 222 255
197 222 255
197 222 255
197 222 255
197 222 255
197 222 255
197 222 255
197 222 255
197 222 255
197 222 255
198 223 255
198 223 255
198 223 255
198 223 255
198 223 255
198 223 255
198 223 255
198 223 255
198 223 255
198 223 255
198 223 255
198 223 255
198 223 255
198 223 255
198 223 255
198 223 255
198 223 255
198 223 255
199 223 255
199 223 255
199 223 255
199 223 255
199 223 255
199 223 255
199 223 255
199 223 255
199 223 255
199 223 255
199 223 255
199 223 255
199 223 255
199 224 255
199 224 255
200 224 255
200 224 255
200 224 255
200 224 255
200 224 255
200 224 255
200 224 255
200 224 255
200 224 255
200 224 255
200 224 255
200 224 255
200 224 255
201 224 255
201 224 255
201 224 255
201 224 255
201 224 255
201 224 255
201 224 255
201 224 255
201 224 255
201 224 255
201 224 255
201 225 255
201 225 255
201 225 255
201 225 255
201 225 255
202 225 255
202 225 255
202 225 255
202 225 255
202 225 255
202 225 255
202 225 255
202 225 255
202 225 255
202 225 255
202 225 255
202 225 255
202 225 255
202 225 255
202 225 255
202 225 255
203 225 255
203 225 255
203 225 255
203 225 255
203 225 255
203 225 255
203 225 255
203 226 255
203 226 255
203 226 255
203 226 255
203 226 255
203 226 255
203 226 255
203 226 255
204 226 255
204 226 255
204 226 255
204 226 255
204 226 255
204 226 255
204 226 255
204 226 255
204 226 255
204 226 255
204 226 255
204 226 255
204 226 255
204 226 255
204 226 255
204 226 255
205 226 255
205 226 255
205 226 255
205 226 255
205 226 255
205 226 255
205 226 255
205 226 255
205 227 255
205 227 255
205 227 255
205 227 255
205 227 255
205 227 255
205 227 255
205 227 255
206 227 255
205 227 255
206 227 255
206 227 255
206 227 255
206 227 255
206 227 255
206 227 255
206 227 255
206 227 255
206 227 255
206 227 255
206 227 255
206 227 255
206 227 255
206 227 255
206 227 255
206 227 255
206 227 255
206 227 255
207 227 255
206 227 255
206 227 255
206 227 255
206 227 255
206 227 255
206 227 255
206 227 255
206 227 255
206 227 255
206 227 255
206 227 255
206 227 255
206 227 255
206 227 255
206 227 255
206 227 255
206 227 255
206 227 255
206 227 255
205 227 255
206 227 255
205 227 255
205 227 255
205 227 255
205 227 255
205 227 255
205 227 255
205 227 255
205 227 255
205 227 255
205 226 255
205 227 255
205 226 255
205 226 255
205 226 255
205 226 255
205 226 255
205 226 255
204 226 255
204 226 255
204 226 255
204 226 255
204 226 255
204 226 255
204 226 255
204 226 255
204 226 255
204 226 255
204 226 255
204 226 255
204 226 255
204 226 255
204 226 255
204 226 255
203 226 255
203 226 255
203 226 255
203 226 255
203 226 255
203 226 255
203 226 255
203 225 255
203 225 255
203 225 255
203 225 255
203 225 255
203 225 255
203 225 255
203 225 255
203 225 255
202 225 255
202 225 255
202 225 255
202 225 255
202 225 255
202 225 255
202 225 255
202 225 255
202 225 255
202 225 255
202 225 255
202 225 255
202 225 255
202 225 255
202 225 255
201 225 255
201 225 255
201 225 255
201 224 255
201 224 255
201 224 255
201 224 255
201 224 255
201 224 255
201 224 255
201 224 255
201 224 255
201 224 255
201 224 255
200 224 255
200 224 255
200 224 255
200 224 255
200 224 255
200 224 255
200 224 255
200 224 255
200 224 255
200 224 255
200 224 255
200 224 255
200 224 255
200 224 255
199 224 255
200 224 255
199 224 255
199 223 255
199 223 255
199 223 255
199 223 255
199 223 255
199 223 255
199 223 255
199 223 255
199 223 255
199 223 255
199 223 255
199 223 255
198 223 255
198 223 255
198 223 255
198 223 255
198 223 255
198 223 255
198 223 255
198 223 255
198 223 255
198 223 255
198 223 255
198 223 255
198 223 255
198 223 255
198 223 255
198 223 255
198 223 255
198 223 255
198 223 255
197 222 255
197 222 255
197 222 255
197 222 255
197 222 255
197 222 255
197 222 255
197 222 255
197 222 255
197 222 255
197 222 255
197 222 255
197 222 255
197 222 255
197 222 255
197 222 255
197 222 255
197 222 255
197 222 255
196 222 255
196 222 255
196 222 255
196 222 255
196 222 255
196 222 255
196 222 255
196 222 255
196 222 255
196 222 255
196 222 255
196 222 255
196 222 255
196 222 255
196 222 255
196 222 255
196 222 255
196 222 255
196 222 255
196 222 255
196 222 255
196 222 255
196 222 255
196 222 255
196 222 255
196 222 255
196 222 255
196 222 255
196 222 255
196 222 255
196 222 255
196 222 255
196 222 255
196 222 255
196 222 255
196 222 255
196 222 255
196 222 255
196 222 255
196 222 255
196 222 255
196 222 255
196 222 255
196 222 255
196 222 255
196 222 255
196 222 255
196 222 255
196 222 255
196 222 255
196 222 255
196 222 255
196 222 255
196 222 255
196 222 255
196 222 255
196 222 255
196 222 255
196 222 255
196 222 255
196 222 255
196 222 255
196 222 255
196 222 255
197 222 255
197 222 255
197 222 255
197 222 255
197 222 255
197 222 255
197 222 255
197 222 255
197 222 255
197 222 255
197 222 255
197 222 255
197 222 255
197 222 255
197 222 255
197 222 255
197 222 255
197 222 255
197 222 255
197 222 255
197 223 255
197 223 255
198 223 255
198 223 255
198 223 255
198 223 255
198 223 255
198 223 255
198 223 255
198 223 255
198 223 255
198 223 255
198 223 255
198 223 255
198 223 255
198 223 255
198 223 255
198 223 255
198 223 255
199 223 255
199 223 255
199 223 255
199 223 255
199 223 255
199 223 255
199 223 255
199 223 255
199 223 255
199 223 255
199 223 255
199 224 255
199 223 255
199 224 255
199 224 255
200 224 255
200 224 255
200 224 255
200 224 255
200 224 255
200 224 255
200 224 255
200 224 255
200 224 255
200 224 255
200 224 255
200 224 255
200 224 255
200 224 255
201 224 255
201 224 255
201 224 255
201 224 255
201 224 255
201 224 255
201 224 255
201 224 255
201 224 255
201 224 255
201 224 255
201 225 255
201 225 255
201 225 255
201 225 255
202 225 255
202 225 255
202 225 255
202 225 255
202 225 255
202 225 255
202 225 255
202 225 255
202 225 255
202 225 255
202 225 255
202 225 255
202 225 255
202 225 255
203 225 255
203 225 255
203 225 255
203 225 255
203 225 255
203 225 255
203 225 255
203 225 255
203 225 255
203 225 255
203 226 255
203 226 255
203 226 255
203 226 255
203 226 255
203 226 255
203 226 255
204 226 255
204 226 255
204 226 255
204 226 255
204 226 255
204 226 255
204 226 255
204 226 255
204 226 255
204 226 255
204 226 255
204 226 255
204 226 255
204 226 255
204 226 255
204 226 255
205 226 255
205 226 255
205 226 255
205 226 255
205 226 255
205 226 255
205 226 255
205 227 255
205 227 255
205 227 255
205 227 255
205 227 255
205 227 255
205 227 255
205 227 255
205 227 255
205 227 255
205 227 255
205 227 255
206 227 255
206 227 255
206 227 255
206 227 255
206 227 255
206 227 255
206 227 255
206 227 255
206 227 255
206 227 255
206 227 255
206 227 255
206 227 255
206 227 255
206 227 255
206 227 255
206 227 255
207 227 255
207 227 255
207 227 255
207 227 255
207 227 255
207 227 255
206 227 255
206 227 255
206 227 255
206 227 255
206 227 255
206 227 255
206 227 255
206 227 255
206 227 255
206 227 255
206 227 255
206 227 255
206 227 255
206 227 255
206 227 255
206 227 255
206 227 255
206 227 255
206 227 255
206 227 255
206 227 255
205 227 255
205 227 255
205 227 255
205 227 255
205 227 255
205 227 255
205 227 255
205 227 255
205 227 255
205 227 255
205 226 255
205 226 255
205 226 255
205 226 255
205 226 255
205 226 255
205 226 255
204 226 255
204 226 255
204 226 255
204 226 255
204 226 255
204 226 255
204 226 255
204 226 255
204 226 255
204 226 255
204 226 255
204 226 255
204 226 255
204 226 255
204 226 255
204 226 255
203 226 255
203 226 255
203 226 255
203 226 255
203 226 255
203 226 255
203 226 255
203 226 255
203 225 255
203 225 255
203 225 255
203 225 255
203 225 255
203 225 255
203 225 255
203 225 255
202 225 255
202 225 255
202 225 255
202 225 255
202 225 255
202 225 255
202 225 255
202 225 255
202 225 255
202 225 255
202 225 255
202 225 255
202 225 255
202 225 255
202 225 255
202 225 255
201 225 255
201 225 255
201 225 255
201 224 255
201 224 255
201 224 255
201 224 255
201 224 255
201 224 255
201 224 255
201 224 255
201 224 255
201 224 255
200 224 255
201 224 255
200 224 255
200 224 255
200 224 255
200 224 255
200 224 255
200 224 255
200 224 255
200 224 255
200 224 255
200 224 255
200 224 255
200 224 255
199 224 255
199 224 255
199 224 255
199 224 255
199 223 255
199 223 255
199 223 255
199 223 255
199 223 255
199 223 255
199 223 255
199 223 255
199 223 255
199 223 255
199 223 255
199 223 255
199 223 255
199 223 255
198 223 255
198 223 255
198 223 255
198 223 255
198 223 255
198 223 255
198 223 255
198 223 255
198 223 255
198 223 255
198 223 255
198 223 255
198 223 255
198 223 255
198 223 255
198 223 255
197 222 255
198 223 255
197 222 255
197 222 255
197 222 255
197 222 255
197 222 255
197 222 255
197 222 255
197 222 255
197 222 255
197 222 255
197 222 255
197 222 255
197 222 255
197 222 255
197 222 255
197 222 255
197 222 255
197 222 255
197 222 255
197 222 255
197 222 255
197 222 255
196 222 255
196 222 255
196 222 255
196 222 255
196 222 255
196 222 255
196 222 255
196 222 255
196 222 255
196 222 255
196 222 255
196 222 255
196 222 255
196 222 255
196 222 255
196 222 255
196 222 255
196 222 255
196 222 255
196 222 255
196 222 255
196 222 255
196 222 255
196 222 255
196 222 255
196 222 255
196 222 255
196 222 255
196 222 255
196 222 255
196 222 255
196 222 255
196 222 255
196 222 255
196 222 255
196 222 255
196 222 255
196 222 255
196 222 255
196 222 255
196 222 255
196 222 255
196 222 255
196 222 255
196 222 255
196 222 255
196 222 255
196 222 255
196 222 255
196 222 255
196 222 255
197 222 255
197 222 255
197 222 255
197 222 255
197 222 255
197 222 255
197 222 255
197 222 255
197 222 255
197 222 255
197 222 255
197 222 255
197 222 255
197 222 255
197 222 255
197 222 255
197 222 255
197 222 255
197 222 255
197 222 255
197 222 255
197 222 255
197 222 255
197 223 255
197 222 255
197 223 255
198 223 255
198 223 255
198 223 255
198 223 255
198 223 255
198 223 255
198 223 255
198 223 255
198 223 255
198 223 255
198 223 255
198 223 255
198 223 255
198 223 255
198 223 255
198 223 255
199 223 255
199 223 255
199 223 255
199 223 255
199 223 255
199 223 255
199 223 255
199 223 255
199 223 255
199 223 255
199 223 255
199 223 255
199 223 255
199 224 255
199 224 255
199 224 255
200 224 255
200 224 255
200 224 255
200 224 255
200 224 255
200 224 255
200 224 255
200 224 255
200 224 255
200 224 255
200 224 255
200 224 255
200 224 255
200 224 255
200 224 255
201 224 255
201 224 255
201 224 255
201 224 255
201 224 255
201 224 255
201 224 255
201 224 255
201 224 255
201 225 255
201 224 255
201 225 255
201 225 255
201 225 255
202 225 255
202 225 255
202 225 255
202 225 255
202 225 255
202 225 255
202 225 255
202 225 255
202 225 255
202 225 255
202 225 255
202 225 255
202 225 255
202 225 255
202 225 255
203 225 255
203 225 255
203 225 255
203 225 255
203 225 255
203 225 255
203 225 255
203 226 255
203 225 255
203 225 255
203 226 255
203 226 255
203 226 255
203 226 255
203 226 255
203 226 255
204 226 255
204 226 255
204 226 255
204 226 255
204 226 255
204 226 255
204 226 255
204 226 255
204 226 255
204 226 255
204 226 255
204 226 255
204 226 255
204 226 255
204 226 255
204 226 255
205 226 255
205 226 255
205 226 255
205 226 255
205 226 255
205 226 255
205 226 255
205 226 255
205 227 255
205 227 255
205 227 255
205 227 255
205 227 255
205 227 255
205 227 255
205 227 255
206 227 255
205 227 255
206 227 255
206 227 255
206 227 255
206 227 255
206 227 255
206 227 255
206 227 255
206 227 255
206 227 255
206 227 255
206 227 255
206 227 255
206 227 255
206 227 255
206 227 255
206 227 255
206 227 255
206 227 255
206 227 255
207 227 255
207 227 255
207 227 255
207 228 255
207 228 255
207 228 255
207 228 255
207 227 255
207 227 255
207 227 255
206 227 255
207 227 255
206 227 255
206 227 255
206 227 255
206 227 255
206 227 255
206 227 255
206 227 255
206 227 255
206 227 255
206 227 255
206 227 255
206 227 255
206 227 255
206 227 255
206 227 255
206 227 255
206 227 255
205 227 255
205 227 255
205 227 255
205 227 255
205 227 255
205 227 255
205 227 255
205 227 255
205 227 255
205 227 255
205 227 255
205 226 255
205 226 255
205 226 255
205 226 255
205 226 255
205 226 255
205 226 255
204 226 255
204 226 255
204 226 255
204 226 255
204 226 255
204 226 255
204 226 255
204 226 255
204 226 255
204 226 255
204 226 255
204 226 255
204 226 255
204 226 255
204 226 255
204 226 255
204 226 255
204 226 255
203 226 255
203 226 255
203 226 255
203 226 255
203 226 255
203 225 255
203 225 255
203 225 255
203 225 255
203 225 255
203 225 255
203 225 255
203 225 255
203 225 255
203 225 255
202 225 255
202 225 255
202 225 255
202 225 255
202 225 255
202 225 255
202 225 255
202 225 255
202 225 255
202 225 255
202 225 255
202 225 255
202 225 255
202 225 255
201 225 255
201 225 255
201 225 255
201 224 255
201 225 255
201 225 255
201 224 255
201 224 255
201 224 255
201 224 255
201 224 255
201 224 255
201 224 255
201 224 255
200 224 255
201 224 255
200 224 255
200 224 255
200 224 255
200 224 255
200 224 255
200 224 255
200 224 255
200 224 255
200 224 255
200 224 255
200 224 255
200 224 255
200 224 255
200 224 255
199 224 255
199 224 255
199 223 255
199 223 255
199 223 255
199 223 255
199 223 255
199 223 255
199 223 255
199 223 255
199 223 255
199 223 255
199 223 255
199 223 255
199 223 255
198 223 255
198 223 255
198 223 255
198 223 255
198 223 255
198 223 255
198 223 255
198 223 255
198 223 255
198 223 255
198 223 255
198 223 255
198 223 255
198 223 255
198 223 255
198 223 255
198 223 255
197 222 255
197 222 255
197 222 255
197 222 255
197 222 255
197 222 255
197 222 255
197 222 255
197 222 255
197 222 255
197 222 255
197 222 255
197 222 255
197 222 255
197 222 255
197 222 255
197 222 255
197 222 255
197 222 255
197 222 255
197 222 255
197 222 255
197 222 255
197 222 255
197 222 255
197 222 255
197 222 255
196 222 255
196 222 255
196 222 255
196 222 255
196 222 255
196 222 255
196 222 255
196 222 255
196 222 255
196 222 255
196 222 255
196 222 255
196 222 255
196 222 255
196 222 255
196 222 255
196 222 255
196 222 255
196 222 255
196 222 255
196 222 255
196 222 255
196 222 255
196 222 255
196 222 255
196 222 255
196 222 255
196 222 255
196 222 255
196 222 255
196 222 255
196 222 255
196 222 255
196 222 255
196 222 255
196 222 255
196 222 255
196 222 255
196 222 255
196 222 255
196 222 255
196 222 255
196 222 255
197 222 255
197 222 255
197 222 255
197 222 255
197 222 255
197 222 255
197 222 255
197 222 255
197 222 255
197 222 255
197 222 255
197 222 255
197 222 255
197 222 255
197 222 255
197 222 255
197 222 255
197 222 255
197 222 255
197 222 255
197 222 255
197 222 255
197 222 255
198 223 255
197 223 255
198 223 255
198 223 255
198 223 255
198 223 255
198 223 255
198 223 255
198 223 255
198 223 255
198 223 255
198 223 255
198 223 255
198 223 255
198 223 255
198 223 255
198 223 255
198 223 255
198 223 255
199 223 255
199 223 255
199 223 255
199 223 255
199 223 255
199 223 255
199 223 255
199 223 255
199 223 255
199 223 255
199 223 255
199 223 255
199 224 255
199 223 255
199 223 255
199 224 255
200 224 255
200 224 255
200 224 255
200 224 255
200 224 255
200 224 255
200 224 255
200 224 255
200 224 255
200 224 255
200 224 255
200 224 255
200 224 255
200 224 255
201 224 255
201 224 255
201 224 255
201 224 255
201 224 255
201 224 255
201 224 255
201 224 255
201 224 255
201 224 255
201 224 255
201 225 255
201 225 255
201 225 255
201 225 255
201 225 255
202 225 255
202 225 255
202 225 255
202 225 255
202 225 255
202 225 255
202 225 255
202 225 255
202 225 255
202 225 255
202 225 255
202 225 255
202 225 255
202 225 255
203 225 255
203 225 255
203 225 255
203 225 255
203 225 255
203 225 255
203 225 255
203 225 255
203 225 255
203 226 255
203 226 255
203 226 255
203 226 255
203 226 255
203 226 255
203 226 255
203 226 255
204 226 255
204 226 255
204 226 255
204 226 255
204 226 255
204 226 255
204 226 255
204 226 255
204 226 255
204 226 255
204 226 255
204 226 255
204 226 255
204 226 255
204 226 255
204 226 255
205 226 255
205 226 255
205 226 255
205 226 255
205 226 255
205 226 255
205 226 255
205 227 255
205 227 255
205 227 255
205 227 255
205 227 255
205 227 255
205 227 255
205 227 255
205 227 255
206 227 255
206 227 255
206 227 255
206 227 255
206 227 255
206 227 255
206 227 255
206 227 255
206 227 255
206 227 255
206 227 255
206 227 255
206 227 255
206 227 255
206 227 255
206 227 255
206 227 255
206 227 255
206 227 255
207 227 255
207 227 255
207 227 255
207 227 255
207 227 255
207 227 255
207 228 255
207 228 255
207 228 255
207 228 255
207 228 255
207 228 255
207 228 255
207 227 255
207 227 255
207 227 255
207 227 255
206 227 255
206 227 255
206 227 255
206 227 255
206 227 255
206 227 255
206 227 255
206 227 255
206 227 255
206 227 255
206 227 255
206 227 255
206 227 255
206 227 255
206 227 255
206 227 255
206 227 255
206 227 255
206 227 255
205 227 255
205 227 255
205 227 255
205 227 255
205 227 255
205 227 255
205 227 255
205 227 255
205 227 255
205 227 255
205 227 255
205 227 255
205 226 255
205 226 255
205 226 255
205 226 255
205 226 255
204 226 255
204 226 255
204 226 255
204 226 255
204 226 255
204 226 255
204 226 255
204 226 255
204 226 255
204 226 255
204 226 255
204 226 255
204 226 255
204 226 255
204 226 255
204 226 255
204 226 255
203 226 255
203 226 255
203 226 255
203 226 255
203 226 255
203 226 255
203 226 255
203 226 255
203 225 255
203 225 255
203 225 255
203 225 255
203 225 255
203 225 255
203 225 255
203 225 255
202 225 255
202 225 255
202 225 255
202 225 255
202 225 255
202 225 255
202 225 255
202 225 255
202 225 255
202 225 255
202 225 255
202 225 255
202 225 255
202 225 255
201 225 255
201 225 255
201 225 255
201 225 255
201 225 255
201 224 255
201 224 255
201 224 255
201 224 255
201 224 255
201 224 255
201 224 255
201 224 255
201 224 255
201 224 255
201 224 255
200 224 255
200 224 255
200 224 255
200 224 255
200 224 255
200 224 255
200 224 255
200 224 255
200 224 255
200 224 255
200 224 255
200 224 255
200 224 255
200 224 255
200 224 255
199 224 255
199 224 255
199 223 255
199 223 255
199 223 255
199 223 255
199 223 255
199 223 255
199 223 255
199 223 255
199 223 255
199 223 255
199 223 255
199 223 255
199 223 255
198 223 255
198 223 255
198 223 255
198 223 255
198 223 255
198 223 255
198 223 255
198 223 255
198 223 255
198 223 255
198 223 255
198 223 255
198 223 255
198 223 255
198 223 255
198 223 255
198 223 255
198 223 255
198 223 255
198 223 255
197 222 255
197 222 255
197 222 255
197 222 255
197 222 255
197 222 255
197 222 255
197 222 255
197 222 255
197 222 255
197 222 255
197 222 255
197 222 255
197 222 255
197 222 255
197 222 255
197 222 255
197 222 255
197 222 255
197 222 255
197 222 255
197 222 255
197 222 255
197 222 255
197 222 255
197 222 255
197 222 255
197 222 255
197 222 255
197 222 255
197 222 255
196 222 255
196 222 255
196 222 255
196 222 255
196 222 255
196 222 255
196 222 255
196 222 255
196 222 255
196 222 255
196 222 255
196 222 255
196 222 255
196 222 255
196 222 255
196 222 255
196 222 255
197 222 255
197 222 255
196 222 255
196 222 255
196 222 255
196 222 255
197 222 255
197 222 255
197 222 255
197 222 255
197 222 255
197 222 255
197 222 255
197 222 255
197 222 255
197 222 255
197 222 255
197 222 255
197 222 255
197 222 255
197 222 255
197 222 255
197 222 255
197 222 255
197 222 255
197 222 255
197 222 255
197 222 255
197 222 255
197 222 255
197 222 255
197 222 255
197 222 255
197 222 255
197 222 255
198 223 255
197 222 255
198 223 255
198 223 255
198 223 255
198 223 255
198 223 255
198 223 255
198 223 255
198 223 255
198 223 255
198 223 255
198 223 255
198 223 255
198 223 255
198 223 255
198 223 255
198 223 255
198 223 255
198 223 255
199 223 255
199 223 255
199 223 255
199 223 255
199 223 255
199 223 255
199 223 255
199 223 255
199 223 255
199 223 255
199 223 255
199 223 255
199 223 255
199 223 255
199 223 255
199 224 255
199 224 255
200 224 255
200 224 255
200 224 255
200 224 255
200 224 255
200 224 255
200 224 255
200 224 255
200 224 255
200 224 255
200 224 255
200 224 255
200 224 255
200 224 255
200 224 255
201 224 255
201 224 255
201 224 255
201 224 255
201 224 255
201 224 255
201 224 255
201 224 255
201 224 255
201 224 255
201 225 255
201 225 255
201 225 255
201 225 255
202 225 255
202 225 255
202 225 255
202 225 255
202 225 255
202 225 255
202 225 255
202 225 255
202 225 255
202 225 255
202 225 255
202 225 255
202 225 255
203 225 255
202 225 255
202 225 255
202 225 255
203 225 255
203 225 255
203 225 255
203 225 255
203 225 255
203 225 255
203 225 255
203 226 255
203 226 255
203 226 255
203 226 255
203 226 255
204 226 255
203 226 255
204 226 255
204 226 255
204 226 255
204 226 255
204 226 255
204 226 255
204 226 255
204 226 255
204 226 255
204 226 255
204 226 255
204 226 255
204 226 255
204 226 255
204 226 255
204 226 255
205 226 255
205 226 255
205 226 255
205 226 255
205 226 255
205 226 255
205 227 255
205 227 255
205 227 255
205 227 255
205 227 255
205 227 255
205 227 255
205 227 255
205 227 255
205 227 255
205 227 255
205 227 255
206 227 255
206 227 255
206 227 255
206 227 255
206 227 255
206 227 255
206 227 255
206 227 255
206 227 255
206 227 255
206 227 255
206 227 255
206 227 255
206 227 255
206 227 255
206 227 255
206 227 255
207 227 255
207 227 255
207 227 255
207 227 255
207 227 255
207 228 255
207 228 255
207 228 255
207 228 255
207 228 255
207 228 255
207 228 255
207 228 255
207 228 255
207 228 255
207 228 255
207 228 255
207 228 255
207 228 255
207 228 255
207 227 255
207 227 255
207 227 255
207 227 255
206 227 255
206 227 255
206 227 255
206 227 255
206 227 255
206 227 255
206 227 255
206 227 255
206 227 255
206 227 255
206 227 255
206 227 255
206 227 255
206 227 255
206 227 255
206 227 255
206 227 255
206 227 255
206 227 255
206 227 255
205 227 255
205 227 255
205 227 255
205 227 255
205 227 255
205 227 255
205 227 255
205 227 255
205 227 255
205 226 255
205 226 255
205 226 255
205 226 255
205 226 255
205 226 255
205 226 255
204 226 255
204 226 255
204 226 255
204 226 255
204 226 255
204 226 255
204 226 255
204 226 255
204 226 255
204 226 255
204 226 255
204 226 255
204 226 255
204 226 255
204 226 255
204 226 255
203 226 255
203 226 255
203 226 255
203 226 255
203 226 255
203 226 255
203 226 255
203 225 255
203 225 255
203 225 255
203 225 255
203 225 255
203 225 255
203 225 255
203 225 255
202 225 255
202 225 255
202 225 255
202 225 255
202 225 255
202 225 255
202 225 255
202 225 255
202 225 255
202 225 255
202 225 255
202 225 255
202 225 255
202 225 255
201 225 255
202 225 255
201 225 255
201 225 255
201 225 255
201 225 255
201 224 255
201 224 255
201 224 255
201 224 255
201 224 255
201 224 255
201 224 255
201 224 255
201 224 255
200 224 255
200 224 255
200 224 255
200 224 255
200 224 255
200 224 255
200 224 255
200 224 255
200 224 255
200 224 255
200 224 255
200 224 255
200 224 255
200 224 255
200 224 255
200 224 255
199 224 255
199 224 255
199 224 255
199 223 255
199 223 255
199 223 255
199 223 255
199 223 255
199 223 255
199 223 255
199 223 255
199 223 255
199 223 255
199 223 255
199 223 255
199 223 255
199 223 255
198 223 255
198 223 255
198 223 255
198 223 255
198 223 255
198 223 255
198 223 255
198 223 255
198 223 255
198 223 255
198 223 255
198 223 255
198 223 255
198 223 255
198 223 255
198 223 255
198 223 255
198 223 255
197 223 255
197 222 255
197 222 255
197 222 255
197 222 255
197 222 255
197 222 255
197 222 255
197 222 255
197 222 255
197 222 255
197 222 255
197 222 255
197 222 255
197 222 255
197 222 255
197 222 255
197 222 255
197 222 255
197 222 255
197 222 255
197 222 255
197 222 255
197 222 255
197 222 255
197 222 255
197 222 255
197 222 255
197 222 255
197 222 255
197 222 255
197 222 255
197 222 255
197 222 255
197 222 255
197 222 255
197 222 255
197 222 255
197 222 255
197 222 255
197 222 255
197 222 255
197 222 255
197 222 255
197 222 255
197 222 255
197 222 255
197 222 255
197 222 255
197 222 255
197 222 255
197 222 255
197 222 255
197 222 255
197 222 255
197 222 255
197 222 255
197 222 255
197 222 255
197 222 255
197 222 255
197 222 255
197 222 255
197 222 255
197 222 255
197 222 255
197 222 255
197 222 255
197 222 255
197 222 255
197 222 255
197 222 255
197 222 255
197 222 255
197 222 255
197 222 255
197 222 255
198 223 255
197 222 255
197 223 255
198 223 255
198 223 255
198 223 255
198 223 255
198 223 255
198 223 255
198 223 255
198 223 255
198 223 255
198 223 255
198 223 255
198 223 255
198 223 255
198 223 255
198 223 255
198 223 255
198 223 255
198 223 255
198 223 255
198 223 255
199 223 255
199 223 255
199 223 255
199 223 255
199 223 255
199 223 255
199 223 255
199 223 255
199 223 255
199 223 255
199 223 255
199 223 255
199 224 255
199 224 255
199 224 255
200 224 255
200 224 255
200 224 255
200 224 255
200 224 255
200 224 255
200 224 255
200 224 255
200 224 255
200 224 255
200 224 255
200 224 255
200 224 255
200 224 255
200 224 255
201 224 255
201 224 255
201 224 255
201 224 255
201 224 255
201 224 255
201 224 255
201 224 255
201 224 255
201 224 255
201 225 255
201 225 255
201 225 255
201 225 255
201 225 255
201 225 255
202 225 255
202 225 255
202 225 255
202 225 255
202 225 255
202 225 255
202 225 255
202 225 255
202 225 255
202 225 255
202 225 255
202 225 255
202 225 255
202 225 255
203 225 255
203 225 255
203 225 255
203 225 255
203 225 255
203 225 255
203 225 255
203 225 255
203 226 255
203 226 255
203 226 255
203 226 255
203 226 255
203 226 255
203 226 255
204 226 255
204 226 255
204 226 255
204 226 255
204 226 255
204 226 255
204 226 255
204 226 255
204 226 255
204 226 255
204 226 255
204 226 255
204 226 255
204 226 255
204 226 255
204 226 255
204 226 255
205 226 255
205 226 255
205 226 255
205 226 255
205 226 255
205 226 255
205 227 255
205 227 255
205 227 255
205 227 255
205 227 255
205 227 255
205 227 255
205 227 255
205 227 255
205 227 255
206 227 255
206 227 255
206 227 255
206 227 255
206 227 255
206 227 255
206 227 255
206 227 255
206 227 255
206 227 255
206 227 255
206 227 255
206 227 255
206 227 255
206 227 255
206 227 255
206 227 255
206 227 255
207 227 255
206 227 255
207 227 255
207 227 255
207 227 255
207 228 255
207 227 255
207 228 255
207 228 255
207 228 255
207 228 255
207 228 255
207 228 255
207 228 255
207 228 255
207 228 255
207 228 255
207 228 255
207 228 255
207 228 255
207 228 255
207 228 255
207 228 255
207 228 255
207 227 255
207 227 255
207 227 255
207 227 255
207 227 255
206 227 255
207 227 255
206 227 255
206 227 255
206 227 255
206 227 255
206 227 255
206 227 255
206 227 255
206 227 255
206 227 255
206 227 255
206 227 255
206 227 255
206 227 255
206 227 255
206 227 255
206 227 255
206 227 255
205 227 255
205 227 255
205 227 255
205 227 255
205 227 255
205 227 255
205 227 255
205 227 255
205 227 255
205 227 255
205 226 255
205 226 255
205 226 255
205 226 255
205 226 255
205 226 255
205 226 255
205 226 255
204 226 255
204 226 255
204 226 255
204 226 255
204 226 255
204 226 255
204 226 255
204 226 255
204 226 255
204 226 255
204 226 255
204 226 255
204 226 255
204 226 255
204 226 255
204 226 255
203 226 255
203 226 255
203 226 255
203 226 255
203 226 255
203 225 255
203 225 255
203 225 255
203 225 255
203 225 255
203 225 255
203 225 255
203 225 255
203 225 255
203 225 255
203 225 255
202 225 255
202 225 255
202 225 255
202 225 255
202 225 255
202 225 255
202 225 255
202 225 255
202 225 255
202 225 255
202 225 255
202 225 255
202 225 255
201 225 255
202 225 255
201 225 255
201 225 255
201 225 255
201 224 255
201 224 255
201 224 255
201 224 255
201 224 255
201 224 255
201 224 255
201 224 255
201 224 255
201 224 255
201 224 255
200 224 255
200 224 255
200 224 255
200 224 255
200 224 255
200 224 255
200 224 255
200 224 255
200 224 255
200 224 255
200 224 255
200 224 255
200 224 255
200 224 255
199 224 255
199 224 255
199 224 255
199 223 255
199 223 255
199 223 255
199 223 255
199 223 255
199 223 255
199 223 255
199 223 255
199 223 255
199 223 255
199 223 255
199 223 255
199 223 255
199 223 255
199 223 255
198 223 255
198 223 255
198 223 255
198 223 255
198 223 255
198 223 255
198 223 255
198 223 255
198 223 255
198 223 255
198 223 255
198 223 255
198 223 255
198 223 255
198 223 255
198 223 255
198 223 255
198 223 255
198 223 255
198 223 255
197 223 255
198 223 255
197 223 255
197 222 255
197 222 255
197 222 255
197 222 255
197 222 255
197 222 255
197 222 255
197 222 255
197 222 255
197 222 255
197 222 255
197 222 255
197 222 255
197 222 255
197 222 255
197 222 255
197 222 255
197 222 255
197 222 255
197 222 255
197 222 255
197 222 255
197 222 255
197 222 255
197 222 255
197 222 255
197 222 255
197 222 255
197 222 255
197 222 255
197 222 255
197 222 255
197 222 255
197 222 255
197 222 255
197 222 255
197 222 255
197 222 255
197 222 255
197 222 255
197 222 255
197 222 255
197 222 255
197 222 255
197 222 255
197 222 255
197 222 255
197 222 255
197 222 255
197 222 255
197 222 255
197 222 255
197 222 255
197 222 255
197 222 255
197 222 255
197 222 255
197 222 255
197 222 255
197 222 255
197 222 255
197 222 255
197 222 255
197 222 255
197 222 255
197 222 255
197 222 255
198 223 255
198 223 255
198 223 255
198 223 255
198 223 255
198 223 255
198 223 255
198 223 255
198 223 255
198 223 255
198 223 255
198 223 255
198 223 255
198 223 255
198 223 255
198 223 255
198 223 255
198 223 255
198 223 255
198 223 255
199 223 255
199 223 255
199 223 255
199 223 255
199 223 255
199 223 255
199 223 255
199 223 255
199 223 255
199 223 255
199 223 255
199 223 255
199 223 255
199 223 255
199 223 255
199 224 255
200 224 255
200 224 255
200 224 255
200 224 255
200 224 255
200 224 255
200 224 255
200 224 255
200 224 255
200 224 255
200 224 255
200 224 255
200 224 255
200 224 255
200 224 255
200 224 255
201 224 255
201 224 255
201 224 255
201 224 255
201 224 255
201 224 255
201 224 255
201 224 255
201 224 255
201 224 255
201 224 255
201 225 255
201 225 255
201 225 255
201 225 255
202 225 255
202 225 255
202 225 255
202 225 255
202 225 255
202 225 255
202 225 255
202 225 255
202 225 255
202 225 255
202 225 255
202 225 255
202 225 255
202 225 255
202 225 255
203 225 255
203 225 255
203 225 255
203 225 255
203 225 255
203 225 255
203 225 255
203 225 255
203 226 255
203 226 255
203 226 255
203 226 255
203 226 255
203 226 255
203 226 255
203 226 255
204 226 255
204 226 255
204 226 255
204 226 255
204 226 255
204 226 255
204 226 255
204 226 255
204 226 255
204 226 255
204 226 255
204 226 255
204 226 255
204 226 255
204 226 255
205 226 255
205 226 255
205 226 255
205 226 255
205 226 255
205 226 255
205 226 255
205 227 255
205 227 255
205 227 255
205 227 255
205 227 255
205 227 255
205 227 255
205 227 255
205 227 255
205 227 255
205 227 255
206 227 255
206 227 255
206 227 255
206 227 255
206 227 255
206 227 255
206 227 255
206 227 255
206 227 255
206 227 255
206 227 255
206 227 255
206 227 255
206 227 255
206 227 255
206 227 255
206 227 255
206 227 255
207 227 255
207 227 255
207 227 255
207 227 255
207 228 255
207 228 255
207 228 255
207 228 255
207 228 255
207 228 255
207 228 255
207 228 255
207 228 255
207 228 255
207 228 255
207 228 255
207 228 255
207 228 255
207 228 255
207 228 255
207 228 255
207 228 255
207 228 255
207 228 255
207 228 255
207 228 255
207 228 255
207 228 255
207 228 255
207 228 255
207 228 255
207 227 255
207 227 255
207 227 255
207 227 255
206 227 255
206 227 255
206 227 255
206 227 255
206 227 255
206 227 255
206 227 255
206 227 255
206 227 255
206 227 255
206 227 255
206 227 255
206 227 255
206 227 255
206 227 255
206 227 255
206 227 255
206 227 255
205 227 255
205 227 255
205 227 255
205 227 255
205 227 255
205 227 255
205 227 255
205 227 255
205 227 255
205 227 255
205 226 255
205 226 255
205 226 255
205 226 255
205 226 255
205 226 255
204 226 255
204 226 255
204 226 255
204 226 255
204 226 255
204 226 255
204 226 255
204 226 255
204 226 255
204 226 255
204 226 255
204 226 255
204 226 255
204 226 255
204 226 255
204 226 255
204 226 255
204 226 255
203 226 255
203 226 255
203 226 255
203 226 255
203 226 255
203 225 255
203 225 255
203 225 255
203 225 255
203 225 255
203 225 255
203 225 255
203 225 255
203 225 255
203 225 255
202 225 255
202 225 255
202 225 255
202 225 255
202 225 255
202 225 255
202 225 255
202 225 255
202 225 255
202 225 255
202 225 255
202 225 255
202 225 255
202 225 255
202 225 255
201 225 255
201 225 255
201 225 255
201 224 255
201 224 255
201 224 255
201 224 255
201 224 255
201 224 255
201 224 255
201 224 255
201 224 255
201 224 255
201 224 255
200 224 255
200 224 255
200 224 255
200 224 255
200 224 255
200 224 255
200 224 255
200 224 255
200 224 255
200 224 255
200 224 255
200 224 255
200 224 255
200 224 255
200 224 255
200 224 255
199 224 255
199 223 255
199 223 255
199 223 255
199 223 255
199 223 255
199 223 255
199 223 255
199 223 255
199 223 255
199 223 255
199 223 255
199 223 255
199 223 255
199 223 255
199 223 255
199 223 255
198 223 255
198 223 255
198 223 255
198 223 255
198 223 255
198 223 255
198 223 255
198 223 255
198 223 255
198 223 255
198 223 255
198 223 255
198 223 255
198 223 255
198 223 255
198 223 255
198 223 255
198 223 255
198 223 255
198 223 255
197 223 255
198 223 255
198 223 255
197 223 255
197 223 255
197 222 255
197 222 255
197 222 255
197 222 255
197 222 255
197 222 255
197 222 255
197 222 255
197 222 255
197 222 255
197 222 255
197 222 255
197 222 255
197 222 255
197 222 255
197 222 255
197 222 255
197 222 255
197 222 255
197 222 255
197 222 255
197 222 255
197 222 255
197 222 255
197 222 255
197 222 255
197 222 255
197 222 255
197 222 255
197 222 255
197 222 255
197 222 255
197 222 255
197 222 255
197 222 255
197 222 255
197 222 255
197 222 255
197 222 255
197 222 255
197 222 255
197 222 255
197 222 255
197 222 255
197 222 255
197 222 255
197 222 255
197 222 255
197 222 255
197 222 255
197 222 255
197 222 255
197 222 255
197 222 255
197 222 255
198 223 255
198 223 255
197 222 255
198 223 255
198 223 255
198 223 255
198 223 255
198 223 255
198 223 255
198 223 255
198 223 255
198 223 255
198 223 255
198 223 255
198 223 255
198 223 255
198 223 255
198 223 255
198 223 255
198 223 255
198 223 255
198 223 255
198 223 255
198 223 255
199 223 255
198 223 255
199 223 255
199 223 255
199 223 255
199 223 255
199 223 255
199 223 255
199 223 255
199 223 255
199 223 255
199 223 255
199 223 255
199 223 255
199 223 255
199 224 255
199 224 255
199 224 255
200 224 255
200 224 255
200 224 255
200 224 255
200 224 255
200 224 255
200 224 255
200 224 255
200 224 255
200 224 255
200 224 255
200 224 255
200 224 255
200 224 255
201 224 255
201 224 255
201 224 255
201 224 255
201 224 255
201 224 255
201 224 255
201 224 255
201 224 255
201 224 255
201 224 255
201 224 255
201 225 255
201 225 255
201 225 255
201 225 255
202 225 255
202 225 255
202 225 255
202 225 255
202 225 255
202 225 255
202 225 255
202 225 255
202 225 255
202 225 255
202 225 255
202 225 255
202 225 255
203 225 255
202 225 255
203 225 255
203 225 255
203 225 255
203 225 255
203 225 255
203 225 255
203 225 255
203 225 255
203 226 255
203 226 255
203 226 255
203 226 255
203 226 255
204 226 255
203 226 255
203 226 255
204 226 255
204 226 255
204 226 255
204 226 255
204 226 255
204 226 255
204 226 255
204 226 255
204 226 255
204 226 255
204 226 255
204 226 255
204 226 255
204 226 255
204 226 255
205 226 255
205 226 255
205 226 255
205 226 255
205 226 255
205 226 255
205 226 255
205 227 255
205 227 255
205 227 255
205 227 255
205 227 255
205 227 255
205 227 255
205 227 255
205 227 255
206 227 255
206 227 255
206 227 255
206 227 255
206 227 255
206 227 255
206 227 255
206 227 255
206 227 255
206 227 255
206 227 255
206 227 255
206 227 255
206 227 255
206 227 255
206 227 255
206 227 255
206 227 255
206 227 255
206 227 255
206 227 255
207 227 255
207 227 255
207 227 255
207 227 255
207 227 255
207 228 255
207 228 255
207 228 255
207 228 255
207 228 255
207 228 255
207 228 255
207 228 255
207 228 255
207 228 255
207 228 255
207 228 255
208 228 255
208 228 255
207 228 255
207 228 255
207 228 255
207 228 255
207 228 255
207 228 255
207 228 255
207 228 255
207 228 255
207 228 255
207 228 255
207 228 255
207 228 255
207 227 255
207 228 255
207 227 255
207 227 255
207 227 255
207 227 255
206 227 255
206 227 255
206 227 255
206 227 255
206 227 255
206 227 255
206 227 255
206 227 255
206 227 255
206 227 255
206 227 255
206 227 255
206 227 255
206 227 255
206 227 255
206 227 255
206 227 255
206 227 255
205 227 255
205 227 255
205 227 255
205 227 255
205 227 255
205 227 255
205 227 255
205 227 255
205 227 255
205 227 255
205 227 255
205 226 255
205 226 255
205 226 255
205 226 255
205 226 255
205 226 255
204 226 255
204 226 255
204 226 255
204 226 255
204 226 255
204 226 255
204 226 255
204 226 255
204 226 255
204 226 255
204 226 255
204 226 255
204 226 255
204 226 255
204 226 255
204 226 255
204 226 255
203 226 255
203 226 255
203 226 255
203 226 255
203 226 255
203 225 255
203 226 255
203 225 255
203 225 255
203 225 255
203 225 255
203 225 255
203 225 255
203 225 255
202 225 255
203 225 255
202 225 255
202 225 255
202 225 255
202 225 255
202 225 255
202 225 255
202 225 255
202 225 255
202 225 255
202 225 255
202 225 255
202 225 255
202 225 255
202 225 255
202 225 255
201 225 255
201 225 255
201 224 255
201 225 255
201 225 255
201 224 255
201 224 255
201 224 255
201 224 255
201 224 255
201 224 255
201 224 255
201 224 255
201 224 255
200 224 255
200 224 255
200 224 255
200 224 255
200 224 255
200 224 255
200 224 255
200 224 255
200 224 255
200 224 255
200 224 255
200 224 255
200 224 255
200 224 255
199 224 255
199 224 255
200 224 255
199 223 255
199 223 255
199 223 255
199 223 255
199 223 255
199 223 255
199 223 255
199 223 255
199 223 255
199 223 255
199 223 255
199 223 255
199 223 255
199 223 255
199 223 255
199 223 255
199 223 255
199 223 255
198 223 255
198 223 255
198 223 255
198 223 255
198 223 255
198 223 255
198 223 255
198 223 255
198 223 255
198 223 255
198 223 255
198 223 255
198 223 255
198 223 255
198 223 255
198 223 255
198 223 255
198 223 255
198 223 255
198 223 255
198 223 255
198 223 255
197 222 255
197 222 255
197 222 255
197 222 255
197 222 255
197 222 255
197 222 255
197 222 255
197 222 255
197 222 255
197 222 255
197 222 255
197 222 255
197 222 255
197 222 255
197 222 255
197 222 255
197 222 255
197 222 255
197 222 255
197 222 255
197 222 255
197 222 255
197 222 255
197 222 255
197 222 255
197 222 255
197 222 255
197 222 255
197 222 255
197 222 255
197 222 255
197 222 255
197 222 255
197 222 255
197 222 255
197 222 255
197 222 255
197 222 255
197 222 255
197 222 255
197 222 255
197 222 255
197 222 255
197 222 255
197 222 255
197 223 255
197 222 255
197 222 255
197 223 255
197 222 255
198 223 255
198 223 255
198 223 255
198 223 255
198 223 255
198 223 255
198 223 255
198 223 255
198 223 255
198 223 255
198 223 255
198 223 255
198 223 255
198 223 255
198 223 255
198 223 255
198 223 255
198 223 255
198 223 255
198 223 255
198 223 255
198 223 255
198 223 255
199 223 255
199 223 255
199 223 255
199 223 255
199 223 255
199 223 255
199 223 255
199 223 255
199 223 255
199 223 255
199 223 255
199 223 255
199 223 255
199 223 255
199 223 255
199 224 255
199 224 255
199 224 255
199 224 255
200 224 255
200 224 255
200 224 255
200 224 255
200 224 255
200 224 255
200 224 255
200 224 255
200 224 255
200 224 255
200 224 255
200 224 255
200 224 255
200 224 255
201 224 255
201 224 255
201 224 255
201 224 255
201 224 255
201 224 255
201 224 255
201 224 255
201 224 255
201 224 255
201 224 255
201 225 255
201 225 255
201 225 255
201 225 255
202 225 255
202 225 255
202 225 255
202 225 255
202 225 255
202 225 255
202 225 255
202 225 255
202 225 255
202 225 255
202 225 255
202 225 255
202 225 255
202 225 255
202 225 255
202 225 255
203 225 255
203 225 255
203 225 255
203 225 255
203 225 255
203 225 255
203 225 255
203 226 255
203 226 255
203 226 255
203 226 255
203 226 255
203 226 255
204 226 255
203 226 255
204 226 255
204 226 255
204 226 255
204 226 255
204 226 255
204 226 255
204 226 255
204 226 255
204 226 255
204 226 255
204 226 255
204 226 255
204 226 255
204 226 255
205 226 255
204 226 255
205 226 255
205 226 255
205 226 255
205 226 255
205 226 255
205 226 255
205 227 255
205 227 255
205 227 255
205 227 255
205 227 255
205 227 255
205 227 255
205 227 255
205 227 255
205 227 255
205 227 255
206 227 255
206 227 255
206 227 255
206 227 255
206 227 255
206 227 255
206 227 255
206 227 255
206 227 255
206 227 255
206 227 255
206 227 255
206 227 255
206 227 255
206 227 255
206 227 255
206 227 255
207 227 255
206 227 255
207 227 255
207 227 255
207 228 255
207 227 255
207 228 255
207 228 255
207 228 255
207 228 255
207 228 255
207 228 255
207 228 255
207 228 255
207 228 255
207 228 255
207 228 255
207 228 255
207 228 255
207 228 255
208 228 255
207 228 255
208 228 255
208 228 255
208 228 255
207 228 255
207 228 255
207 228 255
207 228 255
207 228 255
207 228 255
207 228 255
207 228 255
207 228 255
207 228 255
207 228 255
207 228 255
207 228 255
207 228 255
207 228 255
207 228 255
207 228 255
207 227 255
207 227 255
207 227 255
207 227 255
207 227 255
206 227 255
206 227 255
206 227 255
206 227 255
206 227 255
206 227 255
206 227 255
206 227 255
206 227 255
206 227 255
206 227 255
206 227 255
206 227 255
206 227 255
206 227 255
206 227 255
206 227 255
206 227 255
205 227 255
205 227 255
205 227 255
205 227 255
205 227 255
205 227 255
205 227 255
205 227 255
205 226 255
205 226 255
205 226 255
205 226 255
205 226 255
205 226 255
205 226 255
205 226 255
204 226 255
204 226 255
204 226 255
204 226 255
204 226 255
204 226 255
204 226 255
204 226 255
204 226 255
204 226 255
204 226 255
204 226 255
204 226 255
204 226 255
204 226 255
203 226 255
204 226 255
203 226 255
203 226 255
203 226 255
203 226 255
203 226 255
203 226 255
203 226 255
203 225 255
203 225 255
203 225 255
203 225 255
203 225 255
203 225 255
203 225 255
203 225 255
202 225 255
202 225 255
202 225 255
202 225 255
202 225 255
202 225 255
202 225 255
202 225 255
202 225 255
202 225 255
202 225 255
202 225 255
202 225 255
201 225 255
202 225 255
201 225 255
201 225 255
201 225 255
201 224 255
201 225 255
201 224 255
201 224 255
201 224 255
201 224 255
201 224 255
201 224 255
201 224 255
201 224 255
201 224 255
201 224 255
200 224 255
200 224 255
200 224 255
200 224 255
200 224 255
200 224 255
200 224 255
200 224 255
200 224 255
200 224 255
200 224 255
200 224 255
200 224 255
200 224 255
200 224 255
199 224 255
199 224 255
199 223 255
199 223 255
199 223 255
199 223 255
199 223 255
199 223 255
199 223 255
199 223 255
199 223 255
199 223 255
199 223 255
199 223 255
199 223 255
199 223 255
199 223 255
199 223 255
198 223 255
199 223 255
198 223 255
198 223 255
198 223 255
198 223 255
198 223 255
198 223 255
198 223 255
198 223 255
198 223 255
198 223 255
198 223 255
198 223 255
198 223 255
198 223 255
198 223 255
198 223 255
198 223 255
198 223 255
198 223 255
198 223 255
198 223 255
198 223 255
198 223 255
198 223 255
198 223 255
198 223 255
198 223 255
197 222 255
197 222 255
197 222 255
197 222 255
197 223 255
197 222 255
197 222 255
197 222 255
197 222 255
197 222 255
197 222 255
197 222 255
197 222 255
197 222 255
197 222 255
197 222 255
197 222 255
197 222 255
197 222 255
197 222 255
197 222 255
197 222 255
197 222 255
197 222 255
197 222 255
197 222 255
197 222 255
197 222 255
197 222 255
197 222 255
197 222 255
197 222 255
197 222 255
198 223 255
197 222 255
198 223 255
198 223 255
198 223 255
198 223 255
198 223 255
198 223 255
198 223 255
198 223 255
198 223 255
198 223 255
198 223 255
198 223 255
198 223 255
198 223 255
198 223 255
198 223 255
198 223 255
198 223 255
198 223 255
198 223 255
198 223 255
198 223 255
198 223 255
198 223 255
198 223 255
198 223 255
198 223 255
198 223 255
199 223 255
199 223 255
199 223 255
199 223 255
199 223 255
199 223 255
199 223 255
199 223 255
199 223 255
199 223 255
199 223 255
199 223 255
199 223 255
199 224 255
199 224 255
199 224 255
199 224 255
199 224 255
199 224 255
200 224 255
200 224 255
200 224 255
200 224 255
200 224 255
200 224 255
200 224 255
200 224 255
200 224 255
200 224 255
200 224 255
200 224 255
200 224 255
200 224 255
200 224 255
201 224 255
201 224 255
201 224 255
201 224 255
201 224 255
201 224 255
201 224 255
201 224 255
201 224 255
201 224 255
201 224 255
201 225 255
201 225 255
201 225 255
202 225 255
201 225 255
202 225 255
202 225 255
202 225 255
202 225 255
202 225 255
202 225 255
202 225 255
202 225 255
202 225 255
202 225 255
202 225 255
202 225 255
203 225 255
202 225 255
203 225 255
203 225 255
203 225 255
203 225 255
203 225 255
203 225 255
203 226 255
203 226 255
203 226 255
203 226 255
203 226 255
203 226 255
203 226 255
203 226 255
204 226 255
204 226 255
204 226 255
204 226 255
204 226 255
204 226 255
204 226 255
204 226 255
204 226 255
204 226 255
204 226 255
204 226 255
204 226 255
204 226 255
204 226 255
204 226 255
205 226 255
205 226 255
205 226 255
205 226 255
205 226 255
205 226 255
205 226 255
205 226 255
205 226 255
205 227 255
205 227 255
205 227 255
205 227 255
205 227 255
205 227 255
205 227 255
205 227 255
205 227 255
205 227 255
206 227 255
206 227 255
206 227 255
206 227 255
206 227 255
206 227 255
206 227 255
206 227 255
206 227 255
206 227 255
206 227 255
206 227 255
206 227 255
206 227 255
206 227 255
206 227 255
206 227 255
206 227 255
207 227 255
207 227 255
207 228 255
207 227 255
207 228 255
207 228 255
207 228 255
207 228 255
207 228 255
207 228 255
207 228 255
207 228 255
207 228 255
207 228 255
207 228 255
207 228 255
207 228 255
208 228 255
207 228 255
208 228 255
208 228 255
208 228 255
208 228 255
208 228 255
208 228 255
208 228 255
208 228 255
208 228 255
208 228 255
208 228 255
207 228 255
207 228 255
207 228 255
207 228 255
207 228 255
207 228 255
207 228 255
207 228 255
207 228 255
207 228 255
207 228 255
207 228 255
207 228 255
207 228 255
207 228 255
207 227 255
207 227 255
207 227 255
207 227 255
207 227 255
206 227 255
206 227 255
206 227 255
206 227 255
206 227 255
206 227 255
206 227 255
206 227 255
206 227 255
206 227 255
206 227 255
206 227 255
206 227 255
206 227 255
206 227 255
206 227 255
206 227 255
206 227 255
206 227 255
205 227 255
205 227 255
205 227 255
205 227 255
205 227 255
205 227 255
205 227 255
205 227 255
205 226 255
205 226 255
205 227 255
205 226 255
205 226 255
205 226 255
205 226 255
204 226 255
205 226 255
204 226 255
204 226 255
204 226 255
204 226 255
204 226 255
204 226 255
204 226 255
204 226 255
204 226 255
204 226 255
204 226 255
204 226 255
204 226 255
204 226 255
203 226 255
203 226 255
203 226 255
203 226 255
203 226 255
203 226 255
203 226 255
203 226 255
203 226 255
203 225 255
203 225 255
203 225 255
203 225 255
203 225 255
203 225 255
203 225 255
202 225 255
202 225 255
202 225 255
202 225 255
202 225 255
202 225 255
202 225 255
202 225 255
202 225 255
202 225 255
202 225 255
202 225 255
202 225 255
202 225 255
202 225 255
201 225 255
201 225 255
201 225 255
201 225 255
201 225 255
201 224 255
201 224 255
201 224 255
201 224 255
201 224 255
201 224 255
201 224 255
201 224 255
201 224 255
201 224 255
200 224 255
201 224 255
200 224 255
200 224 255
200 224 255
200 224 255
200 224 255
200 224 255
200 224 255
200 224 255
200 224 255
200 224 255
200 224 255
200 224 255
200 224 255
200 224 255
199 224 255
199 224 255
199 223 255
199 224 255
199 223 255
199 223 255
199 223 255
199 223 255
199 223 255
199 223 255
199 223 255
199 223 255
199 223 255
199 223 255
199 223 255
199 223 255
199 223 255
199 223 255
199 223 255
198 223 255
199 223 255
198 223 255
198 223 255
198 223 255
198 223 255
198 223 255
198 223 255
198 223 255
198 223 255
198 223 255
198 223 255
198 223 255
198 223 255
198 223 255
198 223 255
198 223 255
198 223 255
198 223 255
198 223 255
198 223 255
198 223 255
198 223 255
198 223 255
198 223 255
198 223 255
198 223 255
198 223 255
198 223 255
198 223 255
198 223 255
198 223 255
198 223 255
198 223 255
198 223 255
197 222 255
198 223 255
198 223 255
198 223 255
198 223 255
198 223 255
198 223 255
197 223 255
197 222 255
198 223 255
198 223 255
197 222 255
197 223 255
198 223 255
197 222 255
197 222 255
197 222 255
198 223 255
198 223 255
198 223 255
198 223 255
198 223 255
198 223 255
198 223 255
198 223 255
198 223 255
198 223 255
198 223 255
198 223 255
198 223 255
198 223 255
198 223 255
198 223 255
198 223 255
198 223 255
198 223 255
198 223 255
198 223 255
198 223 255
198 223 255
198 223 255
198 223 255
198 223 255
198 223 255
198 223 255
198 223 255
199 223 255
198 223 255
198 223 255
199 223 255
199 223 255
199 223 255
199 223 255
199 223 255
199 223 255
199 223 255
199 223 255
199 223 255
199 223 255
199 223 255
199 223 255
199 223 255
199 223 255
199 223 255
199 224 255
199 224 255
200 224 255
200 224 255
200 224 255
200 224 255
200 224 255
200 224 255
200 224 255
200 224 255
200 224 255
200 224 255
200 224 255
200 224 255
200 224 255
200 224 255
200 224 255
200 224 255
200 224 255
201 224 255
201 224 255
201 224 255
201 224 255
201 224 255
201 224 255
201 224 255
201 224 255
201 224 255
201 224 255
201 224 255
201 225 255
201 225 255
201 225 255
201 225 255
202 225 255
202 225 255
202 225 255
202 225 255
202 225 255
202 225 255
202 225 255
202 225 255
202 225 255
202 225 255
202 225 255
202 225 255
202 225 255
202 225 255
202 225 255
202 225 255
203 225 255
203 225 255
203 225 255
203 225 255
203 225 255
203 225 255
203 225 255
203 225 255
203 226 255
203 226 255
203 226 255
203 226 255
203 226 255
203 226 255
204 226 255
203 226 255
203 226 255
204 226 255
204 226 255
204 226 255
204 226 255
204 226 255
204 226 255
204 226 255
204 226 255
204 226 255
204 226 255
204 226 255
204 226 255
204 226 255
205 226 255
205 226 255
205 226 255
205 226 255
205 226 255
205 226 255
205 226 255
205 226 255
205 226 255
205 227 255
205 227 255
205 227 255
205 227 255
205 227 255
205 227 255
205 227 255
205 227 255
206 227 255
205 227 255
206 227 255
206 227 255
206 227 255
206 227 255
206 227 255
206 227 255
206 227 255
206 227 255
206 227 255
206 227 255
206 227 255
206 227 255
206 227 255
206 227 255
206 227 255
206 227 255
206 227 255
206 227 255
207 227 255
207 227 255
207 227 255
207 227 255
207 228 255
207 228 255
207 228 255
207 228 255
207 228 255
207 228 255
207 228 255
207 228 255
207 228 255
207 228 255
207 228 255
207 228 255
207 228 255
207 228 255
207 228 255
208 228 255
208 228 255
208 228 255
208 228 255
208 228 255
208 228 255
208 228 255
208 228 255
208 228 255
208 228 255
208 228 255
208 228 255
208 228 255
208 228 255
208 228 255
208 228 255
208 228 255
207 228 255
207 228 255
207 228 255
207 228 255
207 228 255
207 228 255
207 228 255
207 228 255
207 228 255
207 228 255
207 228 255
207 228 255
207 228 255
207 228 255
207 227 255
207 227 255
207 227 255
207 227 255
207 227 255
207 227 255
206 227 255
206 227 255
206 227 255
206 227 255
206 227 255
206 227 255
206 227 255
206 227 255
206 227 255
206 227 255
206 227 255
206 227 255
206 227 255
206 227 255
206 227 255
206 227 255
206 227 255
206 227 255
206 227 255
205 227 255
205 227 255
205 227 255
205 227 255
205 227 255
205 227 255
205 227 255
205 227 255
205 227 255
205 226 255
205 226 255
205 226 255
205 226 255
205 226 255
205 226 255
205 226 255
204 226 255
204 226 255
204 226 255
204 226 255
204 226 255
204 226 255
204 226 255
204 226 255
204 226 255
204 226 255
204 226 255
204 226 255
204 226 255
204 226 255
204 226 255
203 226 255
203 226 255
203 226 255
203 226 255
203 226 255
203 226 255
203 226 255
203 226 255
203 225 255
203 225 255
203 225 255
203 225 255
203 225 255
203 225 255
203 225 255
202 225 255
202 225 255
202 225 255
202 225 255
202 225 255
202 225 255
202 225 255
202 225 255
202 225 255
202 225 255
202 225 255
202 225 255
202 225 255
202 225 255
202 225 255
202 225 255
201 225 255
201 225 255
201 225 255
201 225 255
201 225 255
201 224 255
201 224 255
201 224 255
201 224 255
201 224 255
201 224 255
201 224 255
201 224 255
201 224 255
201 224 255
201 224 255
200 224 255
200 224 255
200 224 255
200 224 255
200 224 255
200 224 255
200 224 255
200 224 255
200 224 255
200 224 255
200 224 255
200 224 255
200 224 255
200 224 255
200 224 255
200 224 255
200 224 255
199 224 255
199 224 255
199 223 255
199 223 255
199 223 255
199 223 255
199 223 255
199 223 255
199 223 255
199 223 255
199 223 255
199 223 255
199 223 255
199 223 255
199 223 255
199 223 255
199 223 255
199 223 255
198 223 255
198 223 255
198 223 255
198 223 255
198 223 255
198 223 255
198 223 255
198 223 255
198 223 255
198 223 255
198 223 255
198 223 255
198 223 255
198 223 255
198 223 255
198 223 255
198 223 255
198 223 255
198 223 255
198 223 255
198 223 255
198 223 255
198 223 255
198 223 255
198 223 255
198 223 255
198 223 255
198 223 255
198 223 255
198 223 255
198 223 255
198 223 255
198 223 255
198 223 255
198 223 255
198 223 255
198 223 255
198 223 255
198 223 255
198 223 255
198 223 255
198 223 255
198 223 255
198 223 255
198 223 255
198 223 255
198 223 255
198 223 255
198 223 255
198 223 255
198 223 255
198 223 255
198 223 255
198 223 255
198 223 255
198 223 255
198 223 255
198 223 255
198 223 255
198 223 255
198 223 255
198 223 255
198 223 255
198 223 255
198 223 255
198 223 255
198 223 255
198 223 255
198 223 255
198 223 255
198 223 255
198 223 255
198 223 255
198 223 255
199 223 255
199 223 255
199 223 255
199 223 255
199 223 255
199 223 255
199 223 255
199 223 255
199 223 255
199 223 255
199 223 255
199 223 255
199 223 255
199 223 255
199 223 255
199 223 255
199 223 255
199 223 255
199 224 255
199 223 255
199 224 255
200 224 255
200 224 255
200 224 255
200 224 255
200 224 255
200 224 255
200 224 255
200 224 255
200 224 255
200 224 255
200 224 255
200 224 255
200 224 255
200 224 255
200 224 255
200 224 255
200 224 255
201 224 255
201 224 255
201 224 255
201 224 255
201 224 255
201 224 255
201 224 255
201 224 255
201 224 255
201 224 255
201 224 255
201 225 255
201 225 255
201 225 255
202 225 255
202 225 255
202 225 255
202 225 255
202 225 255
202 225 255
202 225 255
202 225 255
202 225 255
202 225 255
202 225 255
202 225 255
202 225 255
202 225 255
202 225 255
203 225 255
203 225 255
203 225 255
203 225 255
203 225 255
203 225 255
203 225 255
203 225 255
203 225 255
203 226 255
203 226 255
203 226 255
203 226 255
203 226 255
203 226 255
203 226 255
204 226 255
204 226 255
204 226 255
204 226 255
204 226 255
204 226 255
204 226 255
204 226 255
204 226 255
204 226 255
204 226 255
204 226 255
204 226 255
204 226 255
204 226 255
204 226 255
204 226 255
204 226 255
205 226 255
205 226 255
205 226 255
205 226 255
205 227 255
205 227 255
205 227 255
205 227 255
205 227 255
205 227 255
205 227 255
205 227 255
205 227 255
205 227 255
205 227 255
206 227 255
206 227 255
206 227 255
206 227 255
206 227 255
206 227 255
206 227 255
206 227 255
206 227 255
206 227 255
206 227 255
206 227 255
206 227 255
206 227 255
206 227 255
206 227 255
206 227 255
206 227 255
206 227 255
207 227 255
207 227 255
207 228 255
207 228 255
207 228 255
207 228 255
207 228 255
207 228 255
207 228 255
207 228 255
207 228 255
207 228 255
207 228 255
207 228 255
207 228 255
207 228 255
207 228 255
207 228 255
207 228 255
208 228 255
208 228 255
208 228 255
208 228 255
208 228 255
208 228 255
208 228 255
208 228 255
208 228 255
208 228 255
208 228 255
208 228 255
208 228 255
208 228 255
208 228 255
208 228 255
208 228 255
208 228 255
208 228 255
208 228 255
208 228 255
208 228 255
208 228 255
207 228 255
207 228 255
207 228 255
207 228 255
207 228 255
207 228 255
207 228 255
207 228 255
207 228 255
207 228 255
207 228 255
207 228 255
207 228 255
207 228 255
207 227 255
207 227 255
207 227 255
207 227 255
207 227 255
207 227 255
207 227 255
206 227 255
206 227 255
206 227 255
206 227 255
206 227 255
206 227 255
206 227 255
206 227 255
206 227 255
206 227 255
206 227 255
206 227 255
206 227 255
206 227 255
206 227 255
205 227 255
206 227 255
205 227 255
205 227 255
205 227 255
205 227 255
205 227 255
205 227 255
205 227 255
205 227 255
205 227 255
205 227 255
205 226 255
205 226 255
205 226 255
205 226 255
205 226 255
205 226 255
204 226 255
204 226 255
204 226 255
204 226 255
204 226 255
204 226 255
204 226 255
204 226 255
204 226 255
204 226 255
204 226 255
204 226 255
204 226 255
204 226 255
204 226 255
204 226 255
204 226 255
203 226 255
203 226 255
203 226 255
203 226 255
203 226 255
203 226 255
203 225 255
203 225 255
203 225 255
203 225 255
203 225 255
203 225 255
203 225 255
203 225 255
202 225 255
202 225 255
202 225 255
202 225 255
202 225 255
202 225 255
202 225 255
202 225 255
202 225 255
202 225 255
202 225 255
202 225 255
202 225 255
202 225 255
202 225 255
201 225 255
201 225 255
201 225 255
201 225 255
201 224 255
201 225 255
201 224 255
201 224 255
201 224 255
201 224 255
201 224 255
201 224 255
201 224 255
201 224 255
201 224 255
201 224 255
201 224 255
200 224 255
200 224 255
200 224 255
200 224 255
200 224 255
200 224 255
200 224 255
200 224 255
200 224 255
200 224 255
200 224 255
200 224 255
200 224 255
200 224 255
200 224 255
199 224 255
200 224 255
199 224 255
199 224 255
199 223 255
199 223 255
199 223 255
199 223 255
199 223 255
199 223 255
199 223 255
199 223 255
199 223 255
199 223 255
199 223 255
199 223 255
199 223 255
199 223 255
199 223 255
199 223 255
199 223 255
198 223 255
199 223 255
198 223 255
198 223 255
198 223 255
198 223 255
198 223 255
198 223 255
198 223 255
198 223 255
198 223 255
198 223 255
198 223 255
198 223 255
198 223 255
198 223 255
198 223 255
198 223 255
198 223 255
198 223 255
198 223 255
198 223 255
198 223 255
198 223 255
198 223 255
198 223 255
198 223 255
198 223 255
198 223 255
198 223 255
198 223 255
198 223 255
198 223 255
198 223 255
198 223 255
198 223 255
198 223 255
198 223 255
198 223 255
198 223 255
198 223 255
198 223 255
198 223 255
198 223 255
198 223 255
198 223 255
198 223 255
198 223 255
198 223 255
198 223 255
198 223 255
198 223 255
198 223 255
198 223 255
198 223 255
198 223 255
198 223 255
198 223 255
198 223 255
198 223 255
198 223 255
198 223 255
198 223 255
198 223 255
199 223 255
198 223 255
199 223 255
199 223 255
199 223 255
199 223 255
199 223 255
199 223 255
199 223 255
199 223 255
199 223 255
199 223 255
199 223 255
199 223 255
199 223 255
199 223 255
199 223 255
199 223 255
199 223 255
199 223 255
199 223 255
199 223 255
199 224 255
199 224 255
199 224 255
200 224 255
200 224 255
200 224 255
200 224 255
200 224 255
200 224 255
200 224 255
200 224 255
200 224 255
200 224 255
200 224 255
200 224 255
200 224 255
200 224 255
200 224 255
200 224 255
200 224 255
201 224 255
201 224 255
201 224 255
201 224 255
201 224 255
201 224 255
201 224 255
201 224 255
201 224 255
201 225 255
201 225 255
201 225 255
201 225 255
201 225 255
202 225 255
202 225 255
202 225 255
202 225 255
202 225 255
202 225 255
202 225 255
202 225 255
202 225 255
202 225 255
202 225 255
202 225 255
202 225 255
202 225 255
202 225 255
202 225 255
203 225 255
203 225 255
203 225 255
203 225 255
203 225 255
203 225 255
203 225 255
203 226 255
203 226 255
203 226 255
203 226 255
203 226 255
203 226 255
203 226 255
203 226 255
204 226 255
204 226 255
204 226 255
204 226 255
204 226 255
204 226 255
204 226 255
204 226 255
204 226 255
204 226 255
204 226 255
204 226 255
204 226 255
204 226 255
205 226 255
204 226 255
205 226 255
205 226 255
205 226 255
205 226 255
205 226 255
205 226 255
205 227 255
205 227 255
205 227 255
205 227 255
205 227 255
205 227 255
205 227 255
205 227 255
205 227 255
205 227 255
206 227 255
206 227 255
206 227 255
206 227 255
206 227 255
206 227 255
206 227 255
206 227 255
206 227 255
206 227 255
206 227 255
206 227 255
206 227 255
206 227 255
206 227 255
206 227 255
206 227 255
207 227 255
207 227 255
207 227 255
207 227 255
207 227 255
207 227 255
207 228 255
207 228 255
207 228 255
207 228 255
207 228 255
207 228 255
207 228 255
207 228 255
207 228 255
207 228 255
207 228 255
207 228 255
207 228 255
207 228 255
207 228 255
208 228 255
208 228 255
208 228 255
208 228 255
208 228 255
208 228 255
208 228 255
208 228 255
208 228 255
208 228 255
208 228 255
208 228 255
208 228 255
208 228 255
208 228 255
208 228 255
208 228 255
208 228 255
208 228 255
208 228 255
208 228 255
208 228 255
208 228 255
208 228 255
208 228 255
208 228 255
208 228 255
208 228 255
207 228 255
207 228 255
207 228 255
207 228 255
207 228 255
207 228 255
207 228 255
207 228 255
207 228 255
207 228 255
207 228 255
207 228 255
207 228 255
207 228 255
207 228 255
207 227 255
207 227 255
207 228 255
207 227 255
207 227 255
207 227 255
206 227 255
206 227 255
206 227 255
206 227 255
206 227 255
206 227 255
206 227 255
206 227 255
206 227 255
206 227 255
206 227 255
206 227 255
206 227 255
206 227 255
206 227 255
206 227 255
206 227 255
205 227 255
205 227 255
205 227 255
205 227 255
205 227 255
205 227 255
205 227 255
205 227 255
205 227 255
205 227 255
205 227 255
205 226 255
205 226 255
205 226 255
205 226 255
205 226 255
204 226 255
205 226 255
204 226 255
204 226 255
204 226 255
204 226 255
204 226 255
204 226 255
204 226 255
204 226 255
204 226 255
204 226 255
204 226 255
204 226 255
204 226 255
204 226 255
204 226 255
203 226 255
203 226 255
203 226 255
203 226 255
203 226 255
203 226 255
203 226 255
203 226 255
203 225 255
203 225 255
203 225 255
203 225 255
203 225 255
203 225 255
203 225 255
202 225 255
202 225 255
202 225 255
202 225 255
202 225 255
202 225 255
202 225 255
202 225 255
202 225 255
202 225 255
202 225 255
202 225 255
202 225 255
202 225 255
202 225 255
202 225 255
202 225 255
201 225 255
201 225 255
201 224 255
201 224 255
201 224 255
201 224 255
201 224 255
201 224 255
201 224 255
201 224 255
201 224 255
201 224 255
201 224 255
201 224 255
200 224 255
200 224 255
200 224 255
200 224 255
200 224 255
200 224 255
200 224 255
200 224 255
200 224 255
200 224 255
200 224 255
200 224 255
200 224 255
200 224 255
200 224 255
200 224 255
200 224 255
200 224 255
199 224 255
199 224 255
199 224 255
199 223 255
199 223 255
199 223 255
199 223 255
199 223 255
199 223 255
199 223 255
199 223 255
199 223 255
199 223 255
199 223 255
199 223 255
199 223 255
199 223 255
199 223 255
199 223 255
199 223 255
199 223 255
199 223 255
198 223 255
198 223 255
199 223 255
198 223 255
198 223 255
198 223 255
198 223 255
198 223 255
198 223 255
198 223 255
198 223 255
198 223 255
198 223 255
198 223 255
198 223 255
198 223 255
198 223 255
198 223 255
198 223 255
198 223 255
198 223 255
198 223 255
198 223 255
198 223 255
198 223 255
198 223 255
198 223 255
198 223 255
198 223 255
198 223 255
198 223 255
198 223 255
198 223 255
198 223 255
198 223 255
198 223 255
198 223 255
198 223 255
198 223 255
198 223 255
198 223 255
198 223 255
198 223 255
198 223 255
198 223 255
198 223 255
198 223 255
198 223 255
198 223 255
198 223 255
198 223 255
198 223 255
198 223 255
198 223 255
199 223 255
199 223 255
199 223 255
199 223 255
199 223 255
199 223 255
199 223 255
199 223 255
199 223 255
199 223 255
199 223 255
199 223 255
199 223 255
199 223 255
199 223 255
199 223 255
199 223 255
199 223 255
199 223 255
199 223 255
199 224 255
199 223 255
199 224 255
199 224 255
200 224 255
199 224 255
200 224 255
200 224 255
200 224 255
200 224 255
200 224 255
200 224 255
200 224 255
200 224 255
200 224 255
200 224 255
200 224 255
200 224 255
200 224 255
200 224 255
200 224 255
200 224 255
201 224 255
201 224 255
201 224 255
201 224 255
201 224 255
201 224 255
201 224 255
201 224 255
201 224 255
201 224 255
201 224 255
201 224 255
201 225 255
201 225 255
201 225 255
201 225 255
201 225 255
202 225 255
202 225 255
202 225 255
202 225 255
202 225 255
202 225 255
202 225 255
202 225 255
202 225 255
202 225 255
202 225 255
202 225 255
202 225 255
202 225 255
203 225 255
203 225 255
203 225 255
203 225 255
203 225 255
203 225 255
203 225 255
203 225 255
203 226 255
203 226 255
203 226 255
203 226 255
203 226 255
203 226 255
203 226 255
203 226 255
204 226 255
204 226 255
204 226 255
204 226 255
204 226 255
204 226 255
204 226 255
204 226 255
204 226 255
204 226 255
204 226 255
204 226 255
204 226 255
204 226 255
204 226 255
205 226 255
205 226 255
205 226 255
205 226 255
205 226 255
205 226 255
205 227 255
205 227 255
205 227 255
205 227 255
205 227 255
205 227 255
205 227 255
205 227 255
205 227 255
205 227 255
206 227 255
205 227 255
206 227 255
206 227 255
206 227 255
206 227 255
206 227 255
206 227 255
206 227 255
206 227 255
206 227 255
206 227 255
206 227 255
206 227 255
206 227 255
206 227 255
206 227 255
207 227 255
207 227 255
207 227 255
207 227 255
207 228 255
207 227 255
207 228 255
207 228 255
207 228 255
207 228 255
207 228 255
207 228 255
207 228 255
207 228 255
207 228 255
207 228 255
207 228 255
207 228 255
207 228 255
207 228 255
207 228 255
208 228 255
208 228 255
208 228 255
208 228 255
208 228 255
208 228 255
208 228 255
208 228 255
208 228 255
208 228 255
208 228 255
208 228 255
208 228 255
208 228 255
208 228 255
208 228 255
208 228 255
208 228 255
208 228 255
208 228 255
208 228 255
208 228 255
208 228 255
208 228 255
208 228 255
208 228 255
208 228 255
208 228 255
208 228 255
208 228 255
208 228 255
208 228 255
208 228 255
208 228 255
207 228 255
207 228 255
207 228 255
207 228 255
207 228 255
207 228 255
207 228 255
207 228 255
207 228 255
207 228 255
207 228 255
207 228 255
207 228 255
207 228 255
207 228 255
207 228 255
207 228 255
207 227 255
207 227 255
207 227 255
207 227 255
207 227 255
206 227 255
206 227 255
206 227 255
206 227 255
206 227 255
206 227 255
206 227 255
206 227 255
206 227 255
206 227 255
206 227 255
206 227 255
206 227 255
206 227 255
206 227 255
206 227 255
206 227 255
205 227 255
205 227 255
205 227 255
205 227 255
205 227 255
205 227 255
205 227 255
205 227 255
205 227 255
205 226 255
205 226 255
205 226 255
205 226 255
205 226 255
205 226 255
204 226 255
204 226 255
204 226 255
204 226 255
204 226 255
204 226 255
204 226 255
204 226 255
204 226 255
204 226 255
204 226 255
204 226 255
204 226 255
204 226 255
204 226 255
204 226 255
204 226 255
203 226 255
203 226 255
203 226 255
203 226 255
203 226 255
203 226 255
203 225 255
203 225 255
203 225 255
203 225 255
203 225 255
203 225 255
203 225 255
203 225 255
203 225 255
202 225 255
202 225 255
202 225 255
202 225 255
202 225 255
202 225 255
202 225 255
202 225 255
202 225 255
202 225 255
202 225 255
202 225 255
202 225 255
202 225 255
202 225 255
202 225 255
201 225 255
201 225 255
201 225 255
201 225 255
201 224 255
201 224 255
201 224 255
201 224 255
201 224 255
201 224 255
201 224 255
201 224 255
201 224 255
201 224 255
201 224 255
200 224 255
201 224 255
200 224 255
200 224 255
200 224 255
200 224 255
200 224 255
200 224 255
200 224 255
200 224 255
200 224 255
200 224 255
200 224 255
200 224 255
200 224 255
200 224 255
200 224 255
200 224 255
199 224 255
199 224 255
199 224 255
199 223 255
199 224 255
199 223 255
199 223 255
199 223 255
199 223 255
199 223 255
199 223 255
199 223 255
199 223 255
199 223 255
199 223 255
199 223 255
199 223 255
199 223 255
199 223 255
199 223 255
199 223 255
199 223 255
199 223 255
199 223 255
199 223 255
198 223 255
198 223 255
198 223 255
198 223 255
199 223 255
198 223 255
198 223 255
198 223 255
198 223 255
198 223 255
198 223 255
198 223 255
198 223 255
198 223 255
198 223 255
198 223 255
198 223 255
198 223 255
198 223 255
198 223 255
198 223 255
198 223 255
198 223 255
198 223 255
198 223 255
198 223 255
198 223 255
198 223 255
198 223 255
198 223 255
198 223 255
198 223 255
198 223 255
198 223 255
198 223 255
198 223 255
198 223 255
198 223 255
198 223 255
199 223 255
198 223 255
198 223 255
198 223 255
199 223 255
199 223 255
199 223 255
199 223 255
199 223 255
199 223 255
199 223 255
199 223 255
199 223 255
199 223 255
199 223 255
199 223 255
199 223 255
199 223 255
199 223 255
199 223 255
199 223 255
199 223 255
199 223 255
199 223 255
199 223 255
199 223 255
199 223 255
199 224 255
199 224 255
199 224 255
199 224 255
200 224 255
200 224 255
200 224 255
200 224 255
200 224 255
200 224 255
200 224 255
200 224 255
200 224 255
200 224 255
200 224 255
200 224 255
200 224 255
200 224 255
200 224 255
200 224 255
200 224 255
201 224 255
201 224 255
201 224 255
201 224 255
201 224 255
201 224 255
201 224 255
201 224 255
201 224 255
201 224 255
201 224 255
201 225 255
201 225 255
201 225 255
201 225 255
202 225 255
201 225 255
202 225 255
202 225 255
202 225 255
202 225 255
202 225 255
202 225 255
202 225 255
202 225 255
202 225 255
202 225 255
202 225 255
202 225 255
202 225 255
203 225 255
202 225 255
203 225 255
203 225 255
203 225 255
203 225 255
203 225 255
203 225 255
203 225 255
203 226 255
203 226 255
203 226 255
203 226 255
203 226 255
203 226 255
203 226 255
203 226 255
204 226 255
204 226 255
204 226 255
204 226 255
204 226 255
204 226 255
204 226 255
204 226 255
204 226 255
204 226 255
204 226 255
204 226 255
204 226 255
204 226 255
204 226 255
205 226 255
205 226 255
205 226 255
205 226 255
205 226 255
205 226 255
205 226 255
205 226 255
205 227 255
205 227 255
205 227 255
205 227 255
205 227 255
205 227 255
205 227 255
205 227 255
206 227 255
206 227 255
206 227 255
206 227 255
206 227 255
206 227 255
206 227 255
206 227 255
206 227 255
206 227 255
206 227 255
206 227 255
206 227 255
206 227 255
206 227 255
206 227 255
206 227 255
206 227 255
206 227 255
207 227 255
207 227 255
207 227 255
207 228 255
207 227 255
207 228 255
207 228 255
207 228 255
207 228 255
207 228 255
207 228 255
207 228 255
207 228 255
207 228 255
207 228 255
207 228 255
207 228 255
208 228 255
207 228 255
207 228 255
208 228 255
208 228 255
208 228 255
208 228 255
208 228 255
208 228 255
208 228 255
208 228 255
208 228 255
208 228 255
208 228 255
208 228 255
208 228 255
208 228 255
208 228 255
208 228 255
208 228 255
208 228 255
209 229 255
209 228 255
208 228 255
208 228 255
208 228 255
208 228 255
208 228 255
208 228 255
208 228 255
208 228 255
208 228 255
208 228 255
208 228 255
208 228 255
208 228 255
208 228 255
208 228 255
208 228 255
208 228 255
208 228 255
208 228 255
208 228 255
207 228 255
207 228 255
207 228 255
207 228 255
207 228 255
207 228 255
207 228 255
207 228 255
207 228 255
207 228 255
207 228 255
207 228 255
207 228 255
207 228 255
207 228 255
207 227 255
207 227 255
207 227 255
207 227 255
206 227 255
207 227 255
206 227 255
206 227 255
206 227 255
206 227 255
206 227 255
206 227 255
206 227 255
206 227 255
206 227 255
206 227 255
206 227 255
206 227 255
206 227 255
206 227 255
206 227 255
206 227 255
206 227 255
205 227 255
205 227 255
205 227 255
205 227 255
205 227 255
205 227 255
205 227 255
205 227 255
205 227 255
205 226 255
205 226 255
205 226 255
205 226 255
205 226 255
204 226 255
204 226 255
204 226 255
204 226 255
204 226 255
204 226 255
204 226 255
204 226 255
204 226 255
204 226 255
204 226 255
204 226 255
204 226 255
204 226 255
204 226 255
204 226 255
204 226 255
203 226 255
204 226 255
203 226 255
203 226 255
203 226 255
203 226 255
203 226 255
203 226 255
203 225 255
203 225 255
203 225 255
203 225 255
203 225 255
203 225 255
203 225 255
203 225 255
203 225 255
202 225 255
202 225 255
202 225 255
202 225 255
202 225 255
202 225 255
202 225 255
202 225 255
202 225 255
202 225 255
202 225 255
202 225 255
202 225 255
201 225 255
201 225 255
201 225 255
201 225 255
201 225 255
201 225 255
201 224 255
201 224 255
201 224 255
201 224 255
201 224 255
201 224 255
201 224 255
201 224 255
201 224 255
201 224 255
200 224 255
201 224 255
200 224 255
200 224 255
200 224 255
200 224 255
200 224 255
200 224 255
200 224 255
200 224 255
200 224 255
200 224 255
200 224 255
200 224 255
200 224 255
200 224 255
200 224 255
200 224 255
200 224 255
200 224 255
199 224 255
199 224 255
199 224 255
199 223 255
199 223 255
199 223 255
199 223 255
199 223 255
199 223 255
199 223 255
199 223 255
199 223 255
199 223 255
199 223 255
199 223 255
199 223 255
199 223 255
199 223 255
199 223 255
199 223 255
199 223 255
199 223 255
199 223 255
199 223 255
199 223 255
199 223 255
199 223 255
199 223 255
199 223 255
199 223 255
199 223 255
198 223 255
199 223 255
199 223 255
199 223 255
199 223 255
199 223 255
199 223 255
198 223 255
198 223 255
198 223 255
198 223 255
198 223 255
199 223 255
198 223 255
198 223 255
198 223 255
198 223 255
198 223 255
198 223 255
198 223 255
199 223 255
199 223 255
199 223 255
198 223 255
199 223 255
199 223 255
199 223 255
199 223 255
199 223 255
199 223 255
199 223 255
199 223 255
199 223 255
199 223 255
199 223 255
199 223 255
199 223 255
199 223 255
199 223 255
199 223 255
199 223 255
199 223 255
199 223 255
199 223 255
199 223 255
199 223 255
199 223 255
199 223 255
199 223 255
199 224 255
199 223 255
199 224 255
199 223 255
199 224 255
200 224 255
200 224 255
200 224 255
200 224 255
200 224 255
200 224 255
200 224 255
200 224 255
200 224 255
200 224 255
200 224 255
200 224 255
200 224 255
200 224 255
200 224 255
200 224 255
200 224 255
200 224 255
200 224 255
201 224 255
200 224 255
201 224 255
201 224 255
201 224 255
201 224 255
201 224 255
201 224 255
201 224 255
201 224 255
201 224 255
201 224 255
201 224 255
201 225 255
201 225 255
201 225 255
201 225 255
202 225 255
202 225 255
202 225 255
202 225 255
202 225 255
202 225 255
202 225 255
202 225 255
202 225 255
202 225 255
202 225 255
202 225 255
202 225 255
202 225 255
203 225 255
203 225 255
203 225 255
203 225 255
203 225 255
203 225 255
203 225 255
203 225 255
203 225 255
203 225 255
203 226 255
203 226 255
203 226 255
203 226 255
203 226 255
203 226 255
203 226 255
204 226 255
204 226 255
204 226 255
204 226 255
204 226 255
204 226 255
204 226 255
204 226 255
204 226 255
204 226 255
204 226 255
204 226 255
204 226 255
204 226 255
204 226 255
205 226 255
205 226 255
205 226 255
205 226 255
205 226 255
205 226 255
205 227 255
205 227 255
205 227 255
205 227 255
205 227 255
205 227 255
205 227 255
205 227 255
205 227 255
205 227 255
206 227 255
206 227 255
206 227 255
206 227 255
206 227 255
206 227 255
206 227 255
206 227 255
206 227 255
206 227 255
206 227 255
206 227 255
206 227 255
206 227 255
206 227 255
206 227 255
206 227 255
206 227 255
206 227 255
207 227 255
207 227 255
207 227 255
207 227 255
207 227 255
207 228 255
207 228 255
207 228 255
207 228 255
207 228 255
207 228 255
207 228 255
207 228 255
207 228 255
207 228 255
207 228 255
207 228 255
207 228 255
207 228 255
208 228 255
208 228 255
208 228 255
208 228 255
208 228 255
208 228 255
208 228 255
208 228 255
208 228 255
208 228 255
208 228 255
208 228 255
208 228 255
208 228 255
208 228 255
208 228 255
208 228 255
208 228 255
208 228 255
208 228 255
208 228 255
208 228 255
209 229 255
209 229 255
209 228 255
209 228 255
209 228 255
209 228 255
208 228 255
208 228 255
208 228 255
208 228 255
208 228 255
208 228 255
208 228 255
208 228 255
208 228 255
208 228 255
208 228 255
208 228 255
208 228 255
208 228 255
208 228 255
208 228 255
208 228 255
208 228 255
208 228 255
207 228 255
207 228 255
207 228 255
207 228 255
207 228 255
207 228 255
207 228 255
207 228 255
207 228 255
207 228 255
207 228 255
207 228 255
207 228 255
207 228 255
207 228 255
207 228 255
207 227 255
207 227 255
207 227 255
206 227 255
206 227 255
206 227 255
206 227 255
206 227 255
206 227 255
206 227 255
206 227 255
206 227 255
206 227 255
206 227 255
206 227 255
206 227 255
206 227 255
206 227 255
206 227 255
206 227 255
206 227 255
205 227 255
205 227 255
205 227 255
205 227 255
205 227 255
205 227 255
205 227 255
205 227 255
205 227 255
205 227 255
205 226 255
205 226 255
205 226 255
205 226 255
205 226 255
205 226 255
205 226 255
204 226 255
204 226 255
204 226 255
204 226 255
204 226 255
204 226 255
204 226 255
204 226 255
204 226 255
204 226 255
204 226 255
204 226 255
204 226 255
204 226 255
204 226 255
203 226 255
204 226 255
203 226 255
203 226 255
203 226 255
203 226 255
203 226 255
203 225 255
203 225 255
203 225 255
203 225 255
203 225 255
203 225 255
203 225 255
203 225 255
202 225 255
202 225 255
202 225 255
202 225 255
202 225 255
202 225 255
202 225 255
202 225 255
202 225 255
202 225 255
202 225 255
202 225 255
202 225 255
202 225 255
202 225 255
202 225 255
202 225 255
201 225 255
201 225 255
201 225 255
201 225 255
201 225 255
201 224 255
201 224 255
201 224 255
201 224 255
201 224 255
201 224 255
201 224 255
201 224 255
201 224 255
200 224 255
201 224 255
200 224 255
200 224 255
200 224 255
200 224 255
200 224 255
200 224 255
200 224 255
200 224 255
200 224 255
200 224 255
200 224 255
200 224 255
200 224 255
200 224 255
200 224 255
200 224 255
200 224 255
200 224 255
200 224 255
200 224 255
200 224 255
199 224 255
199 224 255
199 223 255
199 223 255
199 223 255
199 223 255
199 223 255
199 223 255
199 223 255
199 223 255
199 223 255
199 223 255
199 223 255
199 223 255
199 223 255
199 223 255
199 223 255
199 223 255
199 223 255
199 223 255
199 223 255
199 223 255
199 223 255
199 223 255
199 223 255
199 223 255
199 223 255
199 223 255
199 223 255
199 223 255
199 223 255
199 223 255
199 223 255
199 223 255
199 223 255
199 223 255
199 223 255
199 223 255
199 223 255
199 223 255
199 223 255
199 223 255
199 223 255
199 223 255
199 223 255
199 223 255
199 223 255
199 223 255
199 223 255
199 223 255
199 223 255
199 223 255
199 223 255
199 223 255
199 223 255
199 223 255
199 223 255
199 223 255
199 223 255
199 223 255
199 223 255
199 223 255
199 223 255
199 223 255
199 223 255
199 223 255
199 223 255
199 223 255
199 223 255
199 223 255
199 223 255
199 224 255
199 224 255
199 224 255
199 224 255
200 224 255
199 224 255
200 224 255
200 224 255
200 224 255
200 224 255
200 224 255
200 224 255
200 224 255
200 224 255
200 224 255
200 224 255
200 224 255
200 224 255
200 224 255
200 224 255
200 224 255
200 224 255
200 224 255
200 224 255
200 224 255
201 224 255
201 224 255
201 224 255
201 224 255
201 224 255
201 224 255
201 224 255
201 224 255
201 224 255
201 224 255
201 224 255
201 225 255
201 225 255
201 225 255
201 225 255
202 225 255
202 225 255
202 225 255
202 225 255
202 225 255
202 225 255
202 225 255
202 225 255
202 225 255
202 225 255
202 225 255
202 225 255
202 225 255
202 225 255
202 225 255
202 225 255
202 225 255
203 225 255
203 225 255
203 225 255
203 225 255
203 225 255
203 225 255
203 225 255
203 225 255
203 226 255
203 226 255
203 226 255
203 226 255
203 226 255
203 226 255
204 226 255
204 226 255
204 226 255
204 226 255
204 226 255
204 226 255
204 226 255
204 226 255
204 226 255
204 226 255
204 226 255
204 226 255
204 226 255
204 226 255
204 226 255
204 226 255
204 226 255
205 226 255
205 226 255
205 226 255
205 226 255
205 226 255
205 226 255
205 226 255
205 227 255
205 227 255
205 227 255
205 227 255
205 227 255
205 227 255
205 227 255
205 227 255
205 227 255
205 227 255
206 227 255
206 227 255
206 227 255
206 227 255
206 227 255
206 227 255
206 227 255
206 227 255
206 227 255
206 227 255
206 227 255
206 227 255
206 227 255
206 227 255
206 227 255
206 227 255
207 227 255
206 227 255
207 227 255
207 227 255
207 227 255
207 227 255
207 227 255
207 228 255
207 228 255
207 228 255
207 228 255
207 228 255
207 228 255
207 228 255
207 228 255
207 228 255
207 228 255
207 228 255
207 228 255
207 228 255
208 228 255
208 228 255
208 228 255
208 228 255
208 228 255
208 228 255
208 228 255
208 228 255
208 228 255
208 228 255
208 228 255
208 228 255
208 228 255
208 228 255
208 228 255
208 228 255
208 228 255
208 228 255
208 228 255
208 228 255
209 228 255
208 228 255
209 229 255
209 228 255
209 229 255
209 229 255
209 229 255
209 229 255
209 229 255
209 229 255
209 229 255
209 228 255
209 228 255
208 228 255
208 228 255
208 228 255
208 228 255
208 228 255
208 228 255
208 228 255
208 228 255
208 228 255
208 228 255
208 228 255
208 228 255
208 228 255
208 228 255
208 228 255
208 228 255
208 228 255
208 228 255
208 228 255
208 228 255
207 228 255
207 228 255
207 228 255
207 228 255
207 228 255
207 228 255
207 228 255
207 228 255
207 228 255
207 228 255
207 228 255
207 228 255
207 228 255
207 228 255
207 228 255
207 227 255
207 227 255
207 227 255
206 227 255
206 227 255
206 227 255
206 227 255
206 227 255
206 227 255
206 227 255
206 227 255
206 227 255
206 227 255
206 227 255
206 227 255
206 227 255
206 227 255
206 227 255
206 227 255
206 227 255
206 227 255
206 227 255
205 227 255
205 227 255
205 227 255
205 227 255
205 227 255
205 227 255
205 227 255
205 227 255
205 227 255
205 226 255
205 226 255
205 226 255
205 226 255
205 226 255
205 226 255
204 226 255
204 226 255
204 226 255
204 226 255
204 226 255
204 226 255
204 226 255
204 226 255
204 226 255
204 226 255
204 226 255
204 226 255
204 226 255
204 226 255
204 226 255
204 226 255
204 226 255
203 226 255
203 226 255
203 226 255
203 226 255
203 226 255
203 226 255
203 225 255
203 225 255
203 225 255
203 225 255
203 225 255
203 225 255
203 225 255
203 225 255
203 225 255
202 225 255
202 225 255
202 225 255
202 225 255
202 225 255
202 225 255
202 225 255
202 225 255
202 225 255
202 225 255
202 225 255
202 225 255
202 225 255
202 225 255
202 225 255
201 225 255
201 225 255
201 225 255
201 225 255
201 225 255
201 224 255
201 225 255
201 224 255
201 224 255
201 224 255
201 224 255
201 224 255
201 224 255
201 224 255
201 224 255
201 224 255
200 224 255
201 224 255
200 224 255
200 224 255
200 224 255
200 224 255
200 224 255
200 224 255
200 224 255
200 224 255
200 224 255
200 224 255
200 224 255
200 224 255
200 224 255
200 224 255
200 224 255
200 224 255
200 224 255
200 224 255
200 224 255
200 224 255
200 224 255
199 224 255
199 224 255
199 224 255
199 223 255
199 223 255
199 224 255
199 223 255
199 223 255
199 223 255
199 223 255
199 223 255
199 223 255
199 223 255
199 223 255
199 223 255
199 223 255
199 223 255
199 223 255
199 223 255
199 223 255
199 223 255
199 223 255
199 223 255
199 223 255
199 223 255
199 223 255
199 223 255
199 223 255
199 223 255
199 223 255
199 223 255
199 223 255
199 223 255
199 223 255
199 223 255
199 223 255
199 223 255
199 223 255
199 223 255
199 223 255
199 223 255
199 223 255
199 223 255
199 223 255
199 223 255
199 223 255
199 223 255
199 223 255
199 223 255
199 223 255
199 223 255
199 223 255
199 223 255
199 223 255
199 223 255
199 223 255
199 223 255
199 223 255
199 223 255
199 223 255
199 223 255
199 224 255
199 223 255
199 224 255
199 224 255
200 224 255
199 224 255
199 224 255
200 224 255
200 224 255
200 224 255
200 224 255
200 224 255
200 224 255
200 224 255
200 224 255
200 224 255
200 224 255
200 224 255
200 224 255
200 224 255
200 224 255
200 224 255
200 224 255
200 224 255
200 224 255
200 224 255
200 224 255
200 224 255
200 224 255
201 224 255
201 224 255
201 224 255
201 224 255
201 224 255
201 224 255
201 224 255
201 224 255
201 224 255
201 224 255
201 224 255
201 225 255
201 225 255
201 225 255
201 225 255
201 225 255
202 225 255
202 225 255
202 225 255
202 225 255
202 225 255
202 225 255
202 225 255
202 225 255
202 225 255
202 225 255
202 225 255
202 225 255
202 225 255
202 225 255
202 225 255
202 225 255
203 225 255
203 225 255
203 225 255
203 225 255
203 225 255
203 225 255
203 225 255
203 226 255
203 226 255
203 226 255
203 226 255
203 226 255
203 226 255
203 226 255
203 226 255
203 226 255
204 226 255
204 226 255
204 226 255
204 226 255
204 226 255
204 226 255
204 226 255
204 226 255
204 226 255
204 226 255
204 226 255
204 226 255
204 226 255
204 226 255
204 226 255
205 226 255
205 226 255
205 226 255
205 226 255
205 226 255
205 226 255
205 227 255
205 227 255
205 227 255
205 227 255
205 227 255
205 227 255
205 227 255
205 227 255
205 227 255
205 227 255
206 227 255
206 227 255
206 227 255
206 227 255
206 227 255
206 227 255
206 227 255
206 227 255
206 227 255
206 227 255
206 227 255
206 227 255
206 227 255
206 227 255
206 227 255
206 227 255
207 227 255
206 227 255
207 227 255
207 227 255
207 228 255
207 227 255
207 228 255
207 228 255
207 228 255
207 228 255
207 228 255
207 228 255
207 228 255
207 228 255
207 228 255
207 228 255
207 228 255
207 228 255
207 228 255
207 228 255
207 228 255
208 228 255
208 228 255
208 228 255
208 228 255
208 228 255
208 228 255
208 228 255
208 228 255
208 228 255
208 228 255
208 228 255
208 228 255
208 228 255
208 228 255
208 228 255
208 228 255
208 228 255
208 228 255
208 228 255
208 228 255
208 228 255
209 228 255
209 228 255
209 229 255
209 229 255
209 229 255
209 229 255
209 229 255
209 229 255
209 229 255
209 229 255
209 229 255
209 229 255
209 229 255
209 229 255
209 229 255
209 229 255
209 229 255
209 228 255
209 228 255
208 228 255
208 228 255
208 228 255
208 228 255
208 228 255
208 228 255
208 228 255
208 228 255
208 228 255
208 228 255
208 228 255
208 228 255
208 228 255
208 228 255
208 228 255
208 228 255
208 228 255
208 228 255
208 228 255
207 228 255
207 228 255
207 228 255
207 228 255
207 228 255
207 228 255
207 228 255
207 228 255
207 228 255
207 228 255
207 228 255
207 228 255
207 228 255
207 228 255
207 228 255
207 227 255
207 227 255
207 227 255
206 227 255
207 227 255
206 227 255
206 227 255
206 227 255
206 227 255
206 227 255
206 227 255
206 227 255
206 227 255
206 227 255
206 227 255
206 227 255
206 227 255
206 227 255
206 227 255
206 227 255
206 227 255
205 227 255
206 227 255
205 227 255
205 227 255
205 227 255
205 227 255
205 227 255
205 227 255
205 227 255
205 227 255
205 227 255
205 226 255
205 226 255
205 226 255
205 226 255
205 226 255
204 226 255
204 226 255
205 226 255
204 226 255
204 226 255
204 226 255
204 226 255
204 226 255
204 226 255
204 226 255
204 226 255
204 226 255
204 226 255
204 226 255
204 226 255
204 226 255
204 226 255
204 226 255
203 226 255
203 226 255
203 226 255
203 226 255
203 226 255
203 225 255
203 226 255
203 225 255
203 225 255
203 225 255
203 225 255
203 225 255
203 225 255
203 225 255
202 225 255
202 225 255
202 225 255
202 225 255
202 225 255
202 225 255
202 225 255
202 225 255
202 225 255
202 225 255
202 225 255
202 225 255
202 225 255
202 225 255
202 225 255
202 225 255
201 225 255
202 225 255
201 225 255
201 225 255
201 225 255
201 225 255
201 224 255
201 224 255
201 224 255
201 224 255
201 224 255
201 224 255
201 224 255
201 224 255
201 224 255
201 224 255
201 224 255
200 224 255
201 224 255
200 224 255
200 224 255
200 224 255
200 224 255
200 224 255
200 224 255
200 224 255
200 224 255
200 224 255
200 224 255
200 224 255
200 224 255
200 224 255
200 224 255
200 224 255
200 224 255
200 224 255
200 224 255
200 224 255
200 224 255
200 224 255
200 224 255
200 224 255
199 224 255
199 224 255
199 224 255
199 224 255
199 223 255
199 223 255
199 223 255
199 224 255
199 223 255
199 223 255
199 223 255
199 223 255
199 223 255
199 223 255
199 223 255
199 223 255
199 223 255
199 223 255
199 223 255
199 223 255
199 223 255
199 223 255
199 223 255
199 223 255
199 223 255
199 223 255
199 223 255
199 223 255
199 223 255
199 223 255
199 223 255
199 223 255
199 223 255
199 223 255
199 223 255
199 223 255
199 223 255
199 223 255
199 223 255
199 223 255
199 223 255
199 223 255
199 223 255
199 223 255
199 223 255
199 223 255
199 223 255
199 223 255
199 223 255
199 223 255
199 223 255
199 224 255
199 224 255
200 224 255
199 224 255
200 224 255
200 224 255
200 224 255
200 224 255
200 224 255
200 224 255
200 224 255
200 224 255
200 224 255
200 224 255
200 224 255
200 224 255
200 224 255
200 224 255
200 224 255
200 224 255
200 224 255
200 224 255
200 224 255
200 224 255
200 224 255
200 224 255
200 224 255
201 224 255
201 224 255
201 224 255
201 224 255
201 224 255
201 224 255
201 224 255
201 224 255
201 224 255
201 224 255
201 224 255
201 224 255
201 224 255
201 224 255
201 225 255
201 225 255
201 225 255
202 225 255
201 225 255
202 225 255
202 225 255
202 225 255
202 225 255
202 225 255
202 225 255
202 225 255
202 225 255
202 225 255
202 225 255
202 225 255
202 225 255
202 225 255
203 225 255
203 225 255
203 225 255
203 225 255
203 225 255
203 225 255
203 225 255
203 225 255
203 225 255
203 225 255
203 226 255
203 226 255
203 226 255
203 226 255
203 226 255
203 226 255
204 226 255
203 226 255
204 226 255
204 226 255
204 226 255
204 226 255
204 226 255
204 226 255
204 226 255
204 226 255
204 226 255
204 226 255
204 226 255
204 226 255
204 226 255
204 226 255
204 226 255
204 226 255
205 226 255
205 226 255
205 226 255
205 226 255
205 226 255
205 226 255
205 227 255
205 227 255
205 227 255
205 227 255
205 227 255
205 227 255
205 227 255
205 227 255
205 227 255
205 227 255
206 227 255
206 227 255
206 227 255
206 227 255
206 227 255
206 227 255
206 227 255
206 227 255
206 227 255
206 227 255
206 227 255
206 227 255
206 227 255
206 227 255
206 227 255
206 227 255
207 227 255
207 227 255
207 227 255
207 227 255
207 227 255
207 228 255
207 228 255
207 228 255
207 228 255
207 228 255
207 228 255
207 228 255
207 228 255
207 228 255
207 228 255
207 228 255
207 228 255
207 228 255
208 228 255
207 228 255
208 228 255
208 228 255
208 228 255
208 228 255
208 228 255
208 228 255
208 228 255
208 228 255
208 228 255
208 228 255
208 228 255
208 228 255
208 228 255
208 228 255
208 228 255
208 228 255
208 228 255
208 228 255
208 228 255
208 228 255
209 228 255
209 228 255
209 228 255
209 229 255
209 229 255
209 229 255
209 229 255
209 229 255
209 229 255
209 229 255
209 229 255
209 229 255
209 229 255
209 229 255
209 229 255
209 229 255
209 229 255
209 229 255
209 229 255
209 229 255
209 229 255
209 229 255
209 229 255
209 229 255
209 228 255
209 228 255
208 228 255
208 228 255
208 228 255
208 228 255
208 228 255
208 228 255
208 228 255
208 228 255
208 228 255
208 228 255
208 228 255
208 228 255
208 228 255
208 228 255
208 228 255
208 228 255
208 228 255
208 228 255
207 228 255
207 228 255
207 228 255
207 228 255
207 228 255
207 228 255
207 228 255
207 228 255
207 228 255
207 228 255
207 228 255
207 228 255
207 228 255
207 228 255
207 228 255
207 228 255
207 227 255
207 227 255
207 227 255
207 227 255
206 227 255
206 227 255
206 227 255
206 227 255
206 227 255
206 227 255
206 227 255
206 227 255
206 227 255
206 227 255
206 227 255
206 227 255
206 227 255
206 227 255
206 227 255
206 227 255
206 227 255
206 227 255
205 227 255
205 227 255
205 227 255
205 227 255
205 227 255
205 227 255
205 227 255
205 227 255
205 226 255
205 227 255
205 226 255
205 226 255
205 226 255
205 226 255
205 226 255
204 226 255
205 226 255
204 226 255
204 226 255
204 226 255
204 226 255
204 226 255
204 226 255
204 226 255
204 226 255
204 226 255
204 226 255
204 226 255
204 226 255
204 226 255
203 226 255
204 226 255
203 226 255
203 226 255
203 226 255
203 226 255
203 226 255
203 226 255
203 225 255
203 226 255
203 225 255
203 225 255
203 225 255
203 225 255
203 225 255
203 225 255
203 225 255
202 225 255
202 225 255
202 225 255
202 225 255
202 225 255
202 225 255
202 225 255
202 225 255
202 225 255
202 225 255
202 225 255
202 225 255
202 225 255
202 225 255
202 225 255
202 225 255
202 225 255
202 225 255
201 225 255
201 225 255
201 225 255
201 225 255
201 225 255
201 224 255
201 224 255
201 224 255
201 224 255
201 224 255
201 224 255
201 224 255
201 224 255
201 224 255
201 224 255
201 224 255
200 224 255
201 224 255
200 224 255
200 224 255
200 224 255
200 224 255
200 224 255
200 224 255
200 224 255
200 224 255
200 224 255
200 224 255
200 224 255
200 224 255
200 224 255
200 224 255
200 224 255
200 224 255
200 224 255
200 224 255
200 224 255
200 224 255
200 224 255
200 224 255
200 224 255
199 224 255
199 224 255
200 224 255
200 224 255
199 224 255
199 224 255
200 224 255
199 224 255
199 224 255
199 223 255
199 223 255
199 224 255
199 223 255
199 224 255
199 223 255
199 223 255
199 223 255
199 224 255
199 223 255
199 223 255
199 223 255
199 223 255
199 223 255
199 223 255
199 223 255
199 223 255
199 223 255
199 223 255
199 223 255
199 223 255
199 223 255
199 223 255
199 224 255
199 223 255
199 224 255
199 223 255
199 224 255
199 224 255
199 223 255
199 224 255
199 224 255
199 224 255
199 224 255
199 224 255
200 224 255
199 224 255
200 224 255
200 224 255
200 224 255
200 224 255
200 224 255
200 224 255
200 224 255
200 224 255
200 224 255
200 224 255
200 224 255
200 224 255
200 224 255
200 224 255
200 224 255
200 224 255
200 224 255
200 224 255
200 224 255
200 224 255
200 224 255
200 224 255
200 224 255
201 224 255
200 224 255
201 224 255
201 224 255
201 224 255
201 224 255
201 224 255
201 224 255
201 224 255
201 224 255
201 224 255
201 224 255
201 224 255
201 225 255
201 225 255
201 225 255
201 225 255
201 225 255
201 225 255
202 225 255
201 225 255
202 225 255
202 225 255
202 225 255
202 225 255
202 225 255
202 225 255
202 225 255
202 225 255
202 225 255
202 225 255
202 225 255
202 225 255
202 225 255
202 225 255
203 225 255
203 225 255
203 225 255
203 225 255
203 225 255
203 225 255
203 225 255
203 225 255
203 225 255
203 225 255
203 226 255
203 226 255
203 226 255
203 226 255
203 226 255
203 226 255
203 226 255
204 226 255
204 226 255
204 226 255
204 226 255
204 226 255
204 226 255
204 226 255
204 226 255
204 226 255
204 226 255
204 226 255
204 226 255
204 226 255
204 226 255
205 226 255
205 226 255
205 226 255
205 226 255
205 226 255
205 226 255
205 226 255
205 226 255
205 227 255
205 227 255
205 227 255
205 227 255
205 227 255
205 227 255
205 227 255
205 227 255
206 227 255
206 227 255
206 227 255
206 227 255
206 227 255
206 227 255
206 227 255
206 227 255
206 227 255
206 227 255
206 227 255
206 227 255
206 227 255
206 227 255
206 227 255
206 227 255
206 227 255
206 227 255
207 227 255
207 227 255
207 227 255
207 227 255
207 227 255
207 228 255
207 228 255
207 228 255
207 228 255
207 228 255
207 228 255
207 228 255
207 228 255
207 228 255
207 228 255
207 228 255
207 228 255
207 228 255
207 228 255
208 228 255
208 228 255
208 228 255
208 228 255
208 228 255
208 228 255
208 228 255
208 228 255
208 228 255
208 228 255
208 228 255
208 228 255
208 228 255
208 228 255
208 228 255
208 228 255
208 228 255
208 228 255
208 228 255
208 228 255
208 228 255
208 228 255
209 228 255
209 228 255
209 229 255
209 229 255
209 229 255
209 229 255
209 229 255
209 229 255
209 229 255
209 229 255
209 229 255
209 229 255
209 229 255
209 229 255
209 229 255
209 229 255
209 229 255
209 229 255
209 229 255
209 229 255
209 229 255
209 229 255
209 229 255
209 229 255
209 229 255
209 229 255
209 229 255
209 229 255
208 228 255
209 228 255
209 228 255
209 228 255
208 228 255
208 228 255
208 228 255
208 228 255
208 228 255
208 228 255
208 228 255
208 228 255
208 228 255
208 228 255
208 228 255
208 228 255
208 228 255
208 228 255
208 228 255
208 228 255
208 228 255
208 228 255
208 228 255
208 228 255
207 228 255
207 228 255
207 228 255
207 228 255
207 228 255
207 228 255
207 228 255
207 228 255
207 228 255
207 228 255
207 228 255
207 228 255
207 228 255
207 228 255
207 227 255
207 227 255
207 227 255
206 227 255
206 227 255
206 227 255
206 227 255
206 227 255
206 227 255
206 227 255
206 227 255
206 227 255
206 227 255
206 227 255
206 227 255
206 227 255
206 227 255
206 227 255
206 227 255
206 227 255
206 227 255
205 227 255
205 227 255
205 227 255
205 227 255
205 227 255
205 227 255
205 227 255
205 227 255
205 227 255
205 227 255
205 226 255
205 226 255
205 226 255
205 226 255
205 226 255
204 226 255
204 226 255
204 226 255
204 226 255
204 226 255
204 226 255
204 226 255
204 226 255
204 226 255
204 226 255
204 226 255
204 226 255
204 226 255
204 226 255
204 226 255
204 226 255
204 226 255
203 226 255
203 226 255
203 226 255
203 226 255
203 226 255
203 225 255
203 226 255
203 225 255
203 225 255
203 225 255
203 225 255
203 225 255
203 225 255
203 225 255
203 225 255
202 225 255
202 225 255
202 225 255
202 225 255
202 225 255
202 225 255
202 225 255
202 225 255
202 225 255
202 225 255
202 225 255
202 225 255
202 225 255
202 225 255
202 225 255
202 225 255
202 225 255
202 225 255
201 225 255
201 225 255
201 225 255
201 224 255
201 225 255
201 224 255
201 224 255
201 224 255
201 224 255
201 224 255
201 224 255
201 224 255
201 224 255
201 224 255
201 224 255
201 224 255
201 224 255
200 224 255
200 224 255
200 224 255
200 224 255
200 224 255
200 224 255
200 224 255
200 224 255
200 224 255
200 224 255
200 224 255
200 224 255
200 224 255
200 224 255
200 224 255
200 224 255
200 224 255
200 224 255
200 224 255
200 224 255
200 224 255
200 224 255
200 224 255
200 224 255
200 224 255
200 224 255
200 224 255
200 224 255
200 224 255
200 224 255
200 224 255
200 224 255
200 224 255
199 224 255
200 224 255
199 224 255
200 224 255
199 224 255
200 224 255
199 224 255
200 224 255
199 224 255
200 224 255
199 224 255
199 224 255
199 224 255
199 224 255
200 224 255
199 224 255
199 224 255
200 224 255
199 224 255
199 224 255
199 224 255
200 224 255
199 224 255
199 224 255
200 224 255
200 224 255
200 224 255
200 224 255
200 224 255
200 224 255
200 224 255
200 224 255
200 224 255
200 224 255
200 224 255
200 224 255
200 224 255
200 224 255
200 224 255
200 224 255
200 224 255
200 224 255
200 224 255
200 224 255
200 224 255
200 224 255
200 224 255
200 224 255
200 224 255
200 224 255
200 224 255
200 224 255
200 224 255
200 224 255
201 224 255
201 224 255
201 224 255
201 224 255
201 224 255
201 224 255
201 224 255
201 224 255
201 224 255
201 224 255
201 224 255
201 224 255
201 224 255
201 225 255
201 225 255
201 225 255
201 225 255
201 225 255
202 225 255
202 225 255
202 225 255
202 225 255
202 225 255
202 225 255
202 225 255
202 225 255
202 225 255
202 225 255
202 225 255
202 225 255
202 225 255
202 225 255
202 225 255
202 225 255
202 225 255
203 225 255
203 225 255
203 225 255
203 225 255
203 225 255
203 225 255
203 225 255
203 225 255
203 226 255
203 225 255
203 226 255
203 226 255
203 226 255
203 226 255
203 226 255
204 226 255
203 226 255
204 226 255
204 226 255
204 226 255
204 226 255
204 226 255
204 226 255
204 226 255
204 226 255
204 226 255
204 226 255
204 226 255
204 226 255
204 226 255
204 226 255
204 226 255
205 226 255
205 226 255
205 226 255
205 226 255
205 226 255
205 226 255
205 226 255
205 227 255
205 227 255
205 227 255
205 227 255
205 227 255
205 227 255
205 227 255
205 227 255
206 227 255
205 227 255
206 227 255
206 227 255
206 227 255
206 227 255
206 227 255
206 227 255
206 227 255
206 227 255
206 227 255
206 227 255
206 227 255
206 227 255
206 227 255
206 227 255
206 227 255
206 227 255
206 227 255
207 227 255
207 227 255
207 227 255
207 227 255
207 228 255
207 227 255
207 228 255
207 228 255
207 228 255
207 228 255
207 228 255
207 228 255
207 228 255
207 228 255
207 228 255
207 228 255
207 228 255
207 228 255
207 228 255
208 228 255
208 228 255
208 228 255
208 228 255
208 228 255
208 228 255
208 228 255
208 228 255
208 228 255
208 228 255
208 228 255
208 228 255
208 228 255
208 228 255
208 228 255
208 228 255
208 228 255
208 228 255
208 228 255
209 228 255
209 228 255
209 228 255
209 228 255
209 229 255
209 229 255
209 229 255
209 229 255
209 229 255
209 229 255
209 229 255
209 229 255
209 229 255
209 229 255
209 229 255
209 229 255
209 229 255
209 229 255
209 229 255
209 229 255
209 229 255
209 229 255
209 229 255
209 229 255
209 229 255
209 229 255
209 229 255
209 229 255
209 229 255
209 229 255
209 229 255
209 229 255
209 229 255
209 229 255
209 229 255
209 229 255
209 229 255
209 229 255
208 228 255
209 228 255
208 228 255
208 228 255
208 228 255
208 228 255
208 228 255
208 228 255
208 228 255
208 228 255
208 228 255
208 228 255
208 228 255
208 228 255
208 228 255
208 228 255
208 228 255
208 228 255
208 228 255
208 228 255
208 228 255
207 228 255
207 228 255
207 228 255
207 228 255
207 228 255
207 228 255
207 228 255
207 228 255
207 228 255
207 228 255
207 228 255
207 228 255
207 228 255
207 227 255
207 228 255
207 227 255
207 227 255
207 227 255
206 227 255
206 227 255
206 227 255
206 227 255
206 227 255
206 227 255
206 227 255
206 227 255
206 227 255
206 227 255
206 227 255
206 227 255
206 227 255
206 227 255
206 227 255
206 227 255
206 227 255
206 227 255
205 227 255
205 227 255
205 227 255
205 227 255
205 227 255
205 227 255
205 227 255
205 227 255
205 227 255
205 226 255
205 226 255
205 226 255
205 226 255
205 226 255
205 226 255
204 226 255
204 226 255
204 226 255
204 226 255
204 226 255
204 226 255
204 226 255
204 226 255
204 226 255
204 226 255
204 226 255
204 226 255
204 226 255
204 226 255
204 226 255
204 226 255
204 226 255
203 226 255
203 226 255
203 226 255
203 226 255
203 226 255
203 226 255
203 225 255
203 225 255
203 225 255
203 225 255
203 225 255
203 225 255
203 225 255
203 225 255
203 225 255
203 225 255
202 225 255
202 225 255
202 225 255
202 225 255
202 225 255
202 225 255
202 225 255
202 225 255
202 225 255
202 225 255
202 225 255
202 225 255
202 225 255
202 225 255
202 225 255
202 225 255
201 225 255
201 225 255
201 225 255
201 225 255
201 225 255
201 224 255
201 224 255
201 224 255
201 224 255
201 224 255
201 224 255
201 224 255
201 224 255
201 224 255
201 224 255
201 224 255
201 224 255
201 224 255
201 224 255
201 224 255
201 224 255
201 224 255
200 224 255
200 224 255
200 224 255
200 224 255
200 224 255
200 224 255
200 224 255
200 224 255
200 224 255
200 224 255
200 224 255
200 224 255
200 224 255
200 224 255
200 224 255
200 224 255
200 224 255
200 224 255
200 224 255
200 224 255
200 224 255
200 224 255
200 224 255
200 224 255
200 224 255
200 224 255
200 224 255
200 224 255
200 224 255
200 224 255
200 224 255
200 224 255
200 224 255
200 224 255
200 224 255
200 224 255
200 224 255
200 224 255
200 224 255
200 224 255
200 224 255
200 224 255
200 224 255
200 224 255
200 224 255
200 224 255
200 224 255
200 224 255
200 224 255
200 224 255
200 224 255
200 224 255
200 224 255
200 224 255
200 224 255
200 224 255
200 224 255
200 224 255
200 224 255
200 224 255
200 224 255
200 224 255
200 224 255
200 224 255
200 224 255
200 224 255
200 224 255
200 224 255
200 224 255
200 224 255
200 224 255
200 224 255
200 224 255
200 224 255
201 224 255
201 224 255
201 224 255
201 224 255
201 224 255
201 224 255
201 224 255
201 224 255
201 224 255
201 224 255
201 224 255
201 224 255
201 224 255
201 224 255
201 224 255
201 224 255
201 225 255
201 225 255
201 225 255
201 225 255
201 225 255
202 225 255
202 225 255
202 225 255
202 225 255
202 225 255
202 225 255
202 225 255
202 225 255
202 225 255
202 225 255
202 225 255
202 225 255
202 225 255
202 225 255
202 225 255
202 225 255
202 225 255
203 225 255
203 225 255
203 225 255
203 225 255
203 225 255
203 225 255
203 225 255
203 225 255
203 225 255
203 225 255
203 226 255
203 226 255
203 226 255
203 226 255
203 226 255
203 226 255
203 226 255
204 226 255
204 226 255
204 226 255
204 226 255
204 226 255
204 226 255
204 226 255
204 226 255
204 226 255
204 226 255
204 226 255
204 226 255
204 226 255
204 226 255
204 226 255
204 226 255
205 226 255
205 226 255
205 226 255
205 226 255
205 226 255
205 227 255
205 227 255
205 227 255
205 227 255
205 227 255
205 227 255
205 227 255
205 227 255
205 227 255
205 227 255
206 227 255
206 227 255
206 227 255
206 227 255
206 227 255
206 227 255
206 227 255
206 227 255
206 227 255
206 227 255
206 227 255
206 227 255
206 227 255
206 227 255
206 227 255
206 227 255
207 227 255
206 227 255
207 227 255
207 227 255
207 227 255
207 228 255
207 228 255
207 228 255
207 228 255
207 228 255
207 228 255
207 228 255
207 228 255
207 228 255
207 228 255
207 228 255
207 228 255
207 228 255
207 228 255
208 228 255
207 228 255
208 228 255
208 228 255
208 228 255
208 228 255
208 228 255
208 228 255
208 228 255
208 228 255
208 228 255
208 228 255
208 228 255
208 228 255
208 228 255
208 228 255
208 228 255
208 228 255
208 228 255
208 228 255
208 228 255
208 228 255
209 229 255
209 229 255
209 229 255
209 229 255
209 229 255
209 229 255
209 229 255
209 229 255
209 229 255
209 229 255
209 229 255
209 229 255
209 229 255
209 229 255
209 229 255
209 229 255
209 229 255
209 229 255
209 229 255
209 229 255
210 229 255
210 229 255
209 229 255
209 229 255
209 229 255
209 229 255
209 229 255
209 229 255
209 229 255
209 229 255
209 229 255
209 229 255
209 229 255
209 229 255
209 229 255
209 229 255
209 229 255
209 229 255
209 229 255
209 229 255
209 229 255
209 229 255
209 229 255
208 228 255
209 228 255
208 228 255
208 228 255
208 228 255
208 228 255
208 228 255
208 228 255
208 228 255
208 228 255
208 228 255
208 228 255
208 228 255
208 228 255
208 228 255
208 228 255
208 228 255
208 228 255
208 228 255
208 228 255
208 228 255
207 228 255
207 228 255
207 228 255
207 228 255
207 228 255
207 228 255
207 228 255
207 228 255
207 228 255
207 228 255
207 228 255
207 228 255
207 228 255
207 228 255
207 227 255
207 227 255
207 227 255
207 227 255
206 227 255
207 227 255
206 227 255
206 227 255
206 227 255
206 227 255
206 227 255
206 227 255
206 227 255
206 227 255
206 227 255
206 227 255
206 227 255
206 227 255
206 227 255
206 227 255
206 227 255
205 227 255
205 227 255
205 227 255
205 227 255
205 227 255
205 227 255
205 227 255
205 227 255
205 227 255
205 227 255
205 226 255
205 226 255
205 226 255
205 226 255
205 226 255
205 226 255
204 226 255
204 226 255
204 226 255
204 226 255
204 226 255
204 226 255
204 226 255
204 226 255
204 226 255
204 226 255
204 226 255
204 226 255
204 226 255
204 226 255
204 226 255
204 226 255
204 226 255
204 226 255
203 226 255
203 226 255
203 226 255
203 226 255
203 226 255
203 226 255
203 225 255
203 226 255
203 225 255
203 225 255
203 225 255
203 225 255
203 225 255
203 225 255
203 225 255
202 225 255
202 225 255
202 225 255
202 225 255
202 225 255
202 225 255
202 225 255
202 225 255
202 225 255
202 225 255
202 225 255
202 225 255
202 225 255
202 225 255
202 225 255
201 225 255
202 225 255
201 225 255
201 225 255
201 225 255
201 225 255
201 225 255
201 225 255
201 224 255
201 224 255
201 224 255
201 224 255
201 224 255
201 224 255
201 224 255
201 224 255
201 224 255
201 224 255
201 224 255
201 224 255
201 224 255
201 224 255
201 224 255
201 224 255
200 224 255
201 224 255
200 224 255
200 224 255
200 224 255
200 224 255
200 224 255
200 224 255
200 224 255
200 224 255
200 224 255
200 224 255
200 224 255
200 224 255
200 224 255
200 224 255
200 224 255
200 224 255
200 224 255
200 224 255
200 224 255
200 224 255
200 224 255
200 224 255
200 224 255
200 224 255
200 224 255
200 224 255
200 224 255
200 224 255
200 224 255
200 224 255
200 224 255
200 224 255
200 224 255
200 224 255
200 224 255
200 224 255
200 224 255
200 224 255
200 224 255
200 224 255
200 224 255
200 224 255
200 224 255
200 224 255
200 224 255
200 224 255
200 224 255
200 224 255
200 224 255
200 224 255
200 224 255
200 224 255
200 224 255
200 224 255
200 224 255
200 224 255
200 224 255
200 224 255
200 224 255
200 224 255
200 224 255
201 224 255
200 224 255
201 224 255
201 224 255
201 224 255
201 224 255
201 224 255
201 224 255
201 224 255
201 224 255
201 224 255
201 224 255
201 224 255
201 224 255
201 224 255
201 224 255
201 224 255
201 224 255
201 224 255
201 225 255
201 225 255
201 225 255
201 225 255
202 225 255
201 225 255
202 225 255
202 225 255
202 225 255
202 225 255
202 225 255
202 225 255
202 225 255
202 225 255
202 225 255
202 225 255
202 225 255
202 225 255
202 225 255
202 225 255
202 225 255
202 225 255
202 225 255
203 225 255
203 225 255
203 225 255
203 225 255
203 225 255
203 225 255
203 225 255
203 225 255
203 226 255
203 225 255
203 226 255
203 226 255
203 226 255
203 226 255
203 226 255
203 226 255
204 226 255
203 226 255
204 226 255
204 226 255
204 226 255
204 226 255
204 226 255
204 226 255
204 226 255
204 226 255
204 226 255
204 226 255
204 226 255
204 226 255
204 226 255
204 226 255
205 226 255
205 226 255
205 226 255
205 226 255
205 226 255
205 226 255
205 226 255
205 227 255
205 227 255
205 227 255
205 227 255
205 227 255
205 227 255
205 227 255
205 227 255
205 227 255
205 227 255
206 227 255
206 227 255
206 227 255
206 227 255
206 227 255
206 227 255
206 227 255
206 227 255
206 227 255
206 227 255
206 227 255
206 227 255
206 227 255
206 227 255
206 227 255
206 227 255
207 227 255
207 227 255
207 227 255
207 227 255
207 228 255
207 228 255
207 228 255
207 228 255
207 228 255
207 228 255
207 228 255
207 228 255
207 228 255
207 228 255
207 228 255
207 228 255
207 228 255
207 228 255
207 228 255
208 228 255
208 228 255
208 228 255
208 228 255
208 228 255
208 228 255
208 228 255
208 228 255
208 228 255
208 228 255
208 228 255
208 228 255
208 228 255
208 228 255
208 228 255
208 228 255
208 228 255
208 228 255
208 228 255
209 228 255
208 228 255
209 229 255
209 229 255
209 229 255
209 229 255
209 229 255
209 229 255
209 229 255
209 229 255
209 229 255
209 229 255
209 229 255
209 229 255
209 229 255
209 229 255
209 229 255
209 229 255
209 229 255
209 229 255
209 229 255
209 229 255
209 229 255
209 229 255
210 229 255
210 229 255
210 229 255
210 229 255
210 229 255
209 229 255
209 229 255
209 229 255
209 229 255
209 229 255
209 229 255
209 229 255
209 229 255
209 229 255
209 229 255
209 229 255
209 229 255
209 229 255
209 229 255
209 229 255
209 229 255
209 229 255
209 229 255
209 229 255
209 229 255
209 229 255
209 229 255
209 229 255
208 228 255
208 228 255
208 228 255
208 228 255
208 228 255
208 228 255
208 228 255
208 228 255
208 228 255
208 228 255
208 228 255
208 228 255
208 228 255
208 228 255
208 228 255
208 228 255
208 228 255
208 228 255
208 228 255
208 228 255
208 228 255
208 228 255
207 228 255
207 228 255
207 228 255
207 228 255
207 228 255
207 228 255
207 228 255
207 228 255
207 228 255
207 228 255
207 228 255
207 228 255
207 227 255
207 227 255
207 227 255
207 227 255
207 227 255
206 227 255
206 227 255
206 227 255
206 227 255
206 227 255
206 227 255
206 227 255
206 227 255
206 227 255
206 227 255
206 227 255
206 227 255
206 227 255
206 227 255
206 227 255
206 227 255
205 227 255
206 227 255
206 227 255
205 227 255
205 227 255
205 227 255
205 227 255
205 227 255
205 227 255
205 227 255
205 227 255
205 227 255
205 226 255
205 226 255
205 226 255
205 226 255
204 226 255
204 226 255
204 226 255
204 226 255
204 226 255
204 226 255
204 226 255
204 226 255
204 226 255
204 226 255
204 226 255
204 226 255
204 226 255
204 226 255
204 226 255
204 226 255
204 226 255
204 226 255
203 226 255
203 226 255
203 226 255
203 226 255
203 226 255
203 226 255
203 225 255
203 225 255
203 225 255
203 225 255
203 225 255
203 225 255
203 225 255
203 225 255
203 225 255
203 225 255
202 225 255
202 225 255
202 225 255
202 225 255
202 225 255
202 225 255
202 225 255
202 225 255
202 225 255
202 225 255
202 225 255
202 225 255
202 225 255
202 225 255
202 225 255
202 225 255
201 225 255
201 225 255
201 225 255
201 225 255
201 225 255
201 225 255
201 225 255
201 225 255
201 224 255
201 224 255
201 224 255
201 224 255
201 224 255
201 224 255
201 224 255
201 224 255
201 224 255
201 224 255
201 224 255
201 224 255
201 224 255
201 224 255
201 224 255
201 224 255
201 224 255
200 224 255
201 224 255
201 224 255
200 224 255
200 224 255
200 224 255
200 224 255
200 224 255
200 224 255
200 224 255
200 224 255
200 224 255
200 224 255
200 224 255
200 224 255
200 224 255
200 224 255
200 224 255
200 224 255
200 224 255
200 224 255
200 224 255
200 224 255
200 224 255
200 224 255
200 224 255
200 224 255
200 224 255
200 224 255
200 224 255
200 224 255
200 224 255
200 224 255
200 224 255
200 224 255
200 224 255
200 224 255
200 224 255
200 224 255
200 224 255
200 224 255
200 224 255
200 224 255
200 224 255
200 224 255
200 224 255
200 224 255
200 224 255
200 224 255
200 224 255
200 224 255
200 224 255
200 224 255
201 224 255
201 224 255
200 224 255
201 224 255
201 224 255
201 224 255
201 224 255
201 224 255
201 224 255
201 224 255
201 224 255
201 224 255
201 224 255
201 224 255
201 224 255
201 224 255
201 224 255
201 224 255
201 225 255
201 225 255
201 225 255
201 225 255
201 225 255
202 225 255
202 225 255
202 225 255
202 225 255
202 225 255
202 225 255
202 225 255
202 225 255
202 225 255
202 225 255
202 225 255
202 225 255
202 225 255
202 225 255
202 225 255
202 225 255
202 225 255
202 225 255
202 225 255
202 225 255
202 225 255
203 225 255
203 225 255
203 225 255
203 225 255
203 225 255
203 225 255
203 225 255
203 226 255
203 226 255
203 226 255
203 226 255
203 226 255
203 226 255
203 226 255
203 226 255
204 226 255
204 226 255
204 226 255
204 226 255
204 226 255
204 226 255
204 226 255
204 226 255
204 226 255
204 226 255
204 226 255
204 226 255
204 226 255
204 226 255
204 226 255
204 226 255
205 226 255
205 226 255
205 226 255
205 226 255
205 226 255
205 226 255
205 226 255
205 227 255
205 227 255
205 227 255
205 227 255
205 227 255
205 227 255
205 227 255
205 227 255
205 227 255
206 227 255
206 227 255
206 227 255
206 227 255
206 227 255
206 227 255
206 227 255
206 227 255
206 227 255
206 227 255
206 227 255
206 227 255
206 227 255
206 227 255
206 227 255
206 227 255
206 227 255
207 227 255
207 227 255
207 227 255
207 227 255
207 228 255
207 228 255
207 228 255
207 228 255
207 228 255
207 228 255
207 228 255
207 228 255
207 228 255
207 228 255
207 228 255
207 228 255
207 228 255
208 228 255
207 228 255
208 228 255
208 228 255
208 228 255
208 228 255
208 228 255
208 228 255
208 228 255
208 228 255
208 228 255
208 228 255
208 228 255
208 228 255
208 228 255
208 228 255
208 228 255
208 228 255
208 228 255
208 228 255
208 228 255
209 228 255
209 228 255
209 229 255
209 229 255
209 229 255
209 229 255
209 229 255
209 229 255
209 229 255
209 229 255
209 229 255
209 229 255
209 229 255
209 229 255
209 229 255
209 229 255
209 229 255
209 229 255
209 229 255
209 229 255
209 229 255
209 229 255
209 229 255
210 229 255
210 229 255
210 229 255
210 229 255
210 229 255
210 229 255
210 229 255
210 229 255
210 229 255
210 229 255
210 229 255
210 229 255
210 229 255
209 229 255
210 229 255
209 229 255
209 229 255
209 229 255
209 229 255
209 229 255
209 229 255
209 229 255
209 229 255
209 229 255
209 229 255
209 229 255
209 229 255
209 229 255
209 229 255
209 229 255
209 229 255
209 229 255
209 229 255
209 229 255
209 228 255
208 228 255
208 228 255
208 228 255
208 228 255
208 228 255
208 228 255
208 228 255
208 228 255
208 228 255
208 228 255
208 228 255
208 228 255
208 228 255
208 228 255
208 228 255
208 228 255
208 228 255
208 228 255
208 228 255
208 228 255
207 228 255
207 228 255
207 228 255
207 228 255
207 228 255
207 228 255
207 228 255
207 228 255
207 228 255
207 228 255
207 228 255
207 228 255
207 228 255
207 228 255
207 227 255
207 227 255
207 227 255
207 227 255
206 227 255
206 227 255
206 227 255
206 227 255
206 227 255
206 227 255
206 227 255
206 227 255
206 227 255
206 227 255
206 227 255
206 227 255
206 227 255
206 227 255
206 227 255
206 227 255
206 227 255
205 227 255
205 227 255
205 227 255
205 227 255
205 227 255
205 227 255
205 227 255
205 227 255
205 227 255
205 227 255
205 226 255
205 226 255
205 226 255
205 226 255
205 226 255
205 226 255
205 226 255
204 226 255
204 226 255
204 226 255
204 226 255
204 226 255
204 226 255
204 226 255
204 226 255
204 226 255
204 226 255
204 226 255
204 226 255
204 226 255
204 226 255
204 226 255
204 226 255
203 226 255
203 226 255
203 226 255
203 226 255
203 226 255
203 226 255
203 226 255
203 225 255
203 226 255
203 225 255
203 225 255
203 225 255
203 225 255
203 225 255
203 225 255
203 225 255
202 225 255
202 225 255
202 225 255
202 225 255
202 225 255
202 225 255
202 225 255
202 225 255
202 225 255
202 225 255
202 225 255
202 225 255
202 225 255
202 225 255
202 225 255
202 225 255
202 225 255
202 225 255
202 225 255
201 225 255
201 225 255
201 225 255
201 225 255
201 225 255
201 225 255
201 225 255
201 224 255
201 224 255
201 224 255
201 224 255
201 224 255
201 224 255
201 224 255
201 224 255
201 224 255
201 224 255
201 224 255
201 224 255
201 224 255
201 224 255
201 224 255
201 224 255
201 224 255
201 224 255
201 224 255
201 224 255
201 224 255
200 224 255
200 224 255
200 224 255
200 224 255
200 224 255
200 224 255
200 224 255
200 224 255
200 224 255
200 224 255
200 224 255
200 224 255
200 224 255
200 224 255
200 224 255
200 224 255
200 224 255
200 224 255
200 224 255
200 224 255
200 224 255
200 224 255
200 224 255
200 224 255
200 224 255
200 224 255
200 224 255
200 224 255
200 224 255
200 224 255
200 224 255
200 224 255
200 224 255
200 224 255
200 224 255
200 224 255
201 224 255
200 224 255
200 224 255
200 224 255
201 224 255
201 224 255
201 224 255
201 224 255
201 224 255
201 224 255
201 224 255
201 224 255
201 224 255
201 224 255
201 224 255
201 224 255
201 224 255
201 224 255
201 224 255
201 224 255
201 224 255
201 225 255
201 224 255
201 224 255
201 224 255
201 225 255
201 225 255
201 225 255
201 225 255
202 225 255
202 225 255
202 225 255
202 225 255
202 225 255
202 225 255
202 225 255
202 225 255
202 225 255
202 225 255
202 225 255
202 225 255
202 225 255
202 225 255
202 225 255
202 225 255
202 225 255
202 225 255
202 225 255
202 225 255
203 225 255
203 225 255
203 225 255
203 225 255
203 225 255
203 225 255
203 225 255
203 226 255
203 226 255
203 226 255
203 226 255
203 226 255
203 226 255
203 226 255
203 226 255
204 226 255
204 226 255
204 226 255
204 226 255
204 226 255
204 226 255
204 226 255
204 226 255
204 226 255
204 226 255
204 226 255
204 226 255
204 226 255
204 226 255
204 226 255
205 226 255
205 226 255
205 226 255
205 226 255
205 226 255
205 226 255
205 226 255
205 227 255
205 226 255
205 227 255
205 227 255
205 227 255
205 227 255
205 227 255
205 227 255
205 227 255
205 227 255
205 227 255
205 227 255
206 227 255
206 227 255
206 227 255
206 227 255
206 227 255
206 227 255
206 227 255
206 227 255
206 227 255
206 227 255
206 227 255
206 227 255
206 227 255
206 227 255
206 227 255
207 227 255
207 227 255
207 227 255
207 227 255
207 227 255
207 227 255
207 228 255
207 228 255
207 228 255
207 228 255
207 228 255
207 228 255
207 228 255
207 228 255
207 228 255
207 228 255
207 228 255
207 228 255
207 228 255
208 228 255
208 228 255
208 228 255
208 228 255
208 228 255
208 228 255
208 228 255
208 228 255
208 228 255
208 228 255
208 228 255
208 228 255
208 228 255
208 228 255
208 228 255
208 228 255
208 228 255
208 228 255
208 228 255
208 228 255
209 228 255
209 229 255
209 229 255
209 229 255
209 229 255
209 229 255
209 229 255
209 229 255
209 229 255
209 229 255
209 229 255
209 229 255
209 229 255
209 229 255
209 229 255
209 229 255
209 229 255
209 229 255
209 229 255
209 229 255
209 229 255
209 229 255
210 229 255
210 229 255
210 229 255
210 229 255
210 229 255
210 229 255
210 229 255
210 229 255
210 229 255
210 229 255
210 229 255
210 229 255
210 229 255
210 229 255
210 229 255
210 229 255
210 229 255
210 229 255
210 229 255
210 229 255
210 229 255
210 229 255
209 229 255
209 229 255
209 229 255
209 229 255
209 229 255
209 229 255
209 229 255
209 229 255
209 229 255
209 229 255
209 229 255
209 229 255
209 229 255
209 229 255
209 229 255
209 229 255
209 229 255
209 229 255
209 229 255
209 229 255
209 228 255
208 228 255
209 228 255
208 228 255
208 228 255
208 228 255
208 228 255
208 228 255
208 228 255
208 228 255
208 228 255
208 228 255
208 228 255
208 228 255
208 228 255
208 228 255
208 228 255
208 228 255
208 228 255
208 228 255
207 228 255
207 228 255
207 228 255
207 228 255
207 228 255
207 228 255
207 228 255
207 228 255
207 228 255
207 228 255
207 228 255
207 228 255
207 228 255
207 228 255
207 228 255
207 227 255
207 227 255
207 227 255
207 227 255
207 227 255
206 227 255
206 227 255
206 227 255
206 227 255
206 227 255
206 227 255
206 227 255
206 227 255
206 227 255
206 227 255
206 227 255
206 227 255
206 227 255
206 227 255
206 227 255
206 227 255
206 227 255
205 227 255
205 227 255
205 227 255
205 227 255
205 227 255
205 227 255
205 227 255
205 227 255
205 227 255
205 226 255
205 226 255
205 226 255
205 226 255
205 226 255
205 226 255
205 226 255
205 226 255
204 226 255
204 226 255
204 226 255
204 226 255
204 226 255
204 226 255
204 226 255
204 226 255
204 226 255
204 226 255
204 226 255
204 226 255
204 226 255
204 226 255
204 226 255
203 226 255
203 226 255
203 226 255
203 226 255
203 226 255
203 226 255
203 226 255
203 225 255
203 225 255
203 225 255
203 225 255
203 225 255
203 225 255
203 225 255
203 225 255
203 225 255
203 225 255
202 225 255
202 225 255
202 225 255
202 225 255
202 225 255
202 225 255
202 225 255
202 225 255
202 225 255
202 225 255
202 225 255
202 225 255
202 225 255
202 225 255
202 225 255
202 225 255
202 225 255
202 225 255
202 225 255
201 225 255
201 225 255
202 225 255
201 225 255
201 225 255
201 225 255
201 225 255
201 224 255
201 224 255
201 224 255
201 224 255
201 224 255
201 224 255
201 224 255
201 224 255
201 224 255
201 224 255
201 224 255
201 224 255
201 224 255
201 224 255
201 224 255
201 224 255
201 224 255
201 224 255
201 224 255
201 224 255
201 224 255
201 224 255
201 224 255
201 224 255
201 224 255
201 224 255
201 224 255
201 224 255
201 224 255
201 224 255
200 224 255
200 224 255
200 224 255
200 224 255
201 224 255
200 224 255
200 224 255
200 224 255
201 224 255
200 224 255
201 224 255
201 224 255
200 224 255
200 224 255
201 224 255
201 224 255
201 224 255
201 224 255
201 224 255
201 224 255
201 224 255
201 224 255
201 224 255
201 224 255
201 224 255
201 224 255
201 224 255
201 224 255
201 224 255
201 224 255
201 224 255
201 224 255
201 224 255
201 224 255
201 224 255
201 224 255
201 224 255
201 224 255
201 225 255
201 224 255
201 224 255
201 224 255
201 225 255
201 225 255
201 225 255
201 225 255
201 225 255
202 225 255
202 225 255
202 225 255
202 225 255
202 225 255
202 225 255
202 225 255
202 225 255
202 225 255
202 225 255
202 225 255
202 225 255
202 225 255
202 225 255
202 225 255
202 225 255
202 225 255
202 225 255
203 225 255
203 225 255
202 225 255
203 225 255
203 225 255
203 225 255
203 225 255
203 225 255
203 225 255
203 225 255
203 226 255
203 226 255
203 226 255
203 226 255
203 226 255
203 226 255
203 226 255
203 226 255
204 226 255
204 226 255
204 226 255
204 226 255
204 226 255
204 226 255
204 226 255
204 226 255
204 226 255
204 226 255
204 226 255
204 226 255
204 226 255
204 226 255
204 226 255
205 226 255
204 226 255
205 226 255
205 226 255
205 226 255
205 226 255
205 226 255
205 226 255
205 226 255
205 227 255
205 227 255
205 227 255
205 227 255
205 227 255
205 227 255
205 227 255
205 227 255
206 227 255
206 227 255
206 227 255
206 227 255
206 227 255
206 227 255
206 227 255
206 227 255
206 227 255
206 227 255
206 227 255
206 227 255
206 227 255
206 227 255
206 227 255
206 227 255
207 227 255
206 227 255
206 227 255
207 227 255
207 227 255
207 227 255
207 228 255
207 228 255
207 228 255
207 228 255
207 228 255
207 228 255
207 228 255
207 228 255
207 228 255
207 228 255
207 228 255
207 228 255
207 228 255
207 228 255
208 228 255
207 228 255
208 228 255
208 228 255
208 228 255
208 228 255
208 228 255
208 228 255
208 228 255
208 228 255
208 228 255
208 228 255
208 228 255
208 228 255
208 228 255
208 228 255
208 228 255
208 228 255
208 228 255
208 228 255
209 229 255
209 229 255
209 229 255
209 229 255
209 229 255
209 229 255
209 229 255
209 229 255
209 229 255
209 229 255
209 229 255
209 229 255
209 229 255
209 229 255
209 229 255
209 229 255
209 229 255
209 229 255
209 229 255
209 229 255
209 229 255
210 229 255
210 229 255
210 229 255
210 229 255
210 229 255
210 229 255
210 229 255
210 229 255
210 229 255
210 229 255
210 229 255
210 229 255
210 229 255
210 229 255
210 229 255
210 229 255
210 229 255
210 229 255
210 229 255
210 229 255
210 229 255
210 229 255
210 229 255
210 229 255
210 229 255
210 229 255
210 229 255
210 229 255
209 229 255
209 229 255
209 229 255
209 229 255
209 229 255
209 229 255
209 229 255
209 229 255
209 229 255
209 229 255
209 229 255
209 229 255
209 229 255
209 229 255
209 229 255
209 229 255
209 229 255
209 229 255
209 229 255
209 229 255
209 229 255
209 229 255
208 228 255
208 228 255
208 228 255
208 228 255
208 228 255
208 228 255
208 228 255
208 228 255
208 228 255
208 228 255
208 228 255
208 228 255
208 228 255
208 228 255
208 228 255
208 228 255
208 228 255
208 228 255
207 228 255
208 228 255
208 228 255
207 228 255
207 228 255
207 228 255
207 228 255
207 228 255
207 228 255
207 228 255
207 228 255
207 228 255
207 228 255
207 228 255
207 228 255
207 227 255
207 227 255
207 227 255
207 227 255
207 227 255
206 227 255
206 227 255
206 227 255
206 227 255
206 227 255
206 227 255
206 227 255
206 227 255
206 227 255
206 227 255
206 227 255
206 227 255
206 227 255
206 227 255
206 227 255
206 227 255
206 227 255
205 227 255
205 227 255
205 227 255
205 227 255
205 227 255
205 227 255
205 227 255
205 227 255
205 227 255
205 227 255
205 226 255
205 226 255
205 226 255
205 226 255
205 226 255
205 226 255
205 226 255
205 226 255
204 226 255
204 226 255
204 226 255
204 226 255
204 226 255
204 226 255
204 226 255
204 226 255
204 226 255
204 226 255
204 226 255
204 226 255
204 226 255
204 226 255
203 226 255
203 226 255
204 226 255
203 226 255
203 226 255
203 226 255
203 226 255
203 226 255
203 225 255
203 225 255
203 225 255
203 225 255
203 225 255
203 225 255
203 225 255
203 225 255
203 225 255
202 225 255
203 225 255
202 225 255
202 225 255
202 225 255
202 225 255
202 225 255
202 225 255
202 225 255
202 225 255
202 225 255
202 225 255
202 225 255
202 225 255
202 225 255
202 225 255
202 225 255
202 225 255
202 225 255
202 225 255
202 225 255
202 225 255
202 225 255
201 225 255
201 225 255
201 225 255
201 225 255
201 225 255
201 225 255
201 225 255
201 225 255
201 225 255
201 224 255
201 224 255
201 224 255
201 224 255
201 224 255
201 224 255
201 224 255
201 224 255
201 224 255
201 224 255
201 224 255
201 224 255
201 224 255
201 224 255
201 224 255
201 224 255
201 224 255
201 224 255
201 224 255
201 224 255
201 224 255
201 224 255
201 224 255
201 224 255
201 224 255
201 224 255
201 224 255
201 224 255
201 224 255
201 224 255
201 224 255
201 224 255
201 224 255
201 224 255
201 224 255
201 224 255
201 224 255
201 224 255
201 224 255
201 224 255
201 224 255
201 224 255
201 224 255
201 224 255
201 224 255
201 224 255
201 224 255
201 224 255
201 224 255
201 224 255
201 224 255
201 224 255
201 225 255
201 224 255
201 225 255
201 225 255
201 225 255
201 225 255
201 225 255
201 225 255
201 225 255
201 225 255
202 225 255
201 225 255
202 225 255
202 225 255
202 225 255
202 225 255
202 225 255
202 225 255
202 225 255
202 225 255
202 225 255
202 225 255
202 225 255
202 225 255
202 225 255
202 225 255
202 225 255
202 225 255
202 225 255
202 225 255
202 225 255
202 225 255
202 225 255
203 225 255
203 225 255
203 225 255
203 225 255
203 225 255
203 225 255
203 225 255
203 225 255
203 225 255
203 226 255
203 226 255
203 226 255
203 226 255
203 226 255
203 226 255
203 226 255
203 226 255
204 226 255
204 226 255
204 226 255
204 226 255
204 226 255
204 226 255
204 226 255
204 226 255
204 226 255
204 226 255
204 226 255
204 226 255
204 226 255
204 226 255
204 226 255
204 226 255
204 226 255
204 226 255
205 226 255
205 226 255
205 226 255
205 226 255
205 226 255
205 226 255
205 227 255
205 227 255
205 227 255
205 227 255
205 227 255
205 227 255
205 227 255
205 227 255
205 227 255
206 227 255
206 227 255
206 227 255
206 227 255
206 227 255
206 227 255
206 227 255
206 227 255
206 227 255
206 227 255
206 227 255
206 227 255
206 227 255
206 227 255
206 227 255
206 227 255
206 227 255
207 227 255
207 227 255
207 227 255
207 227 255
207 228 255
207 228 255
207 228 255
207 228 255
207 228 255
207 228 255
207 228 255
207 228 255
207 228 255
207 228 255
207 228 255
207 228 255
207 228 255
208 228 255
208 228 255
208 228 255
208 228 255
208 228 255
208 228 255
208 228 255
208 228 255
208 228 255
208 228 255
208 228 255
208 228 255
208 228 255
208 228 255
208 228 255
208 228 255
208 228 255
208 228 255
208 228 255
208 228 255
209 228 255
208 228 255
209 228 255
209 229 255
209 229 255
209 229 255
209 229 255
209 229 255
209 229 255
209 229 255
209 229 255
209 229 255
209 229 255
209 229 255
209 229 255
209 229 255
209 229 255
209 229 255
209 229 255
209 229 255
209 229 255
210 229 255
209 229 255
210 229 255
210 229 255
210 229 255
210 229 255
210 229 255
210 229 255
210 229 255
210 229 255
210 229 255
210 229 255
210 229 255
210 229 255
210 229 255
210 229 255
210 229 255
210 229 255
210 229 255
210 229 255
210 229 255
210 229 255
210 229 255
210 229 255
210 229 255
210 229 255
210 229 255
210 229 255
210 229 255
210 229 255
210 229 255
210 229 255
210 229 255
210 229 255
210 229 255
210 229 255
210 229 255
209 229 255
209 229 255
209 229 255
209 229 255
209 229 255
209 229 255
209 229 255
209 229 255
209 229 255
209 229 255
209 229 255
209 229 255
209 229 255
209 229 255
209 229 255
209 229 255
209 229 255
209 229 255
209 228 255
209 228 255
208 228 255
208 228 255
208 228 255
208 228 255
208 228 255
208 228 255
208 228 255
208 228 255
208 228 255
208 228 255
208 228 255
208 228 255
208 228 255
208 228 255
208 228 255
208 228 255
208 228 255
208 228 255
208 228 255
208 228 255
208 228 255
207 228 255
207 228 255
207 228 255
207 228 255
207 228 255
207 228 255
207 228 255
207 228 255
207 228 255
207 228 255
207 228 255
207 228 255
207 228 255
207 227 255
207 228 255
207 227 255
207 227 255
207 227 255
206 227 255
206 227 255
206 227 255
206 227 255
206 227 255
206 227 255
206 227 255
206 227 255
206 227 255
206 227 255
206 227 255
206 227 255
206 227 255
206 227 255
206 227 255
206 227 255
205 227 255
205 227 255
205 227 255
205 227 255
205 227 255
205 227 255
205 227 255
205 227 255
205 227 255
205 227 255
205 226 255
205 226 255
205 226 255
205 226 255
205 226 255
205 226 255
205 226 255
204 226 255
204 226 255
204 226 255
204 226 255
204 226 255
204 226 255
204 226 255
204 226 255
204 226 255
204 226 255
204 226 255
204 226 255
204 226 255
204 226 255
204 226 255
204 226 255
203 226 255
204 226 255
203 226 255
203 226 255
203 226 255
203 226 255
203 226 255
203 226 255
203 226 255
203 225 255
203 225 255
203 225 255
203 225 255
203 225 255
203 225 255
203 225 255
203 225 255
203 225 255
203 225 255
203 225 255
202 225 255
202 225 255
202 225 255
202 225 255
202 225 255
202 225 255
202 225 255
202 225 255
202 225 255
202 225 255
202 225 255
202 225 255
202 225 255
202 225 255
202 225 255
202 225 255
202 225 255
202 225 255
202 225 255
202 225 255
202 225 255
201 225 255
201 225 255
201 225 255
201 225 255
201 225 255
201 225 255
201 225 255
201 225 255
201 225 255
201 225 255
201 224 255
201 225 255
201 225 255
201 225 255
201 224 255
201 224 255
201 224 255
201 224 255
201 224 255
201 224 255
201 224 255
201 224 255
201 224 255
201 224 255
201 224 255
201 224 255
201 224 255
201 224 255
201 224 255
201 224 255
201 224 255
201 224 255
201 224 255
201 224 255
201 224 255
201 224 255
201 224 255
201 224 255
201 224 255
201 224 255
201 224 255
201 224 255
201 224 255
201 224 255
201 224 255
201 224 255
201 224 255
201 224 255
201 224 255
201 224 255
201 225 255
201 225 255
201 224 255
201 224 255
201 225 255
201 225 255
201 225 255
201 225 255
201 225 255
201 225 255
201 225 255
202 225 255
202 225 255
202 225 255
202 225 255
202 225 255
202 225 255
202 225 255
202 225 255
202 225 255
202 225 255
202 225 255
202 225 255
202 225 255
202 225 255
202 225 255
202 225 255
202 225 255
202 225 255
202 225 255
202 225 255
202 225 255
202 225 255
203 225 255
203 225 255
202 225 255
203 225 255
203 225 255
203 225 255
203 225 255
203 225 255
203 225 255
203 225 255
203 225 255
203 225 255
203 226 255
203 226 255
203 226 255
203 226 255
203 226 255
203 226 255
203 226 255
204 226 255
204 226 255
204 226 255
204 226 255
204 226 255
204 226 255
204 226 255
204 226 255
204 226 255
204 226 255
204 226 255
204 226 255
204 226 255
204 226 255
204 226 255
204 226 255
204 226 255
205 226 255
205 226 255
205 226 255
205 226 255
205 226 255
205 226 255
205 226 255
205 226 255
205 227 255
205 227 255
205 227 255
205 227 255
205 227 255
205 227 255
205 227 255
206 227 255
205 227 255
206 227 255
206 227 255
206 227 255
206 227 255
206 227 255
206 227 255
206 227 255
206 227 255
206 227 255
206 227 255
206 227 255
206 227 255
206 227 255
206 227 255
206 227 255
206 227 255
207 227 255
207 227 255
207 227 255
207 227 255
207 228 255
207 228 255
207 228 255
207 228 255
207 228 255
207 228 255
207 228 255
207 228 255
207 228 255
207 228 255
207 228 255
207 228 255
207 228 255
208 228 255
208 228 255
208 228 255
208 228 255
208 228 255
208 228 255
208 228 255
208 228 255
208 228 255
208 228 255
208 228 255
208 228 255
208 228 255
208 228 255
208 228 255
208 228 255
208 228 255
208 228 255
208 228 255
209 228 255
208 228 255
209 229 255
209 229 255
209 229 255
209 229 255
209 229 255
209 229 255
209 229 255
209 229 255
209 229 255
209 229 255
209 229 255
209 229 255
209 229 255
209 229 255
209 229 255
209 229 255
209 229 255
209 229 255
209 229 255
209 229 255
209 229 255
210 229 255
210 229 255
210 229 255
210 229 255
210 229 255
210 229 255
210 229 255
210 229 255
210 229 255
210 229 255
210 229 255
210 229 255
210 229 255
210 229 255
210 229 255
210 229 255
210 229 255
210 229 255
210 229 255
210 229 255
210 230 255
210 230 255
210 229 255
210 229 255
210 229 255
210 229 255
210 229 255
210 229 255
210 229 255
210 229 255
210 229 255
210 229 255
210 229 255
210 229 255
210 229 255
210 229 255
210 229 255
210 229 255
210 229 255
210 229 255
210 229 255
210 229 255
210 229 255
209 229 255
210 229 255
209 229 255
209 229 255
209 229 255
209 229 255
209 229 255
209 229 255
209 229 255
209 229 255
209 229 255
209 229 255
209 229 255
209 229 255
209 229 255
209 229 255
209 229 255
209 229 255
209 229 255
209 228 255
209 228 255
208 228 255
208 228 255
208 228 255
208 228 255
208 228 255
208 228 255
208 228 255
208 228 255
208 228 255
208 228 255
208 228 255
208 228 255
208 228 255
208 228 255
208 228 255
208 228 255
208 228 255
208 228 255
208 228 255
208 228 255
207 228 255
207 228 255
207 228 255
207 228 255
207 228 255
207 228 255
207 228 255
207 228 255
207 228 255
207 228 255
207 228 255
207 228 255
207 228 255
207 228 255
207 227 255
207 227 255
207 227 255
206 227 255
207 227 255
206 227 255
206 227 255
206 227 255
206 227 255
206 227 255
206 227 255
206 227 255
206 227 255
206 227 255
206 227 255
206 227 255
206 227 255
206 227 255
206 227 255
206 227 255
206 227 255
206 227 255
205 227 255
205 227 255
205 227 255
205 227 255
205 227 255
205 227 255
205 227 255
205 227 255
205 227 255
205 226 255
205 226 255
205 226 255
205 226 255
205 226 255
204 226 255
204 226 255
204 226 255
204 226 255
204 226 255
204 226 255
204 226 255
204 226 255
204 226 255
204 226 255
204 226 255
204 226 255
204 226 255
204 226 255
204 226 255
204 226 255
204 226 255
204 226 255
203 226 255
204 226 255
203 226 255
203 226 255
203 226 255
203 226 255
203 226 255
203 225 255
203 225 255
203 225 255
203 225 255
203 225 255
203 225 255
203 225 255
203 225 255
203 225 255
203 225 255
203 225 255
203 225 255
202 225 255
203 225 255
202 225 255
202 225 255
202 225 255
202 225 255
202 225 255
202 225 255
202 225 255
202 225 255
202 225 255
202 225 255
202 225 255
202 225 255
202 225 255
202 225 255
202 225 255
202 225 255
202 225 255
202 225 255
202 225 255
202 225 255
202 225 255
202 225 255
202 225 255
202 225 255
201 225 255
201 225 255
201 225 255
202 225 255
201 225 255
201 225 255
201 225 255
201 225 255
201 225 255
201 225 255
201 225 255
201 225 255
201 225 255
201 225 255
201 225 255
201 224 255
201 225 255
201 224 255
201 225 255
201 224 255
201 225 255
201 224 255
201 224 255
201 224 255
201 224 255
201 224 255
201 224 255
201 225 255
201 224 255
201 224 255
201 224 255
201 224 255
201 225 255
201 225 255
201 225 255
201 225 255
201 225 255
201 225 255
201 225 255
201 225 255
201 225 255
201 225 255
201 225 255
201 225 255
201 225 255
202 225 255
201 225 255
202 225 255
201 225 255
202 225 255
202 225 255
202 225 255
202 225 255
202 225 255
202 225 255
202 225 255
202 225 255
202 225 255
202 225 255
202 225 255
202 225 255
202 225 255
202 225 255
202 225 255
202 225 255
202 225 255
202 225 255
202 225 255
202 225 255
202 225 255
202 225 255
203 225 255
203 225 255
203 225 255
203 225 255
203 225 255
203 225 255
203 225 255
203 225 255
203 225 255
203 225 255
203 225 255
203 225 255
203 226 255
203 226 255
203 226 255
203 226 255
203 226 255
203 226 255
204 226 255
204 226 255
204 226 255
204 226 255
204 226 255
204 226 255
204 226 255
204 226 255
204 226 255
204 226 255
204 226 255
204 226 255
204 226 255
204 226 255
204 226 255
204 226 255
204 226 255
204 226 255
204 226 255
204 226 255
205 226 255
205 226 255
205 226 255
205 226 255
205 227 255
205 227 255
205 227 255
205 227 255
205 227 255
205 227 255
205 227 255
205 227 255
205 227 255
205 227 255
205 227 255
206 227 255
205 227 255
206 227 255
206 227 255
206 227 255
206 227 255
206 227 255
206 227 255
206 227 255
206 227 255
206 227 255
206 227 255
206 227 255
206 227 255
206 227 255
206 227 255
206 227 255
207 227 255
207 227 255
207 227 255
207 227 255
207 228 255
207 227 255
207 228 255
207 228 255
207 228 255
207 228 255
207 228 255
207 228 255
207 228 255
207 228 255
207 228 255
207 228 255
207 228 255
207 228 255
207 228 255
208 228 255
208 228 255
208 228 255
208 228 255
208 228 255
208 228 255
208 228 255
208 228 255
208 228 255
208 228 255
208 228 255
208 228 255
208 228 255
208 228 255
208 228 255
208 228 255
208 228 255
209 228 255
209 228 255
208 228 255
209 229 255
209 229 255
209 229 255
209 229 255
209 229 255
209 229 255
209 229 255
209 229 255
209 229 255
209 229 255
209 229 255
209 229 255
209 229 255
209 229 255
209 229 255
209 229 255
209 229 255
209 229 255
209 229 255
209 229 255
209 229 255
210 229 255
210 229 255
210 229 255
210 229 255
210 229 255
210 229 255
210 229 255
210 229 255
210 229 255
210 229 255
210 229 255
210 229 255
210 229 255
210 229 255
210 229 255
210 229 255
210 229 255
210 229 255
210 229 255
210 229 255
210 229 255
210 230 255
211 230 255
211 230 255
210 230 255
210 230 255
210 230 255
210 230 255
210 230 255
210 229 255
210 229 255
210 229 255
210 229 255
210 229 255
210 229 255
210 229 255
210 229 255
210 229 255
210 229 255
210 229 255
210 229 255
210 229 255
210 229 255
210 229 255
210 229 255
210 229 255
210 229 255
210 229 255
209 229 255
209 229 255
209 229 255
209 229 255
209 229 255
209 229 255
209 229 255
209 229 255
209 229 255
209 229 255
209 229 255
209 229 255
209 229 255
209 229 255
209 229 255
209 229 255
209 229 255
209 229 255
209 229 255
209 229 255
209 228 255
209 228 255
208 228 255
208 228 255
208 228 255
208 228 255
208 228 255
208 228 255
208 228 255
208 228 255
208 228 255
208 228 255
208 228 255
208 228 255
208 228 255
208 228 255
208 228 255
208 228 255
208 228 255
208 228 255
207 228 255
208 228 255
207 228 255
207 228 255
207 228 255
207 228 255
207 228 255
207 228 255
207 228 255
207 228 255
207 228 255
207 228 255
207 228 255
207 228 255
207 228 255
207 227 255
207 227 255
206 227 255
207 227 255
206 227 255
206 227 255
206 227 255
206 227 255
206 227 255
206 227 255
206 227 255
206 227 255
206 227 255
206 227 255
206 227 255
206 227 255
206 227 255
206 227 255
206 227 255
206 227 255
206 227 255
206 227 255
205 227 255
205 227 255
205 227 255
205 227 255
205 227 255
205 227 255
205 227 255
205 227 255
205 227 255
205 226 255
205 226 255
205 226 255
205 226 255
205 226 255
205 226 255
205 226 255
204 226 255
204 226 255
204 226 255
204 226 255
204 226 255
204 226 255
204 226 255
204 226 255
204 226 255
204 226 255
204 226 255
204 226 255
204 226 255
204 226 255
204 226 255
204 226 255
204 226 255
203 226 255
203 226 255
203 226 255
203 226 255
203 226 255
203 226 255
203 226 255
203 226 255
203 226 255
203 226 255
203 225 255
203 225 255
203 225 255
203 225 255
203 225 255
203 225 255
203 225 255
203 225 255
203 225 255
203 225 255
202 225 255
202 225 255
202 225 255
202 225 255
202 225 255
202 225 255
202 225 255
202 225 255
202 225 255
202 225 255
202 225 255
202 225 255
202 225 255
202 225 255
202 225 255
202 225 255
202 225 255
202 225 255
202 225 255
202 225 255
202 225 255
202 225 255
202 225 255
202 225 255
202 225 255
202 225 255
202 225 255
201 225 255
202 225 255
201 225 255
202 225 255
202 225 255
201 225 255
201 225 255
201 225 255
201 225 255
201 225 255
201 225 255
201 225 255
201 225 255
201 225 255
201 225 255
201 225 255
201 225 255
201 225 255
201 225 255
202 225 255
202 225 255
201 225 255
201 225 255
201 225 255
201 225 255
201 225 255
201 225 255
201 225 255
201 225 255
202 225 255
202 225 255
202 225 255
202 225 255
202 225 255
202 225 255
202 225 255
202 225 255
202 225 255
202 225 255
202 225 255
202 225 255
202 225 255
202 225 255
202 225 255
202 225 255
202 225 255
202 225 255
202 225 255
202 225 255
202 225 255
202 225 255
202 225 255
202 225 255
202 225 255
202 225 255
202 225 255
202 225 255
202 225 255
202 225 255
202 225 255
202 225 255
203 225 255
203 225 255
203 225 255
203 225 255
203 225 255
203 225 255
203 225 255
203 225 255
203 225 255
203 225 255
203 225 255
203 225 255
203 225 255
203 226 255
203 226 255
203 226 255
203 226 255
203 226 255
204 226 255
203 226 255
204 226 255
204 226 255
204 226 255
204 226 255
204 226 255
204 226 255
204 226 255
204 226 255
204 226 255
204 226 255
204 226 255
204 226 255
204 226 255
204 226 255
204 226 255
205 226 255
205 226 255
204 226 255
205 226 255
205 226 255
205 226 255
205 226 255
205 226 255
205 227 255
205 227 255
205 227 255
205 227 255
205 227 255
205 227 255
205 227 255
205 227 255
205 227 255
205 227 255
205 227 255
206 227 255
206 227 255
206 227 255
206 227 255
206 227 255
206 227 255
206 227 255
206 227 255
206 227 255
206 227 255
206 227 255
206 227 255
206 227 255
206 227 255
206 227 255
207 227 255
207 227 255
207 227 255
207 227 255
207 227 255
207 227 255
207 228 255
207 228 255
207 228 255
207 228 255
207 228 255
207 228 255
207 228 255
207 228 255
207 228 255
207 228 255
207 228 255
207 228 255
207 228 255
207 228 255
208 228 255
208 228 255
208 228 255
208 228 255
208 228 255
208 228 255
208 228 255
208 228 255
208 228 255
208 228 255
208 228 255
208 228 255
208 228 255
208 228 255
208 228 255
208 228 255
208 228 255
208 228 255
208 228 255
209 228 255
209 228 255
209 228 255
209 229 255
209 229 255
209 229 255
209 229 255
209 229 255
209 229 255
209 229 255
209 229 255
209 229 255
209 229 255
209 229 255
209 229 255
209 229 255
209 229 255
209 229 255
209 229 255
209 229 255
209 229 255
210 229 255
210 229 255
210 229 255
210 229 255
210 229 255
210 229 255
210 229 255
210 229 255
210 229 255
210 229 255
210 229 255
210 229 255
210 229 255
210 229 255
210 229 255
210 229 255
210 229 255
210 229 255
210 229 255
210 229 255
210 229 255
210 229 255
210 229 255
210 230 255
210 230 255
211 230 255
211 230 255
211 230 255
211 230 255
211 230 255
211 230 255
211 230 255
210 230 255
210 230 255
210 230 255
210 230 255
210 230 255
210 229 255
210 229 255
210 229 255
210 229 255
210 229 255
210 229 255
210 229 255
210 229 255
210 229 255
210 229 255
210 229 255
210 229 255
210 229 255
210 229 255
210 229 255
210 229 255
210 229 255
210 229 255
210 229 255
210 229 255
209 229 255
209 229 255
209 229 255
209 229 255
209 229 255
209 229 255
209 229 255
209 229 255
209 229 255
209 229 255
209 229 255
209 229 255
209 229 255
209 229 255
209 229 255
209 229 255
209 229 255
209 229 255
209 229 255
209 229 255
209 228 255
209 228 255
208 228 255
208 228 255
208 228 255
208 228 255
208 228 255
208 228 255
208 228 255
208 228 255
208 228 255
208 228 255
208 228 255
208 228 255
208 228 255
208 228 255
208 228 255
208 228 255
208 228 255
207 228 255
207 228 255
208 228 255
207 228 255
207 228 255
207 228 255
207 228 255
207 228 255
207 228 255
207 228 255
207 228 255
207 228 255
207 228 255
207 228 255
207 228 255
207 228 255
207 227 255
207 227 255
207 227 255
207 227 255
206 227 255
206 227 255
206 227 255
206 227 255
206 227 255
206 227 255
206 227 255
206 227 255
206 227 255
206 227 255
206 227 255
206 227 255
206 227 255
206 227 255
206 227 255
206 227 255
206 227 255
205 227 255
205 227 255
205 227 255
205 227 255
205 227 255
205 227 255
205 227 255
205 227 255
205 227 255
205 227 255
205 226 255
205 226 255
205 226 255
205 226 255
205 226 255
205 226 255
204 226 255
204 226 255
204 226 255
204 226 255
204 226 255
204 226 255
204 226 255
204 226 255
204 226 255
204 226 255
204 226 255
204 226 255
204 226 255
204 226 255
204 226 255
204 226 255
204 226 255
204 226 255
204 226 255
203 226 255
203 226 255
203 226 255
203 226 255
203 226 255
203 226 255
203 226 255
203 225 255
203 225 255
203 225 255
203 225 255
203 225 255
203 225 255
203 225 255
203 225 255
203 225 255
203 225 255
203 225 255
203 225 255
202 225 255
202 225 255
203 225 255
202 225 255
202 225 255
202 225 255
202 225 255
202 225 255
202 225 255
202 225 255
202 225 255
202 225 255
202 225 255
202 225 255
202 225 255
202 225 255
202 225 255
202 225 255
202 225 255
202 225 255
202 225 255
202 225 255
202 225 255
202 225 255
202 225 255
202 225 255
202 225 255
202 225 255
202 225 255
202 225 255
202 225 255
202 225 255
202 225 255
202 225 255
202 225 255
202 225 255
202 225 255
202 225 255
202 225 255
202 225 255
202 225 255
202 225 255
202 225 255
202 225 255
202 225 255
202 225 255
202 225 255
202 225 255
202 225 255
202 225 255
202 225 255
202 225 255
202 225 255
202 225 255
202 225 255
202 225 255
202 225 255
202 225 255
202 225 255
202 225 255
202 225 255
202 225 255
202 225 255
202 225 255
202 225 255
202 225 255
202 225 255
202 225 255
202 225 255
202 225 255
202 225 255
202 225 255
202 225 255
202 225 255
202 225 255
202 225 255
202 225 255
202 225 255
203 225 255
202 225 255
202 225 255
203 225 255
203 225 255
203 225 255
203 225 255
203 225 255
203 225 255
203 225 255
203 225 255
203 225 255
203 225 255
203 225 255
203 226 255
203 226 255
203 226 255
203 226 255
203 226 255
203 226 255
203 226 255
203 226 255
204 226 255
204 226 255
204 226 255
204 226 255
204 226 255
204 226 255
204 226 255
204 226 255
204 226 255
204 226 255
204 226 255
204 226 255
204 226 255
204 226 255
204 226 255
204 226 255
204 226 255
205 226 255
204 226 255
205 226 255
205 226 255
205 226 255
205 226 255
205 227 255
205 227 255
205 227 255
205 227 255
205 227 255
205 227 255
205 227 255
205 227 255
205 227 255
205 227 255
205 227 255
205 227 255
206 227 255
206 227 255
206 227 255
206 227 255
206 227 255
206 227 255
206 227 255
206 227 255
206 227 255
206 227 255
206 227 255
206 227 255
206 227 255
206 227 255
206 227 255
206 227 255
207 227 255
206 227 255
207 227 255
207 227 255
207 227 255
207 228 255
207 227 255
207 228 255
207 228 255
207 228 255
207 228 255
207 228 255
207 228 255
207 228 255
207 228 255
207 228 255
207 228 255
207 228 255
207 228 255
207 228 255
208 228 255
208 228 255
208 228 255
208 228 255
208 228 255
208 228 255
208 228 255
208 228 255
208 228 255
208 228 255
208 228 255
208 228 255
208 228 255
208 228 255
208 228 255
208 228 255
208 228 255
208 228 255
209 229 255
209 229 255
209 229 255
209 229 255
209 229 255
209 229 255
209 229 255
209 229 255
209 229 255
209 229 255
209 229 255
209 229 255
209 229 255
209 229 255
209 229 255
209 229 255
209 229 255
209 229 255
209 229 255
209 229 255
210 229 255
209 229 255
210 229 255
210 229 255
210 229 255
210 229 255
210 229 255
210 229 255
210 229 255
210 229 255
210 229 255
210 229 255
210 229 255
210 229 255
210 229 255
210 229 255
210 229 255
210 229 255
210 229 255
210 229 255
210 230 255
210 230 255
210 230 255
210 230 255
211 230 255
211 230 255
211 230 255
211 230 255
211 230 255
211 230 255
211 230 255
211 230 255
211 230 255
211 230 255
211 230 255
211 230 255
211 230 255
211 230 255
211 230 255
211 230 255
211 230 255
211 230 255
210 230 255
210 230 255
210 230 255
210 229 255
210 229 255
210 229 255
210 229 255
210 229 255
210 229 255
210 229 255
210 229 255
210 229 255
210 229 255
210 229 255
210 229 255
210 229 255
210 229 255
210 229 255
210 229 255
210 229 255
210 229 255
210 229 255
209 229 255
209 229 255
209 229 255
209 229 255
209 229 255
209 229 255
209 229 255
209 229 255
209 229 255
205 227 255
209 229 255
209 229 255
209 229 255
209 229 255
209 229 255
209 229 255
209 229 255
203 225 255
209 229 255
204 226 255
208 228 255
208 228 255
208 228 255
208 228 255
208 228 255
208 228 255
208 228 255
208 228 255
208 228 255
208 228 255
208 228 255
208 228 255
208 228 255
208 228 255
208 228 255
208 228 255
208 228 255
208 228 255
208 228 255
207 228 255
208 228 255
207 228 255
207 228 255
207 228 255
207 228 255
207 228 255
207 228 255
207 228 255
207 228 255
207 228 255
207 228 255
207 228 255
207 228 255
207 228 255
207 228 255
207 228 255
207 227 255
207 227 255
207 227 255
206 227 255
206 227 255
206 227 255
206 227 255
206 227 255
206 227 255
206 227 255
206 227 255
206 227 255
206 227 255
206 227 255
206 227 255
206 227 255
206 227 255
206 227 255
206 227 255
206 227 255
206 227 255
205 227 255
205 227 255
205 227 255
205 227 255
205 227 255
205 227 255
205 227 255
205 227 255
205 227 255
205 227 255
205 226 255
205 226 255
205 226 255
205 226 255
205 226 255
204 226 255
205 226 255
204 226 255
204 226 255
204 226 255
204 226 255
204 226 255
204 226 255
204 226 255
204 226 255
204 226 255
204 226 255
204 226 255
204 226 255
204 226 255
204 226 255
204 226 255
204 226 255
204 226 255
204 226 255
203 226 255
203 226 255
203 226 255
203 226 255
203 226 255
203 226 255
203 226 255
203 226 255
203 226 255
203 225 255
203 225 255
203 225 255
203 225 255
203 225 255
203 225 255
203 225 255
203 225 255
203 225 255
203 225 255
203 225 255
202 225 255
202 225 255
202 225 255
202 225 255
202 225 255
202 225 255
202 225 255
202 225 255
202 225 255
202 225 255
202 225 255
202 225 255
202 225 255
202 225 255
202 225 255
202 225 255
202 225 255
202 225 255
202 225 255
202 225 255
202 225 255
202 225 255
202 225 255
202 225 255
202 225 255
202 225 255
202 225 255
202 225 255
202 225 255
202 225 255
202 225 255
202 225 255
202 225 255
202 225 255
202 225 255
202 225 255
202 225 255
202 225 255
202 225 255
202 225 255
202 225 255
202 225 255
202 225 255
202 225 255
202 225 255
202 225 255
202 225 255
202 225 255
202 225 255
202 225 255
202 225 255
202 225 255
202 225 255
202 225 255
202 225 255
202 225 255
202 225 255
202 225 255
202 225 255
202 225 255
202 225 255
202 225 255
202 225 255
202 225 255
202 225 255
202 225 255
202 225 255
203 225 255
202 225 255
203 225 255
203 225 255
203 225 255
203 225 255
203 225 255
203 225 255
203 225 255
203 225 255
203 225 255
203 225 255
203 225 255
203 225 255
203 225 255
203 225 255
203 226 255
203 226 255
203 226 255
203 226 255
203 226 255
203 226 255
203 226 255
204 226 255
204 226 255
204 226 255
204 226 255
204 226 255
204 226 255
204 226 255
204 226 255
204 226 255
204 226 255
204 226 255
204 226 255
204 226 255
204 226 255
204 226 255
204 226 255
204 226 255
204 226 255
205 226 255
204 226 255
205 226 255
205 226 255
205 226 255
205 226 255
205 226 255
205 227 255
205 226 255
205 227 255
205 227 255
205 227 255
205 227 255
205 227 255
205 227 255
205 227 255
206 227 255
205 227 255
206 227 255
206 227 255
206 227 255
206 227 255
206 227 255
206 227 255
206 227 255
206 227 255
206 227 255
206 227 255
206 227 255
206 227 255
206 227 255
206 227 255
206 227 255
206 227 255
207 227 255
206 227 255
207 227 255
207 227 255
207 228 255
207 228 255
207 228 255
207 228 255
207 228 255
207 228 255
207 228 255
207 228 255
207 228 255
207 228 255
207 228 255
207 228 255
207 228 255
208 228 255
207 228 255
208 228 255
208 228 255
208 228 255
208 228 255
208 228 255
208 228 255
208 228 255
208 228 255
208 228 255
208 228 255
208 228 255
208 228 255
208 228 255
208 228 255
208 228 255
208 228 255
181 174 114
208 228 255
86 36 0
209 228 255
209 228 255
174 171 114
168 168 114
209 229 255
209 229 255
157 133 51
41 36 7
165 167 114
209 229 255
121 91 0
36 37 0
209 229 255
169 169 114
209 229 255
209 229 255
209 229 255
209 229 255
209 229 255
209 229 255
209 229 255
209 229 255
210 229 255
210 229 255
210 229 255
210 229 255
210 229 255
210 229 255
210 229 255
210 229 255
210 229 255
210 229 255
210 229 255
210 229 255
210 229 255
210 229 255
210 229 255
210 229 255
210 229 255
210 229 255
210 229 255
210 229 255
210 230 255
210 230 255
210 230 255
211 230 255
210 230 255
211 230 255
211 230 255
211 230 255
211 230 255
211 230 255
211 230 255
211 230 255
211 230 255
211 230 255
211 230 255
211 230 255
211 230 255
211 230 255
211 230 255
211 230 255
211 230 255
211 230 255
211 230 255
211 230 255
211 230 255
210 230 255
211 230 255
211 230 255
211 230 255
210 230 255
210 230 255
210 229 255
210 229 255
210 229 255
210 229 255
210 229 255
210 229 255
210 229 255
210 229 255
210 229 255
210 229 255
210 229 255
210 229 255
210 229 255
210 229 255
205 227 255
210 229 255
206 227 255
210 229 255
202 225 255
206 227 255
205 227 255
203 226 255
203 225 255
201 224 255
202 225 255
201 225 255
203 226 255
201 225 255
199 223 255
201 224 255
199 223 255
199 223 255
201 224 255
200 224 255
198 223 255
198 223 255
197 222 255
202 225 255
202 225 255
199 223 255
200 224 255
198 223 255
201 224 255
202 225 255
203 226 255
200 224 255
203 225 255
207 228 255
208 228 255
204 226 255
208 228 255
203 225 255
208 228 255
208 228 255
208 228 255
208 228 255
208 228 255
208 228 255
208 228 255
207 228 255
207 228 255
207 228 255
207 228 255
207 228 255
207 228 255
207 228 255
207 228 255
207 228 255
207 228 255
207 228 255
207 228 255
207 227 255
207 227 255
207 227 255
207 227 255
207 227 255
206 227 255
206 227 255
206 227 255
206 227 255
206 227 255
206 227 255
206 227 255
206 227 255
206 227 255
206 227 255
206 227 255
206 227 255
206 227 255
206 227 255
206 227 255
206 227 255
206 227 255
206 227 255
206 227 255
206 227 255
205 227 255
205 227 255
205 227 255
205 227 255
205 227 255
205 227 255
205 227 255
205 227 255
205 227 255
205 227 255
205 226 255
205 226 255
205 226 255
205 226 255
205 226 255
205 226 255
204 226 255
204 226 255
204 226 255
204 226 255
204 226 255
204 226 255
204 226 255
204 226 255
204 226 255
204 226 255
204 226 255
204 226 255
204 226 255
204 226 255
204 226 255
204 226 255
204 226 255
204 226 255
204 226 255
203 226 255
203 226 255
203 226 255
203 226 255
203 226 255
203 226 255
203 226 255
203 226 255
203 226 255
203 226 255
203 226 255
203 226 255
203 225 255
203 225 255
203 225 255
203 225 255
203 225 255
203 225 255
203 225 255
203 225 255
203 225 255
203 225 255
203 225 255
202 225 255
203 225 255
202 225 255
202 225 255
202 225 255
202 225 255
202 225 255
202 225 255
202 225 255
202 225 255
202 225 255
202 225 255
202 225 255
202 225 255
202 225 255
202 225 255
202 225 255
202 225 255
202 225 255
202 225 255
202 225 255
202 225 255
202 225 255
202 225 255
202 225 255
202 225 255
202 225 255
202 225 255
202 225 255
202 225 255
202 225 255
202 225 255
202 225 255
202 225 255
202 225 255
202 225 255
202 225 255
202 225 255
202 225 255
202 225 255
202 225 255
202 225 255
202 225 255
202 225 255
202 225 255
202 225 255
202 225 255
202 225 255
202 225 255
202 225 255
202 225 255
202 225 255
203 225 255
203 225 255
203 225 255
203 225 255
203 225 255
203 225 255
203 225 255
203 225 255
203 225 255
203 225 255
203 225 255
203 225 255
203 225 255
203 225 255
203 225 255
203 225 255
203 226 255
203 225 255
203 225 255
203 225 255
203 226 255
203 226 255
203 226 255
203 226 255
203 226 255
203 226 255
203 226 255
203 226 255
204 226 255
204 226 255
204 226 255
204 226 255
204 226 255
204 226 255
204 226 255
204 226 255
204 226 255
204 226 255
204 226 255
204 226 255
204 226 255
204 226 255
204 226 255
204 226 255
204 226 255
204 226 255
204 226 255
205 226 255
205 226 255
205 226 255
205 226 255
205 227 255
205 226 255
205 226 255
205 227 255
205 227 255
205 227 255
205 227 255
205 227 255
205 227 255
205 227 255
205 227 255
205 227 255
205 227 255
206 227 255
206 227 255
206 227 255
206 227 255
206 227 255
206 227 255
206 227 255
206 227 255
206 227 255
206 227 255
206 227 255
206 227 255
206 227 255
206 227 255
206 227 255
206 227 255
207 227 255
207 227 255
207 227 255
207 228 255
207 228 255
207 228 255
207 228 255
207 228 255
207 228 255
207 228 255
207 228 255
207 228 255
207 228 255
207 228 255
207 228 255
207 228 255
207 228 255
207 228 255
208 228 255
208 228 255
208 228 255
208 228 255
208 228 255
208 228 255
208 228 255
208 228 255
208 228 255
208 228 255
208 228 255
165 167 114
34 5 0
147 105 22
20 1 0
120 90 0
7 4 0
169 138 51
96 44 0
168 168 114
163 166 114
186 177 114
96 54 0
168 168 114
93 46 2
154 132 51
201 184 114
140 103 22
175 171 114
13 2 0
85 48 0
170 169 114
176 172 114
171 170 114
164 136 51
183 175 114
185 176 114
170 169 114
169 169 114
61 16 0
136 117 0
209 229 255
168 138 51
183 175 114
169 138 51
210 229 255
166 168 114
186 177 114
210 229 255
210 229 255
210 229 255
210 229 255
210 229 255
210 229 255
210 229 255
210 229 255
210 229 255
210 229 255
210 229 255
210 229 255
210 229 255
210 229 255
210 230 255
211 230 255
211 230 255
211 230 255
211 230 255
211 230 255
211 230 255
211 230 255
211 230 255
211 230 255
211 230 255
211 230 255
211 230 255
211 230 255
211 230 255
211 230 255
211 230 255
211 230 255
211 230 255
211 230 255
211 230 255
211 230 255
211 230 255
211 230 255
211 230 255
211 230 255
211 230 255
211 230 255
211 230 255
211 230 255
211 230 255
211 230 255
211 230 255
210 230 255
210 230 255
210 230 255
210 229 255
210 230 255
210 229 255
210 229 255
210 229 255
208 228 255
210 229 255
204 226 255
208 228 255
207 228 255
203 226 255
204 226 255
201 224 255
200 224 255
200 224 255
199 223 255
201 224 255
200 224 255
198 223 255
198 223 255
199 223 255
199 223 255
198 223 255
198 223 255
196 222 255
195 221 255
195 221 255
198 223 255
196 222 255
196 222 255
196 222 255
196 222 255
197 222 255
196 222 255
195 221 255
196 222 255
197 222 255
195 221 255
194 221 255
194 221 255
197 222 255
196 222 255
195 221 255
196 222 255
196 222 255
197 222 255
196 222 255
196 222 255
200 224 255
200 224 255
206 227 255
202 225 255
202 225 255
202 225 255
208 228 255
208 228 255
208 228 255
208 228 255
208 228 255
208 228 255
208 228 255
207 228 255
207 228 255
207 228 255
207 228 255
207 228 255
207 228 255
207 228 255
207 228 255
207 228 255
207 228 255
207 228 255
207 228 255
207 228 255
207 227 255
207 227 255
207 227 255
206 227 255
207 227 255
206 227 255
206 227 255
206 227 255
206 227 255
206 227 255
206 227 255
206 227 255
206 227 255
206 227 255
206 227 255
206 227 255
206 227 255
206 227 255
206 227 255
206 227 255
206 227 255
206 227 255
206 227 255
205 227 255
205 227 255
205 227 255
205 227 255
205 227 255
205 227 255
205 227 255
205 227 255
205 227 255
205 227 255
205 226 255
205 226 255
205 226 255
205 226 255
205 226 255
205 226 255
204 226 255
205 226 255
204 226 255
204 226 255
204 226 255
204 226 255
204 226 255
204 226 255
204 226 255
204 226 255
204 226 255
204 226 255
204 226 255
204 226 255
204 226 255
204 226 255
204 226 255
204 226 255
204 226 255
204 226 255
204 226 255
204 226 255
203 226 255
203 226 255
203 226 255
203 226 255
203 226 255
203 226 255
203 226 255
203 226 255
203 226 255
203 226 255
203 225 255
203 225 255
203 225 255
203 225 255
203 225 255
203 225 255
203 225 255
203 225 255
203 225 255
203 225 255
203 225 255
203 225 255
203 225 255
203 225 255
202 225 255
202 225 255
202 225 255
203 225 255
202 225 255
203 225 255
202 225 255
202 225 255
202 225 255
203 225 255
203 225 255
203 225 255
202 225 255
202 225 255
202 225 255
202 225 255
202 225 255
202 225 255
202 225 255
202 225 255
202 225 255
202 225 255
202 225 255
202 225 255
202 225 255
202 225 255
202 225 255
202 225 255
202 225 255
202 225 255
202 225 255
202 225 255
202 225 255
202 225 255
202 225 255
202 225 255
202 225 255
203 225 255
202 225 255
203 225 255
202 225 255
203 225 255
202 225 255
203 225 255
203 225 255
203 225 255
203 225 255
203 225 255
203 225 255
203 225 255
203 225 255
203 225 255
203 225 255
203 225 255
203 225 255
203 225 255
203 225 255
203 226 255
203 226 255
203 226 255
203 226 255
203 226 255
203 226 255
203 226 255
203 226 255
203 226 255
203 226 255
203 226 255
204 226 255
204 226 255
204 226 255
204 226 255
204 226 255
204 226 255
204 226 255
204 226 255
204 226 255
204 226 255
204 226 255
204 226 255
204 226 255
204 226 255
204 226 255
204 226 255
204 226 255
204 226 255
205 226 255
205 226 255
205 226 255
205 226 255
205 226 255
205 226 255
205 226 255
205 227 255
205 227 255
205 227 255
205 227 255
205 227 255
205 227 255
205 227 255
205 227 255
205 227 255
205 227 255
205 227 255
206 227 255
206 227 255
206 227 255
206 227 255
206 227 255
206 227 255
206 227 255
206 227 255
206 227 255
206 227 255
206 227 255
206 227 255
206 227 255
206 227 255
206 227 255
206 227 255
206 227 255
207 227 255
206 227 255
207 227 255
207 227 255
207 227 255
207 227 255
207 228 255
207 228 255
207 228 255
207 228 255
207 228 255
207 228 255
207 228 255
207 228 255
207 228 255
207 228 255
207 228 255
207 228 255
207 228 255
207 228 255
208 228 255
208 228 255
208 228 255
208 228 255
208 228 255
208 228 255
208 228 255
164 167 114
167 168 114
152 107 22
123 91 0
188 178 114
167 168 114
179 174 114
37 4 0
162 166 114
164 166 114
162 166 114
97 47 2
171 170 114
21 2 0
191 179 114
168 168 114
116 89 0
169 138 51
92 30 0
54 13 0
166 167 114
167 168 114
50 49 16
174 171 114
178 142 51
162 166 114
178 173 114
173 171 114
174 171 114
171 139 51
74 26 0
162 165 114
17 1 0
163 166 114
124 65 4
185 176 114
162 166 114
131 94 0
21 10 0
176 141 51
76 32 0
170 169 114
111 71 0
185 176 114
202 184 114
136 96 0
169 169 114
210 229 255
210 229 255
210 229 255
210 229 255
210 229 255
210 229 255
210 230 255
210 230 255
210 230 255
210 230 255
211 230 255
211 230 255
211 230 255
211 230 255
211 230 255
211 230 255
211 230 255
211 230 255
211 230 255
211 230 255
211 230 255
211 230 255
211 230 255
211 230 255
211 230 255
211 230 255
211 230 255
211 230 255
211 230 255
211 230 255
211 230 255
211 230 255
211 230 255
211 230 255
211 230 255
211 230 255
211 230 255
211 230 255
211 230 255
211 230 255
211 230 255
211 230 255
211 230 255
211 230 255
211 230 255
211 230 255
211 230 255
208 228 255
204 226 255
204 226 255
202 225 255
202 225 255
202 225 255
203 226 255
201 224 255
202 225 255
200 224 255
200 224 255
199 223 255
199 223 255
199 223 255
198 223 255
197 222 255
198 223 255
196 222 255
195 221 255
195 221 255
195 221 255
196 222 255
196 222 255
194 221 255
194 220 255
193 220 255
193 220 255
194 221 255
193 220 255
192 220 255
194 221 255
193 220 255
193 220 255
193 220 255
192 220 255
193 220 255
192 220 255
192 219 255
192 220 255
192 219 255
192 220 255
192 220 255
192 220 255
194 221 255
194 220 255
192 220 255
192 220 255
193 220 255
196 222 255
194 220 255
194 221 255
194 221 255
196 222 255
199 223 255
197 222 255
202 225 255
204 226 255
199 223 255
199 224 255
202 225 255
208 228 255
208 228 255
207 228 255
208 228 255
207 228 255
207 228 255
207 228 255
207 228 255
207 228 255
207 228 255
207 228 255
207 228 255
207 228 255
207 228 255
207 228 255
207 228 255
207 228 255
207 227 255
207 228 255
207 227 255
207 227 255
207 227 255
206 227 255
206 227 255
206 227 255
206 227 255
206 227 255
206 227 255
206 227 255
206 227 255
206 227 255
206 227 255
206 227 255
206 227 255
206 227 255
206 227 255
206 227 255
206 227 255
206 227 255
205 227 255
205 227 255
205 227 255
205 227 255
205 227 255
205 227 255
205 227 255
205 227 255
205 227 255
205 227 255
205 227 255
205 226 255
205 226 255
205 226 255
205 226 255
205 226 255
205 226 255
205 226 255
205 226 255
204 226 255
204 226 255
204 226 255
204 226 255
204 226 255
204 226 255
204 226 255
204 226 255
204 226 255
204 226 255
204 226 255
204 226 255
204 226 255
204 226 255
204 226 255
204 226 255
204 226 255
204 226 255
203 226 255
204 226 255
203 226 255
203 226 255
203 226 255
203 226 255
203 226 255
203 226 255
203 226 255
203 226 255
203 226 255
203 226 255
203 225 255
203 226 255
203 226 255
203 226 255
203 225 255
203 225 255
203 225 255
203 225 255
203 225 255
203 225 255
203 225 255
203 225 255
203 225 255
203 225 255
203 225 255
203 225 255
203 225 255
203 225 255
203 225 255
203 225 255
203 225 255
203 225 255
203 225 255
203 225 255
203 225 255
203 225 255
203 225 255
203 225 255
203 225 255
203 225 255
203 225 255
203 225 255
203 225 255
202 225 255
203 225 255
203 225 255
203 225 255
203 225 255
203 225 255
203 225 255
203 225 255
203 225 255
203 225 255
203 225 255
203 225 255
203 225 255
203 225 255
203 225 255
203 225 255
203 225 255
203 225 255
203 225 255
203 225 255
203 225 255
203 225 255
203 225 255
203 225 255
203 225 255
203 226 255
203 225 255
203 226 255
203 225 255
203 226 255
203 226 255
203 226 255
203 226 255
203 226 255
203 226 255
203 226 255
203 226 255
203 226 255
203 226 255
204 226 255
204 226 255
204 226 255
204 226 255
204 226 255
204 226 255
204 226 255
204 226 255
204 226 255
204 226 255
204 226 255
204 226 255
204 226 255
204 226 255
204 226 255
204 226 255
204 226 255
204 226 255
204 226 255
204 226 255
204 226 255
205 226 255
205 226 255
205 226 255
205 226 255
205 226 255
205 227 255
205 226 255
205 227 255
205 226 255
205 227 255
205 227 255
205 227 255
205 227 255
205 227 255
205 227 255
205 227 255
205 227 255
206 227 255
206 227 255
206 227 255
206 227 255
206 227 255
206 227 255
206 227 255
206 227 255
206 227 255
206 227 255
206 227 255
206 227 255
206 227 255
206 227 255
206 227 255
206 227 255
206 227 255
206 227 255
207 227 255
207 227 255
207 227 255
207 227 255
207 227 255
207 227 255
207 228 255
207 228 255
207 228 255
207 228 255
207 228 255
207 228 255
207 228 255
207 228 255
207 228 255
207 228 255
207 228 255
207 228 255
208 228 255
208 228 255
208 228 255
208 228 255
208 228 255
208 228 255
189 178 114
3 0 0
163 166 114
163 166 114
150 130 51
183 175 114
180 174 114
176 172 114
146 129 51
47 8 0
97 54 0
117 63 4
131 115 0
176 141 51
76 32 0
162 166 114
157 133 51
162 166 114
173 171 114
175 140 51
135 117 0
171 170 114
169 169 114
120 78 10
172 170 114
62 19 0
28 16 0
186 176 114
16 0 0
169 138 51
160 155 0
71 20 0
168 168 114
169 169 114
175 172 114
163 166 114
185 176 114
166 168 114
129 115 0
34 31 0
179 173 114
180 142 51
184 176 114
188 178 114
171 170 114
182 175 114
174 171 114
173 171 114
26 15 0
168 168 114
97 47 2
143 104 22
52 12 0
162 166 114
83 41 0
182 175 114
170 169 114
175 172 114
211 230 255
211 230 255
211 230 255
211 230 255
211 230 255
211 230 255
211 230 255
211 230 255
211 230 255
211 230 255
211 230 255
211 230 255
211 230 255
211 230 255
211 230 255
211 230 255
211 230 255
211 230 255
211 230 255
211 230 255
211 230 255
211 230 255
211 230 255
211 230 255
211 230 255
211 230 255
211 230 255
211 230 255
211 230 255
211 230 255
211 230 255
211 230 255
211 230 255
211 230 255
211 230 255
211 230 255
211 230 255
211 230 255
205 227 255
207 228 255
206 227 255
205 226 255
203 225 255
201 224 255
203 225 255
202 225 255
201 224 255
199 223 255
200 224 255
198 223 255
197 222 255
197 222 255
197 222 255
197 222 255
197 222 255
196 222 255
196 222 255
195 221 255
195 221 255
195 221 255
195 221 255
195 221 255
194 220 255
194 220 255
193 220 255
193 220 255
192 220 255
193 220 255
192 220 255
191 219 255
191 219 255
192 219 255
192 220 255
191 219 255
192 220 255
190 219 255
191 219 255
190 219 255
191 219 255
191 219 255
191 219 255
191 219 255
191 219 255
191 219 255
191 219 255
190 219 255
190 219 255
191 219 255
190 219 255
190 219 255
192 220 255
191 219 255
191 219 255
192 220 255
191 219 255
195 221 255
192 220 255
194 221 255
195 221 255
193 220 255
199 223 255
200 224 255
199 223 255
200 224 255
199 223 255
200 224 255
203 226 255
208 228 255
208 228 255
207 228 255
208 228 255
207 228 255
207 228 255
207 228 255
207 228 255
207 228 255
207 228 255
207 228 255
207 228 255
207 228 255
207 228 255
207 228 255
207 228 255
207 227 255
207 227 255
207 227 255
207 227 255
206 227 255
207 227 255
206 227 255
206 227 255
206 227 255
206 227 255
206 227 255
206 227 255
206 227 255
206 227 255
206 227 255
206 227 255
206 227 255
206 227 255
206 227 255
206 227 255
206 227 255
206 227 255
205 227 255
205 227 255
205 227 255
205 227 255
205 227 255
205 227 255
205 227 255
205 227 255
205 227 255
205 226 255
205 227 255
205 227 255
205 227 255
205 226 255
205 226 255
205 226 255
205 226 255
205 226 255
204 226 255
204 226 255
204 226 255
204 226 255
204 226 255
204 226 255
204 226 255
204 226 255
204 226 255
204 226 255
204 226 255
204 226 255
204 226 255
204 226 255
204 226 255
204 226 255
204 226 255
204 226 255
204 226 255
204 226 255
204 226 255
204 226 255
204 226 255
204 226 255
203 226 255
203 226 255
203 226 255
203 226 255
203 226 255
203 226 255
203 226 255
203 226 255
203 226 255
203 226 255
203 226 255
203 226 255
203 226 255
203 226 255
203 226 255
203 225 255
203 225 255
203 225 255
203 225 255
203 225 255
203 225 255
203 225 255
203 225 255
203 225 255
203 225 255
203 225 255
203 225 255
203 225 255
203 225 255
203 225 255
203 225 255
203 225 255
203 225 255
203 225 255
203 225 255
203 225 255
203 225 255
203 225 255
203 225 255
203 225 255
203 225 255
203 225 255
203 225 255
203 225 255
203 225 255
203 225 255
203 225 255
203 225 255
203 225 255
203 226 255
203 225 255
203 225 255
203 225 255
203 226 255
203 226 255
203 226 255
203 225 255
203 225 255
203 226 255
203 226 255
203 226 255
203 226 255
203 226 255
203 226 255
203 226 255
203 226 255
203 226 255
203 226 255
203 226 255
204 226 255
204 226 255
204 226 255
204 226 255
204 226 255
204 226 255
204 226 255
204 226 255
204 226 255
204 226 255
204 226 255
204 226 255
204 226 255
204 226 255
204 226 255
204 226 255
204 226 255
204 226 255
204 226 255
204 226 255
204 226 255
204 226 255
205 226 255
205 226 255
205 226 255
205 226 255
205 226 255
205 226 255
205 226 255
205 226 255
205 226 255
205 226 255
205 227 255
205 227 255
205 227 255
205 227 255
205 227 255
205 227 255
205 227 255
205 227 255
205 227 255
206 227 255
206 227 255
206 227 255
206 227 255
206 227 255
206 227 255
206 227 255
206 227 255
206 227 255
206 227 255
206 227 255
206 227 255
206 227 255
206 227 255
206 227 255
206 227 255
207 227 255
206 227 255
207 227 255
207 227 255
207 227 255
207 227 255
207 228 255
207 227 255
207 228 255
207 228 255
207 228 255
207 228 255
207 228 255
207 228 255
207 228 255
207 228 255
207 228 255
207 228 255
207 228 255
208 228 255
207 228 255
208 228 255
146 129 51
23 12 0
177 173 114
141 103 22
71 18 0
169 169 114
178 173 114
181 174 114
86 42 0
171 170 114
175 171 114
164 166 114
177 172 114
66 21 0
174 171 114
184 176 114
4 0 0
168 168 114
173 171 114
171 170 114
185 176 114
127 93 0
80 33 0
126 80 10
162 166 114
87 36 0
173 171 114
169 169 114
176 141 51
175 172 114
185 176 114
152 131 51
186 177 114
149 122 0
176 172 114
151 123 0
163 166 114
97 54 0
172 170 114
85 39 0
122 91 0
177 172 114
144 104 22
182 175 114
144 104 22
59 16 0
75 26 0
174 171 114
193 180 114
169 169 114
155 132 51
167 137 51
196 181 114
161 165 114
110 61 4
173 170 114
162 166 114
149 122 0
195 181 114
160 110 22
189 178 114
168 137 51
163 166 114
176 141 51
155 153 0
148 130 51
118 63 4
166 168 114
134 82 10
172 170 114
211 230 255
211 230 255
211 230 255
211 230 255
211 230 255
211 230 255
211 230 255
211 230 255
211 230 255
211 230 255
211 230 255
211 230 255
211 230 255
211 230 255
211 230 255
212 230 255
212 230 255
212 230 255
212 230 255
211 230 255
212 230 255
211 230 255
211 230 255
211 230 255
211 230 255
211 230 255
211 230 255
211 230 255
211 230 255
207 228 255
206 227 255
204 226 255
205 226 255
202 225 255
203 225 255
202 225 255
201 224 255
200 224 255
201 224 255
200 224 255
198 223 255
198 223 255
198 223 255
197 222 255
197 222 255
196 222 255
197 222 255
195 221 255
195 221 255
195 221 255
194 221 255
194 221 255
193 220 255
194 221 255
193 220 255
193 220 255
193 220 255
192 220 255
192 220 255
192 220 255
192 219 255
192 219 255
191 219 255
191 219 255
191 219 255
190 218 255
190 219 255
190 218 255
189 218 255
190 219 255
189 218 255
189 218 255
189 218 255
188 218 255
190 218 255
190 218 255
188 218 255
188 218 255
189 218 255
189 218 255
189 218 255
188 218 255
189 218 255
189 218 255
189 218 255
189 218 255
189 218 255
190 219 255
190 219 255
189 218 255
190 219 255
190 219 255
191 219 255
191 219 255
191 219 255
193 220 255
194 221 255
195 221 255
195 221 255
193 220 255
195 221 255
198 223 255
198 223 255
208 228 255
201 225 255
208 228 255
208 228 255
207 228 255
207 228 255
207 228 255
207 228 255
207 228 255
207 228 255
207 228 255
207 228 255
207 228 255
207 228 255
207 228 255
207 228 255
207 228 255
207 228 255
207 228 255
207 227 255
207 227 255
207 227 255
207 227 255
206 227 255
206 227 255
206 227 255
206 227 255
206 227 255
206 227 255
206 227 255
206 227 255
206 227 255
206 227 255
206 227 255
206 227 255
206 227 255
206 227 255
206 227 255
206 227 255
206 227 255
205 227 255
206 227 255
205 227 255
205 227 255
205 227 255
205 227 255
205 227 255
205 227 255
205 227 255
205 227 255
205 227 255
205 227 255
205 227 255
205 226 255
205 226 255
205 226 255
205 226 255
205 226 255
205 226 255
205 226 255
205 226 255
205 226 255
204 226 255
204 226 255
204 226 255
204 226 255
204 226 255
204 226 255
204 226 255
204 226 255
204 226 255
204 226 255
204 226 255
204 226 255
204 226 255
204 226 255
204 226 255
204 226 255
204 226 255
204 226 255
204 226 255
204 226 255
204 226 255
204 226 255
204 226 255
204 226 255
203 226 255
203 226 255
203 226 255
203 226 255
203 226 255
203 226 255
203 226 255
203 226 255
203 226 255
203 226 255
203 226 255
203 226 255
203 226 255
203 226 255
203 226 255
203 226 255
203 226 255
203 226 255
203 226 255
203 226 255
203 225 255
203 225 255
203 226 255
203 226 255
203 226 255
203 226 255
203 226 255
203 225 255
203 225 255
203 225 255
203 225 255
203 226 255
203 226 255
203 225 255
203 225 255
203 226 255
203 225 255
203 226 255
203 226 255
203 225 255
203 226 255
203 226 255
203 226 255
203 226 255
203 226 255
203 226 255
203 226 255
203 226 255
203 226 255
203 226 255
203 226 255
203 226 255
203 226 255
203 226 255
204 226 255
204 226 255
204 226 255
203 226 255
204 226 255
204 226 255
204 226 255
204 226 255
204 226 255
204 226 255
204 226 255
204 226 255
204 226 255
204 226 255
204 226 255
204 226 255
204 226 255
204 226 255
204 226 255
204 226 255
204 226 255
204 226 255
204 226 255
204 226 255
204 226 255
205 226 255
205 226 255
205 226 255
205 226 255
205 226 255
205 226 255
205 226 255
205 226 255
205 227 255
205 227 255
205 227 255
205 227 255
205 227 255
205 227 255
205 227 255
205 227 255
205 227 255
205 227 255
206 227 255
205 227 255
206 227 255
206 227 255
206 227 255
206 227 255
206 227 255
206 227 255
206 227 255
206 227 255
206 227 255
206 227 255
206 227 255
206 227 255
206 227 255
206 227 255
206 227 255
206 227 255
206 227 255
207 227 255
206 227 255
207 227 255
207 227 255
207 227 255
207 228 255
207 227 255
207 228 255
207 228 255
207 228 255
207 228 255
207 228 255
207 228 255
207 228 255
207 228 255
207 228 255
207 228 255
207 228 255
207 228 255
208 228 255
208 228 255
208 228 255
116 89 0
166 167 114
174 171 114
172 170 114
78 28 0
169 169 114
162 166 114
170 169 114
165 167 114
174 140 51
169 169 114
166 168 114
165 167 114
163 166 114
172 170 114
168 168 114
67 17 0
166 167 114
167 168 114
168 168 114
172 170 114
45 6 0
32 4 0
129 93 0
169 169 114
170 169 114
119 73 0
163 166 114
163 166 114
166 168 114
176 172 114
174 171 114
175 171 114
174 171 114
171 139 51
171 170 114
170 169 114
181 174 114
188 178 114
103 48 2
177 172 114
109 61 4
153 107 22
167 168 114
166 167 114
170 169 114
184 176 114
153 152 0
146 105 22
170 169 114
188 178 114
172 170 114
177 141 51
170 169 114
152 131 51
163 166 114
166 167 114
182 175 114
174 171 114
48 10 0
192 180 114
200 183 114
175 171 114
167 168 114
185 176 114
170 169 114
115 72 0
167 168 114
162 135 51
170 169 114
144 120 0
199 183 114
201 184 114
174 171 114
38 4 0
182 175 114
166 167 114
211 230 255
211 230 255
211 230 255
211 230 255
211 230 255
211 230 255
211 230 255
212 230 255
212 230 255
212 230 255
212 230 255
212 230 255
212 230 255
212 230 255
212 230 255
212 230 255
212 230 255
212 230 255
212 230 255
211 230 255
208 228 255
211 230 255
205 227 255
205 226 255
204 226 255
205 227 255
202 225 255
202 225 255
202 225 255
201 224 255
200 224 255
200 224 255
200 224 255
198 223 255
198 223 255
198 223 255
197 222 255
197 222 255
196 222 255
196 222 255
195 221 255
194 221 255
195 221 255
195 221 255
194 221 255
194 221 255
193 220 255
193 220 255
193 220 255
192 220 255
192 220 255
191 219 255
192 219 255
192 219 255
190 219 255
191 219 255
191 219 255
190 218 255
190 219 255
190 218 255
189 218 255
190 218 255
189 218 255
189 218 255
189 218 255
188 218 255
189 218 255
188 218 255
188 217 255
188 217 255
188 217 255
187 217 255
187 217 255
187 217 255
188 217 255
188 217 255
187 217 255
187 217 255
187 217 255
187 217 255
187 217 255
187 217 255
187 217 255
187 217 255
188 218 255
188 217 255
188 218 255
188 218 255
189 218 255
188 218 255
189 218 255
189 218 255
190 219 255
189 218 255
192 220 255
190 219 255
192 220 255
192 220 255
196 222 255
194 221 255
196 222 255
197 222 255
197 222 255
208 228 255
208 228 255
208 228 255
208 228 255
208 228 255
207 228 255
207 228 255
207 228 255
207 228 255
207 228 255
207 228 255
207 228 255
207 228 255
207 228 255
207 228 255
207 228 255
207 228 255
207 228 255
207 228 255
207 227 255
207 227 255
207 227 255
207 227 255
206 227 255
206 227 255
206 227 255
206 227 255
206 227 255
206 227 255
206 227 255
206 227 255
206 227 255
206 227 255
206 227 255
206 227 255
206 227 255
206 227 255
206 227 255
206 227 255
206 227 255
206 227 255
205 227 255
206 227 255
205 227 255
205 227 255
205 227 255
205 227 255
205 227 255
205 227 255
205 227 255
205 227 255
205 227 255
205 227 255
205 227 255
205 227 255
205 226 255
205 226 255
205 226 255
205 226 255
205 226 255
205 226 255
205 226 255
205 226 255
204 226 255
204 226 255
204 226 255
204 226 255
204 226 255
204 226 255
204 226 255
204 226 255
204 226 255
204 226 255
204 226 255
204 226 255
204 226 255
204 226 255
204 226 255
204 226 255
204 226 255
204 226 255
204 226 255
204 226 255
204 226 255
204 226 255
204 226 255
204 226 255
204 226 255
203 226 255
203 226 255
203 226 255
203 226 255
204 226 255
203 226 255
203 226 255
203 226 255
203 226 255
203 226 255
203 226 255
203 226 255
203 226 255
203 226 255
203 226 255
203 226 255
203 226 255
203 226 255
203 226 255
203 226 255
203 226 255
203 226 255
203 226 255
203 226 255
203 226 255
203 226 255
203 226 255
203 226 255
203 226 255
203 226 255
203 226 255
203 226 255
203 226 255
203 226 255
203 226 255
203 226 255
203 226 255
203 226 255
204 226 255
203 226 255
204 226 255
204 226 255
204 226 255
204 226 255
204 226 255
204 226 255
204 226 255
204 226 255
204 226 255
204 226 255
204 226 255
204 226 255
204 226 255
204 226 255
204 226 255
204 226 255
204 226 255
204 226 255
204 226 255
204 226 255
204 226 255
204 226 255
204 226 255
204 226 255
204 226 255
204 226 255
204 226 255
204 226 255
204 226 255
204 226 255
205 226 255
205 226 255
205 226 255
205 226 255
205 226 255
205 226 255
205 226 255
205 227 255
205 226 255
205 227 255
205 227 255
205 227 255
205 227 255
205 227 255
205 227 255
205 227 255
205 227 255
205 227 255
205 227 255
206 227 255
206 227 255
206 227 255
206 227 255
206 227 255
206 227 255
206 227 255
206 227 255
206 227 255
206 227 255
206 227 255
206 227 255
206 227 255
206 227 255
206 227 255
206 227 255
206 227 255
206 227 255
206 227 255
207 227 255
207 227 255
207 228 255
207 228 255
207 228 255
207 228 255
207 228 255
207 228 255
207 228 255
207 228 255
207 228 255
207 228 255
207 228 255
207 228 255
207 228 255
208 228 255
207 228 255
208 228 255
208 228 255
208 228 255
208 228 255
208 228 255
208 228 255
101 55 0
179 173 114
175 172 114
167 168 114
165 167 114
172 170 114
186 177 114
172 170 114
168 168 114
140 84 10
151 131 51
172 139 51
182 175 114
174 171 114
175 172 114
185 176 114
164 136 51
165 167 114
179 173 114
179 173 114
183 175 114
168 168 114
44 6 0
171 170 114
14 3 0
162 166 114
167 168 114
179 173 114
153 108 22
175 172 114
166 168 114
113 62 4
169 169 114
106 69 0
177 172 114
171 170 114
177 172 114
163 166 114
170 169 114
159 134 51
110 50 2
52 10 0
55 15 0
164 166 114
168 169 114
169 169 114
171 139 51
163 166 114
172 139 51
117 72 0
176 172 114
174 171 114
100 39 0
196 181 114
169 169 114
31 20 0
90 46 0
179 173 114
0 0 0
188 178 114
167 168 114
121 64 4
186 177 114
123 64 4
180 174 114
174 171 114
187 177 114
156 133 51
169 169 114
168 168 114
198 182 114
163 166 114
138 96 0
170 169 114
93 53 0
142 104 22
187 177 114
168 168 114
105 69 0
195 181 114
185 176 114
169 169 114
211 230 255
212 230 255
212 230 255
212 230 255
212 230 255
212 230 255
212 230 255
212 230 255
212 230 255
212 230 255
212 230 255
212 230 255
212 230 255
212 230 255
212 230 255
208 228 255
205 227 255
204 226 255
204 226 255
204 226 255
203 226 255
203 225 255
200 224 255
200 224 255
200 224 255
200 224 255
199 223 255
198 223 255
198 223 255
198 223 255
197 222 255
196 222 255
196 222 255
196 222 255
196 222 255
194 221 255
194 221 255
194 221 255
194 221 255
194 220 255
193 220 255
193 220 255
192 220 255
192 220 255
192 220 255
192 219 255
191 219 255
191 219 255
191 219 255
190 219 255
190 218 255
190 219 255
190 219 255
189 218 255
189 218 255
189 218 255
188 218 255
188 218 255
188 218 255
188 218 255
188 218 255
188 217 255
187 217 255
187 217 255
187 217 255
186 217 255
187 217 255
186 217 255
186 217 255
187 217 255
187 217 255
186 217 255
186 216 255
186 217 255
186 217 255
186 217 255
186 216 255
186 217 255
186 216 255
186 216 255
186 216 255
186 217 255
186 217 255
187 217 255
187 217 255
187 217 255
188 217 255
188 217 255
188 217 255
187 217 255
188 217 255
189 218 255
189 218 255
189 218 255
191 219 255
193 220 255
191 219 255
193 220 255
194 220 255
195 221 255
196 222 255
200 224 255
201 224 255
208 228 255
208 228 255
208 228 255
208 228 255
208 228 255
208 228 255
207 228 255
207 228 255
207 228 255
207 228 255
207 228 255
207 228 255
207 228 255
207 228 255
207 228 255
207 228 255
207 228 255
207 228 255
207 227 255
207 227 255
207 227 255
207 227 255
207 227 255
206 227 255
206 227 255
206 227 255
206 227 255
206 227 255
206 227 255
206 227 255
206 227 255
206 227 255
206 227 255
206 227 255
206 227 255
206 227 255
206 227 255
206 227 255
206 227 255
206 227 255
206 227 255
206 227 255
205 227 255
205 227 255
205 227 255
205 227 255
205 227 255
205 227 255
205 227 255
205 227 255
205 227 255
205 227 255
205 227 255
205 227 255
205 226 255
205 226 255
205 226 255
205 226 255
205 226 255
205 226 255
205 226 255
204 226 255
204 226 255
204 226 255
204 226 255
204 226 255
204 226 255
204 226 255
204 226 255
204 226 255
204 226 255
204 226 255
204 226 255
204 226 255
204 226 255
204 226 255
204 226 255
204 226 255
204 226 255
204 226 255
204 226 255
204 226 255
204 226 255
204 226 255
204 226 255
204 226 255
204 226 255
204 226 255
204 226 255
204 226 255
204 226 255
204 226 255
204 226 255
204 226 255
204 226 255
204 226 255
204 226 255
204 226 255
204 226 255
204 226 255
204 226 255
203 226 255
204 226 255
204 226 255
203 226 255
204 226 255
204 226 255
203 226 255
204 226 255
203 226 255
203 226 255
204 226 255
204 226 255
204 226 255
204 226 255
204 226 255
204 226 255
204 226 255
204 226 255
204 226 255
204 226 255
204 226 255
204 226 255
204 226 255
204 226 255
204 226 255
204 226 255
204 226 255
204 226 255
204 226 255
204 226 255
204 226 255
204 226 255
204 226 255
204 226 255
204 226 255
204 226 255
204 226 255
204 226 255
204 226 255
204 226 255
204 226 255
204 226 255
204 226 255
204 226 255
204 226 255
205 226 255
204 226 255
204 226 255
205 226 255
205 226 255
205 226 255
205 226 255
205 226 255
205 226 255
205 226 255
205 226 255
205 227 255
205 227 255
205 227 255
205 227 255
205 227 255
205 227 255
205 227 255
205 227 255
205 227 255
205 227 255
206 227 255
206 227 255
206 227 255
206 227 255
206 227 255
206 227 255
206 227 255
206 227 255
206 227 255
206 227 255
206 227 255
206 227 255
206 227 255
206 227 255
206 227 255
206 227 255
206 227 255
206 227 255
206 227 255
206 227 255
206 227 255
207 227 255
207 227 255
207 228 255
207 228 255
207 227 255
207 228 255
207 228 255
207 228 255
207 228 255
207 228 255
207 228 255
207 228 255
207 228 255
207 228 255
207 228 255
208 228 255
207 228 255
207 228 255
208 228 255
208 228 255
208 228 255
208 228 255
86 36 0
183 175 114
185 176 114
173 170 114
168 168 114
167 168 114
167 168 114
138 118 0
129 93 0
175 140 51
187 177 114
162 166 114
183 175 114
177 172 114
169 138 51
166 168 114
169 169 114
172 170 114
30 20 1
163 166 114
158 133 51
164 166 114
43 7 0
71 18 0
188 178 114
157 133 51
172 170 114
180 174 114
87 39 0
177 173 114
193 180 114
169 169 114
165 167 114
157 133 51
162 166 114
144 128 51
135 83 10
175 172 114
177 173 114
164 167 114
172 170 114
162 166 114
163 166 114
168 168 114
173 171 114
177 173 114
70 29 0
162 166 114
163 166 114
162 166 114
161 110 22
185 176 114
172 170 114
166 167 114
97 44 0
44 38 7
170 169 114
88 34 0
148 150 0
171 170 114
162 166 114
55 12 0
184 176 114
181 174 114
150 150 0
180 174 114
162 165 114
166 167 114
191 179 114
187 177 114
180 174 114
165 167 114
172 170 114
75 22 0
169 169 114
48 11 0
180 143 51
168 169 114
162 166 114
178 173 114
164 166 114
155 132 51
171 170 114
130 94 0
166 167 114
181 174 114
156 133 51
188 178 114
163 166 114
212 230 255
212 230 255
212 230 255
212 230 255
212 230 255
212 230 255
212 230 255
212 230 255
212 230 255
208 228 255
205 227 255
204 226 255
204 226 255
203 226 255
203 226 255
202 225 255
202 225 255
201 225 255
200 224 255
201 224 255
200 224 255
199 223 255
198 223 255
199 223 255
198 223 255
198 223 255
197 222 255
196 222 255
196 222 255
196 222 255
195 221 255
195 221 255
195 221 255
194 221 255
194 221 255
194 220 255
193 220 255
193 220 255
193 220 255
192 220 255
192 220 255
192 219 255
191 219 255
190 219 255
190 219 255
190 219 255
190 218 255
190 218 255
189 218 255
189 218 255
189 218 255
189 218 255
188 218 255
188 217 255
188 218 255
188 217 255
187 217 255
187 217 255
187 217 255
187 217 255
187 217 255
186 217 255
186 216 255
186 216 255
186 217 255
186 216 255
186 216 255
186 216 255
185 216 255
185 216 255
185 216 255
185 216 255
185 216 255
185 216 255
185 216 255
185 216 255
185 216 255
185 216 255
185 216 255
185 216 255
185 216 255
185 216 255
186 216 255
186 217 255
186 216 255
186 216 255
186 216 255
186 216 255
187 217 255
186 217 255
187 217 255
188 218 255
188 218 255
189 218 255
188 218 255
190 218 255
190 218 255
191 219 255
191 219 255
195 221 255
196 222 255
199 223 255
198 223 255
207 228 255
208 228 255
208 228 255
208 228 255
208 228 255
207 228 255
208 228 255
207 228 255
207 228 255
207 228 255
207 228 255
207 228 255
207 228 255
207 228 255
207 228 255
207 228 255
207 228 255
207 228 255
207 228 255
207 228 255
207 227 255
207 227 255
207 227 255
207 227 255
206 227 255
206 227 255
206 227 255
206 227 255
206 227 255
206 227 255
206 227 255
206 227 255
206 227 255
206 227 255
206 227 255
206 227 255
206 227 255
206 227 255
206 227 255
206 227 255
206 227 255
206 227 255
206 227 255
206 227 255
205 227 255
205 227 255
205 227 255
205 227 255
205 227 255
205 227 255
205 227 255
205 227 255
205 227 255
205 227 255
205 227 255
205 227 255
205 226 255
205 226 255
205 226 255
205 227 255
205 226 255
205 226 255
205 226 255
205 226 255
205 226 255
205 226 255
205 226 255
204 226 255
205 226 255
204 226 255
204 226 255
204 226 255
204 226 255
204 226 255
204 226 255
204 226 255
204 226 255
204 226 255
204 226 255
204 226 255
204 226 255
204 226 255
204 226 255
204 226 255
204 226 255
204 226 255
204 226 255
204 226 255
204 226 255
204 226 255
204 226 255
204 226 255
204 226 255
204 226 255
204 226 255
204 226 255
204 226 255
204 226 255
204 226 255
204 226 255
204 226 255
204 226 255
204 226 255
204 226 255
204 226 255
204 226 255
204 226 255
204 226 255
204 226 255
204 226 255
204 226 255
204 226 255
204 226 255
204 226 255
204 226 255
204 226 255
204 226 255
204 226 255
204 226 255
204 226 255
204 226 255
204 226 255
204 226 255
204 226 255
204 226 255
204 226 255
204 226 255
204 226 255
204 226 255
204 226 255
204 226 255
204 226 255
204 226 255
204 226 255
204 226 255
204 226 255
204 226 255
204 226 255
205 226 255
205 226 255
205 226 255
205 226 255
205 226 255
205 226 255
205 226 255
205 226 255
205 226 255
205 226 255
205 227 255
205 227 255
205 227 255
205 227 255
205 227 255
205 227 255
205 227 255
205 227 255
205 227 255
205 227 255
205 227 255
205 227 255
205 227 255
205 227 255
206 227 255
206 227 255
206 227 255
206 227 255
206 227 255
206 227 255
206 227 255
206 227 255
206 227 255
206 227 255
206 227 255
206 227 255
206 227 255
206 227 255
206 227 255
206 227 255
206 227 255
206 227 255
206 227 255
207 227 255
207 227 255
207 227 255
207 228 255
207 228 255
207 228 255
207 228 255
207 228 255
207 228 255
207 228 255
207 228 255
207 228 255
207 228 255
207 228 255
207 228 255
207 228 255
207 228 255
207 228 255
208 228 255
208 228 255
208 228 255
208 228 255
208 228 255
208 228 255
208 228 255
208 228 255
14 3 0
180 174 114
160 134 51
163 166 114
187 177 114
165 167 114
178 173 114
40 41 0
176 172 114
168 168 114
163 166 114
172 139 51
173 139 51
47 10 0
172 170 114
116 63 4
45 6 0
130 115 0
162 166 114
163 166 114
184 176 114
93 46 2
163 166 114
174 171 114
161 135 51
167 168 114
173 170 114
178 173 114
178 173 114
173 171 114
163 166 114
169 169 114
166 137 51
167 168 114
161 165 114
114 72 0
168 168 114
163 166 114
162 166 114
162 166 114
35 36 0
176 172 114
171 170 114
137 118 0
171 170 114
110 61 4
172 170 114
170 169 114
60 19 0
47 9 0
58 13 0
176 172 114
117 89 0
192 180 114
167 168 114
185 176 114
167 168 114
175 171 114
179 173 114
158 154 0
172 170 114
179 173 114
172 170 114
164 167 114
168 138 51
164 167 114
183 175 114
165 167 114
170 138 51
164 167 114
130 115 0
199 183 114
158 133 51
198 183 114
148 150 0
151 151 0
179 173 114
194 181 114
170 169 114
170 169 114
180 174 114
183 175 114
162 166 114
184 176 114
180 174 114
165 167 114
173 171 114
185 176 114
119 90 0
160 134 51
131 100 22
177 172 114
159 134 51
190 178 114
212 230 255
212 230 255
211 230 255
206 227 255
208 228 255
205 226 255
205 227 255
204 226 255
204 226 255
203 225 255
201 225 255
201 225 255
201 224 255
200 224 255
200 224 255
199 223 255
199 223 255
198 223 255
198 223 255
197 222 255
197 222 255
196 222 255
196 222 255
196 222 255
195 221 255
195 221 255
195 221 255
194 221 255
194 221 255
193 220 255
193 220 255
193 220 255
192 220 255
192 220 255
192 219 255
191 219 255
191 219 255
191 219 255
191 219 255
190 219 255
190 219 255
190 218 255
189 218 255
189 218 255
189 218 255
189 218 255
188 218 255
188 217 255
188 217 255
188 217 255
187 217 255
187 217 255
187 217 255
187 217 255
186 217 255
186 217 255
186 217 255
186 216 255
186 216 255
186 216 255
185 216 255
185 216 255
185 216 255
185 216 255
185 216 255
185 216 255
184 216 255
184 216 255
184 215 255
184 215 255
184 215 255
184 215 255
184 215 255
184 215 255
184 215 255
184 215 255
184 215 255
184 215 255
185 216 255
184 215 255
184 216 255
185 216 255
185 216 255
184 216 255
185 216 255
185 216 255
186 216 255
186 216 255
186 216 255
187 217 255
187 217 255
188 217 255
189 218 255
189 218 255
190 219 255
192 219 255
192 220 255
195 221 255
196 222 255
194 220 255
197 222 255
204 226 255
205 226 255
208 228 255
208 228 255
208 228 255
208 228 255
208 228 255
208 228 255
207 228 255
207 228 255
207 228 255
207 228 255
207 228 255
207 228 255
207 228 255
207 228 255
207 228 255
207 228 255
207 228 255
207 228 255
207 228 255
207 228 255
207 228 255
207 227 255
207 227 255
207 227 255
207 227 255
206 227 255
206 227 255
206 227 255
206 227 255
206 227 255
206 227 255
206 227 255
206 227 255
206 227 255
206 227 255
206 227 255
206 227 255
206 227 255
206 227 255
206 227 255
206 227 255
206 227 255
206 227 255
206 227 255
205 227 255
206 227 255
206 227 255
205 227 255
205 227 255
205 227 255
205 227 255
205 227 255
205 227 255
205 227 255
205 227 255
205 227 255
205 227 255
205 227 255
205 227 255
205 227 255
205 226 255
205 226 255
205 226 255
205 226 255
205 226 255
205 226 255
205 226 255
205 226 255
205 226 255
205 226 255
204 226 255
205 226 255
204 226 255
204 226 255
204 226 255
204 226 255
204 226 255
204 226 255
204 226 255
204 226 255
204 226 255
204 226 255
204 226 255
204 226 255
204 226 255
204 226 255
204 226 255
204 226 255
204 226 255
204 226 255
204 226 255
204 226 255
204 226 255
204 226 255
204 226 255
204 226 255
204 226 255
204 226 255
204 226 255
204 226 255
204 226 255
204 226 255
204 226 255
204 226 255
204 226 255
204 226 255
204 226 255
204 226 255
204 226 255
204 226 255
204 226 255
204 226 255
204 226 255
204 226 255
204 226 255
204 226 255
204 226 255
204 226 255
204 226 255
204 226 255
204 226 255
204 226 255
204 226 255
204 226 255
204 226 255
204 226 255
205 226 255
205 226 255
205 226 255
205 226 255
205 226 255
205 226 255
205 226 255
205 226 255
205 226 255
205 226 255
205 227 255
205 227 255
205 226 255
205 226 255
205 227 255
205 227 255
205 227 255
205 227 255
205 227 255
205 227 255
205 227 255
205 227 255
205 227 255
205 227 255
205 227 255
205 227 255
206 227 255
206 227 255
206 227 255
206 227 255
206 227 255
206 227 255
206 227 255
206 227 255
206 227 255
206 227 255
206 227 255
206 227 255
206 227 255
206 227 255
206 227 255
206 227 255
206 227 255
206 227 255
206 227 255
207 227 255
207 227 255
207 227 255
207 227 255
207 227 255
207 227 255
207 228 255
207 227 255
207 228 255
207 228 255
207 228 255
207 228 255
207 228 255
207 228 255
207 228 255
207 228 255
207 228 255
207 228 255
207 228 255
207 228 255
207 228 255
208 228 255
208 228 255
208 228 255
208 228 255
208 228 255
208 228 255
208 228 255
74 27 0
160 110 22
189 178 114
152 131 51
173 171 114
179 174 114
168 168 114
164 167 114
113 71 0
176 172 114
155 108 22
97 38 0
106 49 2
172 170 114
178 173 114
39 5 0
166 167 114
168 168 114
169 169 114
127 65 4
163 166 114
180 174 114
163 166 114
165 167 114
174 171 114
154 132 51
164 167 114
166 167 114
171 170 114
169 169 114
176 172 114
168 168 114
172 170 114
167 168 114
167 168 114
165 167 114
171 170 114
181 174 114
171 170 114
193 180 114
170 169 114
173 171 114
194 181 114
35 31 0
162 110 22
162 165 114
188 177 114
120 90 0
133 116 0
183 175 114
78 32 0
164 166 114
166 167 114
162 166 114
175 171 114
181 174 114
196 181 114
158 154 0
139 118 0
126 92 0
170 169 114
145 128 51
60 15 0
168 168 114
199 183 114
168 168 114
166 167 114
149 106 22
166 167 114
170 138 51
179 174 114
174 171 114
94 38 0
32 3 0
163 166 114
194 180 114
173 171 114
125 92 0
62 16 0
184 176 114
173 171 114
181 174 114
165 167 114
197 182 114
168 168 114
170 169 114
165 136 51
175 140 51
14 0 0
163 156 0
181 174 114
181 174 114
199 183 114
129 93 0
78 32 0
166 167 114
190 179 114
180 174 114
164 166 114
171 170 114
207 228 255
206 227 255
205 226 255
204 226 255
203 226 255
203 225 255
203 225 255
201 225 255
201 224 255
200 224 255
199 224 255
199 224 255
199 223 255
198 223 255
198 223 255
198 223 255
197 222 255
197 222 255
196 222 255
196 222 255
196 222 255
195 221 255
195 221 255
194 221 255
194 221 255
194 221 255
193 220 255
193 220 255
192 220 255
192 220 255
192 220 255
192 219 255
191 219 255
191 219 255
191 219 255
190 219 255
190 219 255
190 219 255
189 218 255
189 218 255
189 218 255
188 218 255
188 218 255
188 217 255
188 217 255
187 217 255
187 217 255
187 217 255
187 217 255
187 217 255
186 217 255
186 216 255
186 216 255
186 216 255
185 216 255
185 216 255
185 216 255
185 216 255
185 216 255
185 216 255
184 216 255
184 216 255
184 216 255
184 215 255
184 215 255
184 215 255
184 215 255
183 215 255
183 215 255
184 215 255
183 215 255
183 215 255
183 215 255
183 215 255
183 215 255
183 215 255
183 215 255
183 215 255
183 215 255
183 215 255
184 215 255
183 215 255
184 216 255
183 215 255
184 216 255
185 216 255
185 216 255
185 216 255
186 216 255
186 216 255
187 217 255
188 217 255
188 217 255
189 218 255
190 218 255
189 218 255
192 220 255
193 220 255
192 220 255
193 220 255
197 222 255
198 223 255
208 228 255
208 228 255
208 228 255
208 228 255
208 228 255
208 228 255
208 228 255
208 228 255
208 228 255
207 228 255
208 228 255
207 228 255
207 228 255
207 228 255
207 228 255
207 228 255
207 228 255
207 228 255
207 228 255
207 228 255
207 228 255
207 228 255
207 228 255
207 228 255
207 227 255
207 227 255
207 227 255
207 227 255
206 227 255
206 227 255
207 227 255
206 227 255
206 227 255
206 227 255
206 227 255
206 227 255
206 227 255
206 227 255
206 227 255
206 227 255
206 227 255
206 227 255
206 227 255
206 227 255
206 227 255
206 227 255
206 227 255
206 227 255
206 227 255
205 227 255
205 227 255
205 227 255
205 227 255
205 227 255
205 227 255
205 227 255
205 227 255
205 227 255
205 227 255
205 227 255
205 227 255
205 227 255
205 227 255
205 227 255
205 226 255
205 226 255
205 226 255
205 227 255
205 226 255
205 226 255
205 226 255
205 226 255
205 226 255
205 226 255
205 226 255
204 226 255
205 226 255
204 226 255
204 226 255
204 226 255
204 226 255
205 226 255
205 226 255
204 226 255
205 226 255
204 226 255
204 226 255
204 226 255
204 226 255
204 226 255
204 226 255
204 226 255
204 226 255
204 226 255
204 226 255
204 226 255
204 226 255
204 226 255
204 226 255
204 226 255
204 226 255
204 226 255
204 226 255
204 226 255
204 226 255
204 226 255
204 226 255
204 226 255
204 226 255
204 226 255
204 226 255
204 226 255
204 226 255
205 226 255
205 226 255
204 226 255
205 226 255
205 226 255
205 226 255
204 226 255
205 226 255
205 226 255
205 226 255
205 226 255
205 226 255
205 226 255
205 226 255
205 227 255
205 226 255
205 227 255
205 226 255
205 227 255
205 227 255
205 227 255
205 227 255
205 227 255
205 227 255
205 227 255
205 227 255
205 227 255
205 227 255
205 227 255
205 227 255
205 227 255
206 227 255
206 227 255
205 227 255
206 227 255
206 227 255
206 227 255
206 227 255
206 227 255
206 227 255
206 227 255
206 227 255
206 227 255
206 227 255
206 227 255
206 227 255
206 227 255
206 227 255
206 227 255
206 227 255
206 227 255
206 227 255
207 227 255
206 227 255
207 227 255
207 227 255
207 227 255
207 227 255
207 227 255
207 228 255
207 228 255
207 228 255
207 228 255
207 228 255
207 228 255
207 228 255
207 228 255
207 228 255
207 228 255
207 228 255
207 228 255
207 228 255
208 228 255
208 228 255
208 228 255
208 228 255
208 228 255
208 228 255
208 228 255
208 228 255
208 228 255
178 173 114
180 174 114
175 171 114
167 168 114
25 2 0
169 169 114
127 80 10
149 106 22
160 134 51
176 172 114
61 21 0
171 169 114
123 91 0
30 17 0
141 84 10
165 167 114
173 171 114
162 165 114
185 176 114
167 168 114
112 71 0
172 170 114
167 168 114
165 167 114
168 168 114
147 129 51
161 165 114
161 134 51
66 23 0
171 170 114
164 167 114
162 166 114
167 168 114
163 166 114
183 175 114
130 115 0
177 172 114
174 140 51
168 168 114
178 173 114
149 130 51
170 169 114
163 166 114
188 178 114
165 167 114
169 169 114
166 167 114
162 166 114
164 166 114
174 171 114
170 169 114
168 168 114
175 172 114
183 175 114
174 171 114
165 167 114
163 166 114
163 166 114
166 168 114
173 170 114
163 166 114
166 167 114
163 166 114
179 173 114
165 167 114
104 59 4
172 170 114
174 171 114
165 167 114
170 169 114
190 178 114
162 166 114
172 170 114
172 170 114
63 17 0
182 175 114
167 137 51
168 159 0
172 170 114
158 133 51
173 170 114
178 173 114
9 10 0
172 170 114
164 167 114
166 168 114
91 43 0
174 171 114
169 169 114
174 171 114
173 171 114
175 171 114
139 118 0
171 170 114
151 131 51
114 72 0
169 169 114
162 166 114
162 156 0
94 46 2
162 166 114
162 166 114
162 135 51
120 74 0
205 227 255
203 226 255
203 225 255
203 225 255
202 225 255
202 225 255
201 224 255
200 224 255
200 224 255
199 224 255
199 223 255
198 223 255
198 223 255
198 223 255
197 222 255
197 222 255
197 222 255
196 222 255
196 222 255
195 221 255
195 221 255
195 221 255
194 221 255
194 221 255
194 221 255
193 220 255
193 220 255
193 220 255
192 220 255
192 220 255
192 219 255
191 219 255
191 219 255
191 219 255
190 219 255
190 219 255
190 218 255
189 218 255
189 218 255
189 218 255
189 218 255
189 218 255
188 217 255
188 217 255
188 217 255
187 217 255
187 217 255
187 217 255
187 217 255
186 217 255
186 217 255
186 216 255
186 216 255
185 216 255
185 216 255
185 216 255
185 216 255
185 216 255
184 216 255
184 216 255
184 215 255
184 215 255
184 215 255
183 215 255
184 215 255
183 215 255
183 215 255
183 215 255
183 215 255
183 215 255
183 215 255
183 215 255
183 215 255
183 215 255
183 215 255
183 215 255
182 215 255
182 215 255
183 215 255
183 215 255
183 215 255
183 215 255
183 215 255
183 215 255
183 215 255
183 215 255
184 215 255
184 215 255
184 215 255
184 216 255
184 216 255
185 216 255
185 216 255
187 217 255
187 217 255
187 217 255
187 217 255
190 219 255
191 219 255
192 220 255
191 219 255
193 220 255
199 223 255
199 223 255
206 227 255
208 228 255
206 227 255
208 228 255
208 228 255
208 228 255
208 228 255
208 228 255
208 228 255
208 228 255
208 228 255
207 228 255
207 228 255
207 228 255
207 228 255
207 228 255
207 228 255
207 228 255
207 228 255
207 228 255
207 228 255
207 228 255
207 228 255
207 228 255
207 228 255
207 228 255
207 228 255
207 227 255
207 227 255
207 227 255
207 227 255
206 227 255
206 227 255
206 227 255
206 227 255
206 227 255
206 227 255
206 227 255
206 227 255
206 227 255
206 227 255
206 227 255
206 227 255
206 227 255
206 227 255
206 227 255
206 227 255
206 227 255
206 227 255
206 227 255
206 227 255
206 227 255
205 227 255
205 227 255
205 227 255
205 227 255
205 227 255
205 227 255
205 227 255
205 227 255
205 227 255
205 227 255
205 227 255
205 227 255
205 227 255
205 227 255
205 227 255
205 227 255
205 227 255
205 227 255
205 226 255
205 227 255
205 226 255
205 227 255
205 227 255
205 227 255
205 226 255
205 226 255
205 226 255
205 226 255
205 226 255
205 226 255
205 226 255
205 226 255
205 226 255
205 226 255
205 226 255
205 226 255
205 226 255
205 226 255
205 226 255
205 226 255
205 226 255
205 226 255
205 226 255
205 226 255
205 226 255
205 226 255
205 226 255
205 226 255
204 226 255
205 226 255
205 226 255
205 226 255
205 226 255
205 226 255
205 226 255
205 226 255
205 226 255
205 226 255
205 226 255
205 226 255
205 226 255
205 226 255
205 226 255
205 226 255
205 226 255
205 227 255
205 226 255
205 226 255
205 226 255
205 227 255
205 227 255
205 227 255
205 227 255
205 227 255
205 227 255
205 227 255
205 227 255
205 227 255
205 227 255
205 227 255
205 227 255
205 227 255
205 227 255
205 227 255
205 227 255
205 227 255
206 227 255
205 227 255
206 227 255
206 227 255
206 227 255
206 227 255
206 227 255
206 227 255
206 227 255
206 227 255
206 227 255
206 227 255
206 227 255
206 227 255
206 227 255
206 227 255
206 227 255
206 227 255
206 227 255
206 227 255
206 227 255
206 227 255
207 227 255
207 227 255
207 227 255
207 227 255
207 228 255
207 228 255
207 227 255
207 228 255
207 228 255
207 228 255
207 228 255
207 228 255
207 228 255
207 228 255
207 228 255
207 228 255
207 228 255
207 228 255
207 228 255
208 228 255
208 228 255
207 228 255
208 228 255
208 228 255
208 228 255
208 228 255
208 228 255
208 228 255
208 228 255
208 228 255
208 228 255
169 169 114
176 172 114
162 166 114
175 172 114
118 90 0
173 170 114
167 168 114
174 171 114
67 24 0
172 170 114
166 136 51
113 71 0
111 61 4
170 169 114
164 167 114
119 78 10
29 2 0
172 170 114
172 170 114
168 168 114
176 172 114
164 167 114
170 169 114
163 166 114
168 168 114
171 170 114
172 139 51
164 166 114
177 172 114
192 180 114
112 71 0
165 167 114
81 29 0
170 169 114
173 171 114
184 176 114
186 177 114
143 120 0
187 177 114
178 173 114
165 167 114
164 166 114
179 173 114
166 167 114
190 179 114
179 174 114
201 184 114
163 166 114
62 22 0
175 172 114
68 25 0
185 176 114
171 170 114
167 168 114
164 167 114
196 181 114
178 173 114
173 171 114
179 173 114
174 171 114
167 168 114
164 167 114
168 168 114
165 167 114
175 172 114
144 104 22
193 180 114
151 151 0
131 100 22
162 166 114
165 167 114
164 167 114
161 165 114
163 166 114
170 169 114
184 176 114
112 50 2
197 182 114
149 150 0
187 177 114
177 172 114
156 153 0
97 38 0
183 175 114
201 184 114
104 69 0
41 6 0
135 101 22
168 159 0
167 168 114
151 130 51
145 148 0
162 166 114
194 180 114
162 166 114
160 134 51
44 6 0
162 156 0
80 23 0
171 170 114
169 169 114
123 91 0
190 179 114
153 152 0
183 175 114
203 226 255
203 225 255
202 225 255
202 225 255
201 225 255
201 224 255
200 224 255
200 224 255
200 224 255
199 223 255
198 223 255
198 223 255
198 223 255
197 222 255
197 222 255
196 222 255
196 222 255
196 222 255
195 221 255
195 221 255
194 221 255
194 221 255
194 221 255
193 220 255
193 220 255
193 220 255
193 220 255
192 220 255
192 220 255
192 219 255
191 219 255
191 219 255
191 219 255
191 219 255
190 219 255
190 218 255
190 218 255
189 218 255
189 218 255
189 218 255
188 218 255
188 218 255
188 217 255
188 217 255
187 217 255
187 217 255
187 217 255
187 217 255
186 217 255
186 217 255
186 216 255
186 216 255
185 216 255
185 216 255
185 216 255
185 216 255
184 216 255
184 216 255
184 216 255
184 215 255
184 215 255
183 215 255
183 215 255
183 215 255
183 215 255
183 215 255
183 215 255
183 215 255
183 215 255
182 215 255
182 215 255
182 215 255
182 215 255
182 214 255
182 214 255
182 215 255
182 214 255
182 214 255
182 214 255
182 214 255
182 215 255
182 215 255
182 214 255
182 215 255
183 215 255
182 215 255
182 215 255
183 215 255
183 215 255
183 215 255
184 215 255
184 215 255
184 215 255
184 216 255
185 216 255
186 216 255
186 216 255
187 217 255
187 217 255
190 218 255
188 218 255
190 218 255
191 219 255
191 219 255
194 221 255
199 224 255
208 228 255
207 228 255
208 228 255
208 228 255
208 228 255
208 228 255
208 228 255
208 228 255
208 228 255
208 228 255
208 228 255
208 228 255
208 228 255
208 228 255
208 228 255
208 228 255
207 228 255
207 228 255
207 228 255
207 228 255
207 228 255
207 228 255
207 228 255
207 228 255
207 228 255
207 228 255
207 228 255
207 228 255
207 228 255
207 228 255
207 228 255
207 227 255
207 227 255
207 227 255
206 227 255
207 227 255
207 227 255
206 227 255
206 227 255
206 227 255
206 227 255
206 227 255
206 227 255
206 227 255
206 227 255
206 227 255
206 227 255
206 227 255
206 227 255
206 227 255
206 227 255
206 227 255
206 227 255
206 227 255
206 227 255
206 227 255
206 227 255
205 227 255
206 227 255
205 227 255
205 227 255
205 227 255
205 227 255
205 227 255
205 227 255
205 227 255
205 227 255
205 227 255
205 227 255
205 227 255
205 227 255
205 227 255
205 227 255
205 227 255
205 227 255
205 227 255
205 227 255
205 226 255
205 227 255
205 227 255
205 227 255
205 226 255
205 226 255
205 227 255
205 226 255
205 227 255
205 226 255
205 226 255
205 227 255
205 226 255
205 226 255
205 227 255
205 227 255
205 226 255
205 226 255
205 226 255
205 226 255
205 226 255
205 227 255
205 226 255
205 226 255
205 226 255
205 226 255
205 227 255
205 226 255
205 227 255
205 227 255
205 227 255
205 227 255
205 227 255
205 227 255
205 226 255
205 227 255
205 227 255
205 227 255
205 227 255
205 227 255
205 227 255
205 227 255
205 227 255
205 227 255
205 227 255
205 227 255
205 227 255
205 227 255
205 227 255
205 227 255
205 227 255
206 227 255
206 227 255
205 227 255
206 227 255
206 227 255
206 227 255
206 227 255
206 227 255
206 227 255
206 227 255
206 227 255
206 227 255
206 227 255
206 227 255
206 227 255
206 227 255
206 227 255
206 227 255
206 227 255
206 227 255
206 227 255
206 227 255
206 227 255
206 227 255
206 227 255
207 227 255
207 227 255
207 227 255
207 227 255
207 228 255
207 228 255
207 227 255
207 228 255
207 228 255
207 228 255
207 228 255
207 228 255
207 228 255
207 228 255
207 228 255
207 228 255
207 228 255
207 228 255
207 228 255
207 228 255
207 228 255
207 228 255
208 228 255
208 228 255
208 228 255
208 228 255
208 228 255
208 228 255
208 228 255
208 228 255
208 228 255
208 228 255
208 228 255
177 172 114
121 90 0
186 177 114
165 167 114
134 82 10
170 169 114
163 166 114
174 171 114
100 39 0
168 168 114
176 172 114
167 168 114
167 137 51
172 139 51
173 171 114
132 116 0
56 13 0
176 172 114
184 176 114
172 139 51
110 61 4
163 166 114
94 53 0
162 166 114
173 171 114
166 167 114
163 166 114
109 70 0
165 167 114
165 167 114
157 133 51
178 173 114
184 176 114
167 168 114
162 166 114
169 169 114
193 180 114
177 172 114
168 168 114
172 170 114
168 169 114
186 176 114
61 16 0
7 7 0
170 169 114
176 172 114
166 168 114
165 167 114
170 169 114
168 168 114
162 135 51
202 184 114
79 28 0
176 172 114
172 170 114
170 169 114
179 174 114
175 171 114
56 10 0
166 167 114
167 168 114
167 168 114
43 7 0
161 135 51
135 83 10
188 178 114
168 168 114
166 168 114
105 60 4
182 175 114
177 173 114
182 175 114
181 174 114
119 78 10
174 171 114
167 168 114
171 169 114
170 169 114
181 175 114
161 165 114
158 133 51
172 170 114
167 168 114
163 166 114
40 36 7
166 167 114
193 180 114
92 37 0
195 181 114
189 178 114
165 167 114
188 178 114
181 174 114
142 104 22
112 71 0
120 64 4
168 168 114
162 166 114
178 163 0
78 23 0
188 178 114
44 6 0
19 8 0
151 131 51
67 20 0
199 183 114
171 170 114
144 120 0
202 225 255
202 225 255
202 225 255
201 224 255
201 224 255
200 224 255
200 224 255
199 223 255
199 223 255
198 223 255
198 223 255
198 223 255
198 223 255
197 222 255
197 222 255
196 222 255
196 222 255
195 221 255
195 221 255
195 221 255
194 221 255
194 221 255
194 221 255
193 220 255
193 220 255
193 220 255
192 220 255
192 220 255
192 220 255
192 219 255
191 219 255
191 219 255
191 219 255
190 219 255
190 218 255
190 218 255
189 218 255
189 218 255
189 218 255
189 218 255
188 218 255
188 218 255
188 217 255
188 217 255
187 217 255
187 217 255
187 217 255
187 217 255
186 217 255
186 216 255
186 216 255
185 216 255
185 216 255
185 216 255
185 216 255
185 216 255
184 216 255
184 216 255
184 215 255
184 215 255
184 215 255
183 215 255
183 215 255
183 215 255
183 215 255
183 215 255
183 215 255
182 215 255
182 215 255
182 215 255
182 214 255
182 214 255
182 214 255
182 214 255
182 214 255
182 214 255
181 214 255
182 214 255
181 214 255
182 214 255
182 214 255
182 214 255
182 214 255
182 214 255
182 214 255
182 214 255
182 214 255
182 214 255
182 214 255
182 215 255
182 215 255
183 215 255
183 215 255
183 215 255
184 216 255
185 216 255
184 216 255
186 216 255
186 217 255
186 217 255
188 218 255
187 217 255
190 218 255
190 219 255
191 219 255
194 221 255
195 221 255
198 223 255
208 228 255
205 227 255
208 228 255
208 228 255
208 228 255
208 228 255
208 228 255
208 228 255
208 228 255
208 228 255
208 228 255
208 228 255
208 228 255
208 228 255
208 228 255
208 228 255
207 228 255
207 228 255
207 228 255
207 228 255
207 228 255
207 228 255
207 228 255
207 228 255
207 228 255
207 228 255
207 228 255
207 228 255
207 228 255
207 228 255
207 228 255
207 228 255
207 228 255
207 228 255
207 227 255
207 227 255
207 227 255
207 227 255
206 227 255
206 227 255
206 227 255
206 227 255
206 227 255
206 227 255
206 227 255
206 227 255
206 227 255
206 227 255
206 227 255
206 227 255
206 227 255
206 227 255
206 227 255
206 227 255
206 227 255
206 227 255
206 227 255
206 227 255
206 227 255
206 227 255
206 227 255
206 227 255
206 227 255
205 227 255
205 227 255
206 227 255
206 227 255
205 227 255
205 227 255
205 227 255
205 227 255
205 227 255
205 227 255
205 227 255
205 227 255
205 227 255
205 227 255
205 227 255
205 227 255
205 227 255
205 227 255
205 227 255
205 227 255
205 227 255
205 227 255
205 227 255
205 227 255
205 227 255
205 227 255
205 227 255
205 227 255
205 227 255
205 227 255
205 227 255
205 227 255
205 227 255
205 227 255
205 227 255
205 227 255
205 227 255
205 227 255
205 227 255
205 227 255
205 227 255
205 227 255
205 227 255
205 227 255
205 227 255
205 227 255
205 227 255
205 227 255
205 227 255
205 227 255
205 227 255
205 227 255
205 227 255
205 227 255
205 227 255
206 227 255
206 227 255
206 227 255
205 227 255
206 227 255
206 227 255
206 227 255
206 227 255
206 227 255
206 227 255
206 227 255
206 227 255
206 227 255
206 227 255
206 227 255
206 227 255
206 227 255
206 227 255
206 227 255
206 227 255
206 227 255
206 227 255
206 227 255
206 227 255
206 227 255
206 227 255
206 227 255
207 227 255
207 227 255
206 227 255
207 227 255
207 228 255
207 228 255
207 228 255
207 228 255
207 228 255
207 228 255
207 228 255
207 228 255
207 228 255
207 228 255
207 228 255
207 228 255
207 228 255
207 228 255
207 228 255
207 228 255
207 228 255
207 228 255
208 228 255
208 228 255
208 228 255
208 228 255
208 228 255
208 228 255
208 228 255
208 228 255
208 228 255
208 228 255
208 228 255
208 228 255
208 228 255
208 228 255
208 228 255
162 166 114
87 36 0
163 166 114
168 168 114
162 166 114
68 25 0
178 173 114
174 171 114
172 170 114
177 172 114
179 174 114
164 167 114
173 170 114
163 166 114
174 140 51
170 169 114
173 171 114
170 169 114
188 178 114
165 167 114
165 167 114
164 167 114
166 167 114
169 169 114
162 166 114
167 168 114
181 174 114
171 170 114
182 175 114
169 169 114
172 170 114
136 101 22
162 166 114
166 167 114
191 179 114
179 173 114
156 109 22
176 172 114
160 134 51
162 166 114
176 172 114
167 168 114
170 138 51
150 130 51
173 171 114
189 178 114
155 132 51
176 172 114
171 170 114
188 177 114
169 169 114
169 169 114
10 1 0
105 60 4
84 36 0
188 178 114
190 179 114
163 166 114
170 169 114
200 183 114
162 166 114
183 175 114
168 168 114
145 128 51
164 136 51
174 171 114
182 175 114
186 177 114
163 166 114
171 170 114
153 131 51
184 176 114
175 171 114
164 167 114
174 171 114
113 51 2
167 168 114
158 109 22
167 168 114
168 168 114
185 176 114
173 171 114
190 179 114
155 108 22
162 166 114
163 156 0
187 177 114
191 179 114
179 173 114
185 176 114
177 172 114
168 168 114
184 176 114
148 106 22
99 47 2
181 174 114
187 177 114
28 22 0
175 171 114
162 166 114
167 168 114
169 169 114
169 169 114
166 167 114
190 179 114
164 157 0
200 183 114
171 170 114
166 168 114
170 169 114
202 225 255
202 225 255
201 224 255
200 224 255
200 224 255
200 224 255
200 224 255
199 223 255
199 223 255
198 223 255
198 223 255
197 222 255
197 222 255
197 222 255
196 222 255
196 222 255
195 221 255
195 221 255
195 221 255
195 221 255
194 221 255
194 221 255
193 220 255
193 220 255
193 220 255
192 220 255
192 220 255
192 220 255
192 219 255
191 219 255
191 219 255
191 219 255
190 219 255
190 219 255
190 218 255
190 218 255
189 218 255
189 218 255
189 218 255
189 218 255
188 218 255
188 218 255
188 217 255
187 217 255
187 217 255
187 217 255
187 217 255
186 217 255
186 217 255
186 216 255
186 216 255
185 216 255
185 216 255
185 216 255
185 216 255
184 216 255
184 216 255
184 216 255
184 215 255
184 215 255
184 215 255
183 215 255
183 215 255
183 215 255
183 215 255
183 215 255
182 215 255
182 215 255
182 215 255
182 214 255
182 214 255
182 214 255
182 214 255
181 214 255
181 214 255
181 214 255
181 214 255
181 214 255
181 214 255
181 214 255
181 214 255
181 214 255
181 214 255
181 214 255
181 214 255
181 214 255
181 214 255
181 214 255
182 214 255
182 214 255
182 215 255
182 214 255
182 215 255
183 215 255
183 215 255
183 215 255
183 215 255
184 215 255
185 216 255
186 216 255
186 216 255
186 217 255
188 218 255
188 217 255
189 218 255
191 219 255
192 220 255
193 220 255
195 221 255
197 222 255
206 227 255
203 225 255
208 228 255
208 228 255
208 228 255
208 228 255
208 228 255
208 228 255
208 228 255
208 228 255
208 228 255
208 228 255
208 228 255
208 228 255
208 228 255
208 228 255
208 228 255
208 228 255
208 228 255
207 228 255
208 228 255
207 228 255
207 228 255
207 228 255
207 228 255
207 228 255
207 228 255
207 228 255
207 228 255
207 228 255
207 228 255
207 228 255
207 228 255
207 228 255
207 228 255
207 228 255
207 227 255
207 227 255
207 227 255
207 227 255
207 227 255
207 227 255
207 227 255
206 227 255
207 227 255
206 227 255
206 227 255
206 227 255
206 227 255
206 227 255
206 227 255
206 227 255
206 227 255
206 227 255
206 227 255
206 227 255
206 227 255
206 227 255
206 227 255
206 227 255
206 227 255
206 227 255
206 227 255
206 227 255
206 227 255
206 227 255
206 227 255
206 227 255
206 227 255
206 227 255
206 227 255
206 227 255
206 227 255
205 227 255
205 227 255
205 227 255
205 227 255
205 227 255
206 227 255
205 227 255
205 227 255
205 227 255
205 227 255
205 227 255
205 227 255
66 102 181
60 98 181
70 105 181
66 102 181
61 99 181
66 103 181
57 96 181
57 95 181
64 101 181
57 90 0
205 227 255
64 101 181
205 227 255
64 101 181
205 227 255
67 103 181
205 227 255
206 227 255
205 227 255
206 227 255
205 227 255
205 227 255
206 227 255
206 227 255
206 227 255
205 227 255
206 227 255
206 227 255
206 227 255
206 227 255
206 227 255
206 227 255
206 227 255
206 227 255
206 227 255
206 227 255
206 227 255
206 227 255
206 227 255
206 227 255
206 227 255
206 227 255
206 227 255
206 227 255
206 227 255
206 227 255
206 227 255
206 227 255
206 227 255
206 227 255
206 227 255
206 227 255
206 227 255
207 227 255
207 227 255
206 227 255
207 227 255
207 228 255
207 227 255
207 228 255
207 228 255
207 228 255
207 228 255
207 228 255
207 228 255
207 228 255
207 228 255
207 228 255
207 228 255
207 228 255
207 228 255
207 228 255
207 228 255
207 228 255
208 228 255
208 228 255
208 228 255
208 228 255
208 228 255
208 228 255
208 228 255
208 228 255
208 228 255
208 228 255
208 228 255
208 228 255
208 228 255
208 228 255
208 228 255
208 228 255
208 228 255
208 228 255
208 228 255
0 0 0
69 27 0
179 173 114
171 170 114
176 172 114
168 168 114
173 171 114
183 175 114
163 166 114
169 138 51
37 7 0
166 168 114
166 167 114
194 181 114
167 168 114
163 166 114
56 77 80
164 167 114
188 177 114
168 168 114
180 174 114
149 130 51
172 139 51
147 105 22
178 173 114
170 169 114
164 166 114
162 166 114
168 168 114
11 0 0
108 70 0
170 169 114
170 169 114
176 172 114
176 172 114
180 174 114
163 166 114
166 168 114
171 170 114
165 167 114
121 90 0
159 110 22
152 131 51
165 167 114
162 135 51
167 168 114
168 169 114
133 116 0
93 43 0
66 24 0
163 166 114
130 93 0
172 170 114
176 172 114
165 167 114
165 167 114
168 168 114
172 170 114
170 169 114
170 169 114
166 168 114
163 166 114
190 178 114
95 38 0
116 72 0
179 173 114
102 39 0
191 179 114
171 170 114
163 166 114
174 171 114
166 167 114
39 4 0
166 136 51
162 166 114
173 171 114
191 179 114
163 166 114
195 181 114
179 173 114
188 178 114
75 26 0
130 115 0
24 16 0
174 171 114
137 96 0
165 167 114
138 96 0
147 149 0
178 173 114
188 177 114
105 49 2
92 37 0
133 116 0
149 150 0
183 175 114
174 171 114
199 183 114
30 3 0
151 107 22
185 176 114
186 177 114
167 137 51
183 175 114
192 180 114
167 137 51
185 176 114
155 132 51
22 12 0
167 168 114
170 159 0
179 173 114
201 225 255
201 224 255
201 224 255
200 224 255
200 224 255
199 223 255
199 223 255
199 223 255
198 223 255
198 223 255
197 222 255
197 222 255
197 222 255
196 222 255
196 222 255
196 222 255
195 221 255
195 221 255
195 221 255
194 221 255
194 221 255
194 221 255
194 220 255
193 220 255
193 220 255
193 220 255
192 220 255
192 220 255
192 219 255
191 219 255
191 219 255
191 219 255
191 219 255
190 219 255
190 219 255
190 218 255
189 218 255
189 218 255
189 218 255
189 218 255
188 218 255
188 218 255
188 217 255
188 217 255
187 217 255
187 217 255
187 217 255
187 217 255
186 217 255
186 217 255
186 216 255
185 216 255
185 216 255
185 216 255
185 216 255
185 216 255
184 216 255
184 216 255
184 215 255
184 215 255
183 215 255
183 215 255
183 215 255
183 215 255
183 215 255
183 215 255
182 215 255
182 215 255
182 215 255
182 214 255
182 214 255
182 214 255
182 214 255
181 214 255
181 214 255
181 214 255
181 214 255
181 214 255
181 214 255
181 214 255
181 214 255
181 214 255
181 214 255
181 214 255
181 214 255
181 214 255
181 214 255
181 214 255
181 214 255
181 214 255
181 214 255
181 214 255
182 214 255
182 214 255
182 214 255
182 215 255
183 215 255
183 215 255
183 215 255
184 215 255
185 216 255
185 216 255
186 216 255
186 216 255
187 217 255
188 218 255
189 218 255
190 219 255
191 219 255
195 221 255
196 222 255
200 224 255
205 227 255
209 228 255
208 228 255
208 228 255
208 228 255
208 228 255
208 228 255
208 228 255
208 228 255
208 228 255
208 228 255
208 228 255
208 228 255
208 228 255
208 228 255
208 228 255
208 228 255
208 228 255
208 228 255
208 228 255
208 228 255
208 228 255
207 228 255
207 228 255
207 228 255
207 228 255
207 228 255
207 228 255
207 228 255
207 228 255
207 228 255
207 228 255
207 228 255
207 228 255
207 228 255
207 228 255
207 228 255
207 228 255
207 228 255
207 227 255
207 228 255
207 227 255
207 227 255
207 227 255
207 227 255
207 227 255
206 227 255
207 227 255
207 227 255
206 227 255
206 227 255
206 227 255
206 227 255
206 227 255
206 227 255
206 227 255
206 227 255
206 227 255
206 227 255
206 227 255
206 227 255
206 227 255
206 227 255
206 227 255
206 227 255
206 227 255
206 227 255
206 227 255
206 227 255
206 227 255
206 227 255
206 227 255
206 227 255
206 227 255
206 227 255
61 99 181
58 96 181
58 96 181
60 98 181
62 99 181
60 97 181
60 98 181
57 96 181
59 97 181
62 99 181
63 100 181
57 96 181
61 99 181
58 96 181
59 97 181
62 99 181
60 98 181
67 103 181
69 105 181
62 99 181
65 101 181
57 96 181
64 101 181
59 97 181
206 227 255
62 99 181
70 105 181
206 227 255
206 227 255
206 227 255
206 227 255
206 227 255
206 227 255
206 227 255
206 227 255
206 227 255
206 227 255
206 227 255
206 227 255
206 227 255
206 227 255
206 227 255
206 227 255
206 227 255
206 227 255
206 227 255
206 227 255
206 227 255
206 227 255
206 227 255
206 227 255
206 227 255
206 227 255
207 227 255
206 227 255
207 227 255
207 227 255
207 227 255
207 228 255
207 227 255
207 227 255
207 228 255
207 227 255
207 228 255
207 228 255
207 228 255
207 228 255
207 228 255
207 228 255
207 228 255
207 228 255
207 228 255
207 228 255
207 228 255
207 228 255
207 228 255
207 228 255
208 228 255
208 228 255
208 228 255
208 228 255
208 228 255
208 228 255
208 228 255
208 228 255
208 228 255
208 228 255
208 228 255
208 228 255
208 228 255
208 228 255
208 228 255
208 228 255
208 228 255
208 228 255
208 228 255
208 228 255
209 229 255
208 228 255
209 229 255
179 173 114
173 170 114
176 172 114
133 95 0
167 137 51
171 170 114
164 166 114
165 167 114
174 171 114
179 173 114
165 167 114
169 169 114
190 179 114
172 170 114
6 3 0
176 172 114
162 166 114
151 131 51
167 168 114
169 169 114
168 168 114
164 167 114
168 168 114
179 173 114
165 167 114
165 167 114
166 168 114
172 170 114
171 170 114
105 69 0
165 167 114
178 173 114
173 171 114
161 165 114
168 168 114
184 176 114
167 168 114
168 168 114
166 168 114
181 174 114
71 25 0
170 169 114
170 169 114
167 168 114
186 177 114
167 168 114
168 168 114
138 118 0
176 172 114
152 107 22
130 94 0
165 167 114
174 171 114
176 172 114
180 174 114
165 167 114
195 181 114
178 173 114
172 170 114
168 168 114
179 173 114
177 172 114
167 168 114
170 138 51
193 180 114
187 177 114
196 181 114
191 179 114
141 84 10
178 173 114
192 180 114
184 176 114
165 167 114
174 171 114
197 182 114
177 172 114
179 173 114
162 166 114
171 170 114
194 180 114
170 138 51
191 179 114
182 175 114
196 181 114
183 175 114
187 177 114
198 183 114
168 168 114
175 171 114
105 49 2
62 19 0
158 109 22
171 170 114
186 177 114
162 166 114
147 149 0
167 137 51
27 21 0
149 106 22
180 174 114
198 182 114
166 168 114
186 177 114
195 181 114
186 177 114
185 176 114
193 180 114
174 171 114
109 61 4
105 60 4
147 149 0
162 166 114
192 180 114
201 225 255
201 224 255
201 224 255
200 224 255
200 224 255
199 223 255
199 223 255
198 223 255
198 223 255
198 223 255
197 222 255
197 222 255
197 222 255
196 222 255
196 222 255
196 222 255
195 221 255
195 221 255
195 221 255
194 221 255
194 221 255
194 221 255
193 220 255
193 220 255
193 220 255
193 220 255
192 220 255
192 220 255
192 219 255
191 219 255
191 219 255
191 219 255
191 219 255
190 219 255
190 218 255
190 218 255
190 218 255
189 218 255
189 218 255
189 218 255
188 218 255
188 218 255
188 217 255
187 217 255
187 217 255
187 217 255
187 217 255
187 217 255
186 217 255
186 217 255
186 216 255
185 216 255
185 216 255
185 216 255
185 216 255
185 216 255
185 216 255
184 216 255
184 215 255
184 215 255
184 215 255
183 215 255
183 215 255
183 215 255
183 215 255
183 215 255
182 215 255
182 215 255
182 215 255
182 214 255
182 214 255
182 214 255
182 214 255
181 214 255
181 214 255
181 214 255
181 214 255
181 214 255
181 214 255
181 214 255
181 214 255
181 214 255
181 214 255
181 214 255
181 214 255
181 214 255
181 214 255
181 214 255
181 214 255
181 214 255
181 214 255
181 214 255
181 214 255
181 214 255
181 214 255
182 214 255
182 214 255
182 215 255
183 215 255
183 215 255
183 215 255
184 216 255
184 216 255
185 216 255
186 216 255
187 217 255
187 217 255
188 217 255
189 218 255
189 218 255
191 219 255
193 220 255
196 222 255
197 222 255
200 224 255
209 229 255
209 229 255
209 229 255
209 228 255
209 228 255
209 228 255
208 228 255
208 228 255
208 228 255
208 228 255
208 228 255
208 228 255
208 228 255
208 228 255
208 228 255
208 228 255
208 228 255
208 228 255
208 228 255
208 228 255
208 228 255
208 228 255
208 228 255
208 228 255
208 228 255
207 228 255
207 228 255
208 228 255
207 228 255
207 228 255
207 228 255
207 228 255
207 228 255
207 228 255
207 228 255
207 228 255
207 228 255
207 228 255
207 228 255
207 228 255
207 228 255
207 227 255
207 227 255
207 227 255
207 228 255
207 227 255
207 227 255
207 227 255
207 227 255
207 227 255
206 227 255
207 227 255
206 227 255
206 227 255
206 227 255
206 227 255
206 227 255
206 227 255
206 227 255
206 227 255
206 227 255
206 227 255
206 227 255
206 227 255
206 227 255
206 227 255
206 227 255
206 227 255
61 98 181
206 227 255
58 96 181
53 87 0
61 98 181
55 88 0
61 98 181
66 102 181
63 100 181
59 97 181
70 105 181
59 97 181
60 98 181
62 99 181
64 101 181
63 100 181
64 101 181
59 97 181
62 99 181
69 105 181
57 96 181
69 104 181
68 104 181
61 99 181
61 98 181
63 100 181
60 97 181
60 97 181
67 103 181
66 102 181
56 89 0
59 97 181
70 106 181
206 227 255
206 227 255
206 227 255
206 227 255
206 227 255
206 227 255
206 227 255
206 227 255
206 227 255
206 227 255
206 227 255
206 227 255
206 227 255
206 227 255
206 227 255
206 227 255
206 227 255
206 227 255
207 227 255
206 227 255
207 227 255
207 227 255
207 227 255
207 227 255
207 227 255
207 227 255
207 228 255
207 228 255
207 228 255
207 228 255
207 228 255
207 228 255
207 228 255
207 228 255
207 228 255
207 228 255
207 228 255
207 228 255
207 228 255
207 228 255
207 228 255
207 228 255
207 228 255
207 228 255
208 228 255
208 228 255
208 228 255
208 228 255
208 228 255
208 228 255
208 228 255
208 228 255
208 228 255
208 228 255
208 228 255
208 228 255
208 228 255
208 228 255
208 228 255
208 228 255
208 228 255
208 228 255
208 228 255
208 228 255
208 228 255
209 229 255
209 228 255
209 229 255
209 229 255
27 21 0
86 36 0
164 167 114
79 31 0
112 50 2
43 8 0
169 169 114
176 172 114
165 167 114
181 174 114
182 175 114
176 172 114
179 173 114
179 174 114
175 172 114
170 169 114
168 168 114
169 169 114
146 105 22
164 167 114
162 166 114
119 73 0
171 170 114
134 101 22
181 174 114
168 168 114
179 173 114
169 169 114
173 170 114
168 168 114
174 171 114
94 38 0
170 169 114
162 166 114
152 131 51
152 131 51
176 172 114
75 32 0
165 167 114
164 167 114
167 168 114
163 166 114
176 172 114
166 167 114
163 166 114
163 166 114
164 167 114
170 169 114
175 172 114
162 166 114
152 107 22
154 132 51
113 50 2
184 176 114
109 57 0
194 180 114
162 166 114
153 131 51
165 167 114
195 181 114
161 110 22
177 172 114
41 7 0
159 134 51
201 184 114
163 166 114
171 170 114
162 166 114
165 167 114
164 167 114
49 13 0
166 167 114
167 168 114
156 133 51
47 11 0
174 171 114
189 178 114
170 160 0
167 168 114
165 167 114
125 79 10
163 166 114
167 168 114
185 176 114
183 175 114
178 173 114
156 133 51
164 166 114
151 107 22
197 182 114
172 139 51
152 131 51
166 167 114
168 168 114
173 170 114
173 171 114
183 175 114
151 123 0
113 50 2
167 168 114
173 161 0
129 115 0
11 0 0
180 174 114
175 172 114
21 11 0
171 170 114
66 20 0
128 66 4
187 177 114
179 174 114
195 181 114
175 140 51
171 170 114
162 166 114
201 224 255
200 224 255
200 224 255
200 224 255
199 223 255
199 223 255
199 223 255
198 223 255
198 223 255
198 223 255
197 223 255
197 222 255
197 222 255
196 222 255
196 222 255
196 221 255
195 221 255
195 221 255
195 221 255
194 221 255
194 221 255
194 220 255
194 220 255
193 220 255
193 220 255
193 220 255
192 220 255
192 220 255
192 220 255
191 219 255
191 219 255
191 219 255
191 219 255
190 219 255
190 219 255
190 218 255
190 218 255
189 218 255
189 218 255
189 218 255
188 218 255
188 218 255
188 217 255
188 217 255
187 217 255
187 217 255
187 217 255
187 217 255
186 217 255
186 217 255
186 217 255
186 216 255
186 216 255
185 216 255
185 216 255
185 216 255
184 216 255
184 216 255
184 216 255
184 215 255
184 215 255
184 215 255
183 215 255
183 215 255
183 215 255
183 215 255
183 215 255
182 215 255
182 215 255
182 214 255
182 214 255
182 214 255
182 214 255
182 214 255
181 214 255
181 214 255
181 214 255
181 214 255
181 214 255
181 214 255
181 214 255
181 214 255
181 214 255
181 214 255
181 214 255
181 214 255
181 214 255
181 214 255
181 214 255
181 214 255
181 214 255
181 214 255
181 214 255
181 214 255
181 214 255
181 214 255
181 214 255
182 214 255
182 214 255
182 215 255
183 215 255
183 215 255
184 215 255
184 215 255
184 216 255
185 216 255
186 217 255
186 217 255
188 217 255
188 217 255
190 219 255
191 219 255
192 219 255
194 221 255
198 223 255
199 223 255
209 229 255
209 229 255
209 229 255
209 229 255
209 229 255
209 229 255
209 228 255
209 229 255
208 228 255
208 228 255
208 228 255
208 228 255
208 228 255
208 228 255
208 228 255
208 228 255
208 228 255
208 228 255
208 228 255
208 228 255
208 228 255
208 228 255
208 228 255
208 228 255
208 228 255
208 228 255
208 228 255
208 228 255
208 228 255
208 228 255
207 228 255
208 228 255
207 228 255
207 228 255
207 228 255
207 228 255
207 228 255
207 228 255
207 228 255
207 228 255
207 228 255
207 228 255
207 228 255
207 228 255
207 228 255
207 228 255
207 228 255
207 228 255
207 227 255
207 228 255
207 228 255
207 228 255
207 227 255
207 227 255
207 227 255
207 227 255
207 227 255
207 227 255
206 227 255
206 227 255
206 227 255
206 227 255
206 227 255
206 227 255
59 97 181
64 101 181
63 100 181
65 102 181
66 103 181
63 100 181
59 97 181
52 86 0
63 100 181
65 101 181
66 102 181
63 100 181
57 96 181
61 99 181
59 97 181
59 97 181
59 97 181
64 100 181
59 97 181
63 100 181
68 104 181
68 103 181
62 99 181
60 97 181
57 96 181
67 103 181
60 98 181
51 86 0
59 97 181
68 104 181
70 105 181
58 96 181
63 100 181
61 98 181
60 98 181
66 102 181
68 104 181
65 102 181
61 98 181
57 96 181
206 227 255
206 227 255
206 227 255
207 227 255
206 227 255
207 227 255
207 227 255
207 227 255
206 227 255
207 227 255
207 227 255
207 228 255
207 228 255
207 227 255
207 228 255
207 228 255
207 228 255
207 228 255
207 228 255
207 228 255
207 228 255
207 228 255
207 228 255
207 228 255
207 228 255
207 228 255
207 228 255
207 228 255
207 228 255
207 228 255
207 228 255
207 228 255
207 228 255
208 228 255
207 228 255
208 228 255
208 228 255
208 228 255
208 228 255
208 228 255
208 228 255
208 228 255
208 228 255
208 228 255
208 228 255
208 228 255
208 228 255
208 228 255
208 228 255
208 228 255
208 228 255
208 228 255
208 228 255
208 228 255
208 228 255
209 228 255
208 228 255
209 229 255
209 229 255
209 229 255
209 229 255
209 229 255
209 229 255
192 180 114
171 170 114
195 181 114
175 172 114
164 167 114
115 72 0
187 177 114
176 172 114
190 178 114
162 166 114
193 180 114
131 94 0
105 60 4
184 176 114
50 10 0
166 167 114
156 133 51
171 170 114
167 168 114
146 128 51
164 166 114
163 166 114
188 178 114
180 174 114
169 169 114
162 166 114
172 170 114
177 172 114
162 166 114
162 166 114
164 136 51
22 1 0
164 167 114
175 172 114
177 172 114
163 166 114
169 169 114
186 177 114
164 166 114
166 168 114
166 167 114
171 170 114
180 174 114
78 32 0
170 169 114
160 134 51
194 181 114
169 169 114
174 171 114
138 102 22
121 90 0
163 166 114
167 168 114
171 170 114
172 170 114
164 166 114
181 174 114
175 172 114
174 171 114
175 171 114
184 176 114
127 93 0
95 62 0
186 177 114
166 168 114
167 168 114
166 167 114
2 0 0
170 169 114
198 183 114
156 108 22
189 178 114
162 166 114
174 171 114
162 166 114
125 92 0
27 3 0
166 167 114
149 122 0
161 165 114
142 85 10
170 169 114
197 182 114
169 169 114
190 179 114
165 167 114
182 175 114
189 178 114
65 17 0
164 167 114
103 68 0
163 166 114
184 176 114
149 150 0
149 150 0
185 176 114
82 33 0
162 166 114
124 65 4
170 169 114
177 173 114
110 61 4
173 171 114
184 176 114
165 167 114
68 21 0
162 166 114
118 89 0
176 172 114
112 71 0
80 23 0
165 167 114
167 168 114
162 166 114
159 155 0
170 169 114
170 169 114
201 224 255
200 224 255
200 224 255
200 224 255
199 224 255
199 223 255
198 223 255
198 223 255
198 223 255
198 223 255
197 222 255
197 222 255
197 222 255
196 222 255
196 222 255
196 222 255
195 221 255
195 221 255
195 221 255
194 221 255
194 221 255
194 221 255
194 220 255
193 220 255
193 220 255
193 220 255
192 220 255
192 220 255
192 220 255
192 219 255
191 219 255
191 219 255
191 219 255
191 219 255
190 219 255
190 219 255
190 218 255
189 218 255
189 218 255
189 218 255
189 218 255
188 218 255
188 218 255
188 217 255
188 217 255
187 217 255
187 217 255
187 217 255
187 217 255
187 217 255
186 217 255
186 216 255
186 216 255
185 216 255
185 216 255
185 216 255
185 216 255
185 216 255
184 216 255
184 215 255
184 215 255
184 215 255
183 215 255
183 215 255
183 215 255
183 215 255
183 215 255
183 215 255
182 215 255
182 215 255
182 214 255
182 214 255
182 214 255
182 214 255
182 214 255
181 214 255
181 214 255
181 214 255
181 214 255
181 214 255
181 214 255
181 214 255
181 214 255
181 214 255
181 214 255
181 214 255
181 214 255
181 214 255
181 214 255
181 214 255
181 214 255
181 214 255
181 214 255
181 214 255
181 214 255
181 214 255
181 214 255
181 214 255
182 214 255
182 214 255
182 215 255
182 215 255
183 215 255
183 215 255
184 215 255
184 215 255
185 216 255
185 216 255
187 217 255
187 217 255
188 217 255
190 218 255
190 218 255
191 219 255
192 220 255
194 221 255
197 222 255
200 224 255
201 225 255
209 229 255
209 229 255
209 229 255
209 229 255
209 229 255
209 229 255
209 229 255
209 229 255
209 229 255
209 229 255
209 228 255
208 228 255
208 228 255
208 228 255
208 228 255
208 228 255
208 228 255
208 228 255
208 228 255
208 228 255
208 228 255
208 228 255
208 228 255
208 228 255
208 228 255
208 228 255
208 228 255
208 228 255
208 228 255
208 228 255
208 228 255
208 228 255
207 228 255
208 228 255
208 228 255
207 228 255
207 228 255
207 228 255
207 228 255
207 228 255
207 228 255
207 228 255
207 228 255
207 228 255
207 228 255
207 228 255
207 228 255
207 228 255
207 228 255
207 228 255
207 228 255
207 228 255
207 228 255
207 228 255
207 228 255
207 227 255
207 227 255
207 227 255
63 100 181
207 227 255
207 227 255
54 88 0
58 97 181
63 100 181
56 89 0
61 98 181
59 97 181
58 96 181
60 98 181
62 99 181
58 91 0
58 96 181
63 100 181
58 96 181
53 87 0
62 99 181
58 96 181
62 99 181
57 96 181
65 102 181
62 99 181
66 102 181
62 99 181
62 99 181
65 101 181
67 103 181
68 103 181
66 102 181
62 99 181
65 101 181
71 106 181
60 98 181
62 99 181
55 88 0
61 80 80
68 104 181
60 98 181
67 103 181
58 96 181
62 99 181
58 96 181
60 98 181
207 227 255
207 227 255
207 227 255
207 227 255
207 228 255
207 228 255
207 228 255
207 228 255
207 228 255
207 228 255
207 228 255
207 228 255
207 228 255
207 228 255
207 228 255
207 228 255
207 228 255
207 228 255
207 228 255
207 228 255
207 228 255
207 228 255
207 228 255
207 228 255
207 228 255
207 228 255
208 228 255
208 228 255
208 228 255
208 228 255
208 228 255
208 228 255
208 228 255
208 228 255
208 228 255
208 228 255
208 228 255
208 228 255
208 228 255
208 228 255
208 228 255
208 228 255
208 228 255
208 228 255
208 228 255
208 228 255
208 228 255
208 228 255
209 228 255
209 229 255
209 229 255
209 229 255
209 229 255
209 229 255
209 229 255
209 229 255
209 229 255
209 229 255
209 229 255
209 229 255
162 166 114
116 62 4
173 140 51
180 174 114
154 132 51
165 167 114
93 53 0
162 165 114
187 177 114
171 170 114
170 169 114
184 176 114
166 167 114
86 34 0
130 99 22
162 166 114
167 137 51
178 173 114
171 170 114
169 169 114
62 13 0
162 166 114
170 169 114
189 178 114
169 169 114
165 167 114
162 166 114
167 168 114
174 171 114
190 179 114
166 167 114
170 169 114
170 169 114
162 166 114
170 169 114
24 10 0
85 41 0
169 169 114
91 37 0
163 166 114
169 169 114
170 169 114
167 168 114
116 89 0
167 168 114
169 169 114
179 174 114
163 166 114
195 181 114
164 167 114
152 131 51
156 153 0
191 179 114
170 169 114
175 172 114
168 168 114
166 168 114
163 166 114
164 167 114
182 175 114
174 171 114
173 171 114
164 167 114
109 70 0
165 167 114
171 170 114
172 170 114
175 171 114
170 169 114
202 184 114
172 170 114
106 60 4
173 170 114
184 175 114
164 167 114
183 175 114
173 170 114
180 174 114
172 170 114
195 181 114
170 169 114
193 180 114
59 15 0
199 183 114
164 166 114
185 176 114
146 129 51
170 169 114
162 165 114
97 47 2
163 166 114
197 182 114
165 167 114
153 131 51
172 170 114
185 176 114
166 167 114
169 169 114
130 115 0
61 19 0
101 39 0
194 180 114
165 167 114
84 36 0
156 108 22
152 131 51
61 19 0
188 178 114
183 175 114
166 167 114
158 154 0
180 174 114
167 168 114
170 169 114
184 176 114
160 134 51
174 171 114
149 150 0
179 173 114
201 224 255
200 224 255
200 224 255
200 224 255
199 223 255
199 223 255
199 223 255
198 223 255
198 223 255
198 223 255
197 222 255
197 222 255
197 222 255
196 222 255
196 222 255
196 222 255
196 221 255
195 221 255
195 221 255
195 221 255
194 221 255
194 221 255
194 221 255
193 220 255
193 220 255
193 220 255
193 220 255
193 220 255
192 220 255
192 220 255
191 219 255
191 219 255
191 219 255
191 219 255
191 219 255
190 219 255
190 219 255
190 218 255
190 218 255
189 218 255
189 218 255
189 218 255
188 218 255
188 218 255
188 217 255
188 217 255
188 217 255
187 217 255
187 217 255
187 217 255
186 217 255
186 217 255
186 216 255
186 216 255
186 216 255
186 216 255
185 216 255
185 216 255
185 216 255
184 216 255
184 215 255
184 215 255
184 215 255
184 215 255
184 215 255
183 215 255
183 215 255
184 215 255
183 215 255
183 215 255
182 215 255
182 214 255
182 214 255
182 214 255
182 214 255
182 214 255
181 214 255
181 214 255
181 214 255
181 214 255
181 214 255
181 214 255
181 214 255
181 214 255
181 214 255
181 214 255
181 214 255
181 214 255
181 214 255
181 214 255
181 214 255
181 214 255
181 214 255
181 214 255
181 214 255
181 214 255
181 214 255
181 214 255
181 214 255
181 214 255
182 214 255
182 214 255
182 215 255
183 215 255
183 215 255
183 215 255
184 215 255
185 216 255
185 216 255
185 216 255
187 217 255
187 217 255
188 217 255
189 218 255
189 218 255
191 219 255
195 221 255
195 221 255
198 223 255
209 229 255
209 229 255
209 229 255
209 229 255
209 229 255
209 229 255
209 229 255
209 229 255
209 229 255
209 229 255
209 229 255
209 229 255
209 229 255
209 228 255
208 228 255
209 228 255
209 228 255
208 228 255
208 228 255
208 228 255
208 228 255
208 228 255
208 228 255
208 228 255
208 228 255
208 228 255
208 228 255
208 228 255
208 228 255
208 228 255
208 228 255
208 228 255
208 228 255
208 228 255
208 228 255
208 228 255
208 228 255
208 228 255
207 228 255
207 228 255
207 228 255
208 228 255
208 228 255
207 228 255
207 228 255
207 228 255
207 228 255
207 228 255
207 228 255
207 228 255
207 228 255
207 228 255
207 228 255
207 228 255
207 228 255
207 228 255
207 228 255
207 228 255
61 99 181
65 101 181
63 100 181
53 87 0
66 102 181
68 104 181
71 106 181
57 90 0
63 100 181
60 98 181
66 102 181
65 101 181
60 98 181
65 102 181
62 99 181
68 104 181
66 102 181
63 100 181
66 102 181
60 97 181
60 98 181
59 97 181
59 91 0
63 100 181
70 106 181
62 99 181
63 100 181
63 100 181
60 98 181
62 99 181
57 96 181
59 97 181
62 99 181
60 98 181
64 101 181
59 97 181
58 96 181
62 99 181
64 101 181
67 103 181
59 97 181
60 92 0
70 105 181
70 105 181
64 101 181
65 102 181
207 228 255
207 228 255
207 228 255
207 228 255
207 228 255
207 228 255
207 228 255
207 228 255
207 228 255
207 228 255
207 228 255
207 228 255
207 228 255
207 228 255
208 228 255
207 228 255
208 228 255
207 228 255
208 228 255
208 228 255
208 228 255
208 228 255
208 228 255
208 228 255
208 228 255
208 228 255
208 228 255
208 228 255
208 228 255
208 228 255
208 228 255
208 228 255
208 228 255
208 228 255
208 228 255
208 228 255
208 228 255
208 228 255
208 228 255
208 228 255
208 228 255
208 228 255
208 228 255
209 229 255
209 229 255
209 229 255
209 229 255
209 229 255
209 229 255
209 229 255
209 229 255
209 229 255
209 229 255
209 229 255
209 229 255
209 229 255
162 166 114
162 166 114
118 63 4
171 169 114
167 168 114
173 170 114
101 48 2
89 42 0
166 168 114
94 43 0
151 131 51
85 41 0
169 169 114
105 60 4
172 170 114
168 168 114
149 130 51
164 167 114
133 95 0
70 25 0
169 169 114
162 166 114
136 96 0
166 167 114
188 178 114
166 168 114
164 167 114
163 166 114
178 173 114
97 38 0
183 175 114
174 171 114
171 169 114
170 169 114
164 167 114
175 171 114
185 176 114
164 166 114
168 168 114
170 169 114
164 167 114
185 176 114
169 169 114
178 173 114
26 2 0
176 172 114
173 171 114
171 169 114
187 177 114
186 177 114
171 170 114
162 166 114
166 168 114
168 169 114
186 177 114
185 176 114
162 166 114
178 173 114
174 171 114
164 166 114
175 172 114
163 166 114
154 152 0
180 174 114
176 172 114
152 131 51
167 168 114
172 170 114
109 50 2
171 170 114
197 182 114
188 178 114
170 169 114
195 181 114
168 168 114
197 182 114
163 166 114
182 175 114
163 166 114
163 166 114
169 169 114
65 17 0
200 184 114
164 166 114
163 166 114
154 152 0
180 174 114
94 53 0
166 167 114
185 176 114
170 169 114
169 169 114
156 108 22
167 168 114
164 166 114
158 133 51
167 168 114
176 172 114
119 78 10
163 166 114
1 0 0
174 171 114
121 74 0
162 166 114
164 167 114
168 168 114
164 167 114
168 168 114
169 169 114
163 166 114
163 166 114
174 171 114
165 167 114
122 64 4
119 90 0
173 171 114
173 171 114
166 167 114
164 166 114
201 184 114
54 10 0
201 224 255
200 224 255
200 224 255
200 224 255
199 224 255
199 223 255
198 223 255
198 223 255
198 223 255
198 223 255
197 222 255
197 222 255
197 222 255
197 222 255
196 222 255
196 222 255
196 222 255
195 221 255
195 221 255
195 221 255
195 221 255
194 221 255
194 221 255
194 221 255
193 220 255
193 220 255
193 220 255
192 220 255
192 220 255
192 220 255
192 220 255
192 219 255
191 219 255
191 219 255
191 219 255
190 219 255
190 219 255
190 219 255
190 218 255
190 218 255
189 218 255
189 218 255
189 218 255
188 218 255
188 218 255
188 218 255
188 217 255
188 217 255
187 217 255
187 217 255
187 217 255
186 217 255
186 217 255
186 216 255
186 216 255
186 216 255
185 216 255
172 196 0
185 216 255
185 216 255
184 216 255
184 215 255
186 217 255
184 215 255
205 226 255
183 215 255
183 215 255
185 216 255
187 217 255
197 222 255
183 215 255
188 218 255
185 216 255
188 218 255
182 214 255
182 215 255
181 214 255
181 214 255
182 214 255
184 215 255
182 214 255
198 223 255
181 214 255
181 214 255
181 214 255
181 214 255
181 214 255
181 214 255
181 214 255
181 214 255
181 214 255
181 214 255
181 214 255
181 214 255
181 214 255
181 214 255
181 214 255
181 214 255
181 214 255
181 214 255
182 214 255
182 214 255
182 214 255
183 215 255
183 215 255
183 215 255
184 215 255
184 215 255
184 216 255
185 216 255
185 216 255
186 216 255
187 217 255
188 218 255
189 218 255
190 218 255
191 219 255
192 219 255
194 221 255
196 222 255
202 225 255
203 225 255
209 229 255
209 229 255
209 229 255
209 229 255
209 229 255
209 229 255
209 229 255
209 229 255
209 229 255
209 229 255
209 229 255
209 229 255
209 229 255
209 229 255
209 229 255
209 229 255
208 228 255
209 228 255
209 229 255
209 228 255
208 228 255
208 228 255
208 228 255
208 228 255
208 228 255
208 228 255
208 228 255
208 228 255
208 228 255
208 228 255
208 228 255
208 228 255
208 228 255
208 228 255
208 228 255
208 228 255
208 228 255
208 228 255
208 228 255
208 228 255
208 228 255
208 228 255
208 228 255
208 228 255
207 228 255
208 228 255
208 228 255
207 228 255
207 228 255
207 228 255
207 228 255
207 228 255
207 228 255
60 98 181
61 99 181
61 98 181
70 105 181
59 97 181
57 95 181
59 97 181
62 99 181
61 99 181
59 97 181
68 104 181
55 89 0
59 97 181
58 96 181
67 103 181
59 97 181
65 101 181
63 100 181
70 105 181
52 86 0
57 96 181
58 96 181
64 100 181
67 103 181
63 100 181
64 101 181
70 106 181
64 101 181
60 98 181
59 97 181
57 96 181
61 98 181
65 102 181
57 96 181
55 88 0
61 98 181
64 101 181
64 101 181
68 104 181
58 97 181
71 106 181
61 93 0
65 101 181
67 103 181
58 96 181
68 103 181
59 97 181
65 101 181
63 100 181
65 102 181
207 228 255
207 228 255
207 228 255
208 228 255
207 228 255
207 228 255
207 228 255
208 228 255
207 228 255
208 228 255
208 228 255
208 228 255
208 228 255
208 228 255
208 228 255
208 228 255
208 228 255
208 228 255
208 228 255
208 228 255
208 228 255
208 228 255
208 228 255
208 228 255
208 228 255
208 228 255
208 228 255
208 228 255
208 228 255
208 228 255
208 228 255
208 228 255
208 228 255
208 228 255
208 228 255
208 228 255
209 229 255
209 228 255
209 229 255
209 229 255
209 229 255
209 229 255
209 229 255
209 229 255
209 229 255
209 229 255
209 229 255
209 229 255
209 229 255
209 229 255
209 229 255
209 229 255
209 229 255
209 229 255
8 1 0
178 173 114
150 106 22
180 174 114
165 167 114
187 177 114
188 177 114
191 179 114
167 168 114
173 171 114
190 178 114
70 25 0
170 169 114
166 168 114
165 167 114
162 166 114
165 167 114
188 177 114
162 165 114
162 166 114
142 85 10
162 166 114
155 132 51
159 134 51
175 172 114
168 168 114
180 174 114
168 137 51
166 168 114
169 169 114
177 172 114
168 168 114
176 172 114
182 175 114
166 168 114
163 166 114
192 180 114
112 61 4
163 166 114
165 167 114
86 42 0
61 80 80
182 175 114
169 169 114
170 169 114
162 166 114
137 102 22
194 180 114
168 169 114
188 178 114
169 169 114
168 168 114
123 91 0
183 175 114
181 174 114
180 174 114
193 180 114
196 182 114
174 171 114
168 168 114
157 133 51
140 103 22
200 183 114
178 173 114
165 167 114
162 166 114
201 184 114
202 184 114
163 166 114
171 170 114
183 175 114
196 182 114
173 171 114
194 181 114
157 133 51
177 172 114
102 55 0
174 162 0
197 182 114
165 167 114
188 177 114
173 171 114
171 170 114
66 17 0
177 173 114
165 167 114
162 166 114
178 173 114
165 167 114
164 166 114
174 171 114
182 175 114
150 106 22
167 168 114
111 71 0
173 171 114
179 173 114
134 116 0
162 135 51
199 183 114
145 148 0
184 176 114
158 133 51
170 169 114
180 174 114
181 174 114
193 180 114
195 181 114
166 167 114
136 117 0
180 174 114
186 176 114
165 167 114
116 89 0
87 36 0
84 36 0
191 179 114
185 176 114
190 179 114
164 167 114
130 115 0
201 224 255
200 224 255
200 224 255
200 224 255
199 224 255
199 223 255
199 223 255
198 223 255
198 223 255
198 223 255
198 223 255
197 222 255
197 222 255
197 222 255
197 222 255
196 222 255
196 222 255
195 221 255
195 221 255
195 221 255
195 221 255
194 221 255
194 221 255
194 221 255
194 220 255
194 220 255
193 220 255
193 220 255
193 220 255
192 220 255
192 220 255
192 220 255
192 219 255
191 219 255
191 219 255
191 219 255
190 219 255
190 219 255
190 219 255
190 218 255
190 218 255
189 218 255
189 218 255
189 218 255
189 218 255
188 218 255
188 218 255
188 218 255
188 217 255
187 217 255
190 219 255
187 217 255
187 217 255
186 216 255
197 223 255
186 216 255
218 234 255
185 216 255
186 217 255
185 216 255
185 216 255
185 216 255
186 216 255
184 216 255
185 216 255
184 216 255
184 216 255
184 215 255
185 216 255
185 216 255
203 226 255
184 216 255
183 215 255
198 223 255
183 215 255
184 215 255
182 215 255
183 215 255
203 226 255
183 215 255
182 215 255
181 214 255
181 214 255
196 222 255
181 214 255
191 219 255
181 214 255
181 214 255
181 214 255
181 214 255
181 214 255
181 214 255
181 214 255
181 214 255
181 214 255
181 214 255
181 214 255
181 214 255
181 214 255
181 214 255
182 214 255
182 214 255
182 214 255
182 215 255
182 215 255
183 215 255
183 215 255
183 215 255
184 216 255
184 216 255
185 216 255
185 216 255
186 217 255
187 217 255
187 217 255
188 218 255
189 218 255
191 219 255
191 219 255
195 221 255
196 222 255
196 222 255
203 225 255
210 229 255
210 229 255
209 229 255
209 229 255
209 229 255
209 229 255
209 229 255
209 229 255
209 229 255
209 229 255
209 229 255
209 229 255
209 229 255
209 229 255
209 229 255
209 229 255
209 229 255
209 229 255
209 229 255
209 229 255
209 229 255
209 228 255
208 228 255
209 229 255
208 228 255
208 228 255
208 228 255
208 228 255
208 228 255
208 228 255
208 228 255
208 228 255
208 228 255
208 228 255
208 228 255
208 228 255
208 228 255
208 228 255
208 228 255
208 228 255
208 228 255
208 228 255
208 228 255
208 228 255
208 228 255
208 228 255
208 228 255
208 228 255
208 228 255
208 228 255
60 98 181
70 105 181
68 104 181
61 99 181
63 100 181
62 99 181
61 99 181
64 101 181
58 96 181
59 97 181
69 104 181
59 97 181
66 102 181
58 96 181
70 106 181
67 103 181
63 100 181
63 100 181
63 100 181
66 102 181
57 96 181
70 105 181
70 105 181
66 102 181
66 102 181
63 100 181
57 95 181
67 103 181
60 97 181
62 99 181
57 96 181
69 104 181
61 98 181
66 102 181
57 96 181
71 106 181
64 100 181
66 102 181
60 97 181
62 99 181
59 97 181
62 99 181
61 99 181
63 100 181
59 97 181
61 98 181
62 99 181
60 98 181
59 92 0
64 101 181
59 97 181
57 95 181
57 95 181
208 228 255
208 228 255
208 228 255
208 228 255
208 228 255
208 228 255
208 228 255
208 228 255
208 228 255
208 228 255
208 228 255
208 228 255
208 228 255
208 228 255
208 228 255
208 228 255
208 228 255
208 228 255
208 228 255
208 228 255
208 228 255
208 228 255
208 228 255
209 228 255
209 228 255
209 228 255
208 228 255
209 229 255
209 229 255
209 229 255
209 229 255
209 229 255
209 229 255
209 229 255
209 229 255
209 229 255
209 229 255
209 229 255
209 229 255
209 229 255
209 229 255
209 229 255
209 229 255
209 229 255
209 229 255
209 229 255
209 229 255
209 229 255
210 229 255
209 229 255
209 229 255
174 140 51
169 169 114
171 170 114
173 171 114
187 177 114
123 64 4
169 169 114
163 166 114
167 168 114
182 175 114
150 106 22
169 138 51
172 170 114
170 169 114
194 181 114
175 171 114
168 168 114
170 169 114
170 169 114
191 179 114
177 173 114
193 180 114
162 165 114
31 3 0
169 169 114
164 166 114
135 101 22
188 178 114
48 10 0
55 63 36
171 170 114
178 173 114
175 171 114
184 176 114
148 130 51
166 167 114
170 169 114
172 170 114
170 169 114
179 174 114
168 138 51
189 178 114
171 170 114
172 139 51
165 167 114
178 173 114
162 166 114
166 168 114
169 169 114
167 168 114
174 171 114
162 166 114
164 166 114
145 121 0
159 109 22
181 174 114
170 169 114
169 169 114
182 175 114
171 170 114
170 169 114
6 1 0
182 175 114
167 168 114
195 181 114
178 173 114
168 168 114
151 131 51
170 169 114
163 166 114
163 166 114
182 175 114
200 184 114
168 168 114
164 167 114
187 177 114
166 167 114
172 170 114
165 167 114
162 166 114
167 168 114
177 173 114
201 184 114
181 174 114
196 182 114
190 178 114
166 167 114
177 141 51
167 168 114
186 176 114
162 166 114
162 166 114
148 149 0
191 179 114
193 180 114
178 173 114
137 96 0
167 168 114
182 175 114
172 170 114
105 69 0
171 170 114
185 176 114
169 169 114
199 183 114
36 28 3
179 173 114
175 172 114
162 156 0
86 48 0
170 169 114
157 133 51
180 174 114
168 168 114
190 179 114
133 95 0
176 172 114
199 183 114
164 167 114
156 133 51
160 110 22
187 177 114
159 134 51
201 224 255
200 224 255
200 224 255
200 224 255
199 224 255
199 223 255
199 223 255
199 223 255
198 223 255
198 223 255
198 223 255
197 222 255
197 222 255
197 222 255
197 222 255
196 222 255
196 222 255
196 222 255
196 222 255
195 221 255
195 221 255
195 221 255
195 221 255
194 221 255
194 221 255
194 221 255
193 220 255
193 220 255
193 220 255
193 220 255
192 220 255
192 220 255
192 220 255
192 219 255
192 219 255
191 219 255
191 219 255
191 219 255
190 219 255
190 219 255
190 219 255
190 218 255
190 218 255
189 218 255
189 218 255
194 221 255
190 218 255
198 223 255
190 219 255
204 226 255
192 220 255
193 220 255
187 217 255
197 222 255
188 217 255
187 217 255
187 217 255
187 217 255
188 217 255
188 217 255
200 224 255
187 217 255
186 217 255
186 217 255
186 217 255
186 217 255
186 217 255
185 216 255
186 216 255
186 217 255
204 226 255
199 223 255
220 235 255
185 216 255
198 223 255
184 215 255
185 216 255
184 216 255
184 216 255
183 215 255
183 215 255
198 223 255
183 215 255
183 215 255
182 215 255
182 215 255
181 214 255
182 215 255
181 214 255
181 214 255
204 226 255
181 214 255
181 214 255
181 214 255
181 214 255
181 214 255
181 214 255
181 214 255
181 214 255
181 214 255
182 214 255
182 214 255
182 214 255
182 214 255
182 215 255
182 215 255
183 215 255
183 215 255
184 215 255
184 215 255
184 216 255
185 216 255
186 216 255
186 217 255
186 217 255
188 217 255
189 218 255
189 218 255
190 219 255
191 219 255
194 221 255
197 222 255
199 223 255
201 225 255
209 229 255
210 229 255
210 229 255
209 229 255
210 229 255
210 229 255
210 229 255
209 229 255
209 229 255
209 229 255
209 229 255
209 229 255
209 229 255
209 229 255
209 229 255
209 229 255
209 229 255
209 229 255
209 229 255
209 229 255
209 229 255
209 229 255
209 229 255
209 229 255
209 229 255
209 229 255
209 229 255
209 229 255
208 228 255
208 228 255
208 228 255
208 228 255
208 228 255
208 228 255
208 228 255
208 228 255
208 228 255
208 228 255
208 228 255
208 228 255
208 228 255
208 228 255
208 228 255
208 228 255
208 228 255
208 228 255
208 228 255
61 98 181
65 102 181
63 100 181
63 100 181
58 96 181
64 101 181
58 91 0
68 104 181
57 89 0
63 100 181
65 102 181
60 98 181
58 96 181
69 104 181
60 98 181
60 98 181
61 98 181
64 101 181
64 101 181
57 90 0
62 99 181
61 98 181
59 97 181
69 104 181
67 103 181
59 97 181
60 98 181
57 96 181
61 98 181
59 97 181
52 86 0
57 95 181
64 100 181
63 100 181
59 92 0
70 105 181
67 103 181
62 99 181
69 104 181
70 105 181
60 98 181
67 103 181
67 103 181
57 96 181
70 105 181
60 97 181
59 97 181
69 105 181
65 102 181
68 104 181
63 100 181
71 106 181
59 97 181
60 97 181
60 97 181
66 102 181
58 96 181
208 228 255
208 228 255
208 228 255
208 228 255
208 228 255
208 228 255
208 228 255
208 228 255
208 228 255
208 228 255
208 228 255
208 228 255
208 228 255
208 228 255
208 228 255
208 228 255
209 228 255
208 228 255
208 228 255
209 229 255
208 228 255
209 229 255
209 229 255
209 229 255
209 229 255
209 229 255
209 229 255
209 229 255
209 229 255
209 229 255
209 229 255
209 229 255
209 229 255
209 229 255
209 229 255
209 229 255
209 229 255
209 229 255
209 229 255
209 229 255
209 229 255
209 229 255
210 229 255
210 229 255
210 229 255
210 229 255
210 229 255
176 172 114
177 141 51
202 184 114
169 169 114
179 142 51
169 169 114
169 169 114
155 132 51
107 70 0
164 167 114
167 137 51
75 32 0
148 130 51
174 171 114
26 21 0
162 166 114
66 21 0
170 138 51
164 167 114
167 168 114
168 168 114
168 168 114
175 171 114
168 168 114
189 178 114
183 175 114
179 173 114
171 170 114
165 136 51
191 179 114
183 175 114
163 166 114
176 172 114
171 170 114
175 171 114
50 11 0
171 170 114
179 173 114
184 176 114
162 166 114
171 170 114
168 168 114
93 53 0
168 169 114
182 175 114
170 169 114
161 165 114
166 168 114
165 167 114
162 166 114
187 177 114
183 175 114
12 0 0
177 172 114
172 170 114
11 2 0
130 94 0
168 168 114
182 175 114
197 182 114
174 171 114
164 167 114
23 1 0
165 167 114
165 167 114
166 167 114
179 173 114
164 167 114
163 166 114
180 174 114
178 173 114
164 167 114
171 170 114
164 167 114
162 166 114
172 170 114
183 175 114
174 171 114
162 166 114
165 167 114
177 172 114
195 181 114
186 177 114
185 176 114
193 180 114
96 51 0
126 92 0
189 178 114
168 168 114
177 172 114
62 13 0
184 176 114
198 182 114
21 9 0
174 171 114
172 170 114
176 172 114
150 151 0
191 179 114
186 176 114
174 171 114
143 120 0
193 180 114
188 178 114
169 169 114
103 39 0
165 167 114
94 58 0
177 172 114
166 167 114
182 175 114
145 105 22
177 172 114
174 171 114
194 180 114
125 92 0
175 172 114
194 181 114
154 152 0
101 39 0
193 180 114
168 168 114
191 179 114
190 179 114
191 179 114
201 224 255
200 224 255
200 224 255
200 224 255
200 224 255
199 223 255
199 223 255
199 223 255
199 223 255
198 223 255
198 223 255
198 223 255
197 222 255
197 222 255
197 222 255
197 222 255
196 222 255
196 222 255
196 222 255
195 221 255
195 221 255
195 221 255
195 221 255
195 221 255
194 221 255
194 221 255
194 221 255
193 220 255
193 220 255
193 220 255
193 220 255
193 220 255
192 220 255
192 220 255
192 220 255
192 219 255
191 219 255
191 219 255
191 219 255
190 219 255
190 219 255
190 219 255
190 219 255
189 218 255
191 219 255
189 218 255
194 220 255
189 218 255
196 222 255
189 218 255
188 218 255
189 218 255
189 218 255
203 225 255
189 218 255
189 218 255
188 218 255
186 204 0
188 218 255
188 218 255
189 218 255
189 218 255
187 217 255
185 216 255
185 216 255
209 229 255
188 217 255
187 217 255
188 217 255
187 217 255
187 217 255
184 215 255
209 229 255
187 217 255
186 216 255
186 216 255
186 217 255
186 217 255
185 216 255
185 216 255
185 216 255
184 216 255
186 216 255
205 226 255
183 215 255
183 215 255
184 215 255
184 216 255
183 215 255
182 214 255
182 214 255
182 214 255
182 214 255
182 214 255
181 214 255
185 216 255
181 214 255
181 214 255
181 214 255
182 214 255
182 214 255
182 214 255
182 214 255
182 214 255
182 215 255
182 215 255
183 215 255
183 215 255
183 215 255
184 215 255
184 216 255
184 216 255
185 216 255
185 216 255
187 217 255
187 217 255
188 217 255
188 217 255
189 218 255
190 219 255
193 220 255
193 220 255
196 222 255
198 223 255
202 225 255
203 226 255
210 229 255
210 229 255
210 229 255
210 229 255
210 229 255
210 229 255
210 229 255
210 229 255
210 229 255
209 229 255
210 229 255
210 229 255
209 229 255
209 229 255
209 229 255
209 229 255
209 229 255
209 229 255
209 229 255
209 229 255
209 229 255
209 229 255
209 229 255
209 229 255
209 229 255
209 229 255
209 229 255
209 229 255
209 229 255
209 229 255
209 229 255
209 229 255
209 228 255
209 228 255
209 229 255
209 229 255
209 228 255
208 228 255
208 228 255
208 228 255
208 228 255
208 228 255
208 228 255
208 228 255
57 95 181
61 98 181
62 99 181
58 90 0
68 104 181
57 95 181
58 96 181
63 100 181
62 99 181
68 104 181
65 101 181
63 100 181
60 98 181
60 98 181
67 103 181
64 101 181
65 101 181
62 99 181
71 106 181
59 97 181
69 104 181
63 100 181
61 99 181
64 101 181
60 98 181
57 96 181
61 98 181
58 96 181
63 100 181
63 100 181
66 102 181
60 98 181
60 97 181
64 100 181
59 97 181
51 85 0
57 96 181
66 102 181
60 92 0
57 96 181
63 100 181
62 99 181
65 102 181
60 98 181
65 101 181
58 96 181
51 86 0
70 105 181
63 100 181
69 105 181
54 87 0
62 99 181
58 96 181
55 76 80
62 99 181
65 102 181
68 104 181
59 97 181
61 98 181
62 99 181
208 228 255
208 228 255
208 228 255
208 228 255
208 228 255
208 228 255
209 229 255
209 228 255
209 228 255
209 229 255
209 228 255
208 228 255
209 229 255
209 229 255
209 229 255
209 229 255
209 229 255
209 229 255
209 229 255
209 229 255
209 229 255
209 229 255
209 229 255
209 229 255
209 229 255
209 229 255
209 229 255
209 229 255
209 229 255
209 229 255
209 229 255
209 229 255
210 229 255
209 229 255
209 229 255
209 229 255
210 229 255
210 229 255
210 229 255
210 229 255
210 229 255
210 229 255
210 229 255
210 229 255
92 43 0
165 167 114
167 168 114
163 166 114
176 141 51
167 168 114
165 167 114
53 75 80
194 181 114
168 168 114
169 169 114
182 175 114
179 174 114
172 170 114
180 174 114
172 170 114
195 181 114
175 172 114
149 106 22
107 70 0
165 167 114
130 81 10
53 75 80
168 168 114
163 166 114
183 175 114
162 166 114
163 166 114
51 74 80
182 175 114
172 170 114
181 174 114
184 176 114
177 172 114
197 182 114
16 7 0
162 166 114
168 168 114
34 22 1
166 168 114
186 176 114
172 170 114
147 129 51
195 181 114
162 166 114
175 172 114
163 166 114
150 106 22
162 166 114
200 183 114
181 174 114
163 166 114
180 174 114
180 174 114
184 176 114
109 61 4
201 184 114
169 169 114
175 172 114
182 175 114
60 16 0
175 172 114
163 166 114
178 173 114
158 154 0
192 179 114
177 172 114
181 174 114
150 130 51
195 181 114
185 176 114
181 174 114
167 168 114
184 176 114
176 172 114
170 169 114
200 183 114
191 179 114
164 167 114
161 155 0
174 171 114
187 177 114
175 171 114
179 173 114
173 171 114
171 170 114
195 181 114
164 166 114
176 172 114
56 10 0
178 173 114
164 167 114
187 177 114
176 172 114
160 155 0
192 179 114
149 150 0
171 170 114
181 174 114
171 170 114
171 170 114
195 181 114
164 166 114
164 167 114
170 169 114
175 172 114
198 182 114
178 173 114
138 118 0
154 124 0
174 171 114
147 149 0
174 171 114
201 184 114
189 178 114
200 184 114
53 14 0
179 173 114
42 7 0
164 166 114
145 148 0
36 32 0
56 15 0
77 28 0
189 178 114
184 176 114
201 224 255
201 224 255
200 224 255
200 224 255
200 224 255
200 224 255
199 223 255
199 223 255
199 223 255
199 223 255
198 223 255
198 223 255
198 223 255
197 223 255
197 222 255
197 222 255
197 222 255
196 222 255
196 222 255
196 222 255
195 221 255
195 221 255
195 221 255
195 221 255
194 221 255
194 221 255
194 221 255
194 221 255
194 220 255
193 220 255
193 220 255
193 220 255
193 220 255
192 220 255
192 220 255
192 219 255
192 219 255
191 219 255
191 219 255
191 219 255
193 220 255
191 219 255
190 219 255
196 222 255
190 219 255
190 218 255
190 219 255
202 225 255
190 218 255
190 218 255
190 219 255
188 218 255
207 228 255
190 218 255
206 227 255
189 218 255
190 219 255
190 218 255
208 228 255
189 218 255
189 218 255
189 218 255
190 219 255
190 218 255
188 218 255
190 218 255
216 233 255
189 218 255
189 218 255
188 218 255
188 218 255
184 215 255
188 217 255
188 217 255
188 217 255
187 217 255
188 217 255
188 217 255
186 217 255
186 217 255
187 217 255
187 217 255
186 216 255
209 229 255
185 216 255
185 216 255
186 216 255
185 216 255
184 216 255
185 216 255
183 215 255
184 215 255
184 215 255
183 215 255
183 215 255
189 218 255
181 214 255
182 214 255
181 214 255
182 214 255
182 214 255
182 214 255
182 215 255
182 215 255
182 215 255
183 215 255
183 215 255
183 215 255
183 215 255
183 215 255
184 216 255
184 216 255
185 216 255
185 216 255
185 216 255
186 217 255
187 217 255
187 217 255
189 218 255
189 218 255
190 218 255
192 220 255
194 221 255
195 221 255
198 223 255
200 224 255
204 226 255
210 229 255
210 229 255
210 229 255
210 229 255
210 229 255
210 229 255
210 229 255
210 229 255
210 229 255
210 229 255
210 229 255
210 229 255
210 229 255
210 229 255
209 229 255
210 229 255
210 229 255
209 229 255
209 229 255
209 229 255
209 229 255
209 229 255
209 229 255
209 229 255
209 229 255
209 229 255
209 229 255
209 229 255
209 229 255
209 229 255
209 229 255
209 229 255
209 229 255
209 229 255
209 229 255
209 229 255
209 229 255
209 229 255
209 229 255
209 228 255
209 228 255
209 229 255
68 104 181
66 102 181
57 96 181
60 98 181
61 98 181
59 97 181
60 97 181
57 96 181
57 95 181
59 97 181
68 104 181
58 96 181
65 101 181
68 103 181
65 102 181
52 86 0
58 96 181
57 96 181
60 98 181
61 98 181
66 102 181
61 98 181
63 100 181
61 98 181
64 101 181
58 96 181
65 101 181
60 98 181
58 96 181
69 105 181
67 103 181
64 101 181
63 100 181
70 105 181
69 104 181
66 102 181
60 98 181
57 96 181
58 96 181
52 86 0
69 105 181
68 104 181
57 96 181
65 101 181
67 103 181
62 99 181
68 104 181
68 104 181
57 95 181
61 98 181
61 98 181
53 61 36
61 99 181
57 95 181
59 97 181
60 97 181
62 99 181
52 86 0
66 102 181
58 96 181
57 96 181
58 97 181
65 102 181
209 228 255
209 228 255
209 229 255
209 229 255
209 229 255
209 229 255
209 229 255
209 229 255
209 229 255
209 229 255
209 229 255
209 229 255
209 229 255
209 229 255
209 229 255
209 229 255
209 229 255
209 229 255
209 229 255
209 229 255
209 229 255
209 229 255
209 229 255
209 229 255
209 229 255
209 229 255
210 229 255
209 229 255
210 229 255
210 229 255
210 229 255
210 229 255
210 229 255
210 229 255
210 229 255
210 229 255
210 229 255
210 229 255
210 229 255
210 229 255
210 229 255
125 75 0
164 167 114
178 173 114
173 171 114
170 169 114
183 175 114
155 132 51
171 170 114
178 173 114
84 29 0
174 171 114
169 169 114
176 172 114
165 167 114
133 82 10
154 132 51
177 172 114
179 174 114
105 60 4
142 103 22
142 85 10
165 167 114
163 136 51
186 177 114
169 169 114
174 171 114
166 167 114
153 107 22
181 174 114
171 170 114
164 167 114
90 42 0
165 167 114
149 130 51
169 169 114
166 168 114
165 167 114
179 173 114
169 169 114
162 166 114
164 167 114
194 180 114
170 169 114
164 167 114
114 62 4
176 172 114
199 183 114
166 168 114
186 176 114
165 167 114
170 169 114
130 115 0
192 179 114
173 171 114
170 169 114
185 176 114
177 172 114
179 173 114
163 166 114
180 174 114
164 166 114
179 173 114
136 101 22
163 166 114
190 178 114
177 173 114
109 50 2
170 169 114
178 173 114
162 166 114
163 166 114
166 167 114
163 166 114
163 166 114
166 168 114
194 181 114
48 8 0
177 172 114
169 169 114
181 174 114
170 169 114
92 37 0
163 156 0
164 166 114
169 169 114
158 133 51
172 170 114
189 178 114
174 171 114
111 50 2
179 174 114
81 28 0
167 168 114
175 172 114
88 30 0
120 73 0
66 28 0
183 175 114
161 165 114
198 182 114
167 168 114
164 167 114
163 166 114
175 172 114
132 100 22
144 104 22
174 171 114
191 179 114
193 180 114
195 181 114
102 48 2
159 154 0
60 16 0
114 51 2
163 166 114
162 135 51
196 181 114
168 168 114
175 171 114
169 169 114
148 150 0
162 156 0
168 168 114
178 173 114
63 14 0
92 53 0
166 167 114
201 224 255
201 224 255
201 224 255
200 224 255
200 224 255
200 224 255
200 224 255
199 223 255
199 223 255
199 223 255
198 223 255
198 223 255
198 223 255
198 223 255
197 222 255
197 222 255
197 222 255
197 222 255
197 222 255
196 222 255
196 222 255
196 222 255
196 222 255
195 221 255
195 221 255
194 221 255
195 221 255
194 221 255
194 221 255
193 220 255
193 220 255
193 220 255
193 220 255
193 220 255
193 220 255
192 220 255
192 220 255
192 219 255
194 221 255
192 220 255
191 219 255
192 219 255
191 219 255
192 219 255
191 219 255
191 219 255
202 225 255
192 219 255
192 219 255
205 227 255
191 219 255
191 219 255
191 219 255
191 219 255
191 219 255
191 219 255
191 219 255
190 219 255
191 219 255
191 219 255
190 219 255
191 219 255
191 219 255
191 219 255
191 219 255
186 216 255
190 219 255
191 219 255
190 219 255
189 218 255
190 219 255
189 218 255
190 218 255
190 218 255
221 236 255
189 218 255
189 218 255
189 218 255
188 217 255
189 218 255
188 218 255
188 218 255
188 217 255
188 217 255
188 217 255
187 217 255
188 217 255
186 217 255
186 216 255
185 216 255
185 216 255
185 216 255
185 216 255
185 216 255
184 215 255
184 215 255
183 215 255
182 215 255
183 215 255
217 233 255
182 214 255
182 215 255
182 215 255
183 215 255
183 215 255
183 215 255
183 215 255
183 215 255
183 215 255
184 215 255
184 215 255
184 216 255
185 216 255
185 216 255
185 216 255
186 217 255
186 217 255
187 217 255
188 218 255
189 218 255
189 218 255
191 219 255
192 219 255
193 220 255
195 221 255
196 222 255
199 224 255
204 226 255
210 229 255
210 229 255
210 229 255
210 229 255
210 229 255
210 229 255
210 229 255
210 229 255
210 229 255
210 229 255
210 229 255
210 229 255
210 229 255
210 229 255
210 229 255
210 229 255
210 229 255
210 229 255
210 229 255
210 229 255
209 229 255
210 229 255
209 229 255
209 229 255
209 229 255
209 229 255
209 229 255
209 229 255
209 229 255
209 229 255
209 229 255
209 229 255
209 229 255
209 229 255
209 229 255
209 229 255
209 229 255
209 229 255
209 229 255
209 229 255
63 100 181
70 106 181
55 88 0
58 96 181
63 100 181
66 102 181
67 103 181
58 96 181
57 96 181
54 88 0
69 105 181
59 97 181
71 106 181
53 87 0
67 103 181
71 106 181
60 98 181
60 98 181
58 96 181
71 106 181
63 100 181
59 97 181
61 99 181
69 104 181
58 96 181
66 102 181
70 105 181
69 104 181
54 87 0
60 98 181
58 96 181
62 99 181
57 96 181
66 102 181
65 102 181
60 98 181
68 104 181
69 105 181
62 99 181
51 86 0
63 100 181
65 101 181
58 96 181
58 96 181
67 103 181
57 95 181
53 87 0
52 86 0
58 97 181
58 96 181
63 100 181
71 106 181
58 96 181
61 80 80
57 95 181
62 93 0
66 102 181
57 96 181
58 96 181
43 52 0
53 87 0
63 100 181
69 105 181
57 96 181
68 104 181
209 229 255
209 229 255
209 229 255
209 229 255
209 229 255
209 229 255
209 229 255
209 229 255
209 229 255
209 229 255
209 229 255
209 229 255
209 229 255
209 229 255
209 229 255
209 229 255
209 229 255
209 229 255
209 229 255
210 229 255
209 229 255
210 229 255
210 229 255
210 229 255
210 229 255
210 229 255
210 229 255
210 229 255
210 229 255
210 229 255
210 229 255
210 229 255
210 229 255
210 229 255
210 229 255
210 229 255
210 229 255
210 229 255
171 170 114
116 89 0
164 167 114
163 166 114
103 39 0
52 10 0
167 168 114
178 173 114
196 182 114
170 169 114
180 174 114
168 169 114
107 70 0
147 129 51
187 177 114
188 177 114
67 28 0
182 175 114
179 174 114
165 167 114
195 181 114
167 168 114
158 133 51
170 169 114
160 134 51
170 169 114
165 167 114
164 167 114
162 110 22
172 170 114
188 178 114
183 175 114
163 166 114
174 171 114
167 168 114
186 177 114
172 170 114
189 178 114
162 166 114
198 183 114
162 166 114
163 166 114
78 30 0
191 179 114
118 73 0
168 168 114
164 167 114
186 177 114
163 166 114
121 90 0
83 41 0
166 168 114
116 63 4
171 170 114
168 169 114
170 169 114
176 172 114
99 55 0
162 166 114
181 174 114
167 168 114
163 166 114
147 129 51
162 166 114
162 135 51
178 173 114
150 130 51
165 167 114
158 134 51
162 166 114
163 166 114
186 177 114
166 168 114
188 178 114
195 181 114
163 166 114
175 171 114
167 168 114
191 179 114
183 175 114
19 8 0
169 169 114
163 166 114
165 167 114
190 178 114
166 168 114
187 177 114
162 166 114
191 179 114
168 168 114
33 26 3
163 166 114
166 137 51
196 181 114
162 156 0
41 51 0
193 180 114
104 48 2
162 166 114
185 176 114
166 167 114
194 181 114
194 180 114
163 166 114
173 171 114
103 56 0
196 182 114
156 132 51
184 175 114
170 169 114
153 124 0
174 171 114
175 171 114
2 0 0
56 13 0
172 139 51
166 167 114
172 170 114
179 173 114
181 174 114
178 173 114
147 149 0
168 168 114
163 166 114
165 167 114
182 175 114
168 168 114
163 136 51
154 152 0
201 225 255
201 224 255
201 224 255
201 224 255
200 224 255
200 224 255
200 224 255
199 224 255
199 224 255
199 223 255
199 223 255
199 223 255
198 223 255
198 223 255
198 223 255
198 223 255
197 222 255
197 222 255
197 222 255
197 222 255
196 222 255
196 222 255
196 222 255
195 221 255
195 221 255
195 221 255
195 221 255
195 221 255
194 221 255
194 221 255
194 221 255
194 221 255
193 220 255
193 220 255
208 228 255
196 222 255
192 220 255
166 193 0
192 220 255
192 220 255
193 220 255
192 220 255
193 220 255
192 220 255
192 220 255
190 219 255
192 220 255
193 220 255
193 220 255
211 230 255
192 220 255
193 220 255
192 220 255
193 220 255
192 220 255
193 220 255
192 220 255
192 220 255
192 220 255
192 220 255
192 220 255
192 219 255
192 219 255
192 219 255
192 219 255
224 237 255
192 219 255
191 219 255
191 219 255
191 219 255
190 219 255
190 219 255
191 219 255
190 219 255
190 219 255
190 219 255
191 219 255
190 218 255
222 236 255
190 219 255
189 218 255
190 218 255
189 218 255
188 218 255
189 218 255
189 218 255
189 218 255
189 218 255
188 218 255
188 217 255
187 217 255
182 215 255
187 217 255
187 217 255
186 216 255
186 216 255
185 216 255
184 216 255
198 223 255
191 207 0
183 215 255
189 218 255
189 218 255
183 215 255
202 225 255
183 215 255
183 215 255
183 215 255
183 215 255
184 215 255
184 215 255
184 216 255
184 216 255
185 216 255
185 216 255
186 216 255
186 217 255
187 217 255
188 217 255
188 218 255
189 218 255
190 218 255
191 219 255
192 219 255
193 220 255
195 221 255
197 222 255
198 223 255
203 226 255
210 230 255
211 230 255
210 230 255
210 229 255
210 230 255
210 229 255
210 229 255
210 229 255
210 229 255
210 229 255
210 229 255
210 229 255
210 229 255
210 229 255
210 229 255
210 229 255
210 229 255
210 229 255
210 229 255
210 229 255
210 229 255
210 229 255
210 229 255
210 229 255
210 229 255
210 229 255
210 229 255
210 229 255
210 229 255
209 229 255
209 229 255
209 229 255
209 229 255
209 229 255
209 229 255
209 229 255
57 96 181
63 100 181
62 99 181
57 95 181
63 100 181
63 100 181
66 103 181
64 101 181
64 101 181
60 98 181
53 87 0
62 99 181
65 101 181
69 105 181
64 101 181
68 104 181
59 97 181
54 88 0
59 97 181
67 103 181
68 104 181
61 99 181
68 104 181
62 99 181
59 97 181
71 106 181
61 99 181
60 98 181
65 101 181
59 97 181
57 95 181
70 105 181
69 104 181
66 102 181
70 106 181
51 86 0
58 96 181
65 102 181
57 95 181
53 87 0
58 91 0
64 101 181
70 105 181
59 97 181
70 106 181
64 101 181
63 100 181
63 100 181
60 97 181
59 97 181
53 87 0
58 96 181
70 106 181
58 96 181
59 92 0
64 100 181
60 98 181
59 97 181
55 89 0
58 96 181
55 88 0
54 87 0
69 104 181
56 77 80
66 102 181
63 100 181
57 95 181
57 95 181
57 96 181
209 229 255
209 229 255
209 229 255
209 229 255
209 229 255
209 229 255
210 229 255
209 229 255
209 229 255
209 229 255
210 229 255
210 229 255
210 229 255
210 229 255
210 229 255
210 229 255
210 229 255
210 229 255
210 229 255
210 229 255
210 229 255
210 229 255
210 229 255
210 229 255
210 229 255
210 229 255
210 229 255
210 229 255
210 229 255
210 229 255
210 229 255
210 229 255
210 229 255
210 230 255
210 230 255
211 230 255
210 230 255
193 180 114
164 167 114
180 174 114
174 171 114
166 168 114
54 76 80
167 168 114
162 166 114
195 181 114
60 80 80
174 171 114
175 171 114
180 174 114
174 171 114
176 172 114
180 142 51
177 172 114
171 169 114
175 172 114
162 166 114
167 168 114
186 177 114
51 8 0
36 28 3
178 173 114
176 172 114
170 169 114
163 166 114
166 167 114
181 174 114
182 175 114
184 176 114
162 166 114
185 176 114
166 167 114
164 166 114
180 174 114
187 177 114
169 169 114
188 177 114
179 173 114
165 167 114
190 178 114
170 169 114
171 170 114
164 167 114
173 170 114
171 170 114
172 170 114
166 168 114
156 132 51
167 168 114
75 32 0
183 175 114
194 180 114
196 182 114
174 171 114
171 170 114
174 171 114
175 172 114
178 173 114
185 176 114
168 168 114
180 174 114
107 70 0
21 10 0
198 183 114
182 175 114
179 173 114
168 169 114
147 149 0
178 173 114
152 131 51
178 173 114
181 174 114
169 159 0
163 166 114
193 180 114
186 177 114
169 169 114
147 149 0
197 182 114
196 181 114
174 171 114
174 171 114
63 22 0
186 176 114
196 181 114
164 167 114
146 129 51
184 176 114
172 170 114
166 168 114
182 175 114
199 183 114
162 166 114
189 178 114
182 175 114
164 167 114
100 55 0
184 176 114
172 170 114
171 170 114
181 174 114
174 171 114
170 138 51
147 105 22
186 176 114
187 177 114
184 176 114
171 170 114
187 177 114
193 180 114
163 166 114
174 171 114
198 182 114
172 170 114
164 167 114
193 180 114
198 182 114
122 91 0
169 169 114
152 124 0
163 166 114
164 167 114
147 149 0
176 172 114
173 140 51
158 154 0
202 225 255
201 225 255
201 224 255
201 224 255
201 224 255
200 224 255
200 224 255
200 224 255
200 224 255
199 223 255
199 223 255
199 223 255
199 223 255
198 223 255
198 223 255
198 223 255
198 223 255
197 222 255
197 222 255
197 222 255
197 222 255
197 222 255
197 222 255
196 222 255
196 222 255
196 222 255
195 221 255
195 221 255
195 221 255
195 221 255
194 221 255
194 221 255
194 220 255
193 220 255
193 220 255
193 220 255
220 235 255
194 221 255
194 221 255
194 220 255
193 220 255
183 202 0
193 220 255
194 221 255
208 228 255
193 220 255
193 220 255
191 219 255
194 221 255
193 220 255
194 220 255
193 220 255
194 221 255
193 220 255
193 220 255
193 220 255
194 220 255
193 220 255
193 220 255
193 220 255
193 220 255
193 220 255
193 220 255
193 220 255
226 238 255
193 220 255
165 193 0
192 220 255
193 220 255
192 220 255
193 220 255
192 220 255
191 219 255
192 220 255
192 220 255
192 219 255
191 219 255
191 219 255
191 219 255
191 219 255
191 219 255
190 219 255
190 219 255
190 218 255
191 219 255
190 218 255
190 219 255
190 218 255
189 218 255
190 218 255
224 237 255
188 218 255
188 217 255
187 217 255
187 217 255
187 217 255
187 217 255
187 217 255
186 216 255
185 216 255
185 216 255
184 216 255
185 216 255
202 225 255
189 218 255
183 215 255
183 215 255
184 215 255
184 215 255
184 215 255
184 216 255
184 216 255
185 216 255
185 216 255
186 216 255
186 216 255
186 217 255
186 217 255
187 217 255
188 217 255
188 218 255
190 218 255
190 219 255
191 219 255
193 220 255
193 220 255
195 221 255
197 222 255
200 224 255
203 225 255
211 230 255
211 230 255
211 230 255
211 230 255
211 230 255
211 230 255
211 230 255
211 230 255
210 229 255
210 230 255
210 230 255
210 229 255
210 229 255
210 229 255
210 229 255
210 229 255
210 229 255
210 229 255
210 229 255
210 229 255
210 229 255
210 229 255
210 229 255
210 229 255
210 229 255
210 229 255
210 229 255
210 229 255
210 229 255
210 229 255
210 229 255
210 229 255
210 229 255
209 229 255
210 229 255
209 229 255
66 103 181
66 102 181
67 103 181
62 99 181
60 98 181
66 102 181
70 105 181
61 98 181
51 85 0
61 98 181
70 105 181
66 102 181
63 100 181
61 99 181
62 99 181
53 87 0
68 103 181
65 102 181
63 100 181
65 102 181
54 87 0
57 95 181
67 103 181
57 96 181
58 96 181
59 97 181
58 97 181
59 97 181
59 97 181
60 98 181
65 101 181
62 99 181
61 99 181
68 104 181
69 105 181
54 87 0
58 96 181
67 103 181
60 98 181
59 97 181
58 96 181
65 101 181
62 99 181
66 102 181
52 86 0
69 104 181
68 104 181
62 99 181
63 100 181
60 98 181
66 102 181
64 100 181
67 103 181
64 101 181
66 102 181
64 101 181
52 86 0
62 99 181
68 104 181
62 99 181
64 101 181
71 106 181
57 95 181
62 99 181
68 104 181
48 68 0
58 96 181
58 91 0
209 229 255
210 229 255
210 229 255
210 229 255
210 229 255
210 229 255
210 229 255
210 229 255
210 229 255
210 229 255
210 229 255
210 229 255
210 229 255
210 229 255
210 229 255
210 229 255
210 229 255
210 229 255
210 229 255
210 229 255
210 229 255
210 229 255
210 229 255
210 230 255
210 229 255
210 229 255
210 229 255
210 229 255
211 230 255
210 230 255
210 230 255
211 230 255
211 230 255
211 230 255
211 230 255
87 34 0
161 135 51
159 134 51
183 175 114
170 169 114
169 169 114
49 59 36
93 46 2
169 169 114
168 168 114
163 166 114
52 10 0
164 167 114
163 166 114
175 172 114
167 168 114
173 139 51
167 168 114
193 180 114
71 22 0
109 70 0
164 166 114
185 176 114
181 175 114
169 169 114
149 130 51
178 173 114
164 136 51
182 175 114
167 168 114
185 176 114
137 83 10
164 166 114
166 168 114
166 167 114
189 178 114
187 177 114
155 132 51
196 181 114
184 176 114
83 35 0
193 180 114
148 129 51
178 173 114
184 175 114
184 176 114
168 168 114
190 179 114
170 169 114
152 131 51
177 172 114
165 167 114
153 132 51
163 166 114
169 169 114
183 175 114
32 3 0
167 168 114
177 173 114
163 166 114
167 168 114
185 176 114
168 168 114
170 169 114
192 179 114
176 172 114
169 169 114
168 168 114
196 181 114
190 179 114
173 171 114
172 170 114
191 179 114
189 178 114
154 132 51
172 170 114
177 172 114
191 179 114
187 177 114
163 166 114
193 180 114
192 179 114
166 168 114
169 169 114
155 108 22
169 169 114
125 92 0
171 170 114
181 174 114
157 154 0
163 166 114
168 168 114
154 152 0
110 61 4
145 148 0
164 167 114
80 23 0
174 171 114
159 155 0
154 108 22
175 172 114
152 131 51
184 176 114
159 134 51
173 171 114
156 132 51
182 175 114
111 71 0
181 174 114
115 51 2
163 166 114
164 167 114
181 174 114
178 173 114
167 168 114
176 141 51
167 137 51
143 120 0
175 171 114
168 168 114
192 179 114
55 13 0
166 167 114
164 157 0
166 167 114
164 167 114
158 133 51
4 0 0
146 149 0
201 184 114
193 180 114
202 225 255
202 225 255
201 225 255
201 225 255
201 224 255
201 224 255
200 224 255
200 224 255
200 224 255
200 224 255
199 223 255
199 224 255
199 223 255
199 223 255
199 223 255
198 223 255
198 223 255
198 223 255
198 223 255
198 223 255
197 222 255
197 222 255
197 222 255
196 222 255
196 222 255
196 222 255
196 222 255
196 222 255
195 221 255
195 221 255
195 221 255
194 221 255
207 228 255
200 224 255
195 221 255
195 221 255
205 226 255
195 221 255
207 228 255
195 221 255
210 229 255
195 221 255
213 231 255
195 221 255
195 221 255
194 221 255
195 221 255
194 221 255
195 221 255
195 221 255
195 221 255
219 235 255
194 221 255
195 221 255
194 221 255
195 221 255
195 221 255
194 221 255
194 221 255
195 221 255
194 221 255
194 221 255
192 208 0
171 196 0
193 220 255
194 220 255
194 221 255
194 221 255
193 220 255
194 221 255
194 221 255
184 203 0
193 220 255
192 220 255
193 220 255
193 220 255
193 220 255
193 220 255
192 220 255
192 219 255
193 220 255
191 219 255
191 219 255
191 219 255
191 219 255
191 219 255
166 194 0
190 219 255
190 219 255
191 219 255
190 219 255
190 219 255
190 219 255
188 218 255
184 215 255
189 218 255
188 217 255
189 218 255
187 217 255
187 217 255
187 217 255
211 230 255
187 217 255
186 216 255
184 216 255
185 216 255
184 216 255
184 216 255
184 215 255
184 216 255
185 216 255
185 216 255
185 216 255
185 216 255
185 216 255
186 216 255
186 217 255
187 217 255
187 217 255
188 217 255
189 218 255
189 218 255
190 218 255
190 219 255
191 219 255
193 220 255
194 221 255
195 221 255
197 222 255
198 223 255
202 225 255
205 227 255
211 230 255
211 230 255
211 230 255
211 230 255
211 230 255
211 230 255
211 230 255
211 230 255
211 230 255
210 230 255
210 230 255
210 230 255
210 230 255
210 230 255
210 230 255
210 230 255
210 230 255
210 230 255
210 229 255
210 229 255
210 229 255
210 229 255
210 229 255
210 229 255
210 229 255
210 229 255
210 229 255
210 229 255
210 229 255
210 229 255
210 229 255
210 229 255
65 102 181
60 97 181
52 86 0
69 104 181
65 102 181
60 98 181
59 97 181
69 104 181
62 99 181
61 98 181
53 87 0
66 102 181
51 86 0
61 99 181
60 97 181
60 98 181
57 95 181
58 96 181
60 98 181
61 99 181
60 98 181
61 98 181
58 96 181
65 101 181
64 100 181
59 97 181
57 96 181
57 96 181
69 105 181
67 103 181
66 102 181
61 98 181
59 97 181
64 101 181
54 88 0
57 95 181
66 102 181
59 91 0
64 101 181
59 97 181
67 103 181
61 98 181
62 99 181
61 98 181
67 103 181
60 98 181
57 96 181
59 97 181
61 98 181
66 102 181
60 98 181
59 97 181
64 101 181
68 103 181
65 101 181
63 100 181
68 104 181
58 96 181
58 96 181
64 100 181
56 89 0
57 95 181
70 106 181
61 99 181
59 97 181
62 99 181
53 75 80
56 89 0
47 67 0
69 105 181
68 104 181
55 88 0
210 229 255
210 229 255
210 229 255
210 229 255
210 229 255
210 229 255
210 229 255
210 229 255
210 229 255
210 229 255
210 229 255
210 229 255
210 229 255
210 230 255
210 229 255
210 230 255
211 230 255
210 229 255
211 230 255
211 230 255
211 230 255
211 230 255
211 230 255
211 230 255
211 230 255
211 230 255
211 230 255
211 230 255
211 230 255
211 230 255
211 230 255
211 230 255
211 230 255
160 134 51
166 167 114
184 176 114
144 104 22
200 183 114
164 167 114
39 5 0
172 170 114
105 56 0
52 75 80
26 21 0
55 15 0
176 172 114
176 172 114
54 76 80
184 175 114
165 167 114
46 6 0
94 53 0
174 171 114
185 176 114
165 167 114
171 139 51
183 175 114
181 174 114
147 129 51
116 72 0
104 56 0
169 169 114
162 166 114
155 153 0
201 184 114
183 175 114
168 169 114
184 176 114
171 170 114
176 172 114
174 171 114
176 172 114
184 175 114
163 166 114
163 166 114
184 176 114
165 167 114
184 176 114
179 173 114
41 44 16
190 179 114
179 173 114
162 166 114
169 169 114
190 178 114
171 170 114
172 170 114
116 89 0
182 175 114
165 167 114
201 184 114
193 180 114
181 174 114
181 174 114
164 166 114
185 176 114
201 184 114
176 172 114
184 176 114
165 167 114
119 78 10
166 168 114
172 170 114
122 64 4
181 174 114
178 173 114
169 169 114
162 166 114
68 25 0
163 166 114
177 172 114
172 170 114
187 177 114
148 129 51
147 149 0
150 150 0
198 182 114
177 173 114
189 178 114
164 167 114
165 167 114
192 180 114
164 166 114
178 173 114
163 166 114
192 180 114
194 180 114
165 167 114
149 150 0
192 180 114
167 168 114
171 169 114
179 174 114
124 65 4
175 172 114
145 128 51
177 172 114
171 169 114
185 176 114
174 171 114
173 171 114
185 176 114
163 166 114
163 166 114
178 173 114
200 183 114
174 171 114
148 129 51
176 172 114
172 170 114
129 115 0
109 57 0
176 172 114
188 177 114
188 178 114
176 172 114
195 181 114
10 1 0
171 160 0
185 176 114
201 184 114
195 181 114
157 153 0
187 177 114
202 225 255
202 225 255
202 225 255
202 225 255
201 225 255
201 224 255
201 224 255
201 224 255
200 224 255
200 224 255
200 224 255
200 224 255
200 224 255
199 223 255
199 223 255
199 223 255
198 223 255
198 223 255
198 223 255
198 223 255
198 223 255
197 222 255
197 222 255
197 222 255
197 222 255
197 222 255
197 222 255
197 222 255
196 222 255
203 225 255
196 222 255
198 223 255
196 222 255
196 221 255
196 222 255
207 228 255
205 227 255
196 222 255
196 222 255
195 221 255
196 222 255
196 222 255
195 221 255
195 221 255
196 221 255
195 221 255
196 222 255
196 222 255
196 222 255
196 222 255
196 222 255
195 221 255
196 222 255
191 219 255
195 221 255
174 198 0
196 221 255
195 221 255
196 222 255
195 221 255
195 221 255
195 221 255
195 221 255
195 221 255
195 221 255
195 221 255
195 221 255
195 221 255
194 221 255
195 221 255
194 221 255
194 221 255
194 221 255
194 220 255
194 221 255
193 220 255
194 221 255
194 221 255
194 220 255
193 220 255
193 220 255
192 220 255
193 220 255
193 220 255
190 206 0
192 219 255
192 220 255
192 219 255
192 220 255
191 219 255
192 220 255
184 216 255
191 219 255
191 219 255
191 219 255
189 218 255
190 219 255
189 218 255
189 218 255
188 218 255
189 218 255
189 218 255
188 217 255
210 229 255
186 217 255
186 217 255
186 217 255
185 216 255
185 216 255
185 216 255
186 216 255
185 216 255
185 216 255
185 216 255
186 216 255
186 217 255
186 217 255
187 217 255
187 217 255
188 217 255
188 218 255
189 218 255
190 218 255
190 218 255
191 219 255
193 220 255
193 220 255
194 221 255
196 221 255
198 223 255
199 223 255
202 225 255
206 227 255
211 230 255
211 230 255
211 230 255
211 230 255
211 230 255
211 230 255
211 230 255
211 230 255
211 230 255
211 230 255
211 230 255
211 230 255
211 230 255
211 230 255
211 230 255
211 230 255
211 230 255
211 230 255
211 230 255
210 230 255
210 230 255
211 230 255
210 229 255
210 229 255
210 230 255
210 229 255
210 230 255
210 229 255
210 229 255
210 229 255
61 99 181
57 95 181
61 98 181
60 98 181
65 101 181
64 101 181
57 95 181
60 97 181
60 98 181
56 89 0
64 101 181
61 98 181
58 96 181
67 103 181
58 96 181
58 96 181
64 101 181
57 90 0
60 98 181
61 99 181
62 99 181
64 100 181
51 85 0
63 100 181
63 100 181
69 105 181
69 104 181
69 105 181
56 89 0
67 103 181
62 99 181
62 99 181
66 102 181
54 88 0
65 101 181
59 97 181
65 101 181
57 96 181
60 98 181
67 103 181
68 103 181
69 104 181
58 96 181
59 91 0
51 85 0
63 100 181
52 86 0
63 100 181
64 101 181
60 98 181
53 87 0
69 105 181
62 99 181
70 105 181
58 96 181
59 97 181
66 102 181
59 97 181
62 99 181
68 104 181
55 76 80
62 99 181
59 97 181
62 100 181
59 97 181
64 101 181
65 101 181
68 104 181
52 86 0
71 106 181
57 77 80
65 102 181
58 96 181
70 106 181
210 229 255
210 229 255
210 229 255
210 229 255
210 229 255
210 229 255
211 230 255
210 229 255
210 230 255
211 230 255
211 230 255
210 230 255
211 230 255
210 230 255
211 230 255
211 230 255
211 230 255
211 230 255
211 230 255
211 230 255
211 230 255
211 230 255
211 230 255
211 230 255
211 230 255
211 230 255
211 230 255
211 230 255
211 230 255
211 230 255
211 230 255
178 173 114
120 78 10
51 74 80
171 170 114
129 93 0
51 15 0
172 170 114
167 168 114
174 140 51
107 49 2
133 95 0
167 168 114
166 168 114
175 172 114
90 49 0
174 171 114
177 173 114
130 94 0
173 170 114
180 174 114
170 169 114
166 168 114
100 48 2
167 168 114
195 181 114
61 80 80
172 170 114
167 168 114
197 182 114
167 168 114
52 75 80
46 66 0
47 67 0
171 170 114
178 173 114
176 172 114
176 172 114
162 166 114
184 176 114
164 167 114
189 178 114
17 4 0
175 172 114
172 170 114
180 174 114
185 176 114
169 169 114
168 168 114
167 168 114
189 178 114
165 157 0
186 177 114
107 70 0
198 182 114
179 173 114
192 179 114
178 173 114
179 173 114
194 180 114
183 175 114
194 181 114
163 166 114
201 184 114
195 181 114
179 173 114
191 179 114
148 106 22
163 166 114
190 178 114
183 175 114
186 177 114
181 175 114
164 166 114
167 168 114
182 175 114
176 172 114
98 54 0
166 168 114
162 166 114
181 174 114
165 167 114
122 79 10
173 171 114
189 178 114
174 171 114
175 171 114
160 134 51
163 166 114
183 175 114
169 169 114
173 170 114
173 161 0
177 172 114
176 172 114
192 179 114
179 173 114
188 177 114
146 148 0
85 29 0
145 148 0
161 165 114
196 181 114
125 80 10
147 129 51
168 168 114
193 180 114
169 169 114
173 170 114
178 142 51
133 82 10
201 184 114
171 170 114
185 176 114
170 169 114
167 168 114
165 167 114
189 178 114
163 166 114
180 174 114
200 184 114
195 181 114
184 176 114
151 130 51
131 115 0
167 168 114
191 179 114
193 180 114
182 175 114
191 179 114
178 173 114
193 180 114
196 181 114
203 225 255
202 225 255
202 225 255
202 225 255
202 225 255
201 224 255
201 225 255
201 224 255
201 224 255
201 224 255
200 224 255
200 224 255
200 224 255
200 224 255
199 223 255
199 223 255
199 223 255
199 223 255
198 223 255
198 223 255
198 223 255
198 223 255
198 223 255
197 222 255
197 222 255
197 222 255
197 222 255
204 226 255
214 231 255
200 224 255
196 222 255
217 233 255
206 227 255
196 222 255
196 222 255
197 222 255
197 222 255
197 222 255
197 222 255
197 222 255
197 222 255
197 222 255
196 222 255
197 222 255
196 222 255
196 222 255
197 222 255
197 222 255
197 222 255
197 222 255
196 222 255
196 222 255
197 222 255
196 222 255
197 222 255
197 222 255
196 222 255
197 222 255
197 222 255
190 219 255
196 222 255
196 222 255
196 222 255
196 222 255
196 222 255
196 222 255
196 222 255
196 222 255
196 221 255
196 221 255
195 221 255
195 221 255
195 221 255
195 221 255
194 221 255
195 221 255
194 221 255
194 221 255
194 221 255
194 221 255
195 221 255
194 221 255
194 221 255
194 220 255
193 220 255
194 221 255
165 193 0
193 220 255
193 220 255
192 220 255
193 220 255
192 220 255
192 220 255
192 220 255
191 219 255
192 219 255
192 219 255
191 219 255
191 219 255
191 219 255
189 218 255
190 219 255
189 218 255
189 218 255
188 218 255
189 218 255
208 228 255
188 217 255
199 223 255
186 216 255
186 216 255
185 216 255
185 216 255
186 216 255
186 217 255
186 217 255
187 217 255
187 217 255
187 217 255
188 217 255
188 218 255
189 218 255
189 218 255
190 218 255
191 219 255
192 219 255
193 220 255
194 221 255
195 221 255
196 222 255
199 223 255
200 224 255
203 226 255
210 230 255
211 230 255
211 230 255
211 230 255
211 230 255
211 230 255
211 230 255
211 230 255
211 230 255
211 230 255
211 230 255
211 230 255
211 230 255
211 230 255
211 230 255
211 230 255
211 230 255
211 230 255
211 230 255
211 230 255
211 230 255
211 230 255
211 230 255
211 230 255
211 230 255
211 230 255
211 230 255
211 230 255
210 229 255
61 98 181
61 93 0
58 96 181
65 102 181
58 96 181
54 88 0
57 95 181
67 103 181
53 87 0
64 100 181
20 42 0
59 97 181
62 99 181
60 98 181
59 97 181
67 103 181
69 105 181
57 96 181
62 99 181
61 99 181
54 88 0
62 99 181
54 88 0
60 98 181
60 98 181
69 105 181
71 106 181
69 104 181
58 97 181
58 96 181
64 101 181
60 98 181
68 103 181
61 99 181
60 98 181
68 104 181
58 91 0
65 102 181
60 98 181
62 99 181
69 105 181
55 88 0
63 100 181
65 102 181
61 98 181
66 102 181
55 89 0
62 99 181
71 106 181
64 101 181
66 102 181
64 101 181
67 103 181
60 98 181
63 100 181
70 105 181
62 99 181
59 97 181
59 97 181
58 90 0
62 99 181
61 98 181
58 91 0
54 75 80
66 103 181
63 100 181
54 88 0
60 98 181
63 100 181
64 100 181
61 98 181
69 105 181
51 85 0
69 105 181
52 75 80
210 229 255
210 230 255
211 230 255
211 230 255
211 230 255
211 230 255
211 230 255
211 230 255
211 230 255
211 230 255
211 230 255
211 230 255
211 230 255
211 230 255
211 230 255
211 230 255
211 230 255
211 230 255
211 230 255
211 230 255
211 230 255
211 230 255
211 230 255
211 230 255
211 230 255
211 230 255
211 230 255
211 230 255
211 230 255
162 166 114
172 170 114
44 50 0
184 176 114
164 166 114
200 183 114
181 174 114
176 172 114
164 167 114
179 173 114
175 172 114
157 133 51
166 167 114
170 169 114
170 169 114
163 166 114
52 74 80
156 132 51
179 173 114
187 177 114
192 179 114
185 176 114
162 166 114
171 170 114
46 66 0
164 166 114
153 152 0
183 175 114
169 169 114
180 174 114
187 177 114
120 74 0
148 129 51
186 176 114
183 175 114
161 135 51
168 168 114
188 178 114
163 135 51
182 175 114
163 166 114
179 174 114
170 169 114
66 21 0
174 171 114
165 167 114
175 171 114
167 168 114
176 172 114
165 167 114
170 169 114
173 171 114
155 132 51
186 176 114
163 166 114
177 172 114
171 170 114
161 165 114
173 140 51
169 169 114
179 173 114
180 174 114
192 180 114
169 169 114
165 136 51
175 171 114
182 175 114
160 110 22
199 183 114
193 180 114
165 167 114
166 167 114
198 182 114
201 184 114
199 183 114
124 91 0
194 181 114
170 169 114
200 184 114
162 166 114
167 168 114
151 151 0
184 176 114
196 182 114
174 171 114
188 178 114
183 175 114
147 129 51
87 42 0
168 168 114
184 176 114
174 171 114
162 166 114
166 137 51
148 129 51
162 166 114
187 177 114
167 168 114
177 173 114
174 171 114
163 166 114
155 153 0
179 173 114
194 181 114
168 168 114
166 168 114
165 167 114
188 177 114
192 179 114
50 13 0
153 152 0
145 128 51
189 178 114
190 179 114
180 174 114
174 171 114
196 182 114
182 175 114
147 149 0
156 153 0
180 174 114
195 181 114
188 178 114
43 9 0
173 171 114
168 138 51
199 183 114
175 172 114
184 176 114
195 181 114
169 159 0
69 17 0
192 180 114
150 130 51
203 225 255
203 225 255
203 225 255
202 225 255
202 225 255
202 225 255
202 225 255
201 225 255
201 224 255
201 224 255
201 224 255
201 224 255
200 224 255
200 224 255
200 224 255
200 224 255
199 223 255
199 224 255
199 223 255
199 223 255
199 223 255
198 223 255
198 223 255
202 225 255
198 223 255
198 223 255
198 223 255
224 237 255
198 223 255
197 222 255
198 223 255
198 223 255
198 223 255
197 222 255
198 223 255
178 200 0
198 223 255
198 223 255
198 223 255
197 222 255
198 223 255
198 223 255
198 223 255
198 223 255
197 222 255
198 223 255
198 223 255
198 223 255
198 223 255
198 223 255
198 223 255
197 223 255
197 222 255
197 223 255
197 222 255
197 222 255
197 222 255
197 222 255
197 222 255
198 223 255
197 222 255
197 222 255
197 222 255
197 222 255
171 196 0
197 222 255
196 222 255
197 222 255
197 222 255
196 222 255
197 222 255
196 222 255
196 222 255
196 222 255
196 222 255
196 222 255
196 221 255
195 221 255
196 221 255
195 221 255
196 221 255
195 221 255
195 221 255
195 221 255
195 221 255
195 221 255
195 221 255
194 221 255
194 221 255
194 221 255
194 221 255
194 221 255
194 220 255
193 220 255
192 220 255
192 220 255
192 220 255
192 219 255
192 219 255
185 216 255
191 219 255
191 219 255
191 219 255
191 219 255
219 235 255
190 218 255
190 218 255
189 218 255
188 218 255
188 218 255
223 237 255
187 217 255
191 219 255
189 218 255
187 217 255
187 217 255
187 217 255
187 217 255
188 217 255
188 217 255
188 218 255
189 218 255
189 218 255
190 218 255
190 219 255
191 219 255
192 219 255
193 220 255
194 221 255
195 221 255
196 222 255
198 223 255
199 223 255
201 225 255
206 227 255
212 230 255
211 230 255
212 230 255
211 230 255
212 230 255
211 230 255
211 230 255
211 230 255
211 230 255
211 230 255
211 230 255
211 230 255
211 230 255
211 230 255
211 230 255
211 230 255
211 230 255
211 230 255
211 230 255
211 230 255
211 230 255
211 230 255
211 230 255
211 230 255
211 230 255
211 230 255
211 230 255
57 96 181
58 96 181
57 96 181
60 97 181
51 85 0
56 89 0
64 101 181
51 86 0
64 100 181
62 99 181
68 104 181
63 100 181
52 86 0
59 91 0
69 105 181
57 96 181
67 103 181
68 104 181
52 86 0
61 99 181
56 89 0
62 99 181
68 104 181
68 104 181
54 88 0
70 105 181
63 100 181
61 98 181
66 103 181
69 105 181
70 105 181
55 89 0
63 100 181
64 101 181
69 105 181
69 105 181
59 97 181
68 104 181
62 99 181
68 104 181
57 96 181
57 96 181
65 102 181
65 101 181
63 100 181
63 100 181
58 91 0
67 103 181
59 97 181
64 101 181
66 102 181
57 96 181
64 100 181
61 99 181
51 86 0
63 100 181
59 97 181
60 98 181
71 106 181
52 86 0
60 98 181
48 67 0
66 103 181
64 100 181
65 101 181
59 97 181
58 96 181
65 101 181
69 105 181
62 99 181
65 102 181
59 97 181
67 103 181
58 78 80
63 100 181
57 96 181
68 104 181
211 230 255
211 230 255
211 230 255
211 230 255
211 230 255
211 230 255
211 230 255
211 230 255
211 230 255
211 230 255
211 230 255
211 230 255
211 230 255
211 230 255
211 230 255
211 230 255
211 230 255
211 230 255
211 230 255
211 230 255
211 230 255
211 230 255
211 230 255
212 230 255
212 230 255
212 230 255
184 175 114
131 94 0
189 178 114
68 17 0
171 170 114
85 29 0
166 167 114
55 76 80
94 53 0
176 172 114
51 74 80
54 15 0
165 167 114
167 168 114
168 168 114
185 176 114
109 70 0
147 129 51
162 166 114
193 180 114
176 172 114
155 132 51
170 169 114
22 13 0
191 179 114
175 140 51
158 133 51
172 170 114
184 176 114
162 166 114
185 176 114
57 78 80
177 172 114
181 174 114
163 166 114
180 174 114
191 179 114
194 180 114
88 40 0
184 176 114
166 168 114
164 166 114
182 175 114
171 170 114
194 181 114
175 171 114
167 168 114
163 166 114
163 166 114
165 167 114
187 177 114
189 178 114
196 181 114
190 179 114
165 167 114
184 176 114
174 171 114
171 170 114
194 181 114
193 180 114
171 170 114
148 149 0
184 176 114
168 168 114
165 167 114
187 177 114
117 89 0
171 160 0
172 170 114
166 168 114
144 128 51
149 106 22
164 166 114
179 173 114
169 169 114
194 181 114
149 130 51
191 179 114
164 166 114
171 170 114
146 129 51
166 167 114
169 169 114
163 157 0
178 173 114
188 178 114
164 167 114
197 182 114
166 167 114
182 175 114
146 149 0
146 149 0
184 176 114
167 168 114
170 169 114
190 179 114
161 156 0
184 176 114
148 149 0
200 183 114
189 178 114
173 171 114
171 170 114
179 174 114
181 174 114
162 166 114
175 171 114
171 170 114
168 159 0
165 167 114
147 149 0
188 178 114
167 168 114
191 179 114
152 151 0
195 181 114
181 174 114
170 169 114
150 150 0
101 48 2
165 167 114
150 130 51
194 180 114
164 167 114
169 169 114
193 180 114
177 172 114
172 170 114
193 180 114
147 105 22
194 181 114
189 178 114
174 162 0
186 177 114
97 54 0
203 226 255
203 225 255
203 225 255
203 225 255
202 225 255
202 225 255
202 225 255
202 225 255
202 225 255
201 224 255
201 225 255
201 224 255
200 224 255
201 224 255
200 224 255
200 224 255
200 224 255
200 224 255
199 224 255
200 224 255
199 223 255
199 223 255
208 228 255
199 223 255
199 223 255
198 223 255
198 223 255
218 234 255
207 228 255
198 223 255
199 223 255
199 223 255
198 223 255
199 223 255
213 231 255
198 223 255
217 233 255
199 223 255
198 223 255
199 223 255
195 221 255
223 236 255
199 223 255
199 223 255
199 223 255
198 223 255
198 223 255
198 223 255
199 223 255
198 223 255
198 223 255
198 223 255
199 223 255
199 223 255
199 223 255
199 223 255
198 223 255
198 223 255
198 223 255
198 223 255
198 223 255
198 223 255
198 223 255
198 223 255
198 223 255
198 223 255
197 222 255
197 222 255
198 223 255
198 223 255
197 222 255
197 222 255
189 218 255
197 222 255
197 222 255
197 222 255
197 222 255
196 222 255
197 222 255
196 222 255
196 222 255
188 217 255
196 222 255
196 221 255
196 222 255
196 222 255
196 221 255
195 221 255
196 222 255
195 221 255
195 221 255
194 221 255
195 221 255
194 221 255
194 221 255
194 221 255
194 221 255
193 220 255
192 220 255
193 220 255
193 220 255
168 194 0
192 219 255
191 219 255
192 220 255
191 219 255
191 219 255
191 219 255
190 219 255
189 218 255
206 227 255
202 225 255
186 217 255
187 217 255
194 221 255
197 222 255
187 217 255
188 217 255
188 217 255
188 218 255
189 218 255
189 218 255
189 218 255
190 219 255
190 219 255
191 219 255
192 219 255
193 220 255
194 220 255
194 221 255
195 221 255
197 222 255
198 223 255
201 225 255
205 227 255
206 227 255
212 230 255
212 230 255
212 230 255
212 230 255
212 230 255
212 230 255
212 230 255
212 230 255
212 230 255
212 230 255
212 230 255
212 230 255
211 230 255
211 230 255
211 230 255
211 230 255
211 230 255
211 230 255
211 230 255
211 230 255
211 230 255
211 230 255
211 230 255
211 230 255
55 89 0
64 101 181
64 100 181
54 88 0
64 101 181
63 100 181
53 87 0
58 97 181
60 98 181
51 86 0
61 98 181
62 94 0
58 91 0
62 99 181
62 99 181
63 100 181
67 103 181
67 103 181
69 104 181
68 104 181
67 103 181
63 100 181
63 100 181
57 96 181
69 105 181
59 97 181
66 103 181
62 99 181
60 98 181
68 104 181
55 88 0
59 97 181
66 102 181
68 104 181
62 99 181
64 100 181
61 98 181
62 99 181
57 90 0
67 103 181
60 98 181
52 86 0
46 63 0
55 89 0
64 101 181
66 102 181
69 105 181
67 103 181
69 104 181
55 89 0
58 90 0
59 97 181
64 101 181
59 97 181
62 99 181
58 96 181
66 102 181
56 89 0
70 105 181
66 102 181
51 86 0
51 86 0
51 86 0
54 87 0
67 103 181
58 96 181
60 98 181
58 96 181
69 105 181
63 100 181
52 86 0
64 100 181
67 103 181
60 98 181
70 106 181
60 97 181
60 98 181
61 98 181
57 96 181
211 230 255
211 230 255
211 230 255
211 230 255
211 230 255
211 230 255
211 230 255
211 230 255
211 230 255
211 230 255
211 230 255
212 230 255
212 230 255
212 230 255
212 230 255
212 230 255
212 230 255
212 230 255
212 230 255
212 230 255
212 230 255
212 230 255
212 230 255
212 230 255
212 230 255
176 172 114
178 173 114
143 120 0
164 167 114
191 179 114
162 166 114
124 79 10
164 167 114
179 173 114
71 25 0
91 43 0
57 77 80
155 108 22
164 166 114
188 177 114
184 176 114
164 167 114
166 168 114
57 78 80
59 79 80
52 75 80
165 167 114
0 0 0
177 172 114
166 168 114
173 171 114
166 167 114
180 174 114
179 173 114
180 174 114
185 176 114
174 171 114
180 174 114
20 1 0
171 170 114
182 175 114
169 169 114
162 166 114
151 107 22
173 170 114
187 177 114
171 170 114
199 183 114
175 171 114
188 178 114
194 181 114
163 166 114
44 37 7
199 183 114
181 174 114
122 91 0
167 168 114
195 181 114
165 167 114
163 166 114
173 170 114
164 166 114
195 181 114
200 184 114
76 32 0
168 168 114
190 178 114
193 180 114
173 170 114
117 63 4
196 181 114
168 169 114
178 173 114
174 171 114
166 158 0
193 180 114
189 178 114
177 173 114
165 167 114
166 167 114
156 153 0
193 180 114
179 173 114
183 175 114
153 152 0
201 184 114
169 169 114
164 166 114
172 170 114
164 136 51
182 175 114
175 172 114
152 131 51
162 166 114
161 165 114
185 176 114
179 173 114
191 179 114
171 170 114
145 148 0
189 178 114
198 182 114
190 179 114
146 149 0
191 179 114
168 168 114
169 159 0
153 131 51
120 78 10
103 69 0
69 20 0
171 169 114
149 150 0
173 171 114
181 174 114
185 176 114
188 178 114
194 181 114
182 175 114
165 167 114
198 182 114
164 167 114
166 167 114
152 151 0
198 182 114
187 177 114
99 63 0
192 179 114
25 2 0
194 180 114
155 153 0
198 182 114
178 142 51
172 170 114
155 153 0
193 180 114
159 154 0
146 148 0
196 182 114
191 179 114
34 3 0
203 226 255
203 226 255
203 226 255
203 226 255
203 225 255
202 225 255
202 225 255
202 225 255
202 225 255
202 225 255
201 225 255
201 225 255
201 225 255
201 224 255
201 224 255
201 224 255
201 224 255
201 224 255
200 224 255
200 224 255
200 224 255
203 226 255
200 224 255
199 224 255
199 223 255
199 223 255
199 223 255
174 198 0
199 223 255
200 224 255
199 224 255
199 224 255
199 223 255
216 233 255
200 224 255
200 224 255
200 224 255
200 224 255
199 223 255
200 224 255
199 223 255
200 224 255
199 224 255
199 224 255
200 224 255
199 223 255
168 194 0
200 224 255
200 224 255
200 224 255
199 223 255
199 224 255
199 224 255
200 224 255
200 224 255
199 223 255
199 223 255
200 224 255
199 223 255
199 223 255
199 223 255
199 223 255
199 223 255
199 223 255
198 223 255
199 223 255
198 223 255
198 223 255
198 223 255
198 223 255
199 223 255
198 223 255
198 223 255
198 223 255
198 223 255
198 223 255
189 218 255
198 223 255
198 223 255
197 222 255
198 223 255
198 223 255
197 222 255
197 222 255
197 222 255
197 222 255
196 222 255
197 222 255
196 222 255
188 218 255
196 222 255
196 222 255
196 222 255
195 221 255
195 221 255
195 221 255
195 221 255
195 221 255
194 221 255
194 221 255
194 221 255
194 221 255
193 220 255
193 220 255
193 220 255
162 192 0
191 219 255
192 219 255
191 219 255
192 219 255
190 219 255
190 218 255
190 218 255
189 218 255
201 224 255
188 217 255
188 218 255
188 218 255
189 218 255
189 218 255
189 218 255
189 218 255
190 219 255
190 219 255
191 219 255
191 219 255
192 219 255
192 220 255
193 220 255
194 221 255
195 221 255
197 222 255
198 223 255
199 223 255
203 225 255
209 228 255
208 228 255
212 230 255
212 230 255
212 230 255
212 230 255
212 230 255
212 230 255
212 230 255
212 230 255
212 230 255
212 230 255
212 230 255
212 230 255
212 230 255
212 230 255
212 230 255
212 230 255
212 230 255
212 230 255
211 230 255
211 230 255
211 230 255
212 230 255
212 230 255
57 90 0
63 100 181
62 99 181
52 86 0
71 106 181
63 100 181
66 102 181
66 102 181
69 105 181
66 102 181
57 96 181
61 99 181
64 101 181
61 98 181
64 101 181
53 87 0
51 86 0
65 101 181
65 101 181
65 102 181
61 98 181
52 86 0
51 85 0
66 102 181
63 100 181
66 102 181
61 98 181
55 88 0
64 101 181
64 101 181
70 105 181
60 97 181
65 102 181
61 99 181
57 90 0
66 102 181
59 97 181
66 102 181
67 103 181
63 100 181
55 88 0
51 86 0
67 103 181
68 104 181
61 99 181
67 103 181
57 95 181
54 88 0
60 97 181
55 89 0
67 103 181
64 101 181
60 97 181
57 95 181
53 87 0
53 87 0
67 103 181
64 100 181
60 98 181
57 96 181
66 102 181
64 101 181
62 99 181
58 90 0
57 95 181
55 89 0
68 104 181
68 104 181
58 96 181
58 96 181
69 105 181
69 105 181
64 100 181
71 106 181
65 101 181
54 88 0
50 49 16
53 87 0
59 97 181
68 104 181
211 230 255
211 230 255
211 230 255
211 230 255
212 230 255
212 230 255
212 230 255
212 230 255
212 230 255
212 230 255
212 230 255
212 230 255
212 230 255
212 230 255
212 230 255
212 230 255
212 230 255
212 230 255
212 230 255
212 230 255
212 230 255
212 230 255
212 230 255
165 136 51
150 150 0
154 132 51
172 170 114
51 70 0
188 178 114
119 90 0
169 169 114
171 170 114
170 169 114
163 166 114
163 166 114
23 16 0
193 180 114
163 166 114
170 169 114
185 176 114
60 80 80
62 81 80
187 177 114
48 58 36
132 82 10
165 167 114
169 169 114
164 166 114
105 69 0
162 166 114
177 172 114
53 75 80
149 130 51
165 167 114
169 169 114
96 44 0
162 166 114
166 168 114
170 169 114
186 176 114
172 170 114
65 26 0
177 173 114
97 62 0
191 179 114
184 176 114
184 176 114
164 167 114
53 75 80
194 181 114
60 80 80
169 169 114
174 171 114
187 177 114
166 168 114
177 173 114
169 169 114
171 170 114
170 169 114
176 172 114
171 170 114
185 176 114
167 168 114
166 167 114
183 175 114
167 168 114
163 166 114
176 141 51
173 170 114
185 176 114
165 167 114
178 173 114
163 166 114
177 172 114
172 170 114
166 168 114
173 171 114
196 182 114
187 177 114
167 168 114
192 179 114
193 180 114
167 168 114
176 172 114
184 176 114
169 169 114
187 177 114
150 151 0
197 182 114
168 168 114
200 184 114
189 178 114
188 178 114
183 175 114
164 157 0
145 128 51
146 149 0
173 170 114
179 173 114
190 179 114
174 171 114
190 179 114
162 166 114
154 152 0
155 153 0
180 174 114
168 169 114
146 129 51
200 183 114
171 170 114
159 154 0
154 152 0
171 170 114
171 170 114
201 184 114
180 174 114
198 183 114
183 175 114
179 174 114
179 173 114
174 171 114
177 172 114
163 166 114
178 173 114
179 173 114
179 173 114
182 175 114
183 175 114
192 179 114
162 166 114
193 180 114
174 171 114
170 169 114
176 163 0
190 179 114
175 172 114
150 130 51
177 172 114
164 167 114
94 71 0
204 226 255
204 226 255
204 226 255
203 226 255
203 226 255
203 226 255
203 225 255
203 225 255
202 225 255
202 225 255
202 225 255
202 225 255
202 225 255
201 225 255
201 225 255
201 225 255
201 224 255
201 224 255
200 224 255
200 224 255
205 227 255
200 224 255
204 226 255
200 224 255
200 224 255
200 224 255
200 224 255
200 224 255
200 224 255
200 224 255
200 224 255
200 224 255
200 224 255
200 224 255
201 224 255
200 224 255
201 224 255
200 224 255
201 224 255
201 224 255
200 224 255
201 224 255
201 224 255
201 224 255
200 224 255
200 224 255
200 224 255
200 224 255
200 224 255
200 224 255
200 224 255
200 224 255
200 224 255
200 224 255
200 224 255
200 224 255
200 224 255
200 224 255
200 224 255
200 224 255
200 224 255
200 224 255
200 224 255
199 223 255
200 224 255
200 224 255
200 224 255
200 224 255
199 224 255
199 223 255
199 224 255
199 224 255
199 223 255
199 223 255
199 223 255
186 204 0
199 223 255
198 223 255
198 223 255
199 223 255
198 223 255
198 223 255
198 223 255
197 222 255
198 223 255
198 223 255
197 222 255
197 223 255
197 222 255
197 222 255
197 222 255
197 222 255
197 222 255
197 222 255
196 222 255
196 222 255
196 221 255
196 222 255
195 221 255
179 200 0
187 217 255
195 221 255
194 221 255
194 221 255
194 221 255
194 221 255
193 220 255
193 220 255
192 220 255
193 220 255
220 235 255
191 219 255
191 219 255
191 219 255
190 219 255
190 219 255
190 218 255
190 219 255
189 218 255
189 218 255
189 218 255
190 218 255
190 219 255
191 219 255
191 219 255
192 219 255
192 220 255
192 220 255
193 220 255
194 221 255
195 221 255
196 222 255
198 223 255
199 223 255
201 225 255
203 225 255
206 227 255
212 231 255
212 231 255
212 230 255
212 231 255
212 231 255
212 231 255
212 230 255
212 230 255
212 230 255
212 230 255
212 230 255
212 230 255
212 230 255
212 230 255
212 230 255
212 230 255
212 230 255
212 230 255
212 230 255
212 230 255
212 230 255
212 230 255
61 99 181
60 98 181
62 99 181
58 96 181
57 96 181
59 97 181
56 89 0
58 96 181
59 91 0
57 96 181
68 104 181
67 103 181
55 88 0
58 96 181
63 100 181
58 96 181
52 86 0
61 98 181
66 102 181
18 40 0
65 101 181
67 103 181
61 98 181
60 98 181
58 90 0
54 88 0
53 87 0
70 105 181
58 96 181
70 105 181
69 105 181
66 102 181
64 101 181
63 100 181
61 98 181
57 96 181
70 106 181
59 97 181
55 89 0
52 86 0
52 86 0
58 91 0
55 89 0
59 97 181
59 97 181
69 105 181
52 86 0
52 86 0
64 101 181
58 96 181
69 105 181
69 104 181
58 96 181
66 102 181
53 87 0
68 104 181
63 100 181
63 100 181
58 97 181
61 98 181
55 89 0
65 102 181
69 105 181
58 96 181
67 103 181
69 105 181
62 99 181
70 105 181
67 103 181
62 99 181
61 99 181
68 104 181
68 104 181
69 104 181
61 99 181
68 104 181
51 86 0
58 96 181
61 98 181
52 86 0
58 96 181
66 102 181
60 80 80
212 230 255
212 230 255
212 230 255
212 230 255
212 230 255
212 230 255
212 230 255
212 230 255
212 230 255
212 230 255
212 230 255
212 230 255
212 230 255
212 231 255
212 231 255
212 231 255
212 230 255
212 230 255
212 231 255
212 231 255
212 231 255
58 79 80
43 7 0
54 62 36
166 167 114
166 167 114
164 166 114
183 175 114
182 175 114
164 167 114
37 34 7
176 172 114
172 170 114
105 69 0
160 134 51
172 170 114
177 172 114
162 166 114
164 167 114
156 133 51
179 173 114
121 74 0
183 175 114
56 77 80
160 134 51
179 173 114
175 171 114
177 172 114
167 168 114
183 175 114
169 169 114
184 176 114
174 171 114
163 166 114
167 168 114
168 168 114
154 132 51
189 178 114
162 166 114
156 109 22
197 182 114
56 77 80
162 111 22
171 170 114
166 168 114
171 169 114
170 169 114
170 169 114
189 178 114
164 166 114
154 152 0
148 150 0
172 170 114
157 133 51
198 183 114
120 63 4
171 170 114
200 183 114
178 173 114
174 171 114
162 166 114
158 154 0
170 169 114
166 167 114
156 153 0
163 166 114
194 181 114
145 148 0
153 132 51
172 139 51
169 169 114
182 175 114
196 181 114
185 176 114
166 168 114
188 177 114
179 173 114
190 178 114
201 184 114
186 177 114
200 184 114
196 182 114
201 184 114
191 179 114
189 178 114
183 175 114
189 178 114
163 166 114
167 168 114
45 9 0
162 166 114
188 178 114
172 170 114
104 60 4
185 176 114
148 106 22
174 171 114
163 166 114
175 171 114
162 166 114
181 174 114
178 173 114
163 166 114
186 177 114
175 172 114
184 176 114
186 177 114
171 170 114
181 174 114
116 89 0
196 182 114
165 167 114
173 171 114
168 168 114
163 166 114
168 168 114
169 169 114
199 183 114
180 142 51
148 149 0
188 177 114
200 183 114
158 154 0
132 82 10
160 155 0
194 181 114
186 177 114
163 166 114
175 171 114
132 100 22
189 178 114
162 166 114
82 33 0
133 116 0
194 181 114
175 172 114
191 179 114
183 175 114
204 226 255
204 226 255
204 226 255
204 226 255
204 226 255
204 226 255
203 226 255
203 225 255
203 225 255
203 225 255
203 225 255
202 225 255
202 225 255
202 225 255
202 225 255
202 225 255
202 225 255
201 224 255
201 224 255
201 224 255
204 226 255
205 227 255
201 224 255
201 224 255
201 225 255
209 229 255
201 224 255
201 224 255
201 224 255
201 224 255
201 225 255
218 234 255
201 225 255
201 224 255
202 225 255
201 224 255
201 225 255
201 224 255
201 224 255
201 224 255
201 224 255
201 224 255
201 224 255
201 225 255
201 224 255
202 225 255
201 225 255
201 224 255
201 225 255
201 224 255
201 224 255
201 224 255
201 224 255
201 224 255
201 225 255
201 224 255
201 225 255
201 224 255
201 224 255
201 224 255
201 224 255
201 224 255
201 224 255
201 224 255
200 224 255
200 224 255
201 224 255
193 220 255
200 224 255
200 224 255
200 224 255
200 224 255
200 224 255
200 224 255
200 224 255
200 224 255
200 224 255
199 223 255
200 224 255
199 224 255
199 223 255
190 219 255
199 223 255
199 223 255
199 223 255
199 223 255
198 223 255
198 223 255
198 223 255
198 223 255
198 223 255
198 223 255
198 223 255
197 223 255
197 222 255
198 223 255
197 222 255
197 222 255
197 222 255
196 222 255
196 222 255
196 222 255
196 222 255
196 222 255
196 222 255
195 221 255
195 221 255
194 221 255
195 221 255
194 220 255
194 221 255
194 221 255
193 220 255
192 220 255
192 219 255
191 219 255
191 219 255
190 218 255
191 219 255
190 218 255
190 219 255
191 219 255
190 219 255
191 219 255
191 219 255
192 219 255
192 220 255
193 220 255
194 221 255
194 221 255
195 221 255
196 222 255
198 223 255
198 223 255
200 224 255
202 225 255
203 225 255
207 228 255
213 231 255
213 231 255
213 231 255
212 231 255
213 231 255
212 231 255
213 231 255
212 231 255
213 231 255
212 231 255
212 231 255
212 231 255
212 231 255
212 231 255
212 230 255
212 230 255
212 230 255
212 230 255
212 230 255
212 230 255
54 88 0
55 88 0
55 88 0
58 96 181
66 102 181
60 92 0
67 103 181
62 99 181
60 97 181
70 105 181
68 104 181
63 100 181
65 101 181
51 85 0
51 85 0
55 89 0
55 88 0
69 105 181
65 102 181
65 101 181
69 104 181
51 85 0
69 104 181
62 99 181
54 88 0
60 97 181
63 100 181
62 99 181
63 100 181
62 99 181
58 97 181
59 97 181
58 96 181
59 97 181
55 88 0
57 95 181
66 102 181
51 85 0
61 99 181
69 104 181
57 96 181
65 102 181
54 87 0
66 102 181
51 85 0
70 105 181
59 91 0
57 90 0
67 103 181
65 101 181
65 101 181
70 105 181
65 102 181
62 99 181
53 87 0
58 96 181
64 101 181
70 105 181
68 104 181
64 101 181
61 99 181
64 101 181
60 98 181
66 102 181
70 105 181
65 101 181
62 99 181
57 90 0
60 98 181
58 96 181
68 104 181
56 89 0
64 101 181
59 97 181
52 86 0
69 105 181
62 99 181
59 97 181
52 86 0
62 99 181
58 96 181
57 96 181
59 97 181
63 100 181
212 230 255
212 230 255
212 230 255
212 230 255
212 230 255
212 231 255
212 231 255
212 231 255
212 231 255
212 230 255
212 231 255
212 231 255
212 231 255
212 231 255
213 231 255
212 231 255
212 231 255
213 231 255
213 231 255
213 231 255
186 176 114
187 177 114
116 89 0
165 136 51
53 75 80
50 60 36
180 143 51
179 173 114
169 138 51
54 76 80
179 173 114
174 171 114
27 17 0
176 172 114
172 170 114
164 167 114
163 166 114
49 59 36
179 173 114
166 168 114
178 173 114
166 167 114
63 82 80
171 170 114
172 170 114
173 171 114
165 167 114
186 177 114
186 177 114
76 22 0
179 173 114
195 181 114
173 140 51
46 57 36
180 174 114
178 173 114
52 70 0
179 173 114
55 76 80
173 170 114
144 148 0
177 172 114
163 166 114
185 176 114
189 178 114
187 177 114
172 170 114
56 77 80
166 167 114
176 172 114
177 173 114
191 179 114
191 179 114
163 166 114
175 172 114
167 168 114
167 168 114
178 173 114
182 175 114
184 176 114
148 130 51
163 166 114
145 148 0
167 168 114
167 168 114
187 177 114
162 166 114
163 166 114
187 177 114
162 166 114
163 166 114
186 177 114
181 174 114
176 172 114
198 183 114
134 101 22
162 166 114
198 182 114
168 168 114
141 97 0
174 171 114
198 183 114
159 155 0
157 133 51
188 178 114
177 172 114
199 183 114
188 177 114
147 149 0
165 167 114
175 171 114
160 134 51
179 173 114
171 169 114
176 172 114
178 173 114
185 176 114
168 168 114
179 173 114
146 149 0
201 184 114
138 118 0
201 184 114
181 174 114
162 165 114
180 174 114
164 167 114
130 81 10
187 177 114
187 177 114
185 176 114
201 184 114
165 136 51
185 176 114
182 175 114
167 158 0
170 169 114
111 61 4
166 167 114
166 167 114
201 184 114
196 182 114
169 169 114
164 166 114
102 55 0
198 182 114
174 171 114
146 148 0
195 181 114
189 178 114
154 132 51
153 131 51
178 173 114
174 171 114
200 184 114
177 173 114
201 184 114
148 149 0
205 227 255
205 226 255
205 226 255
204 226 255
204 226 255
204 226 255
204 226 255
203 226 255
204 226 255
204 226 255
203 226 255
203 225 255
203 225 255
203 225 255
203 225 255
202 225 255
202 225 255
201 225 255
202 225 255
205 226 255
205 227 255
201 225 255
201 225 255
202 225 255
202 225 255
201 225 255
202 225 255
202 225 255
202 225 255
202 225 255
202 225 255
219 234 255
202 225 255
202 225 255
202 225 255
202 225 255
202 225 255
202 225 255
202 225 255
202 225 255
202 225 255
202 225 255
202 225 255
202 225 255
197 222 255
202 225 255
202 225 255
202 225 255
202 225 255
202 225 255
202 225 255
202 225 255
202 225 255
202 225 255
202 225 255
201 225 255
201 225 255
201 225 255
201 225 255
201 225 255
201 225 255
202 225 255
202 225 255
201 225 255
201 224 255
201 225 255
201 224 255
201 224 255
201 224 255
201 225 255
201 224 255
201 224 255
201 224 255
201 224 255
201 224 255
201 224 255
200 224 255
200 224 255
200 224 255
200 224 255
200 224 255
200 224 255
200 224 255
199 224 255
200 224 255
199 224 255
200 224 255
199 223 255
199 224 255
199 223 255
199 223 255
199 223 255
199 223 255
198 223 255
163 192 0
198 223 255
198 223 255
198 223 255
198 223 255
197 222 255
197 222 255
197 222 255
197 222 255
178 200 0
196 222 255
196 222 255
196 222 255
195 221 255
195 221 255
195 221 255
194 221 255
194 221 255
195 221 255
194 220 255
194 220 255
193 220 255
192 220 255
192 220 255
191 219 255
190 219 255
195 221 255
191 219 255
191 219 255
192 219 255
192 220 255
192 220 255
193 220 255
193 220 255
194 220 255
194 221 255
195 221 255
196 222 255
197 222 255
198 223 255
199 223 255
200 224 255
203 225 255
203 226 255
210 229 255
213 231 255
213 231 255
213 231 255
213 231 255
213 231 255
213 231 255
213 231 255
213 231 255
213 231 255
213 231 255
213 231 255
212 231 255
213 231 255
213 231 255
212 231 255
212 231 255
212 231 255
212 231 255
58 96 181
63 100 181
54 88 0
61 98 181
58 96 181
62 99 181
56 89 0
54 87 0
60 92 0
51 85 0
67 103 181
67 103 181
63 100 181
57 90 0
68 104 181
54 88 0
61 99 181
68 104 181
67 103 181
57 90 0
64 100 181
66 102 181
67 103 181
70 106 181
58 96 181
53 87 0
60 98 181
71 106 181
68 104 181
58 96 181
58 96 181
62 99 181
67 103 181
64 101 181
63 100 181
52 86 0
60 98 181
65 101 181
60 98 181
58 90 0
56 89 0
60 98 181
65 101 181
69 104 181
62 99 181
65 101 181
70 105 181
63 100 181
68 104 181
68 104 181
59 91 0
61 98 181
65 101 181
61 99 181
57 90 0
60 98 181
52 86 0
69 105 181
63 100 181
71 106 181
67 103 181
54 87 0
64 101 181
64 100 181
70 105 181
66 102 181
69 104 181
67 103 181
53 87 0
70 105 181
62 99 181
58 91 0
67 103 181
58 96 181
57 90 0
63 100 181
69 104 181
65 101 181
60 97 181
66 102 181
61 98 181
62 99 181
59 79 80
64 100 181
52 86 0
58 91 0
213 231 255
213 231 255
212 231 255
212 231 255
212 231 255
213 231 255
213 231 255
212 231 255
213 231 255
213 231 255
213 231 255
213 231 255
213 231 255
213 231 255
213 231 255
213 231 255
213 231 255
213 231 255
213 231 255
146 129 51
171 170 114
15 21 11
168 168 114
57 78 80
181 175 114
174 171 114
168 168 114
125 75 0
166 168 114
178 173 114
167 168 114
162 166 114
172 170 114
157 133 51
184 176 114
173 171 114
61 80 80
179 173 114
62 17 0
162 166 114
183 175 114
167 168 114
175 172 114
175 172 114
182 175 114
170 169 114
162 166 114
183 175 114
156 133 51
166 167 114
166 167 114
174 171 114
52 74 80
162 156 0
165 167 114
111 50 2
183 175 114
131 133 0
163 166 114
201 184 114
185 176 114
86 48 0
163 166 114
170 169 114
54 76 80
167 168 114
178 173 114
169 169 114
186 176 114
164 166 114
195 181 114
165 167 114
156 153 0
48 58 36
128 93 0
179 173 114
175 171 114
168 168 114
179 174 114
166 158 0
180 174 114
148 130 51
171 170 114
171 170 114
167 168 114
200 183 114
146 129 51
181 174 114
170 169 114
139 118 0
162 166 114
167 168 114
180 174 114
186 177 114
186 177 114
193 180 114
183 175 114
156 153 0
186 177 114
170 169 114
178 173 114
157 154 0
65 14 0
177 173 114
201 184 114
175 171 114
164 167 114
177 172 114
177 173 114
196 182 114
165 167 114
181 174 114
34 25 0
187 177 114
168 168 114
182 175 114
192 180 114
123 74 0
195 181 114
179 173 114
178 173 114
189 178 114
174 171 114
183 175 114
186 177 114
195 181 114
175 172 114
188 178 114
156 133 51
181 174 114
110 50 2
174 171 114
167 168 114
201 184 114
154 152 0
167 168 114
192 179 114
170 169 114
182 175 114
170 169 114
154 152 0
190 179 114
177 172 114
189 178 114
167 168 114
141 119 0
168 168 114
177 172 114
167 168 114
185 176 114
153 131 51
198 183 114
154 132 51
144 120 0
185 176 114
163 166 114
119 73 0
205 227 255
205 227 255
205 227 255
205 226 255
204 226 255
205 226 255
204 226 255
204 226 255
204 226 255
204 226 255
204 226 255
203 226 255
203 226 255
203 225 255
203 225 255
203 225 255
203 225 255
202 225 255
203 225 255
202 225 255
202 225 255
202 225 255
202 225 255
211 230 255
203 225 255
203 225 255
202 225 255
203 225 255
203 225 255
203 225 255
203 225 255
203 225 255
203 225 255
203 225 255
203 225 255
203 225 255
181 201 0
203 225 255
203 225 255
203 225 255
202 225 255
203 225 255
198 223 255
202 225 255
203 225 255
203 225 255
202 225 255
203 225 255
203 225 255
202 225 255
203 225 255
203 225 255
202 225 255
203 225 255
202 225 255
203 225 255
202 225 255
202 225 255
202 225 255
202 225 255
166 193 0
202 225 255
202 225 255
202 225 255
202 225 255
202 225 255
202 225 255
202 225 255
202 225 255
202 225 255
202 225 255
202 225 255
201 225 255
202 225 255
201 224 255
202 225 255
201 225 255
202 225 255
201 224 255
201 224 255
201 224 255
201 224 255
192 220 255
201 224 255
200 224 255
201 224 255
200 224 255
200 224 255
200 224 255
191 219 255
200 224 255
199 223 255
199 223 255
199 224 255
200 224 255
199 223 255
199 224 255
199 224 255
198 223 255
199 223 255
198 223 255
198 223 255
198 223 255
198 223 255
198 223 255
197 223 255
197 222 255
197 222 255
197 222 255
196 222 255
196 222 255
195 221 255
196 221 255
196 222 255
194 221 255
194 221 255
193 220 255
193 220 255
207 228 255
193 220 255
191 219 255
192 219 255
192 219 255
192 220 255
192 220 255
193 220 255
193 220 255
193 220 255
194 221 255
195 221 255
195 221 255
196 222 255
197 222 255
197 223 255
199 223 255
200 224 255
201 224 255
204 226 255
206 227 255
211 230 255
213 231 255
213 231 255
213 231 255
213 231 255
213 231 255
213 231 255
213 231 255
213 231 255
213 231 255
213 231 255
213 231 255
213 231 255
213 231 255
213 231 255
213 231 255
213 231 255
213 231 255
67 103 181
66 102 181
59 91 0
65 102 181
64 101 181
63 100 181
59 97 181
67 103 181
63 100 181
60 98 181
70 105 181
65 102 181
55 89 0
59 97 181
54 87 0
63 100 181
68 104 181
58 96 181
55 88 0
63 100 181
60 98 181
63 100 181
57 96 181
65 102 181
67 103 181
65 101 181
61 98 181
66 102 181
71 106 181
62 99 181
57 96 181
53 87 0
52 86 0
60 92 0
59 97 181
54 87 0
52 86 0
62 99 181
65 101 181
68 104 181
64 101 181
59 97 181
68 104 181
66 102 181
68 103 181
66 102 181
57 96 181
54 87 0
62 99 181
52 86 0
70 105 181
63 100 181
65 102 181
68 104 181
66 102 181
66 102 181
60 97 181
69 104 181
59 97 181
57 96 181
59 92 0
54 87 0
62 99 181
52 86 0
56 73 0
67 103 181
60 97 181
57 96 181
69 104 181
55 88 0
65 101 181
62 99 181
55 88 0
64 100 181
58 96 181
57 78 80
55 88 0
61 99 181
62 99 181
57 90 0
71 106 181
64 101 181
47 58 36
57 95 181
56 77 80
60 98 181
213 231 255
213 231 255
213 231 255
213 231 255
213 231 255
213 231 255
213 231 255
213 231 255
213 231 255
213 231 255
213 231 255
213 231 255
213 231 255
213 231 255
213 231 255
213 231 255
213 231 255
195 181 114
151 130 51
50 60 36
15 21 11
162 166 114
162 166 114
153 131 51
178 173 114
192 180 114
171 139 51
15 26 25
35 26 0
1 2 0
165 167 114
171 170 114
165 167 114
175 171 114
52 74 80
57 78 80
166 167 114
174 171 114
89 42 0
53 75 80
164 167 114
181 174 114
164 167 114
163 166 114
165 167 114
47 54 0
169 169 114
169 169 114
77 23 0
58 78 80
175 172 114
179 173 114
178 173 114
165 167 114
192 180 114
190 178 114
178 173 114
164 167 114
50 59 36
63 82 80
167 168 114
176 172 114
53 75 80
166 167 114
188 178 114
186 177 114
173 171 114
165 167 114
185 176 114
192 180 114
185 176 114
135 95 0
198 182 114
170 169 114
147 149 0
93 37 0
197 182 114
190 179 114
159 154 0
178 173 114
171 170 114
175 172 114
186 177 114
166 158 0
163 166 114
154 152 0
197 182 114
182 175 114
166 168 114
194 180 114
150 150 0
188 178 114
167 168 114
180 174 114
170 169 114
189 178 114
172 170 114
191 179 114
187 177 114
189 178 114
167 168 114
175 171 114
170 169 114
177 172 114
29 2 0
164 167 114
199 183 114
183 175 114
163 156 0
162 165 114
193 180 114
193 180 114
164 166 114
185 176 114
164 167 114
181 174 114
165 167 114
189 178 114
198 182 114
191 179 114
196 181 114
170 169 114
184 176 114
10 0 0
196 181 114
152 131 51
199 183 114
163 166 114
167 168 114
161 135 51
194 181 114
162 166 114
166 167 114
197 182 114
199 183 114
181 174 114
172 170 114
171 170 114
162 166 114
158 109 22
179 174 114
195 181 114
164 167 114
159 155 0
129 115 0
166 168 114
9 2 0
197 182 114
158 134 51
180 174 114
156 133 51
169 169 114
175 171 114
172 170 114
163 166 114
195 181 114
90 37 0
206 227 255
206 227 255
205 227 255
205 227 255
205 227 255
205 226 255
205 226 255
205 226 255
204 226 255
205 226 255
204 226 255
204 226 255
204 226 255
204 226 255
204 226 255
203 226 255
205 227 255
206 227 255
203 225 255
203 226 255
203 226 255
203 226 255
204 226 255
203 226 255
203 226 255
203 226 255
203 226 255
204 226 255
203 226 255
203 226 255
203 226 255
204 226 255
204 226 255
200 224 255
204 226 255
204 226 255
203 226 255
204 226 255
204 226 255
204 226 255
204 226 255
203 226 255
203 226 255
166 193 0
204 226 255
203 226 255
204 226 255
203 226 255
203 226 255
204 226 255
204 226 255
203 226 255
203 226 255
204 226 255
203 226 255
203 225 255
203 225 255
203 225 255
203 226 255
203 226 255
203 226 255
203 226 255
203 226 255
203 225 255
203 225 255
195 221 255
203 225 255
203 225 255
202 225 255
202 225 255
202 225 255
202 225 255
202 225 255
202 225 255
202 225 255
202 225 255
202 225 255
202 225 255
202 225 255
202 225 255
202 225 255
202 225 255
202 225 255
201 225 255
202 225 255
201 224 255
201 224 255
201 224 255
201 225 255
201 225 255
201 225 255
192 219 255
200 224 255
201 224 255
200 224 255
200 224 255
200 224 255
200 224 255
200 224 255
200 224 255
199 223 255
199 223 255
199 223 255
199 223 255
199 223 255
199 223 255
198 223 255
198 223 255
198 223 255
198 223 255
197 222 255
197 222 255
167 194 0
165 193 0
196 221 255
196 222 255
195 221 255
220 235 255
194 221 255
194 221 255
193 220 255
192 220 255
192 219 255
193 220 255
193 220 255
193 220 255
194 221 255
194 221 255
194 221 255
195 221 255
195 221 255
196 222 255
197 222 255
198 223 255
199 223 255
200 224 255
201 224 255
202 225 255
205 227 255
209 229 255
213 231 255
213 231 255
213 231 255
213 231 255
213 231 255
213 231 255
213 231 255
213 231 255
213 231 255
213 231 255
213 231 255
213 231 255
213 231 255
213 231 255
213 231 255
213 231 255
60 98 181
57 95 181
60 97 181
65 101 181
68 104 181
53 87 0
65 101 181
58 96 181
62 99 181
62 99 181
65 102 181
53 87 0
58 96 181
60 98 181
62 99 181
67 103 181
70 106 181
64 100 181
61 98 181
69 105 181
70 106 181
61 98 181
65 102 181
57 90 0
52 86 0
69 105 181
62 99 181
66 103 181
51 86 0
66 102 181
66 102 181
68 104 181
61 99 181
68 104 181
70 106 181
64 100 181
51 85 0
69 105 181
61 98 181
51 86 0
52 86 0
54 87 0
53 87 0
51 86 0
60 98 181
57 96 181
56 89 0
69 105 181
54 88 0
52 86 0
62 99 181
59 97 181
66 102 181
67 103 181
54 88 0
67 103 181
68 104 181
62 99 181
56 89 0
58 96 181
69 105 181
62 99 181
51 86 0
64 101 181
57 95 181
65 101 181
60 98 181
69 105 181
61 99 181
70 105 181
65 101 181
60 98 181
52 86 0
66 102 181
64 100 181
53 87 0
59 97 181
53 87 0
51 85 0
68 104 181
17 34 57
66 103 181
60 98 181
54 88 0
59 97 181
65 102 181
51 74 80
51 74 80
213 231 255
213 231 255
213 231 255
213 231 255
213 231 255
213 231 255
213 231 255
213 231 255
213 231 255
213 231 255
213 231 255
213 231 255
213 231 255
213 231 255
213 231 255
213 231 255
172 170 114
94 43 0
167 168 114
53 75 80
125 80 10
168 169 114
162 166 114
47 54 0
189 178 114
168 168 114
48 67 0
41 51 0
173 170 114
177 172 114
172 170 114
101 55 0
51 74 80
179 173 114
161 134 51
165 167 114
181 174 114
49 59 36
110 50 2
169 159 0
185 176 114
189 178 114
165 167 114
48 68 0
181 174 114
186 177 114
168 168 114
181 174 114
174 171 114
169 169 114
177 172 114
167 168 114
150 130 51
191 179 114
152 107 22
194 181 114
167 168 114
176 172 114
198 182 114
162 166 114
168 168 114
168 168 114
153 152 0
181 174 114
164 167 114
164 167 114
194 181 114
175 171 114
180 174 114
198 182 114
200 184 114
167 168 114
166 167 114
163 156 0
175 172 114
168 168 114
182 175 114
152 151 0
176 172 114
165 167 114
188 178 114
84 36 0
151 151 0
183 175 114
166 168 114
195 181 114
172 170 114
168 168 114
175 171 114
173 171 114
162 166 114
168 168 114
163 166 114
173 171 114
188 178 114
201 184 114
163 166 114
172 170 114
191 179 114
175 171 114
193 180 114
195 181 114
171 160 0
180 174 114
187 177 114
163 166 114
167 168 114
169 169 114
174 171 114
181 174 114
185 176 114
181 174 114
163 166 114
167 168 114
193 180 114
164 167 114
166 167 114
153 152 0
166 168 114
180 174 114
135 117 0
173 170 114
185 176 114
199 183 114
184 176 114
200 184 114
163 166 114
164 167 114
168 168 114
184 176 114
182 175 114
162 135 51
201 184 114
157 126 0
176 172 114
155 153 0
84 41 0
163 166 114
195 181 114
190 178 114
167 158 0
165 167 114
168 168 114
169 159 0
1 1 0
173 170 114
196 182 114
163 166 114
116 89 0
196 181 114
166 167 114
174 171 114
177 172 114
194 180 114
197 182 114
158 154 0
206 227 255
206 227 255
206 227 255
206 227 255
206 227 255
206 227 255
205 227 255
205 227 255
205 227 255
205 227 255
205 226 255
205 226 255
205 226 255
204 226 255
217 233 255
210 229 255
204 226 255
208 228 255
204 226 255
204 226 255
204 226 255
203 225 255
214 231 255
204 226 255
204 226 255
204 226 255
202 225 255
204 226 255
204 226 255
204 226 255
204 226 255
204 226 255
201 224 255
204 226 255
204 226 255
205 226 255
205 226 255
205 226 255
204 226 255
205 226 255
205 226 255
205 226 255
205 226 255
205 226 255
205 226 255
204 226 255
204 226 255
204 226 255
204 226 255
204 226 255
204 226 255
204 226 255
204 226 255
204 226 255
204 226 255
204 226 255
204 226 255
204 226 255
204 226 255
204 226 255
204 226 255
204 226 255
204 226 255
204 226 255
204 226 255
196 222 255
204 226 255
203 226 255
204 226 255
204 226 255
203 225 255
203 225 255
203 226 255
203 226 255
203 226 255
203 225 255
203 225 255
203 226 255
203 225 255
203 225 255
203 225 255
203 225 255
202 225 255
202 225 255
202 225 255
202 225 255
202 225 255
202 225 255
202 225 255
202 225 255
202 225 255
202 225 255
202 225 255
202 225 255
201 224 255
201 224 255
201 224 255
201 224 255
181 201 0
200 224 255
200 224 255
169 195 0
200 224 255
200 224 255
200 224 255
199 223 255
199 223 255
199 223 255
199 224 255
199 223 255
198 223 255
198 223 255
198 223 255
198 223 255
197 222 255
196 222 255
196 222 255
196 222 255
196 222 255
195 221 255
195 221 255
221 236 255
194 221 255
194 221 255
194 220 255
194 221 255
194 221 255
195 221 255
195 221 255
195 221 255
196 222 255
197 222 255
197 222 255
198 223 255
198 223 255
199 224 255
201 224 255
202 225 255
204 226 255
206 227 255
208 228 255
214 231 255
214 231 255
214 231 255
214 231 255
214 231 255
213 231 255
213 231 255
214 231 255
213 231 255
214 231 255
213 231 255
213 231 255
213 231 255
213 231 255
213 231 255
62 94 0
51 85 0
67 103 181
67 103 181
51 85 0
63 100 181
62 99 181
51 85 0
68 104 181
52 86 0
57 96 181
65 102 181
64 101 181
68 104 181
56 89 0
51 86 0
68 104 181
59 97 181
53 87 0
68 104 181
67 103 181
61 98 181
64 100 181
66 102 181
60 97 181
63 100 181
63 100 181
66 102 181
53 87 0
68 104 181
69 105 181
60 98 181
52 86 0
64 101 181
53 86 0
64 100 181
56 89 0
57 90 0
59 91 0
53 87 0
67 103 181
52 86 0
55 88 0
54 87 0
52 86 0
55 88 0
60 97 181
57 90 0
62 99 181
58 96 181
66 103 181
68 104 181
69 105 181
61 98 181
61 98 181
51 86 0
57 90 0
59 97 181
67 103 181
55 89 0
61 98 181
16 38 0
57 90 0
60 92 0
70 105 181
58 96 181
59 97 181
7 7 0
12 24 0
64 100 181
71 106 181
60 97 181
64 100 181
64 100 181
51 86 0
58 90 0
49 68 0
56 89 0
59 91 0
62 99 181
53 87 0
71 106 181
62 99 181
52 74 80
67 103 181
69 105 181
8 0 0
56 77 80
213 231 255
213 231 255
213 231 255
213 231 255
213 231 255
213 231 255
214 231 255
213 231 255
214 231 255
213 231 255
214 231 255
214 231 255
214 231 255
214 231 255
214 231 255
186 177 114
13 20 11
163 166 114
162 166 114
190 178 114
176 172 114
162 166 114
52 75 80
46 57 36
163 166 114
173 170 114
52 75 80
47 58 36
167 168 114
51 60 36
165 167 114
163 166 114
166 167 114
48 58 36
135 101 22
164 167 114
49 59 36
162 166 114
149 150 0
71 18 0
180 174 114
166 168 114
53 75 80
167 168 114
173 171 114
174 171 114
183 175 114
53 75 80
194 181 114
188 177 114
170 169 114
171 170 114
168 168 114
193 180 114
188 177 114
171 170 114
164 167 114
149 150 0
201 184 114
50 69 0
168 168 114
192 179 114
170 160 0
172 170 114
173 170 114
169 169 114
187 177 114
189 178 114
170 169 114
201 184 114
194 180 114
165 167 114
154 132 51
136 96 0
200 183 114
178 173 114
164 167 114
150 106 22
183 175 114
162 165 114
173 170 114
164 166 114
186 177 114
185 176 114
193 180 114
165 167 114
51 74 80
167 168 114
176 172 114
191 179 114
170 160 0
179 173 114
164 167 114
199 183 114
199 183 114
171 170 114
198 182 114
48 10 0
179 173 114
153 152 0
166 167 114
147 149 0
182 175 114
162 166 114
179 173 114
163 166 114
160 155 0
197 182 114
162 166 114
185 176 114
147 149 0
184 175 114
200 184 114
165 167 114
189 178 114
180 174 114
190 178 114
151 151 0
194 180 114
197 182 114
98 47 2
42 48 0
195 181 114
151 151 0
174 171 114
164 167 114
190 178 114
193 180 114
197 182 114
187 177 114
191 179 114
179 173 114
185 176 114
194 180 114
181 174 114
200 183 114
130 99 22
166 167 114
198 183 114
169 169 114
185 176 114
196 182 114
155 132 51
178 173 114
161 156 0
183 175 114
194 180 114
169 169 114
168 168 114
185 176 114
178 173 114
197 182 114
183 175 114
178 173 114
114 62 4
140 119 0
207 228 255
207 227 255
206 227 255
206 227 255
206 227 255
206 227 255
206 227 255
206 227 255
206 227 255
205 227 255
205 227 255
205 227 255
205 226 255
205 226 255
205 226 255
205 227 255
208 228 255
210 229 255
205 226 255
205 227 255
205 226 255
215 232 255
205 227 255
205 226 255
205 227 255
205 227 255
205 226 255
205 226 255
205 226 255
205 227 255
205 227 255
205 227 255
205 227 255
205 227 255
205 226 255
205 227 255
205 227 255
205 227 255
166 194 0
205 227 255
205 227 255
201 224 255
205 227 255
205 227 255
205 226 255
205 226 255
205 227 255
205 226 255
205 226 255
205 227 255
205 226 255
205 227 255
205 226 255
205 226 255
205 227 255
205 226 255
205 227 255
205 227 255
185 204 0
205 227 255
204 226 255
204 226 255
204 226 255
205 226 255
204 226 255
204 226 255
204 226 255
204 226 255
204 226 255
204 226 255
205 226 255
142 151 0
204 226 255
204 226 255
204 226 255
203 226 255
204 226 255
204 226 255
204 226 255
204 226 255
203 226 255
203 226 255
204 226 255
204 226 255
203 226 255
203 226 255
203 225 255
203 225 255
203 225 255
202 225 255
202 225 255
202 225 255
202 225 255
202 225 255
202 225 255
202 225 255
202 225 255
202 225 255
202 225 255
201 224 255
201 224 255
201 225 255
201 225 255
201 224 255
201 224 255
200 224 255
200 224 255
200 224 255
200 224 255
200 224 255
199 224 255
192 220 255
199 223 255
199 223 255
199 223 255
199 223 255
198 223 255
198 223 255
197 222 255
197 222 255
196 222 255
196 222 255
196 222 255
195 221 255
194 221 255
195 221 255
195 221 255
195 221 255
196 222 255
196 222 255
197 222 255
197 222 255
198 223 255
198 223 255
199 223 255
200 224 255
200 224 255
202 225 255
204 226 255
206 227 255
207 228 255
208 228 255
214 231 255
214 231 255
214 231 255
214 231 255
214 231 255
214 231 255
214 231 255
214 231 255
214 231 255
214 231 255
214 231 255
214 231 255
214 231 255
70 105 181
60 98 181
59 92 0
62 99 181
71 106 181
69 105 181
59 97 181
58 97 181
57 90 0
64 100 181
57 96 181
61 99 181
67 103 181
52 86 0
62 99 181
68 104 181
58 96 181
66 102 181
61 99 181
64 101 181
60 98 181
53 87 0
62 99 181
70 105 181
69 104 181
66 102 181
63 100 181
64 100 181
66 102 181
62 99 181
56 89 0
64 101 181
71 106 181
62 99 181
52 86 0
56 89 0
54 87 0
68 104 181
53 87 0
55 88 0
58 96 181
53 86 0
70 105 181
60 92 0
58 96 181
52 86 0
53 87 0
54 88 0
66 102 181
59 97 181
58 97 181
62 99 181
63 100 181
68 104 181
55 88 0
69 105 181
68 104 181
60 92 0
55 88 0
64 100 181
54 87 0
69 104 181
59 97 181
65 102 181
51 85 0
46 66 0
68 104 181
62 99 181
60 80 80
64 101 181
64 101 181
63 100 181
68 104 181
60 97 181
68 103 181
63 100 181
69 105 181
67 103 181
66 102 181
66 102 181
58 96 181
58 79 80
58 96 181
57 96 181
51 74 80
59 97 181
65 101 181
67 103 181
58 96 181
55 77 80
214 231 255
214 231 255
214 231 255
214 231 255
214 231 255
214 231 255
214 231 255
214 231 255
214 231 255
214 231 255
214 231 255
214 231 255
214 231 255
214 231 255
175 172 114
170 169 114
159 134 51
14 26 25
172 170 114
167 168 114
170 169 114
16 27 25
106 69 0
117 89 0
186 177 114
181 174 114
64 14 0
47 58 36
146 105 22
182 175 114
165 167 114
167 168 114
146 105 22
162 166 114
168 168 114
174 171 114
170 169 114
164 167 114
53 75 80
162 166 114
184 176 114
172 139 51
187 177 114
155 153 0
176 172 114
168 169 114
187 177 114
171 170 114
195 181 114
170 169 114
176 172 114
169 169 114
179 173 114
184 175 114
195 181 114
180 174 114
148 150 0
161 135 51
174 171 114
193 180 114
170 169 114
181 175 114
182 175 114
164 167 114
174 171 114
167 168 114
195 181 114
185 176 114
199 183 114
178 173 114
170 169 114
140 103 22
175 172 114
56 77 80
169 169 114
183 175 114
137 102 22
156 153 0
167 168 114
166 168 114
186 177 114
169 169 114
176 172 114
184 176 114
177 173 114
198 182 114
194 180 114
197 182 114
161 156 0
190 178 114
201 184 114
171 170 114
199 183 114
185 176 114
164 167 114
187 177 114
199 183 114
173 171 114
150 150 0
194 181 114
165 167 114
189 178 114
197 182 114
194 180 114
190 179 114
201 184 114
163 157 0
200 183 114
146 149 0
182 175 114
147 129 51
171 170 114
184 176 114
170 160 0
191 179 114
163 166 114
156 153 0
183 175 114
173 171 114
157 154 0
181 174 114
176 172 114
154 152 0
165 167 114
182 175 114
136 102 22
182 175 114
175 172 114
170 169 114
162 166 114
181 174 114
173 171 114
189 178 114
168 168 114
164 136 51
147 149 0
152 107 22
176 172 114
201 184 114
163 166 114
171 170 114
181 175 114
175 172 114
162 166 114
168 168 114
168 168 114
184 176 114
182 175 114
162 166 114
182 175 114
178 173 114
176 172 114
174 171 114
197 182 114
150 150 0
207 228 255
207 228 255
207 228 255
207 228 255
207 228 255
207 227 255
206 227 255
206 227 255
206 227 255
206 227 255
206 227 255
206 227 255
208 228 255
205 227 255
205 227 255
205 227 255
219 234 255
205 227 255
206 227 255
213 231 255
205 227 255
205 227 255
206 227 255
206 227 255
206 227 255
206 227 255
206 227 255
206 227 255
206 227 255
206 227 255
206 227 255
206 227 255
206 227 255
206 227 255
206 227 255
206 227 255
206 227 255
206 227 255
206 227 255
206 227 255
206 227 255
206 227 255
206 227 255
206 227 255
206 227 255
206 227 255
205 227 255
206 227 255
206 227 255
206 227 255
206 227 255
206 227 255
206 227 255
205 227 255
205 227 255
206 227 255
206 227 255
205 227 255
205 227 255
205 227 255
205 227 255
205 227 255
205 227 255
206 227 255
206 227 255
205 227 255
205 227 255
205 227 255
205 227 255
205 227 255
205 227 255
205 226 255
205 226 255
205 227 255
205 227 255
205 226 255
204 226 255
204 226 255
204 226 255
204 226 255
205 226 255
204 226 255
204 226 255
204 226 255
204 226 255
204 226 255
204 226 255
204 226 255
204 226 255
204 226 255
204 226 255
203 226 255
203 225 255
204 226 255
203 225 255
203 226 255
203 225 255
203 225 255
202 225 255
202 225 255
202 225 255
202 225 255
202 225 255
202 225 255
201 225 255
202 225 255
202 225 255
201 225 255
201 224 255
200 224 255
201 224 255
200 224 255
200 224 255
200 224 255
199 224 255
200 224 255
199 223 255
169 195 0
199 223 255
198 223 255
194 221 255
198 223 255
197 222 255
196 222 255
199 224 255
197 222 255
196 222 255
196 222 255
196 222 255
197 222 255
197 222 255
198 223 255
198 223 255
198 223 255
199 223 255
200 224 255
200 224 255
201 225 255
202 225 255
205 227 255
205 227 255
208 228 255
214 231 255
214 232 255
214 232 255
214 232 255
214 231 255
214 232 255
214 231 255
214 231 255
214 232 255
214 231 255
214 231 255
214 231 255
214 231 255
61 99 181
62 94 0
62 99 181
57 90 0
55 88 0
63 100 181
66 102 181
66 102 181
51 86 0
64 101 181
51 85 0
70 105 181
59 97 181
62 99 181
62 99 181
68 104 181
65 101 181
69 105 181
63 100 181
64 101 181
70 105 181
58 96 181
70 105 181
64 101 181
52 86 0
66 102 181
70 105 181
64 101 181
64 101 181
53 87 0
65 102 181
56 89 0
68 104 181
69 104 181
70 105 181
59 97 181
66 102 181
54 88 0
69 104 181
64 101 181
63 100 181
65 101 181
69 104 181
58 96 181
67 103 181
59 97 181
53 87 0
65 102 181
70 105 181
51 70 0
51 86 0
60 98 181
54 88 0
64 100 181
61 98 181
60 92 0
64 101 181
71 106 181
69 105 181
61 99 181
56 89 0
63 100 181
70 105 181
64 100 181
59 97 181
70 105 181
53 71 0
38 38 0
55 88 0
53 87 0
67 103 181
59 97 181
59 97 181
56 89 0
54 88 0
70 105 181
54 87 0
64 100 181
53 87 0
70 105 181
52 86 0
56 77 80
58 96 181
61 98 181
61 99 181
68 104 181
59 97 181
55 76 80
70 106 181
65 101 181
66 102 181
214 232 255
214 231 255
214 231 255
214 232 255
214 232 255
214 232 255
214 232 255
214 232 255
214 232 255
214 232 255
214 232 255
181 174 114
186 177 114
14 26 25
10 0 0
147 105 22
164 136 51
177 172 114
56 77 80
77 32 0
183 175 114
191 179 114
170 169 114
125 79 10
66 24 0
168 168 114
172 170 114
50 69 0
162 166 114
50 60 36
46 67 0
51 74 80
174 140 51
55 76 80
164 167 114
163 166 114
175 172 114
47 67 0
175 171 114
168 168 114
170 169 114
194 181 114
175 171 114
173 170 114
180 174 114
173 171 114
177 172 114
179 173 114
152 107 22
167 168 114
156 153 0
169 169 114
173 171 114
186 177 114
184 176 114
179 173 114
195 181 114
172 170 114
198 182 114
174 171 114
145 148 0
169 169 114
185 176 114
183 175 114
164 166 114
56 77 80
168 159 0
170 169 114
185 176 114
154 132 51
179 173 114
148 106 22
152 152 0
187 177 114
152 151 0
170 169 114
171 170 114
162 166 114
179 173 114
184 176 114
201 184 114
158 154 0
186 177 114
193 180 114
189 178 114
174 171 114
180 174 114
187 177 114
196 181 114
46 9 0
172 170 114
181 174 114
166 167 114
165 167 114
174 171 114
15 4 0
184 176 114
192 180 114
189 178 114
163 156 0
199 183 114
189 178 114
150 106 22
194 180 114
171 170 114
192 179 114
170 169 114
177 172 114
168 169 114
181 174 114
199 183 114
174 171 114
197 182 114
185 176 114
183 175 114
161 135 51
200 183 114
154 152 0
199 183 114
189 178 114
164 166 114
165 167 114
183 175 114
170 169 114
189 178 114
166 167 114
185 176 114
87 36 0
168 168 114
173 171 114
187 177 114
176 172 114
149 122 0
170 159 0
186 177 114
141 119 0
199 183 114
186 177 114
159 155 0
165 167 114
173 171 114
176 172 114
169 169 114
82 29 0
155 153 0
188 177 114
154 152 0
158 154 0
138 83 10
198 182 114
150 150 0
117 103 0
155 153 0
189 178 114
208 228 255
208 228 255
207 228 255
207 228 255
207 228 255
207 228 255
207 228 255
207 227 255
207 228 255
207 227 255
206 227 255
206 227 255
206 227 255
209 228 255
206 227 255
206 227 255
207 227 255
206 227 255
206 227 255
206 227 255
207 227 255
206 227 255
206 227 255
206 227 255
206 227 255
206 227 255
206 227 255
207 228 255
207 228 255
207 228 255
207 228 255
207 227 255
207 227 255
207 227 255
203 226 255
207 227 255
206 227 255
207 227 255
207 227 255
207 227 255
206 227 255
207 228 255
206 227 255
207 227 255
206 227 255
206 227 255
201 225 255
207 228 255
207 228 255
207 228 255
207 228 255
206 227 255
206 227 255
207 227 255
206 227 255
206 227 255
206 227 255
206 227 255
207 227 255
206 227 255
206 227 255
206 227 255
206 227 255
206 227 255
206 227 255
206 227 255
206 227 255
206 227 255
206 227 255
206 227 255
205 227 255
206 227 255
206 227 255
205 227 255
205 227 255
205 227 255
205 227 255
206 227 255
205 226 255
206 227 255
205 227 255
205 227 255
205 226 255
205 226 255
205 227 255
205 227 255
205 226 255
205 226 255
204 226 255
204 226 255
204 226 255
204 226 255
204 226 255
204 226 255
204 226 255
204 226 255
203 226 255
204 226 255
204 226 255
203 225 255
204 226 255
203 225 255
203 225 255
202 225 255
202 225 255
202 225 255
202 225 255
202 225 255
202 225 255
201 225 255
201 224 255
202 225 255
201 224 255
201 224 255
201 225 255
201 224 255
200 224 255
200 224 255
200 224 255
199 223 255
199 223 255
199 223 255
215 232 255
165 193 0
207 228 255
196 222 255
199 223 255
196 222 255
197 222 255
197 222 255
198 223 255
198 223 255
199 223 255
199 223 255
200 224 255
200 224 255
201 224 255
202 225 255
203 226 255
205 226 255
206 227 255
207 228 255
210 229 255
215 232 255
214 232 255
214 232 255
214 232 255
214 232 255
214 232 255
214 232 255
214 232 255
214 232 255
214 232 255
214 232 255
61 98 181
70 106 181
61 99 181
58 90 0
66 102 181
56 89 0
60 98 181
56 89 0
61 99 181
64 100 181
62 99 181
53 87 0
59 97 181
69 104 181
57 95 181
67 103 181
67 103 181
53 87 0
69 105 181
55 89 0
56 89 0
66 102 181
70 106 181
59 91 0
67 103 181
65 102 181
66 102 181
69 105 181
63 100 181
61 98 181
70 106 181
61 93 0
57 95 181
58 96 181
60 98 181
54 87 0
71 106 181
66 102 181
52 86 0
63 100 181
53 87 0
62 99 181
57 90 0
60 92 0
63 100 181
61 99 181
53 87 0
66 102 181
58 96 181
56 89 0
55 88 0
68 104 181
61 99 181
57 90 0
65 101 181
64 101 181
58 91 0
57 95 181
67 103 181
56 89 0
56 89 0
64 100 181
59 97 181
58 96 181
64 100 181
62 99 181
70 106 181
66 103 181
63 100 181
56 89 0
49 68 0
68 104 181
58 96 181
37 28 3
60 97 181
66 103 181
65 101 181
64 100 181
69 105 181
68 103 181
60 98 181
62 99 181
59 91 0
61 98 181
71 106 181
70 105 181
61 93 0
51 74 80
64 100 181
71 106 181
54 76 80
58 78 80
214 232 255
214 232 255
214 232 255
214 232 255
214 232 255
214 232 255
214 232 255
214 232 255
214 232 255
215 232 255
214 232 255
214 232 255
162 135 51
99 39 0
48 59 36
148 130 51
48 58 36
50 11 0
163 166 114
173 170 114
2 3 0
182 175 114
162 166 114
175 171 114
49 59 36
173 171 114
172 170 114
43 52 0
166 168 114
180 174 114
166 168 114
178 173 114
93 53 0
54 72 0
173 171 114
170 169 114
170 169 114
163 166 114
174 171 114
155 153 0
199 183 114
171 170 114
55 76 80
194 180 114
181 174 114
180 174 114
166 167 114
190 179 114
185 176 114
175 171 114
195 181 114
177 172 114
166 167 114
171 170 114
151 131 51
167 168 114
190 178 114
200 183 114
169 169 114
167 168 114
58 78 80
166 167 114
179 173 114
183 175 114
194 180 114
180 174 114
172 170 114
176 172 114
145 148 0
187 177 114
50 69 0
178 173 114
182 175 114
182 175 114
163 166 114
175 172 114
153 107 22
151 151 0
182 175 114
158 154 0
167 168 114
192 180 114
195 181 114
170 169 114
178 173 114
169 169 114
180 174 114
160 155 0
164 167 114
191 179 114
193 180 114
172 170 114
44 61 0
171 170 114
163 166 114
193 180 114
178 173 114
168 168 114
176 172 114
173 171 114
175 172 114
189 178 114
171 170 114
172 170 114
190 179 114
198 182 114
199 183 114
186 177 114
174 162 0
173 171 114
174 171 114
162 156 0
164 167 114
200 184 114
194 180 114
174 171 114
201 184 114
169 169 114
168 168 114
169 159 0
174 171 114
163 166 114
194 180 114
179 173 114
157 154 0
164 167 114
177 172 114
129 81 10
148 150 0
182 175 114
151 131 51
170 160 0
184 176 114
189 178 114
189 178 114
139 118 0
166 167 114
162 166 114
156 153 0
164 166 114
172 170 114
153 131 51
176 172 114
163 157 0
191 179 114
181 175 114
134 116 0
193 180 114
129 115 0
156 153 0
177 172 114
191 179 114
195 181 114
162 165 114
208 228 255
208 228 255
208 228 255
208 228 255
208 228 255
207 228 255
207 228 255
207 228 255
207 228 255
207 228 255
209 229 255
208 228 255
209 229 255
207 228 255
207 228 255
207 228 255
207 228 255
207 228 255
207 227 255
207 228 255
218 234 255
207 228 255
207 228 255
207 228 255
207 228 255
207 228 255
208 228 255
207 228 255
207 228 255
208 228 255
207 228 255
207 228 255
166 194 0
207 228 255
207 228 255
207 228 255
207 228 255
208 228 255
207 228 255
207 228 255
207 228 255
207 228 255
207 228 255
207 228 255
207 228 255
207 228 255
207 228 255
208 228 255
207 228 255
207 228 255
207 228 255
207 228 255
207 228 255
201 224 255
207 228 255
207 228 255
207 228 255
207 228 255
207 228 255
207 228 255
207 228 255
207 228 255
207 227 255
207 227 255
207 228 255
207 228 255
206 227 255
207 228 255
207 227 255
206 227 255
206 227 255
206 227 255
206 227 255
207 227 255
206 227 255
206 227 255
206 227 255
206 227 255
206 227 255
206 227 255
206 227 255
206 227 255
206 227 255
205 227 255
198 223 255
206 227 255
206 227 255
205 227 255
205 227 255
205 227 255
205 227 255
205 226 255
205 227 255
205 226 255
205 226 255
204 226 255
204 226 255
205 226 255
204 226 255
204 226 255
204 226 255
204 226 255
204 226 255
204 226 255
203 226 255
204 226 255
203 226 255
203 226 255
168 194 0
203 226 255
203 225 255
202 225 255
202 225 255
202 225 255
202 225 255
202 225 255
201 224 255
202 225 255
201 224 255
200 224 255
200 224 255
200 224 255
199 224 255
199 223 255
199 223 255
198 223 255
203 225 255
197 222 255
198 223 255
199 223 255
198 223 255
199 223 255
199 223 255
199 224 255
200 224 255
201 224 255
201 225 255
202 225 255
203 225 255
204 226 255
205 226 255
207 228 255
208 228 255
215 232 255
215 232 255
215 232 255
215 232 255
215 232 255
215 232 255
215 232 255
215 232 255
214 232 255
215 232 255
66 102 181
71 106 181
57 90 0
59 97 181
57 95 181
70 105 181
58 90 0
67 103 181
54 87 0
58 96 181
53 87 0
54 87 0
64 100 181
51 85 0
59 97 181
68 104 181
62 99 181
51 86 0
70 105 181
57 95 181
53 87 0
71 106 181
58 90 0
56 89 0
67 103 181
58 96 181
53 87 0
68 104 181
52 86 0
59 91 0
62 99 181
65 101 181
69 105 181
64 101 181
68 104 181
54 88 0
54 88 0
52 86 0
60 98 181
51 85 0
70 106 181
64 101 181
61 98 181
57 90 0
68 103 181
69 105 181
69 104 181
53 87 0
67 103 181
67 103 181
55 89 0
58 96 181
70 105 181
62 99 181
57 90 0
51 86 0
70 106 181
70 106 181
54 88 0
64 100 181
52 86 0
58 97 181
54 88 0
67 103 181
52 86 0
58 96 181
54 87 0
54 87 0
60 97 181
67 103 181
61 98 181
61 98 181
61 98 181
58 96 181
61 98 181
57 90 0
69 105 181
66 102 181
70 106 181
70 106 181
19 6 0
64 101 181
17 39 0
69 105 181
51 85 0
70 106 181
64 101 181
63 100 181
69 105 181
61 99 181
61 99 181
51 74 80
54 88 0
214 232 255
215 232 255
215 232 255
215 232 255
215 232 255
214 232 255
215 232 255
215 232 255
215 232 255
215 232 255
215 232 255
49 10 0
145 121 0
161 165 114
154 108 22
172 170 114
121 90 0
55 76 80
186 176 114
47 54 0
14 23 0
119 90 0
48 58 36
48 59 36
58 79 80
175 171 114
53 75 80
45 53 0
59 79 80
115 72 0
163 166 114
185 176 114
51 74 80
166 167 114
46 66 0
173 171 114
178 173 114
178 173 114
47 58 36
198 182 114
196 181 114
182 175 114
168 168 114
169 169 114
176 172 114
162 166 114
162 165 114
197 182 114
49 59 36
157 153 0
158 154 0
149 130 51
193 180 114
181 174 114
174 171 114
182 175 114
193 180 114
198 182 114
177 172 114
172 170 114
195 181 114
171 170 114
184 176 114
179 173 114
138 118 0
158 154 0
172 170 114
178 173 114
104 69 0
195 181 114
164 166 114
176 172 114
197 182 114
198 182 114
172 170 114
184 176 114
108 70 0
174 171 114
145 148 0
186 177 114
173 170 114
180 174 114
193 180 114
152 151 0
167 168 114
175 172 114
157 153 0
189 178 114
170 159 0
189 178 114
160 155 0
49 56 0
163 166 114
191 179 114
115 62 4
166 168 114
196 182 114
200 183 114
199 183 114
182 175 114
193 180 114
149 150 0
195 181 114
186 176 114
166 167 114
188 178 114
184 176 114
173 171 114
173 170 114
186 176 114
180 174 114
198 182 114
186 177 114
172 170 114
164 167 114
184 176 114
196 182 114
188 178 114
7 5 0
144 128 51
173 171 114
188 177 114
177 172 114
200 183 114
196 181 114
173 139 51
199 183 114
150 130 51
114 72 0
176 141 51
87 42 0
163 166 114
146 149 0
147 129 51
34 36 0
190 178 114
188 178 114
61 19 0
167 168 114
8 8 0
176 172 114
178 173 114
170 160 0
196 181 114
176 172 114
193 180 114
173 171 114
184 176 114
146 149 0
169 169 114
145 148 0
196 181 114
146 129 51
141 103 22
209 229 255
209 229 255
208 228 255
208 228 255
208 228 255
208 228 255
208 228 255
208 228 255
208 228 255
208 228 255
208 228 255
208 228 255
208 228 255
212 230 255
208 228 255
214 231 255
214 232 255
208 228 255
208 228 255
208 228 255
208 228 255
208 228 255
208 228 255
208 228 255
208 228 255
206 227 255
208 228 255
208 228 255
208 228 255
208 228 255
208 228 255
208 228 255
208 228 255
208 228 255
208 228 255
208 228 255
208 228 255
208 228 255
208 228 255
208 228 255
208 228 255
208 228 255
208 228 255
208 228 255
208 228 255
208 228 255
208 228 255
208 228 255
203 225 255
208 228 255
202 225 255
208 228 255
208 228 255
208 228 255
207 228 255
208 228 255
208 228 255
208 228 255
208 228 255
208 228 255
208 228 255
208 228 255
208 228 255
207 228 255
208 228 255
207 228 255
208 228 255
207 228 255
207 228 255
207 228 255
207 228 255
207 228 255
207 228 255
207 228 255
207 228 255
207 228 255
207 228 255
207 228 255
207 228 255
207 228 255
207 227 255
199 223 255
207 227 255
206 227 255
206 227 255
207 227 255
206 227 255
206 227 255
206 227 255
206 227 255
206 227 255
206 227 255
206 227 255
206 227 255
206 227 255
206 227 255
206 227 255
205 227 255
205 227 255
205 227 255
205 227 255
205 227 255
204 226 255
205 226 255
204 226 255
205 226 255
205 226 255
204 226 255
204 226 255
204 226 255
203 226 255
203 226 255
203 226 255
203 226 255
203 226 255
203 226 255
203 225 255
202 225 255
202 225 255
202 225 255
201 224 255
201 224 255
201 224 255
201 224 255
216 233 255
199 224 255
169 195 0
200 224 255
210 229 255
199 223 255
59 97 181
199 223 255
200 224 255
57 96 181
201 224 255
201 224 255
202 225 255
203 225 255
203 225 255
204 226 255
205 227 255
206 227 255
209 229 255
210 229 255
215 232 255
215 232 255
215 232 255
215 232 255
215 232 255
215 232 255
215 232 255
215 232 255
215 232 255
66 102 181
57 89 0
60 92 0
71 106 181
56 89 0
58 96 181
67 103 181
60 98 181
61 98 181
68 104 181
52 86 0
59 91 0
62 99 181
52 86 0
61 99 181
57 90 0
60 98 181
54 88 0
57 96 181
57 96 181
64 101 181
66 102 181
64 101 181
61 98 181
51 86 0
67 103 181
70 105 181
61 99 181
58 96 181
59 97 181
58 96 181
64 100 181
61 98 181
65 101 181
51 85 0
52 86 0
69 104 181
70 105 181
63 100 181
57 96 181
53 87 0
67 103 181
68 104 181
63 100 181
57 90 0
62 99 181
62 99 181
52 86 0
70 106 181
63 100 181
58 96 181
66 102 181
65 102 181
63 100 181
66 103 181
70 105 181
70 105 181
61 98 181
54 88 0
64 100 181
63 100 181
64 101 181
60 92 0
53 87 0
59 97 181
58 96 181
52 86 0
68 104 181
55 89 0
58 96 181
59 97 181
55 89 0
59 97 181
69 104 181
67 103 181
60 98 181
51 85 0
61 98 181
61 99 181
61 98 181
65 101 181
53 87 0
67 103 181
52 86 0
65 101 181
16 33 57
60 97 181
61 99 181
51 86 0
56 89 0
69 104 181
67 103 181
63 100 181
61 98 181
215 232 255
215 232 255
215 232 255
215 232 255
215 232 255
215 232 255
215 232 255
215 232 255
215 232 255
27 17 0
80 28 0
170 169 114
162 166 114
172 170 114
158 133 51
161 165 114
164 167 114
172 170 114
52 74 80
177 173 114
56 77 80
170 138 51
170 169 114
174 140 51
61 81 80
13 20 11
105 49 2
169 169 114
177 172 114
41 44 16
144 128 51
180 174 114
163 166 114
164 166 114
49 68 0
171 170 114
166 167 114
179 173 114
162 156 0
59 79 80
164 167 114
182 175 114
154 152 0
99 39 0
189 178 114
185 176 114
170 169 114
49 59 36
149 150 0
162 166 114
177 172 114
172 170 114
186 177 114
182 175 114
154 132 51
166 168 114
166 167 114
179 173 114
180 174 114
163 156 0
161 165 114
196 181 114
170 159 0
194 180 114
185 176 114
187 177 114
165 167 114
162 166 114
167 168 114
177 173 114
162 165 114
145 148 0
171 170 114
196 181 114
162 166 114
166 167 114
198 182 114
178 173 114
182 175 114
177 172 114
201 184 114
195 181 114
200 183 114
157 154 0
147 149 0
185 176 114
181 174 114
186 177 114
187 177 114
190 178 114
164 166 114
193 180 114
193 180 114
192 180 114
150 130 51
166 168 114
199 183 114
174 171 114
162 166 114
158 154 0
186 177 114
172 170 114
193 180 114
169 169 114
168 168 114
188 178 114
190 179 114
145 148 0
153 152 0
197 182 114
160 155 0
147 149 0
191 179 114
184 176 114
189 178 114
162 156 0
168 168 114
187 177 114
200 184 114
174 171 114
194 180 114
174 171 114
181 174 114
176 172 114
172 170 114
195 181 114
173 171 114
148 150 0
187 177 114
163 166 114
188 178 114
148 150 0
167 168 114
189 178 114
145 148 0
149 150 0
180 174 114
196 182 114
195 181 114
148 106 22
188 177 114
155 153 0
163 156 0
186 176 114
188 177 114
191 179 114
174 171 114
22 3 0
176 172 114
47 6 0
177 141 51
171 170 114
198 183 114
209 229 255
209 229 255
209 229 255
209 229 255
209 229 255
209 229 255
209 229 255
209 229 255
208 228 255
208 228 255
208 228 255
209 229 255
211 230 255
212 230 255
208 228 255
209 229 255
208 228 255
208 228 255
209 229 255
209 229 255
208 228 255
209 229 255
209 229 255
209 229 255
208 228 255
209 229 255
209 228 255
209 229 255
209 229 255
206 227 255
209 229 255
209 229 255
209 229 255
209 229 255
209 229 255
209 229 255
205 227 255
209 229 255
209 229 255
209 229 255
209 229 255
209 229 255
209 229 255
209 229 255
209 229 255
209 228 255
209 229 255
209 229 255
209 229 255
209 229 255
209 229 255
208 228 255
209 229 255
209 229 255
209 229 255
208 228 255
202 225 255
208 228 255
208 228 255
208 228 255
208 228 255
208 228 255
208 228 255
208 228 255
208 228 255
208 228 255
208 228 255
208 228 255
208 228 255
208 228 255
208 228 255
208 228 255
208 228 255
208 228 255
207 228 255
208 228 255
208 228 255
207 228 255
207 228 255
208 228 255
207 228 255
208 228 255
208 228 255
207 228 255
207 228 255
207 228 255
207 228 255
207 228 255
207 228 255
207 227 255
207 228 255
199 223 255
207 228 255
206 227 255
206 227 255
199 223 255
206 227 255
207 227 255
207 227 255
206 227 255
206 227 255
206 227 255
206 227 255
205 227 255
198 223 255
205 227 255
205 227 255
205 226 255
205 227 255
205 226 255
205 226 255
204 226 255
204 226 255
198 223 255
204 226 255
186 204 0
204 226 255
203 225 255
203 225 255
203 225 255
203 225 255
203 225 255
202 225 255
202 225 255
201 225 255
201 224 255
200 224 255
200 224 255
200 224 255
69 105 181
68 104 181
59 97 181
66 102 181
57 90 0
58 96 181
202 225 255
202 225 255
203 225 255
204 226 255
204 226 255
206 227 255
207 228 255
208 228 255
210 229 255
212 230 255
215 232 255
215 232 255
215 232 255
215 232 255
215 232 255
215 232 255
215 232 255
58 96 181
58 96 181
70 105 181
57 95 181
58 96 181
66 102 181
62 99 181
61 98 181
65 101 181
67 103 181
62 99 181
60 98 181
63 100 181
63 100 181
51 86 0
62 99 181
55 88 0
52 86 0
71 106 181
55 89 0
69 105 181
70 105 181
61 93 0
60 98 181
52 86 0
59 97 181
52 86 0
51 85 0
65 101 181
67 103 181
69 105 181
67 103 181
57 90 0
71 106 181
58 96 181
63 100 181
58 96 181
70 106 181
63 100 181
63 100 181
68 104 181
59 97 181
60 98 181
64 101 181
63 100 181
64 100 181
57 90 0
67 103 181
59 92 0
68 104 181
62 99 181
69 104 181
62 99 181
60 92 0
57 90 0
52 86 0
55 88 0
60 97 181
66 102 181
63 100 181
60 97 181
64 101 181
61 99 181
62 99 181
60 98 181
71 106 181
52 75 80
62 99 181
56 89 0
70 106 181
63 100 181
61 98 181
58 96 181
64 101 181
62 99 181
68 104 181
58 96 181
70 105 181
54 87 0
60 92 0
64 101 181
52 86 0
70 106 181
63 100 181
55 89 0
30 21 1
51 85 0
14 25 25
54 88 0
54 76 80
52 86 0
66 102 181
62 99 181
51 74 80
58 96 181
215 232 255
215 232 255
215 232 255
215 232 255
215 232 255
215 232 255
215 232 255
215 232 255
129 99 22
149 130 51
157 133 51
62 17 0
79 28 0
90 35 0
184 176 114
44 7 0
169 169 114
171 170 114
172 170 114
57 78 80
177 172 114
170 169 114
166 167 114
15 26 25
174 171 114
185 176 114
58 79 80
163 166 114
153 152 0
170 169 114
17 28 25
182 175 114
166 167 114
199 183 114
56 77 80
152 131 51
185 176 114
57 78 80
168 168 114
182 175 114
168 168 114
200 183 114
178 173 114
182 175 114
181 174 114
58 78 80
185 176 114
185 176 114
168 169 114
164 166 114
172 170 114
163 166 114
190 179 114
172 170 114
148 150 0
149 150 0
200 183 114
148 150 0
46 66 0
190 179 114
173 171 114
192 179 114
186 176 114
198 183 114
163 166 114
174 171 114
193 180 114
170 160 0
157 154 0
186 177 114
168 168 114
181 174 114
164 167 114
162 166 114
190 178 114
165 167 114
191 179 114
170 169 114
167 168 114
188 178 114
181 174 114
173 171 114
189 178 114
166 168 114
151 151 0
180 174 114
162 166 114
155 153 0
180 174 114
162 156 0
165 167 114
182 175 114
182 175 114
192 180 114
170 169 114
193 180 114
145 148 0
181 174 114
182 175 114
179 173 114
193 180 114
153 152 0
170 169 114
147 149 0
161 155 0
172 170 114
195 181 114
179 173 114
168 168 114
191 179 114
200 183 114
187 177 114
136 117 0
178 173 114
196 181 114
173 171 114
192 179 114
164 166 114
92 43 0
151 151 0
155 153 0
194 180 114
171 170 114
168 159 0
171 170 114
187 177 114
148 149 0
160 155 0
200 183 114
153 152 0
167 158 0
169 159 0
105 69 0
178 173 114
171 170 114
191 179 114
194 180 114
185 176 114
144 148 0
46 66 0
156 132 51
181 174 114
110 50 2
181 174 114
169 169 114
164 167 114
164 167 114
167 168 114
201 184 114
187 177 114
109 57 0
162 156 0
174 171 114
210 229 255
210 229 255
210 229 255
210 229 255
209 229 255
210 229 255
209 229 255
209 229 255
210 229 255
210 229 255
209 229 255
217 233 255
209 229 255
209 229 255
209 229 255
209 229 255
209 229 255
217 233 255
209 229 255
209 229 255
209 229 255
209 229 255
210 229 255
210 229 255
209 229 255
210 229 255
209 229 255
210 229 255
210 229 255
209 229 255
209 229 255
209 229 255
209 229 255
210 229 255
210 229 255
210 229 255
210 229 255
210 229 255
209 229 255
209 229 255
210 229 255
209 229 255
209 229 255
210 229 255
209 229 255
209 229 255
209 229 255
209 229 255
209 229 255
210 229 255
209 229 255
209 229 255
209 229 255
210 229 255
209 229 255
209 229 255
209 229 255
209 229 255
209 229 255
209 229 255
209 229 255
209 229 255
209 229 255
209 229 255
209 229 255
209 229 255
209 229 255
209 229 255
209 229 255
203 225 255
209 228 255
208 228 255
209 229 255
209 229 255
209 228 255
202 225 255
209 228 255
209 229 255
208 228 255
208 228 255
208 228 255
208 228 255
208 228 255
208 228 255
208 228 255
208 228 255
208 228 255
208 228 255
208 228 255
207 228 255
208 228 255
208 228 255
134 156 0
207 228 255
207 228 255
207 228 255
207 228 255
162 192 0
207 228 255
207 227 255
207 228 255
207 228 255
207 228 255
206 227 255
206 227 255
206 227 255
164 192 0
206 227 255
206 227 255
206 227 255
205 227 255
206 227 255
205 227 255
205 226 255
205 227 255
204 226 255
204 226 255
204 226 255
205 226 255
204 226 255
204 226 255
204 226 255
204 226 255
203 226 255
203 225 255
202 225 255
213 231 255
201 225 255
200 224 255
200 224 255
66 102 181
63 100 181
55 88 0
71 106 181
67 103 181
62 99 181
70 105 181
19 44 128
204 226 255
205 226 255
206 227 255
206 227 255
208 228 255
209 229 255
214 231 255
216 232 255
215 232 255
215 232 255
215 232 255
215 232 255
215 232 255
215 232 255
66 102 181
58 96 181
58 96 181
57 90 0
67 103 181
69 105 181
51 85 0
62 99 181
61 98 181
71 106 181
60 98 181
62 99 181
70 105 181
55 89 0
56 89 0
60 98 181
69 105 181
58 96 181
70 106 181
54 87 0
69 105 181
71 106 181
51 86 0
66 102 181
67 103 181
64 101 181
68 104 181
57 96 181
16 38 0
70 105 181
65 101 181
55 88 0
65 102 181
52 86 0
70 105 181
71 106 181
62 99 181
67 103 181
67 103 181
51 85 0
60 98 181
64 101 181
59 97 181
70 105 181
19 41 0
69 105 181
64 101 181
68 104 181
68 104 181
62 99 181
61 98 181
69 105 181
71 106 181
52 86 0
63 100 181
70 105 181
61 98 181
58 91 0
65 102 181
53 87 0
53 87 0
67 103 181
69 105 181
70 106 181
64 101 181
62 99 181
69 105 181
53 87 0
53 87 0
66 102 181
59 92 0
68 104 181
68 104 181
65 102 181
53 87 0
68 103 181
68 104 181
54 88 0
65 101 181
59 97 181
64 101 181
59 97 181
44 46 16
51 85 0
51 85 0
55 76 80
61 98 181
59 97 181
60 98 181
31 21 1
55 88 0
66 102 181
62 99 181
57 89 0
65 102 181
16 31 0
216 232 255
216 232 255
216 232 255
216 232 255
216 232 255
216 232 255
216 232 255
10 1 0
40 29 3
165 167 114
13 20 11
187 177 114
9 6 0
15 26 25
175 171 114
170 169 114
186 177 114
87 42 0
58 78 80
178 173 114
51 60 36
47 58 36
51 74 80
168 168 114
164 167 114
179 173 114
145 148 0
55 77 80
141 84 10
47 67 0
146 148 0
53 75 80
175 171 114
167 168 114
174 171 114
47 67 0
178 173 114
164 166 114
32 26 3
173 171 114
184 176 114
178 173 114
200 183 114
174 171 114
172 170 114
178 173 114
168 168 114
178 173 114
4 8 8
180 174 114
189 178 114
54 76 80
149 130 51
193 180 114
188 177 114
173 171 114
164 157 0
201 184 114
167 168 114
180 174 114
175 171 114
152 151 0
193 180 114
173 171 114
163 166 114
176 172 114
164 167 114
145 148 0
172 170 114
169 169 114
175 172 114
201 184 114
157 153 0
172 170 114
167 168 114
155 153 0
170 169 114
163 166 114
163 157 0
177 173 114
164 167 114
195 181 114
39 47 0
166 158 0
176 172 114
175 171 114
189 178 114
201 184 114
183 175 114
176 172 114
200 183 114
188 177 114
177 172 114
177 172 114
154 152 0
170 169 114
166 168 114
180 174 114
152 151 0
189 178 114
165 167 114
185 176 114
159 154 0
171 170 114
174 171 114
193 180 114
154 132 51
171 170 114
189 178 114
192 180 114
176 172 114
164 157 0
171 170 114
161 156 0
171 160 0
166 167 114
186 177 114
178 173 114
183 175 114
145 148 0
155 153 0
139 102 22
200 183 114
176 172 114
175 171 114
170 169 114
146 105 22
157 154 0
187 177 114
175 172 114
173 171 114
184 176 114
166 167 114
167 168 114
189 178 114
162 166 114
187 177 114
181 174 114
163 166 114
194 180 114
124 79 10
168 168 114
147 149 0
181 174 114
162 166 114
190 178 114
155 153 0
177 173 114
184 176 114
148 150 0
143 120 0
172 170 114
210 229 255
210 230 255
211 230 255
210 229 255
210 229 255
210 229 255
210 229 255
211 230 255
164 193 0
210 229 255
210 229 255
210 229 255
210 229 255
215 232 255
216 233 255
210 229 255
209 229 255
210 229 255
219 234 255
210 229 255
220 235 255
210 229 255
210 229 255
210 229 255
210 229 255
210 229 255
210 229 255
210 229 255
210 229 255
210 229 255
210 229 255
210 229 255
210 229 255
210 229 255
210 229 255
210 230 255
210 229 255
210 229 255
210 229 255
210 229 255
210 229 255
210 229 255
210 229 255
210 229 255
210 229 255
210 229 255
210 229 255
210 229 255
210 229 255
210 229 255
205 227 255
210 229 255
210 229 255
210 229 255
210 229 255
210 229 255
210 229 255
210 229 255
210 229 255
210 229 255
210 229 255
209 229 255
210 229 255
210 229 255
209 229 255
210 229 255
210 229 255
209 229 255
210 229 255
210 229 255
209 229 255
209 229 255
209 229 255
209 229 255
209 229 255
209 229 255
209 229 255
209 229 255
209 229 255
209 229 255
209 229 255
209 229 255
209 229 255
209 229 255
209 229 255
202 225 255
209 229 255
208 228 255
209 229 255
208 228 255
208 228 255
208 228 255
208 228 255
208 228 255
208 228 255
208 228 255
208 228 255
208 228 255
208 228 255
208 228 255
208 228 255
207 228 255
196 210 0
208 228 255
207 228 255
207 228 255
207 227 255
207 228 255
206 227 255
207 228 255
206 227 255
206 227 255
206 227 255
206 227 255
206 227 255
206 227 255
206 227 255
206 227 255
206 227 255
205 227 255
204 226 255
204 226 255
204 226 255
204 226 255
204 226 255
204 226 255
203 226 255
203 225 255
211 230 255
202 225 255
208 228 255
58 96 181
58 96 181
59 97 181
58 96 181
61 98 181
60 92 0
16 38 0
66 102 181
51 86 0
206 227 255
207 228 255
208 228 255
209 229 255
212 231 255
215 232 255
216 232 255
216 233 255
216 232 255
216 232 255
216 232 255
62 99 181
62 99 181
55 88 0
56 89 0
51 85 0
21 46 128
68 104 181
63 100 181
51 85 0
68 104 181
60 98 181
63 100 181
56 89 0
70 106 181
55 88 0
70 105 181
57 96 181
69 105 181
67 103 181
55 88 0
59 92 0
65 101 181
64 101 181
58 96 181
56 89 0
53 87 0
71 106 181
69 105 181
69 105 181
69 105 181
55 89 0
61 99 181
68 104 181
68 104 181
67 103 181
64 101 181
61 99 181
64 101 181
51 85 0
58 96 181
58 91 0
59 97 181
60 92 0
51 86 0
62 99 181
68 103 181
64 101 181
54 88 0
68 103 181
64 101 181
68 104 181
61 98 181
64 101 181
65 101 181
60 98 181
70 105 181
55 88 0
69 105 181
67 103 181
68 104 181
62 99 181
54 88 0
62 99 181
59 97 181
53 87 0
26 23 0
52 86 0
65 102 181
54 88 0
13 26 0
64 101 181
48 78 0
64 101 181
63 82 80
55 88 0
52 86 0
60 97 181
67 103 181
57 96 181
64 101 181
60 92 0
62 99 181
70 105 181
65 101 181
59 92 0
60 97 181
13 22 0
68 104 181
68 103 181
54 76 80
58 96 181
55 76 80
53 75 80
71 106 181
70 105 181
54 76 80
60 98 181
216 232 255
216 232 255
216 232 255
216 233 255
216 232 255
216 232 255
143 120 0
133 100 22
174 171 114
103 59 4
163 166 114
13 20 11
52 61 36
57 78 80
45 46 16
173 171 114
191 179 114
165 167 114
175 172 114
178 173 114
58 79 80
61 80 80
164 167 114
88 42 0
170 169 114
123 64 4
52 75 80
182 175 114
168 168 114
163 166 114
53 75 80
53 75 80
168 168 114
191 179 114
165 167 114
52 74 80
166 167 114
48 63 0
158 154 0
166 167 114
191 179 114
182 175 114
163 166 114
164 166 114
152 151 0
188 178 114
177 172 114
194 180 114
145 148 0
168 159 0
58 79 80
169 169 114
129 93 0
194 180 114
164 167 114
183 175 114
169 169 114
183 175 114
191 179 114
115 62 4
191 179 114
170 169 114
50 69 0
197 182 114
174 171 114
188 178 114
198 183 114
53 71 0
172 170 114
180 174 114
201 184 114
182 175 114
169 169 114
151 151 0
171 170 114
173 171 114
172 170 114
185 176 114
183 175 114
186 177 114
174 171 114
173 170 114
164 157 0
167 168 114
162 166 114
197 182 114
191 179 114
152 151 0
186 177 114
169 169 114
120 90 0
198 182 114
153 152 0
172 170 114
163 166 114
170 169 114
197 182 114
192 180 114
190 178 114
200 183 114
164 167 114
163 157 0
167 168 114
198 182 114
185 176 114
164 167 114
174 171 114
174 171 114
199 183 114
182 175 114
156 153 0
159 155 0
184 176 114
136 117 0
197 182 114
165 167 114
197 182 114
171 170 114
194 180 114
169 169 114
158 154 0
186 177 114
157 154 0
199 183 114
159 155 0
164 166 114
66 17 0
177 173 114
165 167 114
155 153 0
173 170 114
197 182 114
187 177 114
115 62 4
171 170 114
165 157 0
149 150 0
132 116 0
114 51 2
169 169 114
199 183 114
170 169 114
169 169 114
189 178 114
181 174 114
147 122 0
162 156 0
91 35 0
198 183 114
132 100 22
70 18 0
178 173 114
211 230 255
211 230 255
211 230 255
211 230 255
211 230 255
210 229 255
211 230 255
211 230 255
210 230 255
210 229 255
211 230 255
214 231 255
210 229 255
211 230 255
217 233 255
210 230 255
210 229 255
211 230 255
174 198 0
211 230 255
211 230 255
210 230 255
211 230 255
211 230 255
224 237 255
211 230 255
211 230 255
211 230 255
211 230 255
211 230 255
211 230 255
210 230 255
211 230 255
211 230 255
211 230 255
211 230 255
211 230 255
211 230 255
211 230 255
211 230 255
211 230 255
211 230 255
211 230 255
211 230 255
211 230 255
211 230 255
210 229 255
211 230 255
210 229 255
211 230 255
211 230 255
211 230 255
211 230 255
211 230 255
210 230 255
211 230 255
210 230 255
211 230 255
166 193 0
211 230 255
211 230 255
210 229 255
210 229 255
211 230 255
211 230 255
210 229 255
211 230 255
210 229 255
210 229 255
210 229 255
210 229 255
210 229 255
210 229 255
210 229 255
210 229 255
210 229 255
210 229 255
210 229 255
210 229 255
209 229 255
210 229 255
210 229 255
209 229 255
209 229 255
210 229 255
209 229 255
209 229 255
209 229 255
209 229 255
209 229 255
210 229 255
209 229 255
209 229 255
209 229 255
209 229 255
209 229 255
209 229 255
209 229 255
166 194 0
209 229 255
208 228 255
208 228 255
208 228 255
208 228 255
208 228 255
208 228 255
208 228 255
207 228 255
208 228 255
207 228 255
207 228 255
207 228 255
207 228 255
207 228 255
206 227 255
207 228 255
207 227 255
207 228 255
206 227 255
206 227 255
206 227 255
206 227 255
205 227 255
205 227 255
205 227 255
205 226 255
204 226 255
61 98 181
203 226 255
208 228 255
203 225 255
60 92 0
69 105 181
62 99 181
65 102 181
64 101 181
67 103 181
58 96 181
61 98 181
51 85 0
57 95 181
207 228 255
208 228 255
210 229 255
212 230 255
214 231 255
216 233 255
216 233 255
216 233 255
216 233 255
216 233 255
52 86 0
57 95 181
61 93 0
68 103 181
67 103 181
61 99 181
51 86 0
51 85 0
66 102 181
53 87 0
53 87 0
56 89 0
52 86 0
63 100 181
51 86 0
71 106 181
58 96 181
57 96 181
69 105 181
64 101 181
69 104 181
68 103 181
55 88 0
53 87 0
62 99 181
60 98 181
57 90 0
55 88 0
58 96 181
60 98 181
71 106 181
59 97 181
67 103 181
62 99 181
68 104 181
63 100 181
68 104 181
52 86 0
54 88 0
58 90 0
63 100 181
68 104 181
67 103 181
54 87 0
71 106 181
70 106 181
65 102 181
69 104 181
61 99 181
65 101 181
60 98 181
69 105 181
51 85 0
61 98 181
71 106 181
70 105 181
60 98 181
69 105 181
57 96 181
60 92 0
60 97 181
56 89 0
59 97 181
63 100 181
57 90 0
59 97 181
64 100 181
53 71 0
63 100 181
59 97 181
52 86 0
65 101 181
51 85 0
56 63 36
52 86 0
67 103 181
59 97 181
57 96 181
64 101 181
58 90 0
61 99 181
64 100 181
63 100 181
64 101 181
60 92 0
62 99 181
50 65 0
59 97 181
63 100 181
70 105 181
68 103 181
46 66 0
62 99 181
62 99 181
46 66 0
57 90 0
60 80 80
57 78 80
216 233 255
216 233 255
216 233 255
216 233 255
216 233 255
48 10 0
14 25 25
198 183 114
36 4 0
47 58 36
166 167 114
53 75 80
52 75 80
131 94 0
57 78 80
15 0 0
48 10 0
53 75 80
180 174 114
164 166 114
120 90 0
53 75 80
176 172 114
47 58 36
1 0 0
53 75 80
181 174 114
55 76 80
48 59 36
146 149 0
190 179 114
43 52 0
162 166 114
182 175 114
170 169 114
149 150 0
182 175 114
54 76 80
153 152 0
173 161 0
182 175 114
141 103 22
57 78 80
174 171 114
178 173 114
154 152 0
190 178 114
165 167 114
52 74 80
182 175 114
177 172 114
169 169 114
159 154 0
193 180 114
171 170 114
183 175 114
194 180 114
150 151 0
201 184 114
171 170 114
179 173 114
185 176 114
172 170 114
173 170 114
182 175 114
151 151 0
171 170 114
174 171 114
176 172 114
167 168 114
145 148 0
193 180 114
173 171 114
185 176 114
176 172 114
197 182 114
183 175 114
186 177 114
188 177 114
194 180 114
154 152 0
166 167 114
174 171 114
163 166 114
198 182 114
159 155 0
179 173 114
176 172 114
178 173 114
47 67 0
196 182 114
149 150 0
157 153 0
152 152 0
162 165 114
182 175 114
191 179 114
170 169 114
185 176 114
174 171 114
166 168 114
175 172 114
51 70 0
175 172 114
182 175 114
155 153 0
147 149 0
185 176 114
195 181 114
180 174 114
186 177 114
184 176 114
193 180 114
154 152 0
167 158 0
187 177 114
83 29 0
177 172 114
184 176 114
189 178 114
186 176 114
150 150 0
185 176 114
153 152 0
132 81 10
148 149 0
145 148 0
151 151 0
164 157 0
148 130 51
150 150 0
195 181 114
161 155 0
199 183 114
187 177 114
157 154 0
179 173 114
173 171 114
162 166 114
187 177 114
29 4 0
168 168 114
179 174 114
187 177 114
168 159 0
171 160 0
177 172 114
196 182 114
19 8 0
86 34 0
138 118 0
212 230 255
212 230 255
212 230 255
211 230 255
211 230 255
211 230 255
211 230 255
211 230 255
213 231 255
211 230 255
211 230 255
211 230 255
211 230 255
216 233 255
211 230 255
211 230 255
211 230 255
211 230 255
211 230 255
212 230 255
212 230 255
211 230 255
212 230 255
211 230 255
211 230 255
211 230 255
212 230 255
212 230 255
211 230 255
209 229 255
182 202 0
211 230 255
211 230 255
212 230 255
211 230 255
212 230 255
212 230 255
211 230 255
211 230 255
211 230 255
211 230 255
212 230 255
212 230 255
211 230 255
211 230 255
212 230 255
212 230 255
211 230 255
211 230 255
211 230 255
211 230 255
211 230 255
211 230 255
211 230 255
211 230 255
211 230 255
211 230 255
211 230 255
211 230 255
211 230 255
211 230 255
211 230 255
211 230 255
211 230 255
211 230 255
206 227 255
211 230 255
50 79 0
211 230 255
211 230 255
211 230 255
211 230 255
211 230 255
211 230 255
205 227 255
166 193 0
185 203 0
204 226 255
211 230 255
211 230 255
210 229 255
210 229 255
210 229 255
210 230 255
210 229 255
210 229 255
210 229 255
210 229 255
203 226 255
210 229 255
210 229 255
210 229 255
210 229 255
210 229 255
210 229 255
209 229 255
209 229 255
209 229 255
209 229 255
209 229 255
209 229 255
210 229 255
209 229 255
209 229 255
209 229 255
209 229 255
209 229 255
209 229 255
209 229 255
209 228 255
208 228 255
208 228 255
208 228 255
177 199 0
207 228 255
208 228 255
208 228 255
207 228 255
208 228 255
207 228 255
207 227 255
207 228 255
207 228 255
206 227 255
207 227 255
206 227 255
205 227 255
218 234 255
205 227 255
205 226 255
207 228 255
204 226 255
58 90 0
64 101 181
61 93 0
58 97 181
62 99 181
4 15 0
59 97 181
69 105 181
61 98 181
61 99 181
208 228 255
210 229 255
211 230 255
212 230 255
217 233 255
216 233 255
217 233 255
216 233 255
217 233 255
59 97 181
58 90 0
52 86 0
68 104 181
62 99 181
53 87 0
52 86 0
60 92 0
71 106 181
51 86 0
61 99 181
59 97 181
55 88 0
62 99 181
69 104 181
68 104 181
64 101 181
64 101 181
68 103 181
64 101 181
55 88 0
65 101 181
53 87 0
56 89 0
62 99 181
63 100 181
64 100 181
58 97 181
62 99 181
63 100 181
53 86 0
66 103 181
61 98 181
63 100 181
58 96 181
52 86 0
58 96 181
67 103 181
57 95 181
68 104 181
57 95 181
57 96 181
67 103 181
69 105 181
64 101 181
52 86 0
61 98 181
53 87 0
60 98 181
71 106 181
63 100 181
53 71 0
63 100 181
14 23 0
67 103 181
52 86 0
18 40 0
53 87 0
62 99 181
56 89 0
70 106 181
63 100 181
54 87 0
64 101 181
59 97 181
70 105 181
66 102 181
54 87 0
51 69 0
59 97 181
65 101 181
70 105 181
55 89 0
70 106 181
66 103 181
56 89 0
69 104 181
54 88 0
62 99 181
66 102 181
71 106 181
59 97 181
68 104 181
61 98 181
60 98 181
4 11 0
70 106 181
57 90 0
64 101 181
62 99 181
65 101 181
63 100 181
59 97 181
63 100 181
46 66 0
40 48 0
57 96 181
60 97 181
216 233 255
216 233 255
216 233 255
216 233 255
216 233 255
133 82 10
198 183 114
4 7 3
16 27 25
129 93 0
179 173 114
131 115 0
165 167 114
13 20 11
51 60 36
56 63 36
58 78 80
59 79 80
60 16 0
54 76 80
165 167 114
3 7 0
0 2 0
165 167 114
172 170 114
50 69 0
54 76 80
51 74 80
56 77 80
46 67 0
17 27 25
140 84 10
186 177 114
175 171 114
48 58 36
50 69 0
54 75 80
59 79 80
201 184 114
199 183 114
165 167 114
155 153 0
0 1 0
164 157 0
172 170 114
162 166 114
166 167 114
54 76 80
26 18 0
193 180 114
171 170 114
176 172 114
180 174 114
184 175 114
197 182 114
151 151 0
188 178 114
57 78 80
164 157 0
187 177 114
197 182 114
173 171 114
201 184 114
173 171 114
194 181 114
180 174 114
152 151 0
175 172 114
152 151 0
178 173 114
184 176 114
153 152 0
149 150 0
200 183 114
182 175 114
179 174 114
171 169 114
172 170 114
192 180 114
145 148 0
177 172 114
172 170 114
159 155 0
167 168 114
193 180 114
179 173 114
173 170 114
177 172 114
197 182 114
177 173 114
171 170 114
182 175 114
194 181 114
175 172 114
188 178 114
200 183 114
175 172 114
130 115 0
170 169 114
189 178 114
162 166 114
159 154 0
193 180 114
186 177 114
192 180 114
150 150 0
164 157 0
171 160 0
151 151 0
147 149 0
189 178 114
177 172 114
153 152 0
155 153 0
70 25 0
189 178 114
146 149 0
164 157 0
177 173 114
192 180 114
164 157 0
163 166 114
189 178 114
163 157 0
164 167 114
79 28 0
104 69 0
181 174 114
25 12 0
182 175 114
200 183 114
147 149 0
155 153 0
189 178 114
189 178 114
118 63 4
177 172 114
147 149 0
153 131 51
172 161 0
169 169 114
194 180 114
117 77 10
198 182 114
177 172 114
183 175 114
184 176 114
182 175 114
120 90 0
196 182 114
167 168 114
212 230 255
212 231 255
212 231 255
212 230 255
212 230 255
212 230 255
173 197 0
211 230 255
212 230 255
212 230 255
212 230 255
212 230 255
212 230 255
212 230 255
217 233 255
212 230 255
219 234 255
212 230 255
212 230 255
212 230 255
212 230 255
212 231 255
212 230 255
212 231 255
212 230 255
210 229 255
212 230 255
212 231 255
212 230 255
212 231 255
212 230 255
212 231 255
209 229 255
212 230 255
212 231 255
212 231 255
212 230 255
212 230 255
212 231 255
212 231 255
212 230 255
212 230 255
212 230 255
212 230 255
212 230 255
212 231 255
212 230 255
212 230 255
212 230 255
212 230 255
212 230 255
212 230 255
212 230 255
212 230 255
212 230 255
212 230 255
212 230 255
212 230 255
212 230 255
212 230 255
212 230 255
212 230 255
212 230 255
211 230 255
212 230 255
163 180 0
211 230 255
211 230 255
212 230 255
212 230 255
212 230 255
211 230 255
211 230 255
211 230 255
211 230 255
211 230 255
211 230 255
211 230 255
211 230 255
211 230 255
211 230 255
211 230 255
211 230 255
211 230 255
211 230 255
211 230 255
211 230 255
211 230 255
211 230 255
210 230 255
211 230 255
210 229 255
210 230 255
210 229 255
210 229 255
210 229 255
210 229 255
211 230 255
210 229 255
210 229 255
210 229 255
210 229 255
210 229 255
210 229 255
210 229 255
210 229 255
210 229 255
209 229 255
209 229 255
209 229 255
209 229 255
209 229 255
209 229 255
209 228 255
208 228 255
208 228 255
209 229 255
208 228 255
209 229 255
208 228 255
208 228 255
207 228 255
207 228 255
207 228 255
207 228 255
207 228 255
207 227 255
207 227 255
206 227 255
205 227 255
206 227 255
205 226 255
68 104 181
61 99 181
54 88 0
70 105 181
62 99 181
59 97 181
66 102 181
67 103 181
58 96 181
58 96 181
209 229 255
210 229 255
211 230 255
212 231 255
216 233 255
217 233 255
217 233 255
217 233 255
217 233 255
70 105 181
61 98 181
53 87 0
51 85 0
54 88 0
66 102 181
61 99 181
56 89 0
51 85 0
54 88 0
52 86 0
69 104 181
66 103 181
68 104 181
61 98 181
71 106 181
65 102 181
61 93 0
67 103 181
53 87 0
60 98 181
67 103 181
69 105 181
65 101 181
69 105 181
64 101 181
55 88 0
69 105 181
53 87 0
70 105 181
67 103 181
53 87 0
60 93 0
68 104 181
54 88 0
60 98 181
64 100 181
55 88 0
53 87 0
54 88 0
67 103 181
61 98 181
67 103 181
60 97 181
16 35 0
67 103 181
56 89 0
65 101 181
68 104 181
52 86 0
70 106 181
68 103 181
51 85 0
52 86 0
70 105 181
59 97 181
64 101 181
61 98 181
63 100 181
61 99 181
65 101 181
59 91 0
51 85 0
60 98 181
61 99 181
69 105 181
52 86 0
52 86 0
60 98 181
54 88 0
52 86 0
66 103 181
52 86 0
63 100 181
63 100 181
70 106 181
69 105 181
70 105 181
69 105 181
68 104 181
53 75 80
71 106 181
69 104 181
54 88 0
64 101 181
64 101 181
52 75 80
71 106 181
66 103 181
23 11 0
57 78 80
53 87 0
64 101 181
53 87 0
58 91 0
7 5 0
61 93 0
17 5 0
61 98 181
217 233 255
217 233 255
217 233 255
163 156 0
101 45 0
109 57 0
168 168 114
82 35 0
172 139 51
103 68 0
170 169 114
189 178 114
162 166 114
177 173 114
52 61 36
169 169 114
59 79 80
44 53 0
45 57 36
58 79 80
47 67 0
164 167 114
10 13 0
189 178 114
53 61 36
153 152 0
51 69 0
46 66 0
47 67 0
154 152 0
84 41 0
58 79 80
110 50 2
56 77 80
60 80 80
160 155 0
199 183 114
175 162 0
59 79 80
169 169 114
147 149 0
13 20 11
157 154 0
196 182 114
165 167 114
54 76 80
43 52 0
178 173 114
162 166 114
161 135 51
61 81 80
201 184 114
55 76 80
180 174 114
159 155 0
183 175 114
162 166 114
184 176 114
59 79 80
194 180 114
182 175 114
180 174 114
194 181 114
162 166 114
57 78 80
173 171 114
175 171 114
181 174 114
177 172 114
167 168 114
182 175 114
146 149 0
178 173 114
162 156 0
163 166 114
196 181 114
178 173 114
193 180 114
154 152 0
197 182 114
179 173 114
181 174 114
180 174 114
172 170 114
188 178 114
193 180 114
198 183 114
177 173 114
153 152 0
189 178 114
182 175 114
180 174 114
198 183 114
195 181 114
183 175 114
190 179 114
197 182 114
195 181 114
157 154 0
160 155 0
154 152 0
164 167 114
175 172 114
185 176 114
178 173 114
167 158 0
190 179 114
179 173 114
160 155 0
174 171 114
175 171 114
194 180 114
189 178 114
182 175 114
151 131 51
192 179 114
198 182 114
193 180 114
172 170 114
166 168 114
144 148 0
197 182 114
187 177 114
196 181 114
175 172 114
157 154 0
163 156 0
196 182 114
160 155 0
186 177 114
164 157 0
168 159 0
167 158 0
152 151 0
201 184 114
147 149 0
170 169 114
126 80 10
162 156 0
190 178 114
198 183 114
201 184 114
160 155 0
172 170 114
161 155 0
164 167 114
176 172 114
187 177 114
178 173 114
191 179 114
213 231 255
213 231 255
213 231 255
213 231 255
213 231 255
213 231 255
213 231 255
215 232 255
214 232 255
212 230 255
212 230 255
213 231 255
217 233 255
213 231 255
213 231 255
213 231 255
213 231 255
213 231 255
212 231 255
213 231 255
213 231 255
212 231 255
212 231 255
213 231 255
213 231 255
213 231 255
212 231 255
213 231 255
213 231 255
213 231 255
213 231 255
213 231 255
213 231 255
213 231 255
213 231 255
213 231 255
213 231 255
212 231 255
212 231 255
212 231 255
213 231 255
212 231 255
213 231 255
213 231 255
213 231 255
213 231 255
213 231 255
213 231 255
213 231 255
213 231 255
212 231 255
212 231 255
213 231 255
212 231 255
213 231 255
212 231 255
212 231 255
212 231 255
212 231 255
213 231 255
212 230 255
212 231 255
213 231 255
213 231 255
212 231 255
212 231 255
212 231 255
212 231 255
212 231 255
212 230 255
212 231 255
212 230 255
212 230 255
212 230 255
212 230 255
212 231 255
212 230 255
212 230 255
212 230 255
212 230 255
212 230 255
212 230 255
212 230 255
212 230 255
212 230 255
211 230 255
212 230 255
212 230 255
211 230 255
212 230 255
212 230 255
211 230 255
211 230 255
211 230 255
211 230 255
211 230 255
211 230 255
211 230 255
211 230 255
211 230 255
211 230 255
211 230 255
211 230 255
211 230 255
210 229 255
210 229 255
211 230 255
210 229 255
210 229 255
210 229 255
210 229 255
210 229 255
185 204 0
210 229 255
210 229 255
209 229 255
210 229 255
209 229 255
209 229 255
209 229 255
209 229 255
209 229 255
208 228 255
208 228 255
208 228 255
208 228 255
208 228 255
208 228 255
221 235 255
207 228 255
206 227 255
206 227 255
207 228 255
70 105 181
64 101 181
60 97 181
60 98 181
67 103 181
62 99 181
19 44 128
65 102 181
66 102 181
60 98 181
210 229 255
211 230 255
212 230 255
214 232 255
217 233 255
217 233 255
217 233 255
217 233 255
55 88 0
58 96 181
61 98 181
53 87 0
69 105 181
51 85 0
66 102 181
59 97 181
51 85 0
63 100 181
51 85 0
60 97 181
64 100 181
66 102 181
60 92 0
56 89 0
53 87 0
67 103 181
70 106 181
58 96 181
71 106 181
57 96 181
67 103 181
71 106 181
54 88 0
60 98 181
62 99 181
64 101 181
63 100 181
57 96 181
65 101 181
67 103 181
57 90 0
64 101 181
62 99 181
52 86 0
59 97 181
70 105 181
62 94 0
68 104 181
53 87 0
51 85 0
68 104 181
53 87 0
71 106 181
67 103 181
61 99 181
58 96 181
60 98 181
63 100 181
60 98 181
69 104 181
57 90 0
53 87 0
51 85 0
59 97 181
66 102 181
61 98 181
58 96 181
59 97 181
54 88 0
58 96 181
69 105 181
64 100 181
53 87 0
66 102 181
64 100 181
53 87 0
53 87 0
52 86 0
53 75 80
60 92 0
58 96 181
70 105 181
59 97 181
70 106 181
59 97 181
20 42 0
55 88 0
63 100 181
66 102 181
65 101 181
67 103 181
54 88 0
66 102 181
52 61 36
59 79 80
59 97 181
52 86 0
51 85 0
59 97 181
65 102 181
67 103 181
55 72 0
61 98 181
59 97 181
51 74 80
57 96 181
51 74 80
217 233 255
217 233 255
217 233 255
133 116 0
57 13 0
15 26 25
50 59 36
81 23 0
174 171 114
26 17 0
163 166 114
49 59 36
14 25 25
52 70 0
53 75 80
34 31 0
17 6 0
179 174 114
56 77 80
49 68 0
163 166 114
41 42 0
165 167 114
163 166 114
174 162 0
52 74 80
173 171 114
163 166 114
190 179 114
177 172 114
192 180 114
173 171 114
88 30 0
165 167 114
166 158 0
163 166 114
152 151 0
162 166 114
156 153 0
59 79 80
177 172 114
43 52 0
173 170 114
190 179 114
177 172 114
174 171 114
172 170 114
47 67 0
149 150 0
172 170 114
163 166 114
200 184 114
167 168 114
169 169 114
155 152 0
62 81 80
184 176 114
196 182 114
185 176 114
187 177 114
185 176 114
157 154 0
174 171 114
160 155 0
195 181 114
148 149 0
156 153 0
173 171 114
162 165 114
166 168 114
177 172 114
172 170 114
136 111 0
201 184 114
145 148 0
159 155 0
191 179 114
184 176 114
191 179 114
164 166 114
180 174 114
167 168 114
162 166 114
183 175 114
179 173 114
174 171 114
195 181 114
167 168 114
201 184 114
162 156 0
183 175 114
194 180 114
148 149 0
163 156 0
173 170 114
183 175 114
173 171 114
195 181 114
162 166 114
169 169 114
185 176 114
175 172 114
186 177 114
187 177 114
199 183 114
176 172 114
195 181 114
171 160 0
164 167 114
170 169 114
167 168 114
146 149 0
165 157 0
194 181 114
54 72 0
181 174 114
188 178 114
187 177 114
154 152 0
177 172 114
199 183 114
151 151 0
187 177 114
173 170 114
190 178 114
159 155 0
121 78 10
179 173 114
150 130 51
154 152 0
197 182 114
156 132 51
163 166 114
156 153 0
167 168 114
189 178 114
193 180 114
139 84 10
186 177 114
168 168 114
201 184 114
186 177 114
173 171 114
136 117 0
193 180 114
181 174 114
149 150 0
195 181 114
199 183 114
198 182 114
213 231 255
213 231 255
213 231 255
213 231 255
213 231 255
213 231 255
217 233 255
214 232 255
213 231 255
213 231 255
216 233 255
213 231 255
213 231 255
213 231 255
213 231 255
213 231 255
213 231 255
213 231 255
213 231 255
213 231 255
213 231 255
213 231 255
213 231 255
213 231 255
213 231 255
213 231 255
213 231 255
213 231 255
214 231 255
213 231 255
214 231 255
213 231 255
213 231 255
213 231 255
214 231 255
213 231 255
213 231 255
170 195 0
214 231 255
213 231 255
214 231 255
214 231 255
213 231 255
213 231 255
213 231 255
213 231 255
213 231 255
213 231 255
213 231 255
213 231 255
213 231 255
213 231 255
213 231 255
213 231 255
213 231 255
213 231 255
213 231 255
184 203 0
213 231 255
213 231 255
213 231 255
213 231 255
213 231 255
213 231 255
213 231 255
213 231 255
213 231 255
213 231 255
213 231 255
213 231 255
213 231 255
213 231 255
212 231 255
213 231 255
213 231 255
213 231 255
213 231 255
212 231 255
213 231 255
212 231 255
212 231 255
213 231 255
212 231 255
212 231 255
212 231 255
212 230 255
213 231 255
212 231 255
212 230 255
212 230 255
212 230 255
212 231 255
212 230 255
212 230 255
212 230 255
212 230 255
212 230 255
212 230 255
212 230 255
211 230 255
211 230 255
206 227 255
212 230 255
211 230 255
211 230 255
211 230 255
211 230 255
212 230 255
211 230 255
211 230 255
211 230 255
211 230 255
211 230 255
211 230 255
211 230 255
211 230 255
210 229 255
210 229 255
210 229 255
210 229 255
210 229 255
210 229 255
209 229 255
209 229 255
209 229 255
209 229 255
208 228 255
209 229 255
208 228 255
219 234 255
207 228 255
214 232 255
58 96 181
66 102 181
59 97 181
58 96 181
52 86 0
52 86 0
57 90 0
61 98 181
58 96 181
57 90 0
64 100 181
62 94 0
212 230 255
213 231 255
214 232 255
217 233 255
217 233 255
217 233 255
61 99 181
67 103 181
66 103 181
70 105 181
52 86 0
64 101 181
59 97 181
61 98 181
60 98 181
59 97 181
53 87 0
66 102 181
62 99 181
69 105 181
53 87 0
65 102 181
53 86 0
57 90 0
67 103 181
52 86 0
69 105 181
57 90 0
55 88 0
70 106 181
52 86 0
60 98 181
51 85 0
54 87 0
67 103 181
64 101 181
54 87 0
63 100 181
63 100 181
64 101 181
55 88 0
61 98 181
61 98 181
66 102 181
64 101 181
65 101 181
55 88 0
54 87 0
52 86 0
59 97 181
48 78 0
59 97 181
63 100 181
69 104 181
67 103 181
62 99 181
70 106 181
52 86 0
52 86 0
67 103 181
60 98 181
64 100 181
60 92 0
34 36 0
59 97 181
68 104 181
68 104 181
52 86 0
64 101 181
63 100 181
51 86 0
68 104 181
58 96 181
67 103 181
66 102 181
50 69 0
70 105 181
68 104 181
51 86 0
63 100 181
61 98 181
4 12 0
54 88 0
67 103 181
62 99 181
62 99 181
19 41 0
59 79 80
70 105 181
67 103 181
64 101 181
55 88 0
69 104 181
62 99 181
52 86 0
62 99 181
66 102 181
70 105 181
69 105 181
51 85 0
67 103 181
64 101 181
68 104 181
58 96 181
13 20 11
57 96 181
217 233 255
217 233 255
217 233 255
49 59 36
130 94 0
56 63 36
69 25 0
52 61 36
78 43 0
37 4 0
45 12 0
47 58 36
49 59 36
55 77 80
50 69 0
179 173 114
47 54 0
42 52 0
165 167 114
178 173 114
174 171 114
54 62 36
172 139 51
178 173 114
149 130 51
194 180 114
51 74 80
28 16 0
57 78 80
70 22 0
58 78 80
177 173 114
164 166 114
171 170 114
187 177 114
175 172 114
166 168 114
172 170 114
177 173 114
40 36 7
177 173 114
196 181 114
180 174 114
183 175 114
13 20 11
174 171 114
154 152 0
54 76 80
176 172 114
171 170 114
200 183 114
165 167 114
56 77 80
172 170 114
188 178 114
172 170 114
186 177 114
155 153 0
178 173 114
175 171 114
48 68 0
190 179 114
177 172 114
167 168 114
170 169 114
52 75 80
144 148 0
166 158 0
186 177 114
173 171 114
126 107 0
158 133 51
184 176 114
188 178 114
171 170 114
42 60 0
12 2 0
172 160 0
182 175 114
179 174 114
184 176 114
192 179 114
201 184 114
148 150 0
171 170 114
190 178 114
199 183 114
201 184 114
188 177 114
145 148 0
187 177 114
176 172 114
41 36 7
192 180 114
156 153 0
181 174 114
156 153 0
177 173 114
186 177 114
194 181 114
157 154 0
149 150 0
134 110 0
186 177 114
157 109 22
190 179 114
186 177 114
179 173 114
198 182 114
166 167 114
167 168 114
175 172 114
166 158 0
169 169 114
187 177 114
146 149 0
181 174 114
165 136 51
175 172 114
165 167 114
147 149 0
184 176 114
197 182 114
149 150 0
148 149 0
152 151 0
195 181 114
144 148 0
195 181 114
172 170 114
199 183 114
195 181 114
183 175 114
153 152 0
149 150 0
164 157 0
192 179 114
178 173 114
200 183 114
146 149 0
176 172 114
185 176 114
35 3 0
49 68 0
157 154 0
193 180 114
167 168 114
148 122 0
150 150 0
184 176 114
214 232 255
214 232 255
214 231 255
214 231 255
218 234 255
214 231 255
214 231 255
215 232 255
214 231 255
214 231 255
214 231 255
213 231 255
214 231 255
214 232 255
214 231 255
214 231 255
214 232 255
214 231 255
214 231 255
214 232 255
214 232 255
214 231 255
214 231 255
214 231 255
214 231 255
214 232 255
214 232 255
214 232 255
214 231 255
214 231 255
214 232 255
214 232 255
214 231 255
188 205 0
214 232 255
214 232 255
214 232 255
214 232 255
214 232 255
214 231 255
214 231 255
214 231 255
168 194 0
214 231 255
214 231 255
214 232 255
214 231 255
214 232 255
166 193 0
214 232 255
214 231 255
214 231 255
214 231 255
214 231 255
214 232 255
214 232 255
214 231 255
214 231 255
214 231 255
214 231 255
214 231 255
214 231 255
214 231 255
214 231 255
214 231 255
213 231 255
214 231 255
214 231 255
213 231 255
213 231 255
213 231 255
213 231 255
213 231 255
213 231 255
213 231 255
214 231 255
213 231 255
214 231 255
214 231 255
213 231 255
213 231 255
213 231 255
213 231 255
213 231 255
213 231 255
213 231 255
213 231 255
213 231 255
208 228 255
213 231 255
213 231 255
213 231 255
213 231 255
212 231 255
213 231 255
212 231 255
213 231 255
213 231 255
213 231 255
213 231 255
212 231 255
212 231 255
213 231 255
212 231 255
212 230 255
212 231 255
212 230 255
212 230 255
211 230 255
212 230 255
212 230 255
212 230 255
212 230 255
211 230 255
211 230 255
211 230 255
211 230 255
211 230 255
211 230 255
211 230 255
210 229 255
169 195 0
210 229 255
210 230 255
210 229 255
210 230 255
210 229 255
210 229 255
209 229 255
219 234 255
216 233 255
209 229 255
62 99 181
51 85 0
60 98 181
70 105 181
61 98 181
67 103 181
67 103 181
57 96 181
63 100 181
60 92 0
54 88 0
66 102 181
212 231 255
213 231 255
214 232 255
218 234 255
218 234 255
218 233 255
51 86 0
69 105 181
59 97 181
57 96 181
51 85 0
63 100 181
70 106 181
54 88 0
68 104 181
51 86 0
53 87 0
61 99 181
58 90 0
56 89 0
65 101 181
51 86 0
57 90 0
59 97 181
55 89 0
59 97 181
65 102 181
63 100 181
60 98 181
15 35 0
65 102 181
57 90 0
58 91 0
52 86 0
58 96 181
64 101 181
53 87 0
68 103 181
70 106 181
57 90 0
64 100 181
58 96 181
52 86 0
70 105 181
53 87 0
66 102 181
67 103 181
15 30 0
70 105 181
70 105 181
67 103 181
59 92 0
64 101 181
55 88 0
58 96 181
67 103 181
71 106 181
60 98 181
66 102 181
51 86 0
60 98 181
67 103 181
52 86 0
60 97 181
66 102 181
69 105 181
60 97 181
51 86 0
58 91 0
52 86 0
60 98 181
52 86 0
58 90 0
61 98 181
67 103 181
63 100 181
43 61 0
52 86 0
61 99 181
70 105 181
63 100 181
69 104 181
51 86 0
60 98 181
61 99 181
63 82 80
70 105 181
67 103 181
64 100 181
53 87 0
59 97 181
57 95 181
54 88 0
70 106 181
71 106 181
17 27 25
63 100 181
51 85 0
68 104 181
61 80 80
49 68 0
52 86 0
66 102 181
64 101 181
57 90 0
15 26 25
217 233 255
217 233 255
167 158 0
46 57 36
47 58 36
52 75 80
4 0 0
12 18 0
2 2 0
62 81 80
52 74 80
170 169 114
123 91 0
55 77 80
46 57 36
180 174 114
63 82 80
48 58 36
138 83 10
171 170 114
189 178 114
92 43 0
46 66 0
49 59 36
16 27 25
51 70 0
60 80 80
147 129 51
55 62 36
180 174 114
46 66 0
189 178 114
51 74 80
152 152 0
60 80 80
161 156 0
142 103 22
172 170 114
190 179 114
188 177 114
178 173 114
41 51 0
150 150 0
177 173 114
56 77 80
156 153 0
200 183 114
183 175 114
179 173 114
159 155 0
185 176 114
165 167 114
185 176 114
166 167 114
179 173 114
165 167 114
153 152 0
176 172 114
164 166 114
186 177 114
166 168 114
178 173 114
177 172 114
172 170 114
198 183 114
196 181 114
194 180 114
191 179 114
146 149 0
184 176 114
164 167 114
181 174 114
185 176 114
46 66 0
146 149 0
178 173 114
178 173 114
172 170 114
156 153 0
164 167 114
149 150 0
181 174 114
173 171 114
188 177 114
190 178 114
174 171 114
200 183 114
182 175 114
193 180 114
155 153 0
183 175 114
193 180 114
167 137 51
193 180 114
200 183 114
186 176 114
188 178 114
165 167 114
127 92 0
200 183 114
145 148 0
189 178 114
195 181 114
166 167 114
173 171 114
185 176 114
171 170 114
176 172 114
166 136 51
146 149 0
134 95 0
141 103 22
147 149 0
174 171 114
146 148 0
196 182 114
187 177 114
180 174 114
172 170 114
181 174 114
187 177 114
150 150 0
102 64 0
164 167 114
195 181 114
181 174 114
181 174 114
168 168 114
17 4 0
151 131 51
181 174 114
186 177 114
135 101 22
179 173 114
152 151 0
177 172 114
87 40 0
9 1 0
179 173 114
135 101 22
181 175 114
187 177 114
181 174 114
201 184 114
170 169 114
168 159 0
145 148 0
148 149 0
168 169 114
187 177 114
215 232 255
214 232 255
215 232 255
214 232 255
214 232 255
214 232 255
214 232 255
214 232 255
214 232 255
214 231 255
214 231 255
214 232 255
215 232 255
219 234 255
215 232 255
215 232 255
221 235 255
215 232 255
214 232 255
214 232 255
214 232 255
215 232 255
215 232 255
214 232 255
214 232 255
215 232 255
214 232 255
170 195 0
215 232 255
214 232 255
215 232 255
214 232 255
215 232 255
214 232 255
214 232 255
215 232 255
215 232 255
215 232 255
215 232 255
212 230 255
214 232 255
215 232 255
214 232 255
214 232 255
215 232 255
215 232 255
215 232 255
214 232 255
214 232 255
212 230 255
214 232 255
214 232 255
214 232 255
214 232 255
215 232 255
215 232 255
214 232 255
214 232 255
215 232 255
214 232 255
214 232 255
214 232 255
214 232 255
214 232 255
214 232 255
214 232 255
214 232 255
214 232 255
214 231 255
214 232 255
214 232 255
214 232 255
214 232 255
214 232 255
214 232 255
214 231 255
214 231 255
214 231 255
214 231 255
214 231 255
214 231 255
214 231 255
214 232 255
214 231 255
214 231 255
213 231 255
213 231 255
213 231 255
214 231 255
214 231 255
214 231 255
213 231 255
213 231 255
213 231 255
213 231 255
214 231 255
213 231 255
214 231 255
213 231 255
213 231 255
213 231 255
213 231 255
213 231 255
213 231 255
213 231 255
213 231 255
213 231 255
212 231 255
213 231 255
213 231 255
212 231 255
212 231 255
212 231 255
213 231 255
212 230 255
212 230 255
212 230 255
212 230 255
212 230 255
212 230 255
211 230 255
212 230 255
212 230 255
212 230 255
211 230 255
211 230 255
211 230 255
210 229 255
211 230 255
211 230 255
170 196 0
210 229 255
209 229 255
210 229 255
211 230 255
63 100 181
59 97 181
67 103 181
56 89 0
58 96 181
56 89 0
51 85 0
63 100 181
61 99 181
63 100 181
213 231 255
214 231 255
217 233 255
218 234 255
60 97 181
61 98 181
57 95 181
63 100 181
66 103 181
59 91 0
58 97 181
51 85 0
71 106 181
70 106 181
60 92 0
58 96 181
62 99 181
59 92 0
71 106 181
62 99 181
56 89 0
56 89 0
65 102 181
59 97 181
65 101 181
54 88 0
55 88 0
56 89 0
65 101 181
70 106 181
71 106 181
68 104 181
70 106 181
53 87 0
62 99 181
64 101 181
66 102 181
66 102 181
53 87 0
63 100 181
71 106 181
54 88 0
70 105 181
15 35 0
53 86 0
61 99 181
56 89 0
62 99 181
67 103 181
69 105 181
70 105 181
66 102 181
65 101 181
52 86 0
64 100 181
66 103 181
70 105 181
62 100 181
59 91 0
68 104 181
65 102 181
62 99 181
69 105 181
52 86 0
53 87 0
60 97 181
70 105 181
68 104 181
68 104 181
70 106 181
65 101 181
52 86 0
65 102 181
51 86 0
65 101 181
51 86 0
60 98 181
57 90 0
61 99 181
49 56 0
51 86 0
60 98 181
64 100 181
53 87 0
53 87 0
70 106 181
56 89 0
61 99 181
67 103 181
60 97 181
62 99 181
67 103 181
68 104 181
53 87 0
60 92 0
63 100 181
56 89 0
15 35 0
66 102 181
62 99 181
61 99 181
54 76 80
59 97 181
61 98 181
65 101 181
53 87 0
218 234 255
174 171 114
123 75 0
168 168 114
36 28 3
174 171 114
60 80 80
30 21 1
174 171 114
2 3 0
13 16 5
54 76 80
48 58 36
53 75 80
169 169 114
53 71 0
42 45 16
172 170 114
54 76 80
56 77 80
46 54 0
2 2 0
51 60 36
60 80 80
164 166 114
146 149 0
160 134 51
56 77 80
56 63 36
179 173 114
180 174 114
165 157 0
164 166 114
178 173 114
51 74 80
191 179 114
157 154 0
172 170 114
60 80 80
183 175 114
171 160 0
169 169 114
186 177 114
172 170 114
50 60 36
192 179 114
183 175 114
169 169 114
158 154 0
201 184 114
190 179 114
188 178 114
178 173 114
164 167 114
200 184 114
163 166 114
172 170 114
175 172 114
174 171 114
192 179 114
172 170 114
145 148 0
161 155 0
171 160 0
154 152 0
185 176 114
162 166 114
164 167 114
150 150 0
186 177 114
174 171 114
177 172 114
187 177 114
172 170 114
119 104 0
198 182 114
198 183 114
172 170 114
170 160 0
148 150 0
132 109 0
187 177 114
190 179 114
147 149 0
139 118 0
146 149 0
199 183 114
156 153 0
176 172 114
173 171 114
99 55 0
179 173 114
56 73 0
184 176 114
175 171 114
175 172 114
149 150 0
163 157 0
157 153 0
192 180 114
180 174 114
201 184 114
180 174 114
123 91 0
155 153 0
194 181 114
154 152 0
150 151 0
196 182 114
182 175 114
191 179 114
155 152 0
145 148 0
163 166 114
145 148 0
192 180 114
161 155 0
172 170 114
146 149 0
154 152 0
167 168 114
189 178 114
201 184 114
174 171 114
191 179 114
160 155 0
182 175 114
183 175 114
199 183 114
187 177 114
182 175 114
61 16 0
146 149 0
132 116 0
163 157 0
192 180 114
198 182 114
195 181 114
194 180 114
151 151 0
193 180 114
39 7 0
170 169 114
151 151 0
76 35 0
161 156 0
34 5 0
155 153 0
158 134 51
215 232 255
215 232 255
215 232 255
215 232 255
215 232 255
215 232 255
218 234 255
215 232 255
215 232 255
215 232 255
215 232 255
215 232 255
215 232 255
215 232 255
215 232 255
215 232 255
215 232 255
215 232 255
215 232 255
215 232 255
215 232 255
215 232 255
215 232 255
215 232 255
215 232 255
215 232 255
216 232 255
215 232 255
184 203 0
215 232 255
215 232 255
215 232 255
215 232 255
215 232 255
215 232 255
215 232 255
215 232 255
215 232 255
215 232 255
215 232 255
215 232 255
215 232 255
215 232 255
215 232 255
215 232 255
215 232 255
215 232 255
215 232 255
215 232 255
215 232 255
215 232 255
215 232 255
215 232 255
215 232 255
215 232 255
215 232 255
215 232 255
215 232 255
215 232 255
215 232 255
215 232 255
215 232 255
215 232 255
215 232 255
215 232 255
215 232 255
215 232 255
215 232 255
215 232 255
215 232 255
215 232 255
215 232 255
215 232 255
215 232 255
215 232 255
215 232 255
215 232 255
215 232 255
214 232 255
215 232 255
214 232 255
214 232 255
215 232 255
215 232 255
215 232 255
214 232 255
214 232 255
210 229 255
210 229 255
215 232 255
214 232 255
214 232 255
214 231 255
214 232 255
214 232 255
214 232 255
214 232 255
214 231 255
214 232 255
214 231 255
214 232 255
214 231 255
214 231 255
214 231 255
214 231 255
214 231 255
213 231 255
214 231 255
214 231 255
214 231 255
214 231 255
214 231 255
213 231 255
213 231 255
213 231 255
213 231 255
213 231 255
213 231 255
213 231 255
67 103 181
213 231 255
212 231 255
213 231 255
212 230 255
212 230 255
212 230 255
212 230 255
212 230 255
70 105 181
221 235 255
212 230 255
211 230 255
215 232 255
61 98 181
214 232 255
51 86 0
64 101 181
66 102 181
57 96 181
58 91 0
54 87 0
62 99 181
62 99 181
65 101 181
68 103 181
18 43 128
215 232 255
217 233 255
218 234 255
60 97 181
53 87 0
67 103 181
66 102 181
59 97 181
64 101 181
65 101 181
68 103 181
62 99 181
54 88 0
66 102 181
56 89 0
57 96 181
53 87 0
56 89 0
59 97 181
69 105 181
68 104 181
52 86 0
59 97 181
68 104 181
63 100 181
56 89 0
56 89 0
52 86 0
61 99 181
63 100 181
59 91 0
63 100 181
62 99 181
58 96 181
68 104 181
57 96 181
69 105 181
67 103 181
66 102 181
62 99 181
69 105 181
63 100 181
45 66 0
69 104 181
69 105 181
53 87 0
53 87 0
53 87 0
70 105 181
67 103 181
56 89 0
70 105 181
70 106 181
68 104 181
57 90 0
54 88 0
68 104 181
57 90 0
58 96 181
53 87 0
70 106 181
57 96 181
65 101 181
58 96 181
63 100 181
54 87 0
53 87 0
60 80 80
66 102 181
58 96 181
65 101 181
60 97 181
68 104 181
61 98 181
65 102 181
66 103 181
16 31 0
67 103 181
62 99 181
57 90 0
39 29 3
63 100 181
65 102 181
66 103 181
55 88 0
56 89 0
61 98 181
54 88 0
63 100 181
64 101 181
63 100 181
59 97 181
54 87 0
61 98 181
64 101 181
56 77 80
51 74 80
15 30 0
66 102 181
53 61 36
61 99 181
70 105 181
53 75 80
62 99 181
42 49 0
218 234 255
166 158 0
181 174 114
112 50 2
19 7 0
33 3 0
175 140 51
46 66 0
55 76 80
10 0 0
56 77 80
46 54 0
0 0 0
167 168 114
190 179 114
169 169 114
14 26 25
143 85 10
51 74 80
179 173 114
56 63 36
54 76 80
173 170 114
181 174 114
172 170 114
179 173 114
8 1 0
182 175 114
71 22 0
169 169 114
177 173 114
178 173 114
142 138 0
174 171 114
177 172 114
41 51 0
181 174 114
193 180 114
191 179 114
157 153 0
190 179 114
163 166 114
179 173 114
186 177 114
174 171 114
17 32 0
178 173 114
59 79 80
173 171 114
167 168 114
173 171 114
178 173 114
133 126 0
172 170 114
162 165 114
181 174 114
149 150 0
191 179 114
188 178 114
199 183 114
187 177 114
168 169 114
178 173 114
168 168 114
174 171 114
186 177 114
159 155 0
146 149 0
151 151 0
146 149 0
185 176 114
147 149 0
199 183 114
153 152 0
199 183 114
201 184 114
163 156 0
200 183 114
145 148 0
161 165 114
165 167 114
188 178 114
40 59 0
188 178 114
200 183 114
186 177 114
172 170 114
197 182 114
145 148 0
189 178 114
193 180 114
180 174 114
200 184 114
177 173 114
195 181 114
194 180 114
175 172 114
153 152 0
171 170 114
172 170 114
200 183 114
194 180 114
196 182 114
155 153 0
146 149 0
151 151 0
148 149 0
166 167 114
191 179 114
145 148 0
162 166 114
183 175 114
121 85 0
193 180 114
162 166 114
171 170 114
105 69 0
184 176 114
174 171 114
139 103 22
172 170 114
194 180 114
195 181 114
130 81 10
199 183 114
116 83 0
185 176 114
197 182 114
179 173 114
186 177 114
186 176 114
166 167 114
152 151 0
180 174 114
164 157 0
157 153 0
94 46 2
194 180 114
170 160 0
169 169 114
183 175 114
199 183 114
75 32 0
166 158 0
189 178 114
172 170 114
200 183 114
176 172 114
145 148 0
216 232 255
215 232 255
216 232 255
216 233 255
215 232 255
219 234 255
217 233 255
220 235 255
216 233 255
216 232 255
216 232 255
219 234 255
216 233 255
216 233 255
216 232 255
216 232 255
215 232 255
178 200 0
216 232 255
222 236 255
216 232 255
216 232 255
216 232 255
216 233 255
216 233 255
216 232 255
216 233 255
216 232 255
216 232 255
216 233 255
216 232 255
216 233 255
216 232 255
216 233 255
216 232 255
216 233 255
216 233 255
216 232 255
216 232 255
216 232 255
216 233 255
216 233 255
216 233 255
216 232 255
216 232 255
216 233 255
216 233 255
216 233 255
216 232 255
216 233 255
216 233 255
216 232 255
216 233 255
216 232 255
216 233 255
216 233 255
216 232 255
216 232 255
216 232 255
215 232 255
216 232 255
215 232 255
216 233 255
216 232 255
216 232 255
216 232 255
216 233 255
215 232 255
216 232 255
216 232 255
215 232 255
215 232 255
216 232 255
215 232 255
215 232 255
216 232 255
215 232 255
215 232 255
216 232 255
215 232 255
215 232 255
215 232 255
215 232 255
215 232 255
215 232 255
215 232 255
215 232 255
215 232 255
215 232 255
215 232 255
215 232 255
215 232 255
215 232 255
215 232 255
215 232 255
215 232 255
215 232 255
214 232 255
215 232 255
215 232 255
215 232 255
215 232 255
214 232 255
215 232 255
215 232 255
215 232 255
215 232 255
215 232 255
214 231 255
214 232 255
214 232 255
214 231 255
214 231 255
214 231 255
214 231 255
213 231 255
213 231 255
213 231 255
214 231 255
214 231 255
214 231 255
214 231 255
214 231 255
214 231 255
213 231 255
213 231 255
213 231 255
212 231 255
213 231 255
213 231 255
212 231 255
212 230 255
216 233 255
212 230 255
51 86 0
67 103 181
66 102 181
57 90 0
56 73 0
64 100 181
60 97 181
64 101 181
62 94 0
69 104 181
58 96 181
69 105 181
216 232 255
216 233 255
218 234 255
219 234 255
66 103 181
56 89 0
63 100 181
66 102 181
68 104 181
71 106 181
52 86 0
69 104 181
62 100 181
64 101 181
69 104 181
63 100 181
55 89 0
60 98 181
52 86 0
60 98 181
69 104 181
69 105 181
60 98 181
61 93 0
54 88 0
70 105 181
58 96 181
71 106 181
61 98 181
57 90 0
53 87 0
17 40 0
60 98 181
56 89 0
63 100 181
60 98 181
68 103 181
59 92 0
62 99 181
56 89 0
52 86 0
55 88 0
65 101 181
57 90 0
71 106 181
60 98 181
71 106 181
54 88 0
55 88 0
70 105 181
54 87 0
62 99 181
61 99 181
60 98 181
68 104 181
67 103 181
68 103 181
47 67 0
65 101 181
55 89 0
52 86 0
68 104 181
52 86 0
52 86 0
65 102 181
56 89 0
51 85 0
58 91 0
70 105 181
70 106 181
60 97 181
65 101 181
17 39 0
69 105 181
67 103 181
46 63 0
33 41 0
64 101 181
60 92 0
71 106 181
55 88 0
64 100 181
70 105 181
51 85 0
58 78 80
64 101 181
58 91 0
59 91 0
67 103 181
62 99 181
53 87 0
62 99 181
54 76 80
60 92 0
63 100 181
59 97 181
52 86 0
56 73 0
65 101 181
64 101 181
55 88 0
66 102 181
62 99 181
55 76 80
218 234 255
218 234 255
30 21 1
17 5 0
53 75 80
97 47 2
4 8 8
63 14 0
38 40 0
63 82 80
84 45 0
50 60 36
42 49 0
162 166 114
47 58 36
80 27 0
52 75 80
165 167 114
13 23 0
13 23 0
55 76 80
54 76 80
62 81 80
16 27 25
59 79 80
28 15 0
53 75 80
167 168 114
153 152 0
146 148 0
196 182 114
54 76 80
52 75 80
176 172 114
176 172 114
44 6 0
43 50 0
165 167 114
170 169 114
177 173 114
199 183 114
42 45 16
47 58 36
166 168 114
170 169 114
175 172 114
62 17 0
191 179 114
158 154 0
185 176 114
59 79 80
178 173 114
43 60 0
166 158 0
51 74 80
145 148 0
179 173 114
180 174 114
155 153 0
169 169 114
187 177 114
189 178 114
150 150 0
185 176 114
162 166 114
192 180 114
162 166 114
174 171 114
53 71 0
160 155 0
149 150 0
162 166 114
198 183 114
158 154 0
153 152 0
187 177 114
174 171 114
45 66 0
194 181 114
199 183 114
187 177 114
167 168 114
187 177 114
199 183 114
197 182 114
181 174 114
129 108 0
150 151 0
161 155 0
191 179 114
52 70 0
175 172 114
183 175 114
170 160 0
192 180 114
164 157 0
181 174 114
180 174 114
188 178 114
145 148 0
167 168 114
147 149 0
159 154 0
96 47 2
191 179 114
180 174 114
165 167 114
168 168 114
185 176 114
194 180 114
188 178 114
163 166 114
200 183 114
172 170 114
172 170 114
196 182 114
194 181 114
193 180 114
150 150 0
128 66 4
163 157 0
160 155 0
199 183 114
167 168 114
199 183 114
189 178 114
162 166 114
184 176 114
199 183 114
188 177 114
172 170 114
166 158 0
163 166 114
88 49 0
196 181 114
174 162 0
163 135 51
183 175 114
173 171 114
181 174 114
156 153 0
196 181 114
196 181 114
173 170 114
191 179 114
199 183 114
167 168 114
9 9 1
156 153 0
183 175 114
217 233 255
216 233 255
216 233 255
217 233 255
217 233 255
217 233 255
217 233 255
218 233 255
216 233 255
216 233 255
216 233 255
217 233 255
216 233 255
216 233 255
220 235 255
216 233 255
215 232 255
216 233 255
216 233 255
216 233 255
216 233 255
216 233 255
216 233 255
217 233 255
217 233 255
216 233 255
216 233 255
216 233 255
217 233 255
217 233 255
217 233 255
216 233 255
217 233 255
165 193 0
216 233 255
216 233 255
216 233 255
217 233 255
216 233 255
216 233 255
217 233 255
216 233 255
217 233 255
217 233 255
216 233 255
216 233 255
216 233 255
216 233 255
216 233 255
216 233 255
216 233 255
216 233 255
216 233 255
216 233 255
216 233 255
216 233 255
216 233 255
217 233 255
216 233 255
216 233 255
191 207 0
216 233 255
216 233 255
216 233 255
216 233 255
216 233 255
216 233 255
216 233 255
216 233 255
216 233 255
216 233 255
216 233 255
216 233 255
216 233 255
216 233 255
216 233 255
213 231 255
216 233 255
216 232 255
216 233 255
216 232 255
185 203 0
216 233 255
216 233 255
216 233 255
216 233 255
181 201 0
216 232 255
216 232 255
216 233 255
216 233 255
215 232 255
216 232 255
216 232 255
216 232 255
216 232 255
215 232 255
216 232 255
215 232 255
215 232 255
215 232 255
215 232 255
215 232 255
215 232 255
216 232 255
215 232 255
215 232 255
215 232 255
215 232 255
215 232 255
215 232 255
215 232 255
215 232 255
214 232 255
215 232 255
215 232 255
214 232 255
214 232 255
69 104 181
214 232 255
214 231 255
214 231 255
215 232 255
214 231 255
214 231 255
214 231 255
214 231 255
213 231 255
213 231 255
213 231 255
213 231 255
213 231 255
213 231 255
212 231 255
217 233 255
59 97 181
62 99 181
59 97 181
58 90 0
66 102 181
58 96 181
61 98 181
54 88 0
19 44 128
57 96 181
61 98 181
60 92 0
216 233 255
219 234 255
59 97 181
70 105 181
59 97 181
68 104 181
52 86 0
56 89 0
35 57 0
61 93 0
60 92 0
60 98 181
56 89 0
60 98 181
57 90 0
65 102 181
67 103 181
66 102 181
62 99 181
60 98 181
58 91 0
69 105 181
59 97 181
61 99 181
69 105 181
62 99 181
66 102 181
67 103 181
65 101 181
70 105 181
64 101 181
64 101 181
60 98 181
18 40 0
55 89 0
52 86 0
70 106 181
52 86 0
68 104 181
64 101 181
64 100 181
69 105 181
52 86 0
65 102 181
62 99 181
60 98 181
70 106 181
67 103 181
71 106 181
58 96 181
67 103 181
56 89 0
56 89 0
52 86 0
61 93 0
56 89 0
55 88 0
55 88 0
64 100 181
68 103 181
54 87 0
61 93 0
65 102 181
51 85 0
61 93 0
59 97 181
68 104 181
63 100 181
54 87 0
52 86 0
62 99 181
67 103 181
59 97 181
57 96 181
59 97 181
68 104 181
66 102 181
54 88 0
65 101 181
55 88 0
52 86 0
59 97 181
63 100 181
64 100 181
70 105 181
60 98 181
68 104 181
57 96 181
63 100 181
52 86 0
70 105 181
67 103 181
14 4 0
60 97 181
64 101 181
66 102 181
67 103 181
69 105 181
57 78 80
57 90 0
59 92 0
58 96 181
48 68 0
219 234 255
71 22 0
167 168 114
162 166 114
157 109 22
21 1 0
16 0 0
45 57 36
21 10 0
42 49 0
13 20 11
15 25 0
38 38 0
52 74 80
63 81 80
145 128 51
28 2 0
150 151 0
53 61 36
91 43 0
52 75 80
16 27 25
192 180 114
176 172 114
60 80 80
151 151 0
12 21 0
55 63 36
192 179 114
51 74 80
194 181 114
181 174 114
179 174 114
159 154 0
150 150 0
147 149 0
172 161 0
58 79 80
56 77 80
155 153 0
146 149 0
183 175 114
146 149 0
136 101 22
173 171 114
63 81 80
46 66 0
185 176 114
183 175 114
48 68 0
183 175 114
58 78 80
169 169 114
200 183 114
63 82 80
183 175 114
62 81 80
161 165 114
175 171 114
182 175 114
151 151 0
152 151 0
162 156 0
156 153 0
163 166 114
187 177 114
173 171 114
153 152 0
165 167 114
150 151 0
166 167 114
199 183 114
150 151 0
159 154 0
198 182 114
120 104 0
2 2 0
173 171 114
169 159 0
158 154 0
199 183 114
200 183 114
155 153 0
199 183 114
158 154 0
5 0 0
160 155 0
173 161 0
179 173 114
201 184 114
164 157 0
187 177 114
181 174 114
201 184 114
186 177 114
164 166 114
178 173 114
171 169 114
156 153 0
194 180 114
188 178 114
121 90 0
188 178 114
196 182 114
173 170 114
192 180 114
155 153 0
133 116 0
189 178 114
154 152 0
201 184 114
191 179 114
162 166 114
200 184 114
165 158 0
94 46 2
146 149 0
194 181 114
189 178 114
200 183 114
174 171 114
138 118 0
199 183 114
171 170 114
161 156 0
192 179 114
186 177 114
174 171 114
192 180 114
199 183 114
194 180 114
188 177 114
163 166 114
155 153 0
185 176 114
170 169 114
188 178 114
198 182 114
128 93 0
151 151 0
193 180 114
184 176 114
172 170 114
109 61 4
192 179 114
191 179 114
161 155 0
170 169 114
155 153 0
191 179 114
217 233 255
217 233 255
217 233 255
217 233 255
217 233 255
218 234 255
218 234 255
217 233 255
217 233 255
217 233 255
217 233 255
217 233 255
217 233 255
217 233 255
217 233 255
217 233 255
217 233 255
217 233 255
216 233 255
217 233 255
217 233 255
217 233 255
217 233 255
217 233 255
217 233 255
217 233 255
216 233 255
217 233 255
217 233 255
217 233 255
217 233 255
217 233 255
217 233 255
217 233 255
217 233 255
217 233 255
217 233 255
217 233 255
217 233 255
217 233 255
217 233 255
217 233 255
217 233 255
217 233 255
217 233 255
217 233 255
217 233 255
217 233 255
217 233 255
217 233 255
217 233 255
217 233 255
217 233 255
217 233 255
217 233 255
217 233 255
217 233 255
217 233 255
217 233 255
217 233 255
217 233 255
217 233 255
217 233 255
217 233 255
217 233 255
217 233 255
217 233 255
217 233 255
217 233 255
217 233 255
217 233 255
217 233 255
217 233 255
217 233 255
217 233 255
217 233 255
217 233 255
217 233 255
216 233 255
217 233 255
217 233 255
217 233 255
217 233 255
217 233 255
217 233 255
217 233 255
217 233 255
216 233 255
216 233 255
217 233 255
216 233 255
217 233 255
216 233 255
216 233 255
213 231 255
217 233 255
216 233 255
216 233 255
216 233 255
216 233 255
216 233 255
216 233 255
216 233 255
216 233 255
216 232 255
216 233 255
216 233 255
216 233 255
215 232 255
216 232 255
216 232 255
216 233 255
216 232 255
216 232 255
216 232 255
215 232 255
216 232 255
215 232 255
68 104 181
215 232 255
216 232 255
215 232 255
215 232 255
215 232 255
215 232 255
215 232 255
215 232 255
225 238 255
214 232 255
214 232 255
214 232 255
214 232 255
218 234 255
220 235 255
71 106 181
70 105 181
52 86 0
69 105 181
65 101 181
60 92 0
66 103 181
19 44 128
56 89 0
16 36 0
21 46 128
64 100 181
216 233 255
217 233 255
219 234 255
63 100 181
55 88 0
58 91 0
60 98 181
64 100 181
60 98 181
51 85 0
51 86 0
52 86 0
62 99 181
68 104 181
63 100 181
51 85 0
60 98 181
55 88 0
70 105 181
56 89 0
62 99 181
61 99 181
71 106 181
53 87 0
64 101 181
52 86 0
69 105 181
55 88 0
70 105 181
58 91 0
66 102 181
51 86 0
56 89 0
59 97 181
60 98 181
52 86 0
69 105 181
59 97 181
67 103 181
62 99 181
63 100 181
62 99 181
66 102 181
59 92 0
66 102 181
53 87 0
70 105 181
59 91 0
53 87 0
61 98 181
66 102 181
64 101 181
62 99 181
65 101 181
71 106 181
61 98 181
61 99 181
67 103 181
61 98 181
66 103 181
70 105 181
70 105 181
68 104 181
62 99 181
61 98 181
69 105 181
69 105 181
16 31 0
62 99 181
67 103 181
67 103 181
61 98 181
51 85 0
70 106 181
62 99 181
65 101 181
63 100 181
59 92 0
57 90 0
53 87 0
59 97 181
51 85 0
66 102 181
51 74 80
52 86 0
54 76 80
70 105 181
60 98 181
52 86 0
60 98 181
68 104 181
53 87 0
63 100 181
61 98 181
52 75 80
67 103 181
61 99 181
16 31 0
58 90 0
48 58 36
55 76 80
54 76 80
57 90 0
61 98 181
64 100 181
219 234 255
3 6 0
4 8 8
165 167 114
13 20 11
139 97 0
63 81 80
42 49 0
115 89 0
53 71 0
56 63 36
195 181 114
137 102 22
144 104 22
41 51 0
50 69 0
57 78 80
163 166 114
193 180 114
169 138 51
46 66 0
166 158 0
178 173 114
122 74 0
51 60 36
48 68 0
156 153 0
176 172 114
53 75 80
173 170 114
160 134 51
58 79 80
169 169 114
103 48 2
167 168 114
199 183 114
166 167 114
192 179 114
58 78 80
188 177 114
175 172 114
62 81 80
175 171 114
160 155 0
155 153 0
149 150 0
195 181 114
61 81 80
171 170 114
164 167 114
167 158 0
160 155 0
178 173 114
151 151 0
39 47 0
52 70 0
184 176 114
167 168 114
199 183 114
146 149 0
191 179 114
174 171 114
174 171 114
52 70 0
158 154 0
171 170 114
166 168 114
165 167 114
175 172 114
182 175 114
194 180 114
148 150 0
162 156 0
193 180 114
192 180 114
181 174 114
195 181 114
165 167 114
170 160 0
160 155 0
149 150 0
182 175 114
180 174 114
174 171 114
189 178 114
200 184 114
174 171 114
192 180 114
153 152 0
186 177 114
151 151 0
151 151 0
168 168 114
166 167 114
158 154 0
176 172 114
195 181 114
189 178 114
200 183 114
180 174 114
172 170 114
152 151 0
162 156 0
170 169 114
144 120 0
146 149 0
198 182 114
173 171 114
29 19 0
184 176 114
181 174 114
196 181 114
164 157 0
192 179 114
158 154 0
195 181 114
200 183 114
183 175 114
168 159 0
186 177 114
182 175 114
162 156 0
140 119 0
195 181 114
192 179 114
150 150 0
188 177 114
162 156 0
184 175 114
187 177 114
197 182 114
175 171 114
159 155 0
148 149 0
185 176 114
172 170 114
172 170 114
169 138 51
162 165 114
189 178 114
165 158 0
151 151 0
160 155 0
147 149 0
116 72 0
10 0 0
156 153 0
161 156 0
171 169 114
217 233 255
218 234 255
221 236 255
217 233 255
217 233 255
218 234 255
217 233 255
223 237 255
222 236 255
218 233 255
217 233 255
218 234 255
218 234 255
218 234 255
217 233 255
218 233 255
221 236 255
218 234 255
218 234 255
218 233 255
217 233 255
218 234 255
217 233 255
217 233 255
218 233 255
217 233 255
217 233 255
218 234 255
218 234 255
218 233 255
218 234 255
218 234 255
218 234 255
218 234 255
218 233 255
218 234 255
218 233 255
217 233 255
217 233 255
218 234 255
187 205 0
218 234 255
218 234 255
218 234 255
217 233 255
217 233 255
218 234 255
218 234 255
216 233 255
218 234 255
218 234 255
218 234 255
218 233 255
217 233 255
218 234 255
217 233 255
218 234 255
217 233 255
217 233 255
217 233 255
218 233 255
217 233 255
217 233 255
218 234 255
217 233 255
218 234 255
218 234 255
217 233 255
217 233 255
217 233 255
217 233 255
218 234 255
217 233 255
218 233 255
217 233 255
218 234 255
217 233 255
218 233 255
217 233 255
217 233 255
217 233 255
217 233 255
217 233 255
218 233 255
217 233 255
217 233 255
215 232 255
217 233 255
217 233 255
217 233 255
217 233 255
217 233 255
217 233 255
217 233 255
217 233 255
217 233 255
217 233 255
217 233 255
217 233 255
217 233 255
217 233 255
217 233 255
217 233 255
217 233 255
217 233 255
217 233 255
217 233 255
217 233 255
217 233 255
217 233 255
216 233 255
216 233 255
216 233 255
217 233 255
217 233 255
217 233 255
216 233 255
216 233 255
217 233 255
216 233 255
216 233 255
216 232 255
216 233 255
216 232 255
216 232 255
216 233 255
216 232 255
216 232 255
216 232 255
216 233 255
215 232 255
215 232 255
164 192 0
215 232 255
65 101 181
71 106 181
58 91 0
70 106 181
66 102 181
71 106 181
54 88 0
58 96 181
20 45 128
64 100 181
54 88 0
68 104 181
69 104 181
217 233 255
218 234 255
62 99 181
68 104 181
66 102 181
57 95 181
60 98 181
51 85 0
62 100 181
17 39 0
59 91 0
63 100 181
57 90 0
56 89 0
54 88 0
15 35 0
53 87 0
54 87 0
54 87 0
66 102 181
62 99 181
59 97 181
69 105 181
54 88 0
68 104 181
56 89 0
56 89 0
71 106 181
66 102 181
69 105 181
58 96 181
66 102 181
17 39 0
4 14 0
60 97 181
67 103 181
51 85 0
19 41 0
59 91 0
58 96 181
19 42 0
54 88 0
55 89 0
62 100 181
63 100 181
66 102 181
55 89 0
57 90 0
59 97 181
51 85 0
70 105 181
61 93 0
55 88 0
56 89 0
63 100 181
66 102 181
67 103 181
62 99 181
66 102 181
58 96 181
69 105 181
51 85 0
69 105 181
53 87 0
58 96 181
52 86 0
68 104 181
69 104 181
52 74 80
1 4 0
55 88 0
52 86 0
64 101 181
58 91 0
52 86 0
64 100 181
58 91 0
70 106 181
51 85 0
70 106 181
69 104 181
65 102 181
67 103 181
43 60 0
53 87 0
66 102 181
41 51 0
64 101 181
60 98 181
53 87 0
67 103 181
62 99 181
57 90 0
54 76 80
60 97 181
56 89 0
66 102 181
56 89 0
63 100 181
58 97 181
67 103 181
0 2 0
4 8 0
68 104 181
14 21 11
119 63 4
45 53 0
15 26 25
13 20 11
49 68 0
53 75 80
170 169 114
59 79 80
45 66 0
54 62 36
15 21 11
12 18 0
11 20 0
42 45 16
190 178 114
47 47 16
198 182 114
52 61 36
172 170 114
54 62 36
15 24 0
46 57 36
53 75 80
154 152 0
174 171 114
54 76 80
169 169 114
160 155 0
198 183 114
54 76 80
167 158 0
50 69 0
169 169 114
53 75 80
147 149 0
176 172 114
54 62 36
151 151 0
187 177 114
184 176 114
170 169 114
53 75 80
167 168 114
183 175 114
183 175 114
152 151 0
149 150 0
154 152 0
62 81 80
140 137 0
151 151 0
198 182 114
170 169 114
199 183 114
179 173 114
151 151 0
146 149 0
160 155 0
60 80 80
201 184 114
173 171 114
44 61 0
166 158 0
146 149 0
198 182 114
178 173 114
189 178 114
185 176 114
149 150 0
169 159 0
160 155 0
165 167 114
198 182 114
176 172 114
160 155 0
167 168 114
199 183 114
174 171 114
170 169 114
80 28 0
189 178 114
146 149 0
184 176 114
193 180 114
146 148 0
164 157 0
175 162 0
146 149 0
156 153 0
186 177 114
149 150 0
176 172 114
167 158 0
185 176 114
152 151 0
197 182 114
149 150 0
190 178 114
191 179 114
149 150 0
154 152 0
168 169 114
152 151 0
151 151 0
119 104 0
173 170 114
200 184 114
200 183 114
170 169 114
192 180 114
179 173 114
160 155 0
164 157 0
157 154 0
135 101 22
199 183 114
161 156 0
174 171 114
191 179 114
195 181 114
157 154 0
133 116 0
189 178 114
151 151 0
175 171 114
153 152 0
144 148 0
167 168 114
175 171 114
168 169 114
186 177 114
118 63 4
157 154 0
162 156 0
159 155 0
195 181 114
167 168 114
191 179 114
159 155 0
153 152 0
195 181 114
157 154 0
183 175 114
187 177 114
171 170 114
167 168 114
180 174 114
151 107 22
218 234 255
218 234 255
218 234 255
218 234 255
218 234 255
218 234 255
218 234 255
218 234 255
218 234 255
218 234 255
218 234 255
218 234 255
218 234 255
218 234 255
218 234 255
218 234 255
218 234 255
218 234 255
218 234 255
218 234 255
219 234 255
218 234 255
218 234 255
218 234 255
218 234 255
218 234 255
218 234 255
218 234 255
218 234 255
218 234 255
218 234 255
218 234 255
218 234 255
218 234 255
218 234 255
218 234 255
218 234 255
218 234 255
218 234 255
218 234 255
218 234 255
218 234 255
218 234 255
218 234 255
178 200 0
218 234 255
218 234 255
218 234 255
218 234 255
218 234 255
218 234 255
218 234 255
218 234 255
218 234 255
218 234 255
218 234 255
218 234 255
218 234 255
218 234 255
218 234 255
218 234 255
218 234 255
218 234 255
218 234 255
218 234 255
218 234 255
218 234 255
218 234 255
218 234 255
218 234 255
218 234 255
218 234 255
218 234 255
218 234 255
218 234 255
218 234 255
218 234 255
218 234 255
218 234 255
218 234 255
218 234 255
218 234 255
218 234 255
218 234 255
218 234 255
218 234 255
218 234 255
218 234 255
218 234 255
218 234 255
218 234 255
218 234 255
217 233 255
166 194 0
217 233 255
217 233 255
218 234 255
218 233 255
218 233 255
217 233 255
218 233 255
218 233 255
218 234 255
164 192 0
218 233 255
217 233 255
217 233 255
217 233 255
217 233 255
217 233 255
217 233 255
217 233 255
217 233 255
217 233 255
217 233 255
217 233 255
217 233 255
217 233 255
217 233 255
217 233 255
217 233 255
217 233 255
216 233 255
169 195 0
216 233 255
217 233 255
216 233 255
217 233 255
216 233 255
216 233 255
216 233 255
221 235 255
216 233 255
55 88 0
57 96 181
61 98 181
69 104 181
4 14 0
54 88 0
61 93 0
0 2 0
64 101 181
57 90 0
58 97 181
18 43 128
59 97 181
18 40 0
218 234 255
218 234 255
60 98 181
58 91 0
65 101 181
52 86 0
71 106 181
70 105 181
56 89 0
13 31 0
52 86 0
64 101 181
52 86 0
56 89 0
52 86 0
71 106 181
52 86 0
64 101 181
37 32 0
68 104 181
56 89 0
55 88 0
52 81 0
51 86 0
71 106 181
59 97 181
65 101 181
58 96 181
51 85 0
59 97 181
68 104 181
65 101 181
52 86 0
62 99 181
70 105 181
67 103 181
66 102 181
67 103 181
53 87 0
64 101 181
63 100 181
68 103 181
64 101 181
52 86 0
59 97 181
65 101 181
54 88 0
55 88 0
69 104 181
66 102 181
51 86 0
60 98 181
69 104 181
67 103 181
60 92 0
67 103 181
65 101 181
52 86 0
57 90 0
69 105 181
56 89 0
68 103 181
61 98 181
55 88 0
61 93 0
53 87 0
69 105 181
66 102 181
53 87 0
63 100 181
63 100 181
65 101 181
60 98 181
68 103 181
53 87 0
68 104 181
70 105 181
68 104 181
61 98 181
52 86 0
62 99 181
51 85 0
66 102 181
53 87 0
71 106 181
45 62 0
61 93 0
61 99 181
55 88 0
68 104 181
61 98 181
59 79 80
53 87 0
51 85 0
59 97 181
43 60 0
52 86 0
62 99 181
59 91 0
51 74 80
55 76 80
53 75 80
14 34 0
58 96 181
51 74 80
177 172 114
36 4 0
173 171 114
192 180 114
49 59 36
129 81 10
51 60 36
48 48 16
13 23 0
11 17 0
164 167 114
45 57 36
59 79 80
43 37 7
74 27 0
44 43 0
9 13 0
49 59 36
53 71 0
42 52 0
47 67 0
12 23 0
177 173 114
149 150 0
172 170 114
56 63 36
61 81 80
47 58 36
51 69 0
54 76 80
48 67 0
15 26 25
174 171 114
185 176 114
46 66 0
152 151 0
148 149 0
169 169 114
12 3 0
196 181 114
168 169 114
146 149 0
53 75 80
186 177 114
46 58 36
162 166 114
56 77 80
200 184 114
55 76 80
56 77 80
46 66 0
196 182 114
178 173 114
172 170 114
153 152 0
192 179 114
169 169 114
198 183 114
53 75 80
157 154 0
183 175 114
200 184 114
158 154 0
174 171 114
148 150 0
168 168 114
188 178 114
148 122 0
152 124 0
179 173 114
147 149 0
201 184 114
182 175 114
171 170 114
182 175 114
159 154 0
155 108 22
159 154 0
42 49 0
183 175 114
175 172 114
145 148 0
198 182 114
182 175 114
191 179 114
157 154 0
167 168 114
187 177 114
186 177 114
196 182 114
178 173 114
173 171 114
177 173 114
178 173 114
148 150 0
198 183 114
178 173 114
159 155 0
167 158 0
190 178 114
170 169 114
180 174 114
155 153 0
196 181 114
150 130 51
145 148 0
188 178 114
167 168 114
150 150 0
189 178 114
192 179 114
120 73 0
167 158 0
174 171 114
167 158 0
198 182 114
198 182 114
155 153 0
190 179 114
35 22 1
182 175 114
154 152 0
197 182 114
150 150 0
193 180 114
180 174 114
148 150 0
145 148 0
146 149 0
171 160 0
178 173 114
153 152 0
172 170 114
164 167 114
173 171 114
157 153 0
136 117 0
156 153 0
96 38 0
194 181 114
19 1 0
183 175 114
197 182 114
148 150 0
151 151 0
145 148 0
172 139 51
199 183 114
219 234 255
219 234 255
219 234 255
219 234 255
218 234 255
219 234 255
219 234 255
219 234 255
219 234 255
219 234 255
218 234 255
219 234 255
219 234 255
219 234 255
219 234 255
219 234 255
219 234 255
219 234 255
219 234 255
219 234 255
219 234 255
219 234 255
219 234 255
219 234 255
219 234 255
219 234 255
219 234 255
219 234 255
219 234 255
219 234 255
219 234 255
219 234 255
219 234 255
219 234 255
219 234 255
219 234 255
219 234 255
219 234 255
219 234 255
219 234 255
219 234 255
219 234 255
218 233 255
219 234 255
219 234 255
219 234 255
219 234 255
219 234 255
219 234 255
219 234 255
219 234 255
219 234 255
219 234 255
219 234 255
219 234 255
219 234 255
219 234 255
218 234 255
219 234 255
219 234 255
219 234 255
217 233 255
219 234 255
219 234 255
219 234 255
219 234 255
219 234 255
219 234 255
219 234 255
219 234 255
219 234 255
219 234 255
219 234 255
219 234 255
219 234 255
218 234 255
219 234 255
219 234 255
219 234 255
219 234 255
219 234 255
219 234 255
219 234 255
219 234 255
219 234 255
219 234 255
219 234 255
219 234 255
218 234 255
218 234 255
218 234 255
218 234 255
218 234 255
219 234 255
218 234 255
218 234 255
219 234 255
218 234 255
218 234 255
218 234 255
218 234 255
217 233 255
219 234 255
219 234 255
219 234 255
218 234 255
218 234 255
218 234 255
218 234 255
163 192 0
218 234 255
218 234 255
218 234 255
218 234 255
218 234 255
218 234 255
218 234 255
218 234 255
218 234 255
217 233 255
218 234 255
218 233 255
218 234 255
218 234 255
218 234 255
218 234 255
218 234 255
218 233 255
218 234 255
217 233 255
217 233 255
217 233 255
217 233 255
64 101 181
61 98 181
218 234 255
19 41 0
54 87 0
60 98 181
54 88 0
63 100 181
63 100 181
19 44 128
60 92 0
56 89 0
19 42 0
62 99 181
58 91 0
219 234 255
53 87 0
61 98 181
66 102 181
53 87 0
69 105 181
49 78 0
67 103 181
64 101 181
60 97 181
63 100 181
52 86 0
69 104 181
66 102 181
70 106 181
65 101 181
71 106 181
66 102 181
61 98 181
58 96 181
57 89 0
61 98 181
58 96 181
55 88 0
71 106 181
52 86 0
66 103 181
70 105 181
53 87 0
59 97 181
61 98 181
59 97 181
55 88 0
51 85 0
60 98 181
51 85 0
51 86 0
27 17 0
59 97 181
61 93 0
60 98 181
54 87 0
58 96 181
70 106 181
51 85 0
54 88 0
64 100 181
70 105 181
65 102 181
67 103 181
58 91 0
57 90 0
52 86 0
63 100 181
15 29 0
68 104 181
63 100 181
57 96 181
60 97 181
64 100 181
53 87 0
42 60 0
59 97 181
68 104 181
53 87 0
65 102 181
65 102 181
67 103 181
53 87 0
69 105 181
64 101 181
66 102 181
59 97 181
60 92 0
67 103 181
53 87 0
52 86 0
51 85 0
59 97 181
51 85 0
57 96 181
57 90 0
70 105 181
51 74 80
55 89 0
69 104 181
43 53 0
34 42 0
68 104 181
66 102 181
68 104 181
61 99 181
52 86 0
60 98 181
54 87 0
55 76 80
51 74 80
59 97 181
58 96 181
54 71 0
16 33 57
37 34 7
71 106 181
4 9 8
106 60 4
51 74 80
66 21 0
157 109 22
196 181 114
53 61 36
79 28 0
4 9 8
46 66 0
124 92 0
52 61 36
51 74 80
36 46 0
155 132 51
3 5 1
156 132 51
45 66 0
133 100 22
47 55 0
61 80 80
156 108 22
59 79 80
38 40 0
51 70 0
197 182 114
185 176 114
0 1 0
187 177 114
40 41 0
3 7 3
164 167 114
153 152 0
149 150 0
55 62 36
39 33 0
45 53 0
176 172 114
44 61 0
42 52 0
48 67 0
49 59 36
46 66 0
160 155 0
166 158 0
149 150 0
13 16 5
187 177 114
173 171 114
120 104 0
181 175 114
176 172 114
187 177 114
187 177 114
46 66 0
194 181 114
184 176 114
199 183 114
175 162 0
166 167 114
187 177 114
185 176 114
199 183 114
158 154 0
156 153 0
146 149 0
171 160 0
178 173 114
154 152 0
200 183 114
182 175 114
169 159 0
150 151 0
157 154 0
179 173 114
184 176 114
184 176 114
59 79 80
187 177 114
177 172 114
153 152 0
194 181 114
171 169 114
173 170 114
180 174 114
164 166 114
145 148 0
157 153 0
150 150 0
200 183 114
159 155 0
147 149 0
177 173 114
166 158 0
151 151 0
176 172 114
192 180 114
99 39 0
146 149 0
169 169 114
191 179 114
168 168 114
195 181 114
183 175 114
195 181 114
189 178 114
163 157 0
162 135 51
186 177 114
159 154 0
168 159 0
196 181 114
189 178 114
193 180 114
189 178 114
175 171 114
177 173 114
157 154 0
169 169 114
155 153 0
178 173 114
186 177 114
180 174 114
145 148 0
190 178 114
172 170 114
151 151 0
160 155 0
183 175 114
170 169 114
183 175 114
193 180 114
184 176 114
157 154 0
149 150 0
169 169 114
198 182 114
151 151 0
196 182 114
147 149 0
176 162 0
190 179 114
184 176 114
175 172 114
157 154 0
170 169 114
186 177 114
148 149 0
195 181 114
220 235 255
219 234 255
219 234 255
220 235 255
219 234 255
220 235 255
219 234 255
219 235 255
219 234 255
219 235 255
219 234 255
219 234 255
221 235 255
219 234 255
219 234 255
219 235 255
220 235 255
219 234 255
220 235 255
220 235 255
219 235 255
219 235 255
219 234 255
220 235 255
219 234 255
219 234 255
219 234 255
219 234 255
220 235 255
219 235 255
220 235 255
220 235 255
219 234 255
219 235 255
219 235 255
219 234 255
220 235 255
219 235 255
220 235 255
219 234 255
219 235 255
219 234 255
220 235 255
220 235 255
219 234 255
219 234 255
219 234 255
219 235 255
220 235 255
219 234 255
220 235 255
219 235 255
219 234 255
219 234 255
219 235 255
219 235 255
220 235 255
218 234 255
220 235 255
219 234 255
219 235 255
219 234 255
219 234 255
219 235 255
219 234 255
219 234 255
220 235 255
220 235 255
219 234 255
220 235 255
219 234 255
219 234 255
219 235 255
219 234 255
219 234 255
219 235 255
219 234 255
219 234 255
220 235 255
220 235 255
220 235 255
220 235 255
219 234 255
219 234 255
219 234 255
219 234 255
219 234 255
219 235 255
219 235 255
219 234 255
219 235 255
219 234 255
219 235 255
219 234 255
219 234 255
219 234 255
219 234 255
219 234 255
218 234 255
219 234 255
219 234 255
217 233 255
219 234 255
219 234 255
219 234 255
219 234 255
219 234 255
219 234 255
219 234 255
219 234 255
219 234 255
219 234 255
219 234 255
219 234 255
219 234 255
219 234 255
162 191 0
57 90 0
219 234 255
219 234 255
219 234 255
218 234 255
219 234 255
219 234 255
219 234 255
218 234 255
218 234 255
219 234 255
219 234 255
218 234 255
218 234 255
218 234 255
218 234 255
219 234 255
61 99 181
56 89 0
53 87 0
55 88 0
48 78 0
59 97 181
57 95 181
70 105 181
57 90 0
61 98 181
60 98 181
65 101 181
51 86 0
219 234 255
14 34 0
67 103 181
53 87 0
51 85 0
46 77 0
56 89 0
58 91 0
53 87 0
53 86 0
60 98 181
69 104 181
69 105 181
63 100 181
69 104 181
67 103 181
70 106 181
54 88 0
66 102 181
59 97 181
56 89 0
59 97 181
56 89 0
70 105 181
62 99 181
51 85 0
70 105 181
53 87 0
57 90 0
56 89 0
51 85 0
68 104 181
57 90 0
51 86 0
66 102 181
68 104 181
63 100 181
58 90 0
53 87 0
58 90 0
58 96 181
55 88 0
64 101 181
52 86 0
69 105 181
63 100 181
53 87 0
66 102 181
52 86 0
67 103 181
51 85 0
58 90 0
54 88 0
56 89 0
61 98 181
67 103 181
54 88 0
59 97 181
70 105 181
62 99 181
58 96 181
67 103 181
53 82 0
66 102 181
52 70 0
60 98 181
61 99 181
64 100 181
54 88 0
59 97 181
71 106 181
51 85 0
65 101 181
70 106 181
52 86 0
55 88 0
66 103 181
63 100 181
64 101 181
66 102 181
52 86 0
55 89 0
69 105 181
66 102 181
54 88 0
53 87 0
65 102 181
62 99 181
70 106 181
66 102 181
62 99 181
67 103 181
58 96 181
59 79 80
54 88 0
67 103 181
51 86 0
57 89 0
15 28 0
64 100 181
50 69 0
57 96 181
54 87 0
53 75 80
70 20 0
43 45 16
52 61 36
38 28 3
74 26 0
145 104 22
46 57 36
2 2 0
17 28 25
51 74 80
41 48 0
25 14 0
0 2 0
55 62 36
54 71 0
36 46 0
60 79 80
42 52 0
47 58 36
14 24 0
168 168 114
42 52 0
173 171 114
182 175 114
48 68 0
144 120 0
16 26 25
88 42 0
167 158 0
60 80 80
46 66 0
164 167 114
151 151 0
43 52 0
175 162 0
174 171 114
181 174 114
51 60 36
186 177 114
138 118 0
168 168 114
153 152 0
181 175 114
149 150 0
146 149 0
194 181 114
50 69 0
48 55 0
185 176 114
182 175 114
52 74 80
200 183 114
186 177 114
188 178 114
53 75 80
52 75 80
164 157 0
174 171 114
166 167 114
63 82 80
182 175 114
50 69 0
129 132 0
61 80 80
182 175 114
187 177 114
146 149 0
154 152 0
145 148 0
147 149 0
170 159 0
189 178 114
165 167 114
166 167 114
176 172 114
190 179 114
188 178 114
164 167 114
163 157 0
162 156 0
160 155 0
166 168 114
189 178 114
174 171 114
177 172 114
121 78 10
198 182 114
177 172 114
165 167 114
200 183 114
151 151 0
166 168 114
170 169 114
160 155 0
176 172 114
148 149 0
178 173 114
197 182 114
149 150 0
147 149 0
159 154 0
151 151 0
154 152 0
197 182 114
172 170 114
197 182 114
190 179 114
191 179 114
186 177 114
167 158 0
146 149 0
121 90 0
168 168 114
169 169 114
161 156 0
147 149 0
163 156 0
158 154 0
196 181 114
180 174 114
172 161 0
191 179 114
120 64 4
194 180 114
157 154 0
151 151 0
195 181 114
194 180 114
168 159 0
166 167 114
135 117 0
197 182 114
165 157 0
155 153 0
158 154 0
177 172 114
146 149 0
174 171 114
166 167 114
133 100 22
172 170 114
157 154 0
192 179 114
200 183 114
196 181 114
153 152 0
136 117 0
190 178 114
148 150 0
220 235 255
220 235 255
220 235 255
221 235 255
220 235 255
220 235 255
220 235 255
220 235 255
220 235 255
220 235 255
220 235 255
220 235 255
220 235 255
220 235 255
220 235 255
220 235 255
220 235 255
220 235 255
220 235 255
220 235 255
220 235 255
220 235 255
220 235 255
220 235 255
220 235 255
220 235 255
220 235 255
220 235 255
220 235 255
220 235 255
220 235 255
220 235 255
220 235 255
220 235 255
220 235 255
220 235 255
220 235 255
220 235 255
220 235 255
220 235 255
220 235 255
220 235 255
220 235 255
220 235 255
220 235 255
220 235 255
220 235 255
220 235 255
220 235 255
220 235 255
220 235 255
220 235 255
173 197 0
220 235 255
220 235 255
220 235 255
220 235 255
220 235 255
220 235 255
220 235 255
220 235 255
220 235 255
220 235 255
220 235 255
220 235 255
220 235 255
220 235 255
220 235 255
220 235 255
220 235 255
220 235 255
220 235 255
220 235 255
220 235 255
220 235 255
220 235 255
220 235 255
220 235 255
220 235 255
220 235 255
220 235 255
220 235 255
220 235 255
220 235 255
220 235 255
220 235 255
220 235 255
220 235 255
220 235 255
220 235 255
220 235 255
220 235 255
220 235 255
220 235 255
220 235 255
220 235 255
219 235 255
219 235 255
220 235 255
220 235 255
220 235 255
219 234 255
220 235 255
220 235 255
220 235 255
220 235 255
219 234 255
219 235 255
220 235 255
220 235 255
220 235 255
219 234 255
220 235 255
220 235 255
220 235 255
219 235 255
219 234 255
220 235 255
220 235 255
220 235 255
220 235 255
219 234 255
219 235 255
219 235 255
219 234 255
219 234 255
219 235 255
62 99 181
219 235 255
219 234 255
220 235 255
220 235 255
219 234 255
219 234 255
220 235 255
51 85 0
55 88 0
60 92 0
67 103 181
58 96 181
59 91 0
58 96 181
16 38 0
52 86 0
62 99 181
52 86 0
18 43 128
220 235 255
57 90 0
71 106 181
59 91 0
66 102 181
64 101 181
65 101 181
60 98 181
63 100 181
57 90 0
69 105 181
56 89 0
61 98 181
55 89 0
65 102 181
58 90 0
68 104 181
63 100 181
63 100 181
69 105 181
64 101 181
58 96 181
55 88 0
54 88 0
55 88 0
60 98 181
68 103 181
52 86 0
68 104 181
70 105 181
70 105 181
59 97 181
51 86 0
18 40 0
66 102 181
52 86 0
57 90 0
67 103 181
69 105 181
61 98 181
59 92 0
68 104 181
59 97 181
71 106 181
63 100 181
62 99 181
52 86 0
54 87 0
59 97 181
54 87 0
54 88 0
57 95 181
54 71 0
63 100 181
62 99 181
70 106 181
54 88 0
67 103 181
68 104 181
60 98 181
60 97 181
60 98 181
54 88 0
57 90 0
51 85 0
52 70 0
67 103 181
65 101 181
53 87 0
65 102 181
61 93 0
4 14 0
61 93 0
63 100 181
49 59 36
32 33 0
53 87 0
55 88 0
65 101 181
61 93 0
52 86 0
69 104 181
61 98 181
71 106 181
63 100 181
61 98 181
69 105 181
63 100 181
58 96 181
53 87 0
62 99 181
44 61 0
67 103 181
54 87 0
66 102 181
60 97 181
55 77 80
58 91 0
58 78 80
56 89 0
28 13 0
54 87 0
60 98 181
59 97 181
19 35 57
4 9 8
41 44 16
49 48 16
1 3 2
24 14 0
146 129 51
3 6 0
55 62 36
54 62 36
43 37 7
61 81 80
62 13 0
180 174 114
62 81 80
166 167 114
10 15 0
52 61 36
50 69 0
57 78 80
52 75 80
43 7 0
195 181 114
195 181 114
147 149 0
46 57 36
53 75 80
52 74 80
148 150 0
158 154 0
165 167 114
59 79 80
48 58 36
152 151 0
170 160 0
150 150 0
58 78 80
170 159 0
194 181 114
50 60 36
54 76 80
199 183 114
157 154 0
175 172 114
159 154 0
193 180 114
155 153 0
177 172 114
14 27 0
198 183 114
179 173 114
164 157 0
197 182 114
172 170 114
163 156 0
156 153 0
146 149 0
154 152 0
148 149 0
190 179 114
145 148 0
169 169 114
177 172 114
51 70 0
184 176 114
171 170 114
179 173 114
192 179 114
174 171 114
145 148 0
150 150 0
154 152 0
189 178 114
168 169 114
147 149 0
197 182 114
180 174 114
182 175 114
186 177 114
154 152 0
171 170 114
0 0 0
188 178 114
194 180 114
201 184 114
170 160 0
199 183 114
158 154 0
199 183 114
176 172 114
124 106 0
196 182 114
172 161 0
171 170 114
194 180 114
157 154 0
160 155 0
141 119 0
149 150 0
173 170 114
166 167 114
158 154 0
176 172 114
161 110 22
195 181 114
199 183 114
145 148 0
71 18 0
154 152 0
171 170 114
194 181 114
193 180 114
166 167 114
153 131 51
159 154 0
198 182 114
199 183 114
189 178 114
195 181 114
152 151 0
169 169 114
159 154 0
154 152 0
177 172 114
184 176 114
181 174 114
185 176 114
177 172 114
122 105 0
191 179 114
145 148 0
177 173 114
199 183 114
147 149 0
150 151 0
150 151 0
148 150 0
168 168 114
158 154 0
163 166 114
184 176 114
194 181 114
173 171 114
148 149 0
155 153 0
145 128 51
176 172 114
175 171 114
154 152 0
221 235 255
221 235 255
220 235 255
220 235 255
221 235 255
221 235 255
221 235 255
220 235 255
220 235 255
221 235 255
221 235 255
221 235 255
220 235 255
221 235 255
220 235 255
221 235 255
221 235 255
221 235 255
221 235 255
221 235 255
221 235 255
221 235 255
220 235 255
221 235 255
221 235 255
220 235 255
221 235 255
221 235 255
221 235 255
221 235 255
221 235 255
221 235 255
221 235 255
220 235 255
221 235 255
221 235 255
221 235 255
221 235 255
221 235 255
221 235 255
221 235 255
221 235 255
221 235 255
221 235 255
220 235 255
221 235 255
221 235 255
220 235 255
221 235 255
221 235 255
220 235 255
221 235 255
220 235 255
220 235 255
221 235 255
221 235 255
221 235 255
221 235 255
221 235 255
220 235 255
221 235 255
221 235 255
220 235 255
69 104 181
221 235 255
220 235 255
220 235 255
221 235 255
221 235 255
220 235 255
221 235 255
220 235 255
220 235 255
220 235 255
221 235 255
220 235 255
221 235 255
221 235 255
220 235 255
221 235 255
220 235 255
221 235 255
221 235 255
220 235 255
220 235 255
221 235 255
221 235 255
221 235 255
220 235 255
221 235 255
221 235 255
220 235 255
221 235 255
220 235 255
221 235 255
220 235 255
221 235 255
220 235 255
221 235 255
220 235 255
220 235 255
221 235 255
220 235 255
221 235 255
220 235 255
221 235 255
220 235 255
220 235 255
220 235 255
220 235 255
220 235 255
221 235 255
220 235 255
220 235 255
221 235 255
220 235 255
221 235 255
221 235 255
68 103 181
220 235 255
220 235 255
221 235 255
220 235 255
220 235 255
220 235 255
221 235 255
220 235 255
221 235 255
220 235 255
220 235 255
221 235 255
221 235 255
220 235 255
220 235 255
60 98 181
55 88 0
64 101 181
57 96 181
53 87 0
16 38 0
51 85 0
70 106 181
52 86 0
70 105 181
62 99 181
69 105 181
62 99 181
221 235 255
59 91 0
49 79 0
65 101 181
71 106 181
63 100 181
52 86 0
58 96 181
65 102 181
52 86 0
59 91 0
51 86 0
51 85 0
62 99 181
59 91 0
70 105 181
61 99 181
68 104 181
64 101 181
55 88 0
55 88 0
67 103 181
62 99 181
59 97 181
58 91 0
60 98 181
71 106 181
63 100 181
66 102 181
56 89 0
69 104 181
55 88 0
52 86 0
68 104 181
70 105 181
68 104 181
70 106 181
37 46 0
57 90 0
64 100 181
71 106 181
66 102 181
66 102 181
52 86 0
58 96 181
43 60 0
69 104 181
62 100 181
65 101 181
55 88 0
51 86 0
58 96 181
54 88 0
66 102 181
59 97 181
58 96 181
57 90 0
67 103 181
67 103 181
69 104 181
64 101 181
53 87 0
66 102 181
54 88 0
59 92 0
67 103 181
13 27 0
51 86 0
52 86 0
68 103 181
55 88 0
57 90 0
54 87 0
66 102 181
52 86 0
58 91 0
61 93 0
51 85 0
29 19 0
52 75 80
70 105 181
64 100 181
51 85 0
62 99 181
62 99 181
52 86 0
68 103 181
51 85 0
57 96 181
70 105 181
46 66 0
53 87 0
58 90 0
51 74 80
58 96 181
68 104 181
57 95 181
67 103 181
48 67 0
41 41 0
49 48 16
66 102 181
57 78 80
54 75 80
107 70 0
150 106 22
33 26 3
148 122 0
46 57 36
3 5 1
41 51 0
12 18 0
139 118 0
93 50 0
40 36 7
14 24 0
41 44 16
58 78 80
51 69 0
53 75 80
45 53 0
169 169 114
52 61 36
153 152 0
54 62 36
46 66 0
17 12 0
163 156 0
46 66 0
49 59 36
165 167 114
51 60 36
1 2 1
169 169 114
49 68 0
154 152 0
50 60 36
147 149 0
190 179 114
49 59 36
56 77 80
55 76 80
188 178 114
171 170 114
170 160 0
54 72 0
46 66 0
175 172 114
169 169 114
46 66 0
188 178 114
186 177 114
177 172 114
56 77 80
184 176 114
175 171 114
152 151 0
145 148 0
48 67 0
196 182 114
180 174 114
171 170 114
174 171 114
183 175 114
192 180 114
148 150 0
164 157 0
154 152 0
148 150 0
196 181 114
178 173 114
192 179 114
161 156 0
188 178 114
183 175 114
150 151 0
191 179 114
160 155 0
152 151 0
200 183 114
187 177 114
44 61 0
161 156 0
201 184 114
183 175 114
154 152 0
178 173 114
170 169 114
147 149 0
159 154 0
160 155 0
193 180 114
55 73 0
153 152 0
155 152 0
181 174 114
179 173 114
156 153 0
196 181 114
188 178 114
145 148 0
200 183 114
153 152 0
200 183 114
175 172 114
147 149 0
161 156 0
146 149 0
165 157 0
130 115 0
170 160 0
169 169 114
172 170 114
166 137 51
189 178 114
174 171 114
152 151 0
190 178 114
146 149 0
170 169 114
177 172 114
152 151 0
148 122 0
162 156 0
45 7 0
175 171 114
193 180 114
193 180 114
182 175 114
155 153 0
139 118 0
195 181 114
192 180 114
184 176 114
190 178 114
192 179 114
179 174 114
199 183 114
163 156 0
188 177 114
189 178 114
155 152 0
197 182 114
177 173 114
161 156 0
194 181 114
181 174 114
182 175 114
152 123 0
184 176 114
179 173 114
175 140 51
158 126 0
221 235 255
221 235 255
221 236 255
221 236 255
221 235 255
221 236 255
221 235 255
221 235 255
221 235 255
221 235 255
221 236 255
221 236 255
221 236 255
221 236 255
221 235 255
221 236 255
221 236 255
221 236 255
221 235 255
221 235 255
221 235 255
221 236 255
221 236 255
221 235 255
221 236 255
221 236 255
221 235 255
221 236 255
221 235 255
221 236 255
221 235 255
221 235 255
221 235 255
221 236 255
221 236 255
221 236 255
221 236 255
221 236 255
221 235 255
221 236 255
221 236 255
221 236 255
221 235 255
221 236 255
221 235 255
221 236 255
221 235 255
221 236 255
221 235 255
221 236 255
221 235 255
221 236 255
221 235 255
221 235 255
221 235 255
221 236 255
221 236 255
221 236 255
221 236 255
221 235 255
221 235 255
221 235 255
221 236 255
221 236 255
221 235 255
221 236 255
221 235 255
221 236 255
221 236 255
221 236 255
221 235 255
221 236 255
221 236 255
221 235 255
221 236 255
221 235 255
221 235 255
221 235 255
221 236 255
221 236 255
221 236 255
221 235 255
221 235 255
221 236 255
221 235 255
221 236 255
221 236 255
221 236 255
221 235 255
221 236 255
221 235 255
221 235 255
221 235 255
221 236 255
221 235 255
221 236 255
221 235 255
221 236 255
221 236 255
221 235 255
221 236 255
221 235 255
221 235 255
221 235 255
221 235 255
221 235 255
221 236 255
221 235 255
221 235 255
222 236 255
221 236 255
221 236 255
221 235 255
221 235 255
221 235 255
221 235 255
221 235 255
221 236 255
221 236 255
221 236 255
221 235 255
221 236 255
221 236 255
221 236 255
222 236 255
221 236 255
221 235 255
221 235 255
221 235 255
221 235 255
221 235 255
222 236 255
222 236 255
222 236 255
55 88 0
63 100 181
61 93 0
57 90 0
19 43 128
51 85 0
66 102 181
58 90 0
63 100 181
61 93 0
61 99 181
61 98 181
56 89 0
68 104 181
221 235 255
51 86 0
58 96 181
54 88 0
58 91 0
60 98 181
17 37 0
55 89 0
61 93 0
16 35 0
64 101 181
52 86 0
52 86 0
56 89 0
58 91 0
51 85 0
62 99 181
60 98 181
54 87 0
55 88 0
67 103 181
69 105 181
60 98 181
67 103 181
52 86 0
54 88 0
62 99 181
67 103 181
56 89 0
70 106 181
63 100 181
55 88 0
53 87 0
63 100 181
62 99 181
60 98 181
55 89 0
51 85 0
67 103 181
54 88 0
70 106 181
53 87 0
67 103 181
66 102 181
70 105 181
55 88 0
52 86 0
60 92 0
55 88 0
68 104 181
58 91 0
57 90 0
64 101 181
69 104 181
59 92 0
68 104 181
51 86 0
66 102 181
58 96 181
56 89 0
70 105 181
54 88 0
66 102 181
53 87 0
61 99 181
56 89 0
52 86 0
53 75 80
67 103 181
64 101 181
56 73 0
64 101 181
64 101 181
64 100 181
67 103 181
71 106 181
70 106 181
59 91 0
63 100 181
69 105 181
68 104 181
56 89 0
62 99 181
62 99 181
70 106 181
54 88 0
51 74 80
59 97 181
58 96 181
64 101 181
48 68 0
70 105 181
71 106 181
10 13 0
63 100 181
58 91 0
46 66 0
69 105 181
55 76 80
54 87 0
62 99 181
47 67 0
29 13 0
68 104 181
153 132 51
4 1 0
14 26 25
50 60 36
4 5 1
50 59 36
3 10 0
169 169 114
179 173 114
8 7 0
55 76 80
49 59 36
0 0 0
51 74 80
15 25 0
164 157 0
61 81 80
15 26 25
61 81 80
172 170 114
198 182 114
191 179 114
187 177 114
12 18 0
179 173 114
54 76 80
167 168 114
162 166 114
55 77 80
178 173 114
193 180 114
27 16 0
51 70 0
45 66 0
197 182 114
47 67 0
163 156 0
144 148 0
176 172 114
196 181 114
164 167 114
172 170 114
158 154 0
183 175 114
148 149 0
194 180 114
146 148 0
180 174 114
147 149 0
13 23 0
190 178 114
174 171 114
191 179 114
175 172 114
63 82 80
168 159 0
169 169 114
173 171 114
160 155 0
149 150 0
181 174 114
155 153 0
152 151 0
186 176 114
183 175 114
161 155 0
175 171 114
161 156 0
147 149 0
200 183 114
171 160 0
164 157 0
156 125 0
164 166 114
200 183 114
156 153 0
148 149 0
150 151 0
177 172 114
147 149 0
167 168 114
198 182 114
146 148 0
159 154 0
198 183 114
94 71 0
201 184 114
190 179 114
195 181 114
174 171 114
199 183 114
183 175 114
184 176 114
198 182 114
176 172 114
147 149 0
174 171 114
149 150 0
196 182 114
132 109 0
152 151 0
185 176 114
180 174 114
187 177 114
186 176 114
145 148 0
152 151 0
117 84 0
194 181 114
150 150 0
53 71 0
150 150 0
182 175 114
187 177 114
109 70 0
177 173 114
148 150 0
178 173 114
192 180 114
114 72 0
192 180 114
157 154 0
176 172 114
151 151 0
150 123 0
165 167 114
196 181 114
182 175 114
107 60 4
180 174 114
164 157 0
158 109 22
201 184 114
145 148 0
196 181 114
162 156 0
148 150 0
172 170 114
33 5 0
182 175 114
147 149 0
148 150 0
165 167 114
186 177 114
152 131 51
83 41 0
176 172 114
148 149 0
222 236 255
222 236 255
222 236 255
222 236 255
222 236 255
222 236 255
222 236 255
222 236 255
222 236 255
222 236 255
222 236 255
222 236 255
222 236 255
222 236 255
222 236 255
222 236 255
222 236 255
222 236 255
222 236 255
222 236 255
222 236 255
222 236 255
222 236 255
222 236 255
222 236 255
222 236 255
222 236 255
222 236 255
222 236 255
222 236 255
222 236 255
222 236 255
222 236 255
222 236 255
222 236 255
222 236 255
222 236 255
222 236 255
222 236 255
222 236 255
222 236 255
222 236 255
222 236 255
222 236 255
222 236 255
222 236 255
222 236 255
222 236 255
222 236 255
222 236 255
222 236 255
222 236 255
222 236 255
222 236 255
222 236 255
222 236 255
222 236 255
222 236 255
222 236 255
222 236 255
222 236 255
222 236 255
222 236 255
222 236 255
222 236 255
222 236 255
222 236 255
222 236 255
65 101 181
222 236 255
222 236 255
222 236 255
222 236 255
222 236 255
222 236 255
222 236 255
222 236 255
222 236 255
222 236 255
222 236 255
222 236 255
222 236 255
222 236 255
222 236 255
222 236 255
222 236 255
222 236 255
222 236 255
222 236 255
222 236 255
222 236 255
222 236 255
222 236 255
222 236 255
222 236 255
222 236 255
222 236 255
222 236 255
222 236 255
222 236 255
222 236 255
222 236 255
222 236 255
222 236 255
222 236 255
222 236 255
222 236 255
222 236 255
222 236 255
222 236 255
222 236 255
222 236 255
222 236 255
222 236 255
222 236 255
222 236 255
222 236 255
222 236 255
222 236 255
222 236 255
222 236 255
222 236 255
222 236 255
222 236 255
222 236 255
222 236 255
222 236 255
222 236 255
222 236 255
223 236 255
222 236 255
222 236 255
222 236 255
222 236 255
60 92 0
21 46 128
67 103 181
53 87 0
61 93 0
64 100 181
5 19 90
58 96 181
60 98 181
66 102 181
5 19 90
51 86 0
22 47 128
222 236 255
59 91 0
69 105 181
62 93 0
59 91 0
54 87 0
59 97 181
62 99 181
70 106 181
62 94 0
52 86 0
52 86 0
59 97 181
64 100 181
63 100 181
53 87 0
61 93 0
70 105 181
59 97 181
70 105 181
60 92 0
69 104 181
65 102 181
63 100 181
55 89 0
58 91 0
61 99 181
60 92 0
68 104 181
65 101 181
62 99 181
54 87 0
53 87 0
62 99 181
55 88 0
59 91 0
68 104 181
70 105 181
61 98 181
56 89 0
52 86 0
53 87 0
51 85 0
65 101 181
53 87 0
69 105 181
66 102 181
66 102 181
56 89 0
19 42 0
58 96 181
57 96 181
53 87 0
63 100 181
66 102 181
69 104 181
57 90 0
51 85 0
70 105 181
51 85 0
68 104 181
62 99 181
53 87 0
55 89 0
64 101 181
57 90 0
59 92 0
62 99 181
60 98 181
66 102 181
59 92 0
57 90 0
68 104 181
68 104 181
64 101 181
53 87 0
52 86 0
54 87 0
53 87 0
66 102 181
67 103 181
69 105 181
47 67 0
69 104 181
70 105 181
67 103 181
66 102 181
54 88 0
53 87 0
51 85 0
66 103 181
52 86 0
65 101 181
68 104 181
57 90 0
71 106 181
68 103 181
55 77 80
63 100 181
59 97 181
55 89 0
46 66 0
58 96 181
56 89 0
63 100 181
116 63 4
0 0 0
4 7 3
51 69 0
11 16 0
4 7 3
2 2 0
62 81 80
147 105 22
48 55 0
59 79 80
55 63 36
168 168 114
55 77 80
171 170 114
12 17 0
159 154 0
46 58 36
176 172 114
56 77 80
42 45 16
56 77 80
172 161 0
148 150 0
165 167 114
61 80 80
160 155 0
9 13 0
58 79 80
172 160 0
185 176 114
13 23 0
61 80 80
55 77 80
200 184 114
148 150 0
185 176 114
197 182 114
201 184 114
172 170 114
168 169 114
181 174 114
183 175 114
36 46 0
178 173 114
62 81 80
45 57 36
175 172 114
168 159 0
192 179 114
171 160 0
163 156 0
183 175 114
197 182 114
164 166 114
176 172 114
163 166 114
163 156 0
194 180 114
164 157 0
200 183 114
195 181 114
21 12 0
190 179 114
145 148 0
149 150 0
165 157 0
147 149 0
155 153 0
183 175 114
168 159 0
153 152 0
4 11 0
149 150 0
195 181 114
147 149 0
156 125 0
194 181 114
56 73 0
193 180 114
148 150 0
175 172 114
157 154 0
174 171 114
194 181 114
189 178 114
154 152 0
191 179 114
194 180 114
197 182 114
152 151 0
186 177 114
166 168 114
151 151 0
186 177 114
181 174 114
160 155 0
172 161 0
28 2 0
177 173 114
168 159 0
190 179 114
47 63 0
198 183 114
184 176 114
189 178 114
175 171 114
164 166 114
189 178 114
182 175 114
168 168 114
102 48 2
34 5 0
169 169 114
180 174 114
201 184 114
171 170 114
170 169 114
149 150 0
182 175 114
173 171 114
123 64 4
56 73 0
173 170 114
169 169 114
194 181 114
180 174 114
140 103 22
201 184 114
156 153 0
178 173 114
166 158 0
145 148 0
173 170 114
184 175 114
107 57 0
181 174 114
175 172 114
152 151 0
172 170 114
98 47 2
168 168 114
179 173 114
158 154 0
188 178 114
184 176 114
154 152 0
201 184 114
222 236 255
222 236 255
222 236 255
223 236 255
222 236 255
222 236 255
222 236 255
223 236 255
223 236 255
223 236 255
223 236 255
222 236 255
222 236 255
223 236 255
222 236 255
223 236 255
222 236 255
223 236 255
223 236 255
223 236 255
221 235 255
222 236 255
222 236 255
222 236 255
223 236 255
223 236 255
223 236 255
222 236 255
222 236 255
222 236 255
222 236 255
222 236 255
222 236 255
222 236 255
222 236 255
222 236 255
223 236 255
222 236 255
223 236 255
223 236 255
223 236 255
222 236 255
222 236 255
223 236 255
222 236 255
223 236 255
222 236 255
223 236 255
223 236 255
222 236 255
222 236 255
222 236 255
222 236 255
222 236 255
222 236 255
222 236 255
222 236 255
222 236 255
223 236 255
222 236 255
222 236 255
222 236 255
222 236 255
222 236 255
222 236 255
222 236 255
223 236 255
222 236 255
223 236 255
223 236 255
223 236 255
223 236 255
223 236 255
223 236 255
222 236 255
223 236 255
222 236 255
223 236 255
222 236 255
222 236 255
222 236 255
222 236 255
223 236 255
222 236 255
223 236 255
222 236 255
223 236 255
223 236 255
223 236 255
223 236 255
222 236 255
222 236 255
222 236 255
223 236 255
222 236 255
222 236 255
223 236 255
223 236 255
223 236 255
223 236 255
223 236 255
222 236 255
223 236 255
222 236 255
223 236 255
223 236 255
223 236 255
223 236 255
223 236 255
222 236 255
222 236 255
223 236 255
223 237 255
223 236 255
223 237 255
223 236 255
223 237 255
223 236 255
223 237 255
223 237 255
223 237 255
223 236 255
223 237 255
223 237 255
223 237 255
223 237 255
223 237 255
223 236 255
223 236 255
223 237 255
223 236 255
223 237 255
223 236 255
223 237 255
223 237 255
222 236 255
67 103 181
58 96 181
60 98 181
51 85 0
57 90 0
52 86 0
5 16 0
71 106 181
45 76 0
55 88 0
16 38 0
223 236 255
64 101 181
59 97 181
62 100 181
68 104 181
59 91 0
59 97 181
63 100 181
59 97 181
55 89 0
59 91 0
60 98 181
63 100 181
57 90 0
66 102 181
70 106 181
68 104 181
53 87 0
53 87 0
59 97 181
70 105 181
52 86 0
64 100 181
63 100 181
60 98 181
53 87 0
69 105 181
65 102 181
51 86 0
66 102 181
56 89 0
57 90 0
56 89 0
64 100 181
60 92 0
69 105 181
67 103 181
15 35 0
57 90 0
69 104 181
66 103 181
19 41 0
58 90 0
63 100 181
70 105 181
68 104 181
57 90 0
60 98 181
53 87 0
68 104 181
52 86 0
67 103 181
68 104 181
56 89 0
52 86 0
60 98 181
66 102 181
62 99 181
51 85 0
69 104 181
51 86 0
53 87 0
70 105 181
60 98 181
57 89 0
65 101 181
58 91 0
56 89 0
53 87 0
18 40 0
64 101 181
68 104 181
70 105 181
56 89 0
56 89 0
62 99 181
63 100 181
53 71 0
52 86 0
14 34 0
52 86 0
1 1 0
53 87 0
60 92 0
55 89 0
9 8 0
65 102 181
60 92 0
70 106 181
51 85 0
52 86 0
56 77 80
51 85 0
68 104 181
55 88 0
57 78 80
64 101 181
47 67 0
66 102 181
51 85 0
53 75 80
53 87 0
49 68 0
43 50 0
14 25 25
180 174 114
13 20 11
36 6 0
38 28 3
127 80 10
31 21 1
46 66 0
3 5 0
0 1 0
166 168 114
60 80 80
24 14 0
175 172 114
62 81 80
41 51 0
55 63 36
59 79 80
59 79 80
47 58 36
160 155 0
168 168 114
194 180 114
56 77 80
13 21 0
47 55 0
191 179 114
4 12 0
170 169 114
51 69 0
156 153 0
44 53 0
50 69 0
14 27 0
48 55 0
191 179 114
177 172 114
14 27 0
161 155 0
197 182 114
48 68 0
196 181 114
156 153 0
156 153 0
146 149 0
3 9 0
148 149 0
47 67 0
190 179 114
153 152 0
185 176 114
63 82 80
54 72 0
185 176 114
178 173 114
149 150 0
200 183 114
15 24 0
189 178 114
201 184 114
149 150 0
166 158 0
198 182 114
154 152 0
174 171 114
157 153 0
198 183 114
56 77 80
154 152 0
148 150 0
185 176 114
185 176 114
147 149 0
185 176 114
150 150 0
194 180 114
157 154 0
160 155 0
165 157 0
197 182 114
159 155 0
192 180 114
152 151 0
71 25 0
152 151 0
194 181 114
153 152 0
190 179 114
149 150 0
147 149 0
197 182 114
201 184 114
173 171 114
157 154 0
150 150 0
198 182 114
149 150 0
200 183 114
159 155 0
198 183 114
145 148 0
186 176 114
195 181 114
153 152 0
146 149 0
150 150 0
177 172 114
171 160 0
168 168 114
152 151 0
116 84 0
183 175 114
196 181 114
182 175 114
184 176 114
173 161 0
171 160 0
182 175 114
170 160 0
167 158 0
157 154 0
157 154 0
201 184 114
173 161 0
40 41 0
177 172 114
196 181 114
146 149 0
199 183 114
153 131 51
177 172 114
154 152 0
196 181 114
182 175 114
158 133 51
102 39 0
170 169 114
187 177 114
174 171 114
182 175 114
19 1 0
172 139 51
200 183 114
171 160 0
184 176 114
191 179 114
166 158 0
26 15 0
189 178 114
223 237 255
223 237 255
223 237 255
223 237 255
223 237 255
223 237 255
223 236 255
223 237 255
221 235 255
222 236 255
223 237 255
223 237 255
223 237 255
223 237 255
223 236 255
223 237 255
223 236 255
223 236 255
223 237 255
223 237 255
223 237 255
223 237 255
223 237 255
223 236 255
223 236 255
223 236 255
223 236 255
223 237 255
223 236 255
223 237 255
223 237 255
223 237 255
223 237 255
223 236 255
223 237 255
223 236 255
223 236 255
223 236 255
223 237 255
223 237 255
223 236 255
223 237 255
223 236 255
223 236 255
223 236 255
223 237 255
223 237 255
223 237 255
223 237 255
223 237 255
223 236 255
223 237 255
223 236 255
223 236 255
223 237 255
223 237 255
223 237 255
223 237 255
223 237 255
223 237 255
223 236 255
223 237 255
223 237 255
223 236 255
223 237 255
223 236 255
223 237 255
223 237 255
223 237 255
223 236 255
223 237 255
223 237 255
223 237 255
223 237 255
223 237 255
223 237 255
223 237 255
223 237 255
223 237 255
223 236 255
223 237 255
223 236 255
223 237 255
223 237 255
223 237 255
223 237 255
223 237 255
223 237 255
223 237 255
223 237 255
223 237 255
223 237 255
223 237 255
223 237 255
223 237 255
223 237 255
223 237 255
223 237 255
223 237 255
223 237 255
224 237 255
223 237 255
223 237 255
223 237 255
223 237 255
223 237 255
223 237 255
224 237 255
213 231 255
223 237 255
223 237 255
224 237 255
224 237 255
224 237 255
224 237 255
224 237 255
224 237 255
223 237 255
223 237 255
223 237 255
224 237 255
224 237 255
224 237 255
223 237 255
224 237 255
224 237 255
224 237 255
224 237 255
224 237 255
224 237 255
224 237 255
224 237 255
224 237 255
52 86 0
16 36 0
53 87 0
15 35 0
61 93 0
61 98 181
57 90 0
17 39 0
57 95 181
59 97 181
62 99 181
20 45 128
70 105 181
55 88 0
223 236 255
63 100 181
21 46 128
52 86 0
56 89 0
57 90 0
65 101 181
63 100 181
60 92 0
54 88 0
62 99 181
70 106 181
55 88 0
61 98 181
52 86 0
66 102 181
53 87 0
69 105 181
58 91 0
14 34 0
60 97 181
54 87 0
1 6 0
54 87 0
52 86 0
52 86 0
51 85 0
52 86 0
51 86 0
66 103 181
60 98 181
55 89 0
51 86 0
62 99 181
67 103 181
63 100 181
56 89 0
58 91 0
15 35 0
60 92 0
18 41 0
60 98 181
68 104 181
66 102 181
52 86 0
54 88 0
14 34 0
57 90 0
62 99 181
69 104 181
66 102 181
61 93 0
63 100 181
67 103 181
62 99 181
54 88 0
69 104 181
54 88 0
68 103 181
15 35 0
45 62 0
59 97 181
68 103 181
16 36 0
69 105 181
18 40 0
66 102 181
63 100 181
65 102 181
54 88 0
62 99 181
67 103 181
56 89 0
60 98 181
48 63 0
69 104 181
60 98 181
48 68 0
67 103 181
69 105 181
56 89 0
65 102 181
3 6 0
64 101 181
60 98 181
57 90 0
47 67 0
65 102 181
68 103 181
54 87 0
55 88 0
56 89 0
54 87 0
59 91 0
61 99 181
51 85 0
58 91 0
52 70 0
46 66 0
54 76 80
66 102 181
53 61 36
54 88 0
70 105 181
47 63 0
1 0 0
127 80 10
3 8 0
4 7 3
41 51 0
152 131 51
5 9 8
52 8 0
3 9 0
27 3 0
42 52 0
49 68 0
156 108 22
148 150 0
49 68 0
161 155 0
46 67 0
46 54 0
15 29 0
58 78 80
156 153 0
56 77 80
44 53 0
196 181 114
200 184 114
43 53 0
178 173 114
55 77 80
155 153 0
51 70 0
46 63 0
147 149 0
1 3 2
48 67 0
169 169 114
155 153 0
41 59 0
57 78 80
168 159 0
55 76 80
155 153 0
176 163 0
166 168 114
186 177 114
177 172 114
178 173 114
153 152 0
145 148 0
153 152 0
150 150 0
161 156 0
60 80 80
182 175 114
183 175 114
178 173 114
193 180 114
181 174 114
159 154 0
154 152 0
145 148 0
193 180 114
166 158 0
188 178 114
151 151 0
149 150 0
173 161 0
187 177 114
149 150 0
177 172 114
187 177 114
190 179 114
121 105 0
146 148 0
168 159 0
185 176 114
164 167 114
193 180 114
186 176 114
196 182 114
193 180 114
132 116 0
201 184 114
61 81 80
152 151 0
195 181 114
182 175 114
188 178 114
138 96 0
163 156 0
171 170 114
159 154 0
169 159 0
192 180 114
199 183 114
145 148 0
147 149 0
158 154 0
182 175 114
189 178 114
158 154 0
146 149 0
162 156 0
156 153 0
189 178 114
177 172 114
150 150 0
84 41 0
171 170 114
160 155 0
165 157 0
177 172 114
181 174 114
174 171 114
164 157 0
178 173 114
49 65 0
197 182 114
193 180 114
147 149 0
162 156 0
170 169 114
190 179 114
77 26 0
172 170 114
158 154 0
169 169 114
193 180 114
163 156 0
166 158 0
158 154 0
185 176 114
180 174 114
200 183 114
49 68 0
161 155 0
187 177 114
148 130 51
150 150 0
152 131 51
147 149 0
193 180 114
171 160 0
192 180 114
198 182 114
191 179 114
167 158 0
152 151 0
162 156 0
223 237 255
224 237 255
224 237 255
224 237 255
223 237 255
222 236 255
224 237 255
224 237 255
224 237 255
224 237 255
224 237 255
224 237 255
224 237 255
224 237 255
224 237 255
223 237 255
223 237 255
223 237 255
223 237 255
224 237 255
223 237 255
224 237 255
224 237 255
223 237 255
224 237 255
223 237 255
223 237 255
223 237 255
223 237 255
223 237 255
223 237 255
223 237 255
224 237 255
223 237 255
224 237 255
224 237 255
223 237 255
224 237 255
223 237 255
223 237 255
224 237 255
223 237 255
223 237 255
223 237 255
224 237 255
224 237 255
223 237 255
224 237 255
215 232 255
223 237 255
224 237 255
224 237 255
224 237 255
224 237 255
224 237 255
224 237 255
224 237 255
224 237 255
224 237 255
224 237 255
224 237 255
224 237 255
224 237 255
224 237 255
224 237 255
224 237 255
224 237 255
224 237 255
224 237 255
224 237 255
224 237 255
224 237 255
224 237 255
224 237 255
224 237 255
223 237 255
178 200 0
224 237 255
224 237 255
224 237 255
224 237 255
224 237 255
224 237 255
223 237 255
224 237 255
224 237 255
224 237 255
211 230 255
224 237 255
177 199 0
224 237 255
169 195 0
224 237 255
224 237 255
224 237 255
224 237 255
224 237 255
224 237 255
224 237 255
162 191 0
224 237 255
224 237 255
184 203 0
224 237 255
224 237 255
224 237 255
224 237 255
224 237 255
224 237 255
224 237 255
224 237 255
224 237 255
224 237 255
224 237 255
224 237 255
224 237 255
224 237 255
225 237 255
225 238 255
224 237 255
225 237 255
224 237 255
225 238 255
225 237 255
225 238 255
173 197 0
61 98 181
225 237 255
225 237 255
225 237 255
171 196 0
194 208 0
190 206 0
171 196 0
19 42 0
69 104 181
66 102 181
54 87 0
19 44 128
59 91 0
53 87 0
65 101 181
16 38 0
51 86 0
18 43 128
18 42 128
58 91 0
224 237 255
224 237 255
63 100 181
51 85 0
58 96 181
60 97 181
70 105 181
58 91 0
53 87 0
19 42 0
54 88 0
52 70 0
70 105 181
52 86 0
67 103 181
56 89 0
58 97 181
52 86 0
53 87 0
69 105 181
54 88 0
52 86 0
64 101 181
63 100 181
66 102 181
67 103 181
66 102 181
52 86 0
60 98 181
60 97 181
67 103 181
59 97 181
51 85 0
65 101 181
67 103 181
70 106 181
65 101 181
61 98 181
54 87 0
69 105 181
54 88 0
68 104 181
54 88 0
53 87 0
61 98 181
58 91 0
51 85 0
68 104 181
67 103 181
19 42 0
52 86 0
51 85 0
68 104 181
65 101 181
64 101 181
64 101 181
52 86 0
52 86 0
20 42 0
61 98 181
57 90 0
63 100 181
68 104 181
64 100 181
64 101 181
52 86 0
67 103 181
62 99 181
59 97 181
71 106 181
67 103 181
58 96 181
69 105 181
60 92 0
53 87 0
68 104 181
56 89 0
67 103 181
54 87 0
60 98 181
52 86 0
49 68 0
53 87 0
62 99 181
55 88 0
64 101 181
51 86 0
70 105 181
64 100 181
44 61 0
44 61 0
65 102 181
56 89 0
64 101 181
54 88 0
59 97 181
56 89 0
64 101 181
57 90 0
12 21 0
53 87 0
41 48 0
50 69 0
13 23 0
56 63 36
94 58 0
158 133 51
4 0 0
39 35 7
44 61 0
45 66 0
12 15 5
50 69 0
56 77 80
61 81 80
69 25 0
145 128 51
3 5 1
62 81 80
41 51 0
3 9 0
184 176 114
134 101 22
62 81 80
145 148 0
183 175 114
14 19 0
176 172 114
46 62 0
169 159 0
148 149 0
187 177 114
178 173 114
55 63 36
128 66 4
187 177 114
168 159 0
51 60 36
199 183 114
155 153 0
152 151 0
192 180 114
166 158 0
176 172 114
49 59 36
148 149 0
190 179 114
47 67 0
41 51 0
168 168 114
151 151 0
150 150 0
57 78 80
172 170 114
192 179 114
153 152 0
175 171 114
147 149 0
50 69 0
178 173 114
196 181 114
145 148 0
154 152 0
171 160 0
198 182 114
187 177 114
57 78 80
173 170 114
185 176 114
181 174 114
188 178 114
198 182 114
168 168 114
152 151 0
179 173 114
183 175 114
173 171 114
164 157 0
185 176 114
153 152 0
190 179 114
168 159 0
162 156 0
147 149 0
196 182 114
199 183 114
159 154 0
200 183 114
125 92 0
153 152 0
196 181 114
157 154 0
176 172 114
197 182 114
182 175 114
197 182 114
149 150 0
172 161 0
170 169 114
177 172 114
148 149 0
152 151 0
188 178 114
168 159 0
166 158 0
182 175 114
167 137 51
150 150 0
147 149 0
147 121 0
155 153 0
178 173 114
161 155 0
192 180 114
186 177 114
164 157 0
162 156 0
182 175 114
194 180 114
184 176 114
149 150 0
129 108 0
174 171 114
159 154 0
187 177 114
149 150 0
99 39 0
194 180 114
168 159 0
175 171 114
149 150 0
158 154 0
196 181 114
196 181 114
184 176 114
171 160 0
146 149 0
177 172 114
181 174 114
150 150 0
167 158 0
172 170 114
149 150 0
185 176 114
173 140 51
187 177 114
179 142 51
156 153 0
149 150 0
185 176 114
167 168 114
147 149 0
145 148 0
224 237 255
224 237 255
224 237 255
225 237 255
224 237 255
220 235 255
220 235 255
223 237 255
224 237 255
224 237 255
224 237 255
222 236 255
224 237 255
224 237 255
221 236 255
224 237 255
224 237 255
224 237 255
224 237 255
224 237 255
224 237 255
224 237 255
224 237 255
224 237 255
224 237 255
224 237 255
224 237 255
224 237 255
224 237 255
224 237 255
224 237 255
224 237 255
224 237 255
224 237 255
224 237 255
224 237 255
224 237 255
224 237 255
224 237 255
217 233 255
224 237 255
224 237 255
224 237 255
224 237 255
224 237 255
224 237 255
224 237 255
224 237 255
224 237 255
224 237 255
224 237 255
224 237 255
224 237 255
224 237 255
224 237 255
224 237 255
224 237 255
224 237 255
224 237 255
224 237 255
224 237 255
224 237 255
224 237 255
163 192 0
224 237 255
224 237 255
224 237 255
224 237 255
58 97 181
225 237 255
225 237 255
224 237 255
224 237 255
225 237 255
224 237 255
225 237 255
224 237 255
224 237 255
224 237 255
225 237 255
224 237 255
225 237 255
225 237 255
225 238 255
224 237 255
224 237 255
225 237 255
225 237 255
225 237 255
225 238 255
225 237 255
225 238 255
224 237 255
224 237 255
224 237 255
225 238 255
225 237 255
225 237 255
225 238 255
172 196 0
171 196 0
224 237 255
209 229 255
178 200 0
196 210 0
168 195 0
187 204 0
225 237 255
225 237 255
189 206 0
170 196 0
176 199 0
225 238 255
173 197 0
168 195 0
169 195 0
163 192 0
170 196 0
177 199 0
162 191 0
165 193 0
165 193 0
188 205 0
181 201 0
162 191 0
169 195 0
165 193 0
176 199 0
163 192 0
163 192 0
175 198 0
171 196 0
189 206 0
178 200 0
60 98 181
58 91 0
67 103 181
53 87 0
67 103 181
53 87 0
66 102 181
64 100 181
57 90 0
68 104 181
18 40 0
52 86 0
67 103 181
16 36 0
224 237 255
58 96 181
55 88 0
59 92 0
51 85 0
59 91 0
52 86 0
52 86 0
60 97 181
62 99 181
54 87 0
54 88 0
15 33 0
68 104 181
54 88 0
52 86 0
55 89 0
68 104 181
52 86 0
62 99 181
53 82 0
16 36 0
57 90 0
64 101 181
54 87 0
70 105 181
57 90 0
64 101 181
55 88 0
64 101 181
64 100 181
61 98 181
68 104 181
60 97 181
65 101 181
54 87 0
53 87 0
68 104 181
52 86 0
51 85 0
66 103 181
68 104 181
64 100 181
62 99 181
51 85 0
52 86 0
66 102 181
67 103 181
53 87 0
62 99 181
64 101 181
65 102 181
63 100 181
54 88 0
51 85 0
61 98 181
52 86 0
66 103 181
62 99 181
53 87 0
64 101 181
49 68 0
53 87 0
70 105 181
62 99 181
54 87 0
56 89 0
51 85 0
53 87 0
60 97 181
52 86 0
59 91 0
63 100 181
65 101 181
57 89 0
61 99 181
69 105 181
65 101 181
62 99 181
70 106 181
66 103 181
69 104 181
59 91 0
66 102 181
51 85 0
59 91 0
56 89 0
54 87 0
69 105 181
69 105 181
60 92 0
55 72 0
65 101 181
61 98 181
61 99 181
66 103 181
64 101 181
38 47 0
63 100 181
68 103 181
10 2 0
50 69 0
54 72 0
59 97 181
61 81 80
119 90 0
154 132 51
1 1 0
42 45 16
176 141 51
43 43 0
57 77 80
81 23 0
44 61 0
4 2 0
13 20 11
2 5 0
142 120 0
46 47 16
187 177 114
60 79 80
47 58 36
47 67 0
187 177 114
173 170 114
30 24 0
3 9 0
12 18 0
191 179 114
174 171 114
146 149 0
194 180 114
192 180 114
160 155 0
0 0 0
194 181 114
55 76 80
49 59 36
148 149 0
186 177 114
151 151 0
1 4 0
175 172 114
51 69 0
156 153 0
193 180 114
144 128 51
186 177 114
52 70 0
182 175 114
145 148 0
178 173 114
155 153 0
196 181 114
159 154 0
148 149 0
174 171 114
148 150 0
150 150 0
146 149 0
189 178 114
163 156 0
181 174 114
155 152 0
50 69 0
4 0 0
200 184 114
194 181 114
181 174 114
181 175 114
155 153 0
184 176 114
182 175 114
169 169 114
158 154 0
182 175 114
151 151 0
160 155 0
188 178 114
171 170 114
186 177 114
190 179 114
198 182 114
147 149 0
185 176 114
177 173 114
147 149 0
150 150 0
153 152 0
148 150 0
191 179 114
200 184 114
195 181 114
159 154 0
160 155 0
150 150 0
172 170 114
160 155 0
147 149 0
148 150 0
199 183 114
176 172 114
145 148 0
151 151 0
154 152 0
148 150 0
171 170 114
95 72 0
167 168 114
38 38 0
146 149 0
170 169 114
166 158 0
145 121 0
191 179 114
55 72 0
176 172 114
159 154 0
140 119 0
179 174 114
201 184 114
158 154 0
199 183 114
156 153 0
190 179 114
183 175 114
151 151 0
171 170 114
178 173 114
161 155 0
111 58 0
168 159 0
194 181 114
183 175 114
89 57 0
193 180 114
133 116 0
168 159 0
149 150 0
201 184 114
187 177 114
189 178 114
162 156 0
145 148 0
139 97 0
176 172 114
158 154 0
125 79 10
185 176 114
146 149 0
181 174 114
200 183 114
225 238 255
225 238 255
225 238 255
225 237 255
225 238 255
225 238 255
222 236 255
225 237 255
225 238 255
225 237 255
223 236 255
225 238 255
225 238 255
225 238 255
225 237 255
225 238 255
225 237 255
225 238 255
225 238 255
225 237 255
225 237 255
225 238 255
225 238 255
225 237 255
224 237 255
224 237 255
225 237 255
224 237 255
225 237 255
224 237 255
225 237 255
225 237 255
225 238 255
224 237 255
225 238 255
225 238 255
225 238 255
225 238 255
225 238 255
225 238 255
224 237 255
225 238 255
225 238 255
225 238 255
225 238 255
225 238 255
225 238 255
213 231 255
225 237 255
225 238 255
225 238 255
225 238 255
225 237 255
212 230 255
225 238 255
225 238 255
225 238 255
225 238 255
225 237 255
225 237 255
165 193 0
198 211 0
225 238 255
225 238 255
225 238 255
188 205 0
175 198 0
179 200 0
225 237 255
176 199 0
225 238 255
225 238 255
164 192 0
225 238 255
192 207 0
225 238 255
174 198 0
225 238 255
168 194 0
225 238 255
225 238 255
225 238 255
167 194 0
171 196 0
183 202 0
180 201 0
177 199 0
164 192 0
206 227 255
180 201 0
171 196 0
182 202 0
172 197 0
167 194 0
187 205 0
184 203 0
176 198 0
168 194 0
172 197 0
178 199 0
174 197 0
184 203 0
176 199 0
163 192 0
162 192 0
164 192 0
181 201 0
181 201 0
171 196 0
174 197 0
172 196 0
169 195 0
178 200 0
180 201 0
211 230 255
177 199 0
176 199 0
176 198 0
163 192 0
175 198 0
165 193 0
168 194 0
174 198 0
166 193 0
175 198 0
173 197 0
163 192 0
183 202 0
165 193 0
169 195 0
178 200 0
164 193 0
181 201 0
181 201 0
181 202 0
55 89 0
58 91 0
65 102 181
16 36 0
60 92 0
54 87 0
70 106 181
63 100 181
62 99 181
66 102 181
65 102 181
55 89 0
164 192 0
57 90 0
52 86 0
62 99 181
69 105 181
51 85 0
60 98 181
52 86 0
62 100 181
59 91 0
57 96 181
60 98 181
54 88 0
17 37 0
67 103 181
57 90 0
67 103 181
69 104 181
51 85 0
51 85 0
4 14 0
55 88 0
65 102 181
63 100 181
64 101 181
53 87 0
62 99 181
71 106 181
55 88 0
57 90 0
54 88 0
70 105 181
65 101 181
51 85 0
52 86 0
67 103 181
60 97 181
60 92 0
56 89 0
60 98 181
64 101 181
63 100 181
52 86 0
52 86 0
54 88 0
61 93 0
60 98 181
62 99 181
58 96 181
59 91 0
48 48 16
51 85 0
62 99 181
63 100 181
61 98 181
53 87 0
55 88 0
40 48 0
65 101 181
44 61 0
59 97 181
61 99 181
17 32 0
67 103 181
3 10 0
68 104 181
65 102 181
65 102 181
66 102 181
70 106 181
16 36 0
70 105 181
53 87 0
51 85 0
53 87 0
70 105 181
56 89 0
64 100 181
55 88 0
52 86 0
66 102 181
64 101 181
45 66 0
51 86 0
65 102 181
52 86 0
61 93 0
58 91 0
62 81 80
53 87 0
54 88 0
62 99 181
14 28 0
70 105 181
52 75 80
31 20 0
52 70 0
68 104 181
10 3 0
70 105 181
58 78 80
14 27 0
67 103 181
18 40 0
36 32 0
121 78 10
13 18 0
14 21 11
0 0 0
17 28 25
10 16 0
121 64 4
15 21 11
62 81 80
38 28 3
46 54 0
52 75 80
154 152 0
55 63 36
49 68 0
47 58 36
46 57 36
41 59 0
43 52 0
49 68 0
43 61 0
145 121 0
63 82 80
42 42 0
165 167 114
15 25 0
9 2 0
55 63 36
152 151 0
51 69 0
149 150 0
3 0 0
194 180 114
58 78 80
161 155 0
76 32 0
149 150 0
147 149 0
41 51 0
188 177 114
170 169 114
174 162 0
200 183 114
60 80 80
153 152 0
191 179 114
155 153 0
51 70 0
146 149 0
162 156 0
169 159 0
47 67 0
176 172 114
170 160 0
57 78 80
175 171 114
147 149 0
189 178 114
154 152 0
62 81 80
181 174 114
145 148 0
147 149 0
155 152 0
150 150 0
196 182 114
150 151 0
188 178 114
96 72 0
201 184 114
159 155 0
51 69 0
192 180 114
179 174 114
177 172 114
147 149 0
189 178 114
164 157 0
166 167 114
194 180 114
190 179 114
181 174 114
201 184 114
186 177 114
190 179 114
200 183 114
185 176 114
154 152 0
150 151 0
180 174 114
96 51 0
189 178 114
188 177 114
149 150 0
192 179 114
175 172 114
155 152 0
197 182 114
183 175 114
198 182 114
146 149 0
147 149 0
189 178 114
151 151 0
158 154 0
175 171 114
145 148 0
150 151 0
197 182 114
146 149 0
172 170 114
53 12 0
160 155 0
153 152 0
165 136 51
196 182 114
191 179 114
176 172 114
185 176 114
187 177 114
135 117 0
159 155 0
154 132 51
145 148 0
27 5 0
86 42 0
142 120 0
175 171 114
160 155 0
166 158 0
178 142 51
145 148 0
159 155 0
200 183 114
147 149 0
161 155 0
147 149 0
175 162 0
187 177 114
161 155 0
151 151 0
163 156 0
178 173 114
159 155 0
173 170 114
96 47 2
189 178 114
144 128 51
167 194 0
183 202 0
174 198 0
169 195 0
224 237 255
224 237 255
191 207 0
224 237 255
178 200 0
167 194 0
225 238 255
225 238 255
164 193 0
170 196 0
165 193 0
189 206 0
187 205 0
221 235 255
179 200 0
183 202 0
167 194 0
225 238 255
184 203 0
177 199 0
187 205 0
166 194 0
165 193 0
168 195 0
178 199 0
167 194 0
170 195 0
174 198 0
225 238 255
167 194 0
172 196 0
166 194 0
191 207 0
169 195 0
173 197 0
176 199 0
176 199 0
167 194 0
180 201 0
169 195 0
196 209 0
166 193 0
175 198 0
184 203 0
225 238 255
185 203 0
165 193 0
175 198 0
191 207 0
168 195 0
177 199 0
163 192 0
162 191 0
164 192 0
178 200 0
175 198 0
166 194 0
177 199 0
169 195 0
178 200 0
169 195 0
182 202 0
182 202 0
161 191 0
195 209 0
189 206 0
187 205 0
166 193 0
63 100 181
168 194 0
169 195 0
168 195 0
167 194 0
171 196 0
182 202 0
173 197 0
164 193 0
173 197 0
180 201 0
205 226 255
187 204 0
173 197 0
182 202 0
164 193 0
205 227 255
171 196 0
169 195 0
194 208 0
184 203 0
171 196 0
164 193 0
165 193 0
163 192 0
203 226 255
185 204 0
167 194 0
177 199 0
175 198 0
179 200 0
175 198 0
167 194 0
161 191 0
162 191 0
171 196 0
173 197 0
169 195 0
186 204 0
187 204 0
182 202 0
183 203 0
180 201 0
178 200 0
168 195 0
187 205 0
171 196 0
176 199 0
179 200 0
179 200 0
191 207 0
171 196 0
188 205 0
171 196 0
181 201 0
167 194 0
181 202 0
177 199 0
193 208 0
161 191 0
224 237 255
167 194 0
194 208 0
5 19 90
64 100 181
61 93 0
58 91 0
53 87 0
52 86 0
58 91 0
58 96 181
18 43 128
67 103 181
54 88 0
169 195 0
189 206 0
223 237 255
66 103 181
68 104 181
63 100 181
66 102 181
58 91 0
54 87 0
58 91 0
67 103 181
61 98 181
51 85 0
69 104 181
61 93 0
64 101 181
51 86 0
59 97 181
65 102 181
65 101 181
60 98 181
15 35 0
60 92 0
62 99 181
68 104 181
54 88 0
51 85 0
70 106 181
57 96 181
55 89 0
55 88 0
70 106 181
65 101 181
62 99 181
54 87 0
67 103 181
51 85 0
51 85 0
70 106 181
51 85 0
53 87 0
62 99 181
62 99 181
57 90 0
4 13 0
66 102 181
61 93 0
63 100 181
54 87 0
52 86 0
67 103 181
61 99 181
59 97 181
64 100 181
61 98 181
57 90 0
70 105 181
60 97 181
52 86 0
69 105 181
51 85 0
60 98 181
51 85 0
14 24 0
67 103 181
51 85 0
19 41 0
69 104 181
64 101 181
70 105 181
53 87 0
63 100 181
60 98 181
53 87 0
64 101 181
63 100 181
57 90 0
69 105 181
52 86 0
53 71 0
69 105 181
62 99 181
56 89 0
70 105 181
57 90 0
54 88 0
42 60 0
54 87 0
61 98 181
67 103 181
70 106 181
54 88 0
67 103 181
56 89 0
70 105 181
65 101 181
56 89 0
58 96 181
41 42 0
48 67 0
57 78 80
66 103 181
55 89 0
63 82 80
57 78 80
97 54 0
0 0 0
17 28 25
37 43 0
174 140 51
0 1 0
18 6 0
11 16 0
54 62 36
132 116 0
54 62 36
169 169 114
63 82 80
0 0 0
131 109 0
150 106 22
15 24 0
170 160 0
15 4 0
42 60 0
184 176 114
146 149 0
121 104 0
48 68 0
143 120 0
139 118 0
39 41 0
159 154 0
58 78 80
181 174 114
47 67 0
164 157 0
43 60 0
57 78 80
46 63 0
49 68 0
196 182 114
150 150 0
152 151 0
153 152 0
49 68 0
200 183 114
198 183 114
50 69 0
168 168 114
171 170 114
149 150 0
166 158 0
52 71 0
201 184 114
162 156 0
194 181 114
152 151 0
163 156 0
13 23 0
184 175 114
199 183 114
57 78 80
155 153 0
184 176 114
195 181 114
150 150 0
201 184 114
184 176 114
163 156 0
172 170 114
187 177 114
53 75 80
150 150 0
146 149 0
193 180 114
185 176 114
167 168 114
1 4 0
191 179 114
195 181 114
156 153 0
154 152 0
119 73 0
159 155 0
199 183 114
189 178 114
191 179 114
198 182 114
40 48 0
153 152 0
196 182 114
151 151 0
153 152 0
198 182 114
41 59 0
147 149 0
165 158 0
197 182 114
171 160 0
163 157 0
194 181 114
172 170 114
166 158 0
161 155 0
193 180 114
145 148 0
158 154 0
162 156 0
199 183 114
149 150 0
190 179 114
183 175 114
147 149 0
178 173 114
162 156 0
193 180 114
149 150 0
198 183 114
193 180 114
186 177 114
182 175 114
194 180 114
146 105 22
159 155 0
187 177 114
155 152 0
148 150 0
175 171 114
187 177 114
149 150 0
157 154 0
198 182 114
162 135 51
146 129 51
165 167 114
147 149 0
148 149 0
187 177 114
150 150 0
166 158 0
184 176 114
192 180 114
151 151 0
156 153 0
200 183 114
159 155 0
181 174 114
148 149 0
172 161 0
148 149 0
173 170 114
152 151 0
192 179 114
187 205 0
178 200 0
170 196 0
185 204 0
173 197 0
181 201 0
223 236 255
165 193 0
191 207 0
182 202 0
224 237 255
182 202 0
168 194 0
189 205 0
164 192 0
164 192 0
216 233 255
163 192 0
220 235 255
185 204 0
175 198 0
182 202 0
176 199 0
163 192 0
173 197 0
173 197 0
185 204 0
165 193 0
178 200 0
167 194 0
163 192 0
180 201 0
165 193 0
171 196 0
167 194 0
177 199 0
169 195 0
176 198 0
174 197 0
173 197 0
183 202 0
164 192 0
177 199 0
179 200 0
177 199 0
163 192 0
196 210 0
171 196 0
175 198 0
188 205 0
171 196 0
163 192 0
183 203 0
166 193 0
173 197 0
163 192 0
174 198 0
171 196 0
172 197 0
175 198 0
178 200 0
190 206 0
165 193 0
162 191 0
172 197 0
173 197 0
63 100 181
178 200 0
163 192 0
177 199 0
167 194 0
187 204 0
171 196 0
166 193 0
162 191 0
181 201 0
169 195 0
176 199 0
176 199 0
203 226 255
179 200 0
167 194 0
202 225 255
165 193 0
165 193 0
165 193 0
176 199 0
195 209 0
186 204 0
182 202 0
170 195 0
182 202 0
169 195 0
162 191 0
198 211 0
164 192 0
162 191 0
179 200 0
166 193 0
172 197 0
169 195 0
180 201 0
185 203 0
163 192 0
190 206 0
166 194 0
164 157 0
172 197 0
169 195 0
165 193 0
175 198 0
172 196 0
189 206 0
177 199 0
172 197 0
170 195 0
164 192 0
173 197 0
189 206 0
167 194 0
186 204 0
165 193 0
173 197 0
180 201 0
166 193 0
182 202 0
170 195 0
175 198 0
185 204 0
173 197 0
162 191 0
174 197 0
57 90 0
218 234 255
51 86 0
64 101 181
52 86 0
70 105 181
52 86 0
58 97 181
56 89 0
54 87 0
65 101 181
66 102 181
58 91 0
16 36 0
170 196 0
182 202 0
169 195 0
224 237 255
54 87 0
60 92 0
59 91 0
53 87 0
54 88 0
58 96 181
58 91 0
53 87 0
54 87 0
64 101 181
53 87 0
64 101 181
55 89 0
58 91 0
67 103 181
70 106 181
64 100 181
52 86 0
62 99 181
61 98 181
51 86 0
51 85 0
66 102 181
66 102 181
61 98 181
52 86 0
58 96 181
56 89 0
67 103 181
69 104 181
69 105 181
65 102 181
55 88 0
65 101 181
63 100 181
51 85 0
62 99 181
56 89 0
68 104 181
66 102 181
66 102 181
61 99 181
69 104 181
69 105 181
59 91 0
67 103 181
65 101 181
52 86 0
67 103 181
53 87 0
54 88 0
54 88 0
67 103 181
59 97 181
62 99 181
65 102 181
68 104 181
52 86 0
51 86 0
52 86 0
63 100 181
55 77 80
56 89 0
69 105 181
55 88 0
52 86 0
61 98 181
51 85 0
61 93 0
0 0 0
67 103 181
69 105 181
51 86 0
68 104 181
52 86 0
69 105 181
64 101 181
55 88 0
67 103 181
52 86 0
52 86 0
64 100 181
57 90 0
52 86 0
51 85 0
11 16 0
66 102 181
51 85 0
49 59 36
71 106 181
19 36 57
19 41 0
53 71 0
66 103 181
65 102 181
69 104 181
70 105 181
51 85 0
67 103 181
51 86 0
45 53 0
224 237 255
144 148 0
9 12 0
11 16 0
12 17 0
15 25 0
42 42 0
37 46 0
37 46 0
28 13 0
15 29 0
45 66 0
46 57 36
178 142 51
47 54 0
54 76 80
3 7 0
46 63 0
33 35 0
167 158 0
93 37 0
77 37 0
153 152 0
54 76 80
53 61 36
175 172 114
105 69 0
57 78 80
42 52 0
184 176 114
182 175 114
51 69 0
61 80 80
14 20 11
184 176 114
52 70 0
52 70 0
145 148 0
199 183 114
44 53 0
152 151 0
47 58 36
190 178 114
191 179 114
169 159 0
184 176 114
192 179 114
194 180 114
42 49 0
58 78 80
46 47 16
166 158 0
201 184 114
175 171 114
145 148 0
200 183 114
172 170 114
167 158 0
190 179 114
189 178 114
161 155 0
0 1 0
153 152 0
148 150 0
135 117 0
200 183 114
148 149 0
195 181 114
169 169 114
164 157 0
148 122 0
168 168 114
191 179 114
186 177 114
152 151 0
34 36 0
195 181 114
188 178 114
152 151 0
184 176 114
115 83 0
156 153 0
50 69 0
37 43 0
150 150 0
184 176 114
192 179 114
141 112 0
159 154 0
189 178 114
41 48 0
182 175 114
149 150 0
158 154 0
53 71 0
145 148 0
198 182 114
200 184 114
167 168 114
198 182 114
48 11 0
185 176 114
176 172 114
172 170 114
166 158 0
193 180 114
197 182 114
159 155 0
198 182 114
192 180 114
194 181 114
156 153 0
182 175 114
186 176 114
151 151 0
166 158 0
145 148 0
104 69 0
168 168 114
179 173 114
147 149 0
187 177 114
146 149 0
199 183 114
194 181 114
162 156 0
201 184 114
201 184 114
183 175 114
122 105 0
161 155 0
168 159 0
117 89 0
183 175 114
190 178 114
168 168 114
151 123 0
191 179 114
144 120 0
190 178 114
148 141 0
145 148 0
159 155 0
166 168 114
181 174 114
151 123 0
79 28 0
181 174 114
147 121 0
167 194 0
164 192 0
188 205 0
171 196 0
180 201 0
168 194 0
173 197 0
163 192 0
173 197 0
217 233 255
193 208 0
171 196 0
173 197 0
176 198 0
178 200 0
161 191 0
172 196 0
183 202 0
164 193 0
173 197 0
182 202 0
219 234 255
173 197 0
162 191 0
175 198 0
178 200 0
162 192 0
168 195 0
179 200 0
182 202 0
168 194 0
175 198 0
163 192 0
165 193 0
174 197 0
166 194 0
167 194 0
179 200 0
162 191 0
187 205 0
163 192 0
191 207 0
172 197 0
171 196 0
165 193 0
174 198 0
177 199 0
175 198 0
164 192 0
173 197 0
174 198 0
171 196 0
188 205 0
180 201 0
164 193 0
185 204 0
169 195 0
186 204 0
172 196 0
164 192 0
166 194 0
184 203 0
174 198 0
183 202 0
166 193 0
185 204 0
166 194 0
163 192 0
177 199 0
182 202 0
169 195 0
178 200 0
178 199 0
188 205 0
185 204 0
163 192 0
180 201 0
177 199 0
170 195 0
186 204 0
164 193 0
178 200 0
185 204 0
186 204 0
184 203 0
171 196 0
178 200 0
193 208 0
168 194 0
174 198 0
186 204 0
184 203 0
182 202 0
179 200 0
165 193 0
170 196 0
188 205 0
181 201 0
197 210 0
192 207 0
166 193 0
173 197 0
164 193 0
167 194 0
179 200 0
191 207 0
162 191 0
189 205 0
173 197 0
168 195 0
165 193 0
165 193 0
164 193 0
162 191 0
166 193 0
179 200 0
175 198 0
173 197 0
187 205 0
165 193 0
166 193 0
196 209 0
181 201 0
183 202 0
161 191 0
57 95 181
191 207 0
182 202 0
167 194 0
172 197 0
162 191 0
167 194 0
174 198 0
163 192 0
51 85 0
69 104 181
55 88 0
63 100 181
54 83 0
60 92 0
51 85 0
60 92 0
52 86 0
52 86 0
59 91 0
55 88 0
193 208 0
168 195 0
224 237 255
52 86 0
58 91 0
51 85 0
51 85 0
54 88 0
53 87 0
69 105 181
52 86 0
51 85 0
51 86 0
70 106 181
63 100 181
56 89 0
67 103 181
54 88 0
18 40 0
56 89 0
67 103 181
57 90 0
63 100 181
53 87 0
52 86 0
53 87 0
69 104 181
53 87 0
62 99 181
70 105 181
69 104 181
51 86 0
51 85 0
63 100 181
62 99 181
16 36 0
54 88 0
54 88 0
60 98 181
70 106 181
51 85 0
67 103 181
56 89 0
62 99 181
64 101 181
52 86 0
66 102 181
67 103 181
51 86 0
52 86 0
57 90 0
70 106 181
51 85 0
67 103 181
55 89 0
56 89 0
56 89 0
61 98 181
59 92 0
69 105 181
51 85 0
51 86 0
63 100 181
63 100 181
68 104 181
56 89 0
52 86 0
52 86 0
69 105 181
15 35 0
61 98 181
60 92 0
47 54 0
50 69 0
55 88 0
52 86 0
66 102 181
51 86 0
53 87 0
60 98 181
66 102 181
65 102 181
67 103 181
58 78 80
53 75 80
15 35 0
69 105 181
65 102 181
49 56 0
56 89 0
62 99 181
58 90 0
70 106 181
61 98 181
68 104 181
9 14 0
69 105 181
60 97 181
59 97 181
13 27 0
62 99 181
58 97 181
68 104 181
56 73 0
58 97 181
224 237 255
120 85 0
7 6 0
68 25 0
4 9 8
41 51 0
60 79 80
47 63 0
136 83 10
135 101 22
0 0 0
40 48 0
3 6 0
59 79 80
3 0 0
47 67 0
52 74 80
145 148 0
12 15 5
14 25 25
54 76 80
36 46 0
54 72 0
47 55 0
41 51 0
145 148 0
12 15 5
0 1 0
58 78 80
168 159 0
153 152 0
14 27 0
55 72 0
147 149 0
162 156 0
55 76 80
151 151 0
42 52 0
200 183 114
148 150 0
170 138 51
195 181 114
3 0 0
47 67 0
183 175 114
47 55 0
190 179 114
156 153 0
167 158 0
157 154 0
182 175 114
189 178 114
170 160 0
52 75 80
13 23 0
191 179 114
184 176 114
194 181 114
166 158 0
155 153 0
158 154 0
186 177 114
157 154 0
194 180 114
135 110 0
169 169 114
146 149 0
144 120 0
169 169 114
174 171 114
185 176 114
156 153 0
175 172 114
163 157 0
191 179 114
192 180 114
200 183 114
151 151 0
152 151 0
194 180 114
197 182 114
162 156 0
115 102 0
152 151 0
58 78 80
181 174 114
194 180 114
183 175 114
163 156 0
151 151 0
184 176 114
178 173 114
186 176 114
150 150 0
159 154 0
166 167 114
159 154 0
175 171 114
179 173 114
173 161 0
191 179 114
196 181 114
198 183 114
200 183 114
150 150 0
157 154 0
185 176 114
180 174 114
158 154 0
179 142 51
174 171 114
159 155 0
170 169 114
145 148 0
188 177 114
149 122 0
186 177 114
193 180 114
198 183 114
192 180 114
149 150 0
179 142 51
23 15 0
120 104 0
151 151 0
154 152 0
145 148 0
196 181 114
51 10 0
129 93 0
155 152 0
168 168 114
24 10 0
169 169 114
152 151 0
187 177 114
141 119 0
144 148 0
146 149 0
157 154 0
194 180 114
146 149 0
47 9 0
159 154 0
184 176 114
168 168 114
196 181 114
159 154 0
154 152 0
177 199 0
167 194 0
185 204 0
165 193 0
179 200 0
175 198 0
224 237 255
197 210 0
170 196 0
174 198 0
175 198 0
164 192 0
167 194 0
162 191 0
192 207 0
164 192 0
222 236 255
183 202 0
174 197 0
189 206 0
175 198 0
171 196 0
167 194 0
173 197 0
218 234 255
172 196 0
183 202 0
168 194 0
172 196 0
185 203 0
168 194 0
168 194 0
167 194 0
172 197 0
171 196 0
168 194 0
163 192 0
165 193 0
171 196 0
172 197 0
168 195 0
190 206 0
167 194 0
168 195 0
187 205 0
169 195 0
179 200 0
191 207 0
178 200 0
162 191 0
183 203 0
187 205 0
178 200 0
175 198 0
165 193 0
176 199 0
181 201 0
171 196 0
205 226 255
167 194 0
176 199 0
162 192 0
164 192 0
163 192 0
174 198 0
172 197 0
167 194 0
165 193 0
169 195 0
183 202 0
164 192 0
169 195 0
177 199 0
172 196 0
175 198 0
179 200 0
181 201 0
172 197 0
168 195 0
167 194 0
166 193 0
174 197 0
163 192 0
174 198 0
184 203 0
162 192 0
164 192 0
180 201 0
171 196 0
162 191 0
162 191 0
166 194 0
168 195 0
194 208 0
162 192 0
173 197 0
174 198 0
180 201 0
175 198 0
180 201 0
176 199 0
174 198 0
179 200 0
163 192 0
191 207 0
166 193 0
199 223 255
178 200 0
166 194 0
176 198 0
174 198 0
183 203 0
172 196 0
203 226 255
190 206 0
162 191 0
184 203 0
175 198 0
171 196 0
193 208 0
173 197 0
174 198 0
190 206 0
164 192 0
175 198 0
46 77 0
167 194 0
184 203 0
162 191 0
173 197 0
188 205 0
174 198 0
150 174 0
163 192 0
59 92 0
53 87 0
56 89 0
19 42 0
58 91 0
53 87 0
68 104 181
51 86 0
64 100 181
60 92 0
51 86 0
65 102 181
180 201 0
170 195 0
224 237 255
54 88 0
58 96 181
57 90 0
67 103 181
69 104 181
58 91 0
19 41 0
53 87 0
57 90 0
56 89 0
69 104 181
62 99 181
69 104 181
69 104 181
54 88 0
69 105 181
66 102 181
53 87 0
68 104 181
52 86 0
64 100 181
52 86 0
58 96 181
69 104 181
67 103 181
62 99 181
61 93 0
53 87 0
59 92 0
60 98 181
57 90 0
52 86 0
55 89 0
52 86 0
53 87 0
65 102 181
53 87 0
61 98 181
65 102 181
53 87 0
53 87 0
56 89 0
68 104 181
52 86 0
63 100 181
54 87 0
66 103 181
70 105 181
58 91 0
55 88 0
53 87 0
69 105 181
61 98 181
55 88 0
64 101 181
66 102 181
19 41 0
66 102 181
70 106 181
15 32 0
60 98 181
67 103 181
71 106 181
60 92 0
53 87 0
55 88 0
51 86 0
51 86 0
51 85 0
57 90 0
51 85 0
47 67 0
59 97 181
65 101 181
61 98 181
62 99 181
53 87 0
53 75 80
17 8 0
51 86 0
9 1 0
62 99 181
66 102 181
69 105 181
46 66 0
66 102 181
41 59 0
57 90 0
64 101 181
29 22 0
62 94 0
70 106 181
48 67 0
19 41 0
53 75 80
69 104 181
58 91 0
65 102 181
46 66 0
63 82 80
3 9 0
19 36 57
224 237 255
42 52 0
117 89 0
0 0 0
134 116 0
130 108 0
46 66 0
45 53 0
40 36 7
12 18 0
45 53 0
56 63 36
32 23 0
70 39 0
39 47 0
9 13 0
53 75 80
200 183 114
41 42 0
154 152 0
51 70 0
43 52 0
56 77 80
147 149 0
146 148 0
53 61 36
168 159 0
44 61 0
194 181 114
154 152 0
0 0 0
136 117 0
200 184 114
183 175 114
62 81 80
154 152 0
167 158 0
154 152 0
183 175 114
180 174 114
53 71 0
146 149 0
65 23 0
154 152 0
46 66 0
150 150 0
175 162 0
155 153 0
187 177 114
146 149 0
51 70 0
160 155 0
191 179 114
173 161 0
195 181 114
162 156 0
192 179 114
153 152 0
47 67 0
175 172 114
145 148 0
176 172 114
193 180 114
154 152 0
185 176 114
187 177 114
144 148 0
187 177 114
157 154 0
24 14 0
13 25 0
173 171 114
162 156 0
197 182 114
183 175 114
145 148 0
177 173 114
145 148 0
3 9 0
191 179 114
168 159 0
182 175 114
154 152 0
198 182 114
161 155 0
188 177 114
160 155 0
168 137 51
155 153 0
149 150 0
160 155 0
195 181 114
183 175 114
191 179 114
198 182 114
179 173 114
156 153 0
189 178 114
151 151 0
148 149 0
150 151 0
194 180 114
156 153 0
146 149 0
153 152 0
86 36 0
185 176 114
159 154 0
50 69 0
148 150 0
168 159 0
172 170 114
145 148 0
177 172 114
145 148 0
200 183 114
160 155 0
144 148 0
149 122 0
156 153 0
149 150 0
133 94 0
183 175 114
146 149 0
157 154 0
200 184 114
151 151 0
163 156 0
148 150 0
147 149 0
197 182 114
157 133 51
181 174 114
170 169 114
193 180 114
10 1 0
154 152 0
155 153 0
155 153 0
198 183 114
115 62 4
77 28 0
2 4 0
170 169 114
147 149 0
155 153 0
56 14 0
156 153 0
148 149 0
163 192 0
171 196 0
190 206 0
165 193 0
170 195 0
163 192 0
181 201 0
171 196 0
172 197 0
225 238 255
176 199 0
167 194 0
178 200 0
182 202 0
165 193 0
216 232 255
169 195 0
163 192 0
190 206 0
186 204 0
161 191 0
163 192 0
162 191 0
162 191 0
163 192 0
171 196 0
174 197 0
169 195 0
184 203 0
182 202 0
175 198 0
166 193 0
163 192 0
170 195 0
176 199 0
176 199 0
171 196 0
168 195 0
167 194 0
166 194 0
167 194 0
162 191 0
172 196 0
180 201 0
171 196 0
163 192 0
179 200 0
190 206 0
168 195 0
181 201 0
174 198 0
195 209 0
190 206 0
190 206 0
176 199 0
179 200 0
176 198 0
167 194 0
164 193 0
162 191 0
168 195 0
177 199 0
165 193 0
174 197 0
179 200 0
179 200 0
169 195 0
166 194 0
169 195 0
178 200 0
180 201 0
164 192 0
163 192 0
170 195 0
193 208 0
171 196 0
193 208 0
177 199 0
171 196 0
181 201 0
176 199 0
166 194 0
163 192 0
193 208 0
169 195 0
172 196 0
189 206 0
162 191 0
186 204 0
174 198 0
185 203 0
187 205 0
166 193 0
187 205 0
167 194 0
195 221 255
181 201 0
175 198 0
170 196 0
183 202 0
178 200 0
183 202 0
171 196 0
164 192 0
183 202 0
167 194 0
171 196 0
165 193 0
162 191 0
169 195 0
187 204 0
194 209 0
163 192 0
166 193 0
162 191 0
177 199 0
169 195 0
187 205 0
52 86 0
168 194 0
185 203 0
178 200 0
210 229 255
163 192 0
170 196 0
194 209 0
170 195 0
169 195 0
166 194 0
162 192 0
182 202 0
170 196 0
190 206 0
54 88 0
67 103 181
48 78 0
59 97 181
15 33 0
51 86 0
20 42 0
68 104 181
57 95 181
15 35 0
54 88 0
57 90 0
173 197 0
163 192 0
175 198 0
224 237 255
224 237 255
57 95 181
60 92 0
65 101 181
66 102 181
51 86 0
68 104 181
68 104 181
68 104 181
53 87 0
54 87 0
63 100 181
70 105 181
55 89 0
53 87 0
53 87 0
59 97 181
66 102 181
58 91 0
60 98 181
63 100 181
17 39 0
52 86 0
61 98 181
56 89 0
64 101 181
51 85 0
68 103 181
53 87 0
54 87 0
62 99 181
66 103 181
55 88 0
55 88 0
53 87 0
60 98 181
64 100 181
70 105 181
58 91 0
15 35 0
53 87 0
51 85 0
51 85 0
58 96 181
51 85 0
67 103 181
60 92 0
52 86 0
64 101 181
68 103 181
54 88 0
60 98 181
14 34 0
56 89 0
53 87 0
70 105 181
60 97 181
52 86 0
18 41 0
64 101 181
56 89 0
57 90 0
69 104 181
66 102 181
51 85 0
71 106 181
58 91 0
53 87 0
49 68 0
66 102 181
70 105 181
54 88 0
64 100 181
67 103 181
53 87 0
66 102 181
67 103 181
63 100 181
52 86 0
55 88 0
67 103 181
71 106 181
58 96 181
56 89 0
57 90 0
50 69 0
16 36 0
47 67 0
54 87 0
61 93 0
65 102 181
68 103 181
54 88 0
68 104 181
61 98 181
53 87 0
49 69 0
59 97 181
51 86 0
48 67 0
52 70 0
224 237 255
224 237 255
2 2 0
45 62 0
155 153 0
59 79 80
116 103 0
49 11 0
49 64 0
154 152 0
10 14 0
0 0 0
50 69 0
46 54 0
52 70 0
56 77 80
2 6 0
2 7 0
30 21 1
46 62 0
9 4 0
64 14 0
38 38 0
170 160 0
182 175 114
22 16 0
122 64 4
0 0 0
181 174 114
198 183 114
52 71 0
49 59 36
61 81 80
145 148 0
152 151 0
179 173 114
154 152 0
149 150 0
148 150 0
182 175 114
14 19 0
200 183 114
197 182 114
47 67 0
159 155 0
167 158 0
151 151 0
0 0 0
152 151 0
150 150 0
46 66 0
192 179 114
148 149 0
198 183 114
146 148 0
185 176 114
169 159 0
195 181 114
198 183 114
171 160 0
191 179 114
147 149 0
180 174 114
197 182 114
160 155 0
166 168 114
190 179 114
180 174 114
185 176 114
44 61 0
148 150 0
196 182 114
190 179 114
161 155 0
50 69 0
149 150 0
146 148 0
151 151 0
186 177 114
174 171 114
147 149 0
12 19 0
188 178 114
198 182 114
186 176 114
200 183 114
180 174 114
163 156 0
153 152 0
154 152 0
182 175 114
158 154 0
199 183 114
125 65 4
161 156 0
180 174 114
44 61 0
195 181 114
148 150 0
163 156 0
147 149 0
197 182 114
160 155 0
196 181 114
145 148 0
191 179 114
184 176 114
121 105 0
170 169 114
200 184 114
146 148 0
147 149 0
154 152 0
145 148 0
37 46 0
180 174 114
160 155 0
179 174 114
86 42 0
173 140 51
175 171 114
155 153 0
191 179 114
153 152 0
166 136 51
194 180 114
195 181 114
173 170 114
194 180 114
199 183 114
165 167 114
140 103 22
195 181 114
170 169 114
186 177 114
155 132 51
161 110 22
167 158 0
180 174 114
180 174 114
191 179 114
181 174 114
154 152 0
129 99 22
165 157 0
145 148 0
152 151 0
196 181 114
185 176 114
187 177 114
170 195 0
179 201 0
187 205 0
172 197 0
171 196 0
163 192 0
174 198 0
170 195 0
189 206 0
183 203 0
225 238 255
224 237 255
166 193 0
171 196 0
171 196 0
186 204 0
183 202 0
165 193 0
165 193 0
196 209 0
188 205 0
170 196 0
171 196 0
167 194 0
181 201 0
180 201 0
165 193 0
164 193 0
162 191 0
171 196 0
167 194 0
181 201 0
183 202 0
214 231 255
164 192 0
169 195 0
176 199 0
176 198 0
186 204 0
167 194 0
195 209 0
179 200 0
168 195 0
166 193 0
174 197 0
162 191 0
175 198 0
170 195 0
165 193 0
177 199 0
189 206 0
192 208 0
166 193 0
197 210 0
164 193 0
197 210 0
178 200 0
177 199 0
171 196 0
173 197 0
172 196 0
165 193 0
200 224 255
187 205 0
180 201 0
183 202 0
163 192 0
171 196 0
183 203 0
163 192 0
191 207 0
183 202 0
176 199 0
165 193 0
176 199 0
194 208 0
180 201 0
161 191 0
175 198 0
175 198 0
186 204 0
171 196 0
177 199 0
166 193 0
176 198 0
172 196 0
174 197 0
162 191 0
169 195 0
174 198 0
163 192 0
164 192 0
174 198 0
178 200 0
177 199 0
180 201 0
186 204 0
168 195 0
181 201 0
173 197 0
167 194 0
170 196 0
46 76 0
182 202 0
178 200 0
151 174 0
170 195 0
185 203 0
170 196 0
163 192 0
184 203 0
169 195 0
186 204 0
175 198 0
170 195 0
168 194 0
170 195 0
173 197 0
205 226 255
174 198 0
195 209 0
179 200 0
163 192 0
177 199 0
178 200 0
169 195 0
167 194 0
164 192 0
220 235 255
168 194 0
167 194 0
181 201 0
179 200 0
53 87 0
19 42 0
58 91 0
54 88 0
65 102 181
68 103 181
57 90 0
52 86 0
51 85 0
19 41 0
49 78 0
55 88 0
179 200 0
169 195 0
177 199 0
186 204 0
167 194 0
64 101 181
62 94 0
70 105 181
51 85 0
59 97 181
61 98 181
57 90 0
68 104 181
69 105 181
60 97 181
56 89 0
59 97 181
53 87 0
54 87 0
65 101 181
60 98 181
53 87 0
64 101 181
59 97 181
55 89 0
63 100 181
52 86 0
64 101 181
56 89 0
60 92 0
67 103 181
53 87 0
51 86 0
58 91 0
69 104 181
67 103 181
54 88 0
60 92 0
67 103 181
70 105 181
51 86 0
51 86 0
54 87 0
58 91 0
48 68 0
61 99 181
70 105 181
63 100 181
61 93 0
51 86 0
57 90 0
63 100 181
60 97 181
64 101 181
68 104 181
15 35 0
51 85 0
69 105 181
58 96 181
56 89 0
71 106 181
61 99 181
57 90 0
51 85 0
58 96 181
56 73 0
53 87 0
53 87 0
62 99 181
62 99 181
43 61 0
34 31 0
55 88 0
51 86 0
55 88 0
53 75 80
58 91 0
64 101 181
54 87 0
61 99 181
54 87 0
54 72 0
51 86 0
70 106 181
49 68 0
55 89 0
67 103 181
62 99 181
67 103 181
53 87 0
51 85 0
52 86 0
52 86 0
63 100 181
52 86 0
56 89 0
62 99 181
62 99 181
58 96 181
55 88 0
68 103 181
49 68 0
48 68 0
53 75 80
42 37 7
194 208 0
173 197 0
3 1 0
116 89 0
123 91 0
39 33 0
4 0 0
3 6 0
1 2 0
6 5 0
126 65 4
12 21 0
13 2 0
47 67 0
3 7 0
49 68 0
26 16 0
124 86 0
47 67 0
148 106 22
12 4 0
121 91 0
60 79 80
198 182 114
99 39 0
45 66 0
196 181 114
121 64 4
61 80 80
47 58 36
146 148 0
152 151 0
149 150 0
44 61 0
152 151 0
145 148 0
200 183 114
42 52 0
10 12 0
63 82 80
35 36 0
13 27 0
45 62 0
197 182 114
193 180 114
11 19 0
173 161 0
179 173 114
156 153 0
176 172 114
152 152 0
184 176 114
61 81 80
57 78 80
15 29 0
156 153 0
195 181 114
44 61 0
153 152 0
146 149 0
144 121 0
147 149 0
37 46 0
164 157 0
150 150 0
156 153 0
50 69 0
194 181 114
187 177 114
173 171 114
166 158 0
199 183 114
146 149 0
185 176 114
152 151 0
152 151 0
171 170 114
198 182 114
174 171 114
156 153 0
150 151 0
170 160 0
188 178 114
194 181 114
155 153 0
154 152 0
164 157 0
149 150 0
161 155 0
147 149 0
156 153 0
183 175 114
191 179 114
156 153 0
177 172 114
161 155 0
166 158 0
179 173 114
189 178 114
187 177 114
99 60 0
199 183 114
150 150 0
195 181 114
198 182 114
191 179 114
156 153 0
156 153 0
198 182 114
152 151 0
193 180 114
184 176 114
148 149 0
191 179 114
175 140 51
148 150 0
167 158 0
145 148 0
154 152 0
180 174 114
148 150 0
167 158 0
149 150 0
196 182 114
53 71 0
191 179 114
180 174 114
152 151 0
156 125 0
199 183 114
146 149 0
190 178 114
156 133 51
153 152 0
79 31 0
180 142 51
151 151 0
145 148 0
86 42 0
150 150 0
155 153 0
184 176 114
129 99 22
201 184 114
175 162 0
192 179 114
175 172 114
180 174 114
167 168 114
146 148 0
191 207 0
172 197 0
168 194 0
194 208 0
192 207 0
185 203 0
163 192 0
221 236 255
177 199 0
168 195 0
178 200 0
179 200 0
163 192 0
188 205 0
162 191 0
168 194 0
169 195 0
222 236 255
162 192 0
165 193 0
167 194 0
171 196 0
165 193 0
170 196 0
168 194 0
165 193 0
164 192 0
179 200 0
172 197 0
178 200 0
182 202 0
165 193 0
172 197 0
167 194 0
177 199 0
179 200 0
175 198 0
166 194 0
166 194 0
167 194 0
175 198 0
192 208 0
164 192 0
208 228 255
165 193 0
175 198 0
177 199 0
206 227 255
180 201 0
167 194 0
164 193 0
168 195 0
176 199 0
177 199 0
179 200 0
186 204 0
169 195 0
167 194 0
162 191 0
168 195 0
164 192 0
166 193 0
169 195 0
175 198 0
191 207 0
174 198 0
180 201 0
179 200 0
181 201 0
191 207 0
167 194 0
163 192 0
195 221 255
180 201 0
176 199 0
190 206 0
164 192 0
180 201 0
165 193 0
166 193 0
162 191 0
163 192 0
173 197 0
175 198 0
170 195 0
171 196 0
182 202 0
191 207 0
165 193 0
196 210 0
164 192 0
175 198 0
162 192 0
187 205 0
182 202 0
190 219 255
171 196 0
179 200 0
164 192 0
167 194 0
192 220 255
177 199 0
189 206 0
179 201 0
179 200 0
190 206 0
171 196 0
173 197 0
169 195 0
174 198 0
169 195 0
178 200 0
181 201 0
193 208 0
168 194 0
171 196 0
151 142 0
163 192 0
163 192 0
185 204 0
182 202 0
178 200 0
179 200 0
164 193 0
196 209 0
187 205 0
164 192 0
175 198 0
59 92 0
68 103 181
165 193 0
165 193 0
173 197 0
52 86 0
61 99 181
55 89 0
17 37 0
70 105 181
65 101 181
6 21 90
61 99 181
59 97 181
55 83 0
57 90 0
189 206 0
189 206 0
168 195 0
170 196 0
163 192 0
165 193 0
64 101 181
58 96 181
51 81 0
52 86 0
65 101 181
62 94 0
55 89 0
51 86 0
70 106 181
70 105 181
53 87 0
67 103 181
55 88 0
54 88 0
66 102 181
55 88 0
63 100 181
10 18 0
53 87 0
67 103 181
56 89 0
52 86 0
61 99 181
14 34 0
53 87 0
59 91 0
70 105 181
53 87 0
59 91 0
53 87 0
17 37 0
16 36 0
54 88 0
69 105 181
54 87 0
56 89 0
61 98 181
68 104 181
68 104 181
49 68 0
53 87 0
68 104 181
53 82 0
69 104 181
61 93 0
64 101 181
68 104 181
69 105 181
4 12 0
64 100 181
53 87 0
62 99 181
65 102 181
59 97 181
69 105 181
52 86 0
69 104 181
54 88 0
15 35 0
59 79 80
66 102 181
68 104 181
4 14 0
68 104 181
52 86 0
67 103 181
55 88 0
57 90 0
60 97 181
68 104 181
52 86 0
52 86 0
46 66 0
55 76 80
67 103 181
57 90 0
51 85 0
65 101 181
68 104 181
54 87 0
62 99 181
51 85 0
53 87 0
51 86 0
55 88 0
43 43 0
67 103 181
53 71 0
66 102 181
61 80 80
64 101 181
58 90 0
70 105 181
66 102 181
59 92 0
19 41 0
7 11 0
53 75 80
52 86 0
70 105 181
187 204 0
175 198 0
171 196 0
175 140 51
10 13 0
1 1 0
156 153 0
157 154 0
165 136 51
47 67 0
31 20 0
14 5 0
7 10 0
72 18 0
47 67 0
56 63 36
138 83 10
58 78 80
8 11 0
52 70 0
48 58 36
55 72 0
93 46 2
82 23 0
21 9 0
152 123 0
56 63 36
148 149 0
124 106 0
51 70 0
145 148 0
194 181 114
161 155 0
10 18 0
147 149 0
57 78 80
56 77 80
153 152 0
150 151 0
34 36 0
162 156 0
173 161 0
150 150 0
167 158 0
57 78 80
157 153 0
147 149 0
12 21 0
164 157 0
43 60 0
189 178 114
193 180 114
149 150 0
199 183 114
50 60 36
194 181 114
185 176 114
149 150 0
168 159 0
129 115 0
195 181 114
165 157 0
148 149 0
164 157 0
50 69 0
46 66 0
157 154 0
187 177 114
159 155 0
156 153 0
54 76 80
45 61 0
156 153 0
184 176 114
150 150 0
152 151 0
200 183 114
164 157 0
163 156 0
185 176 114
153 152 0
187 177 114
78 50 0
116 103 0
193 180 114
199 183 114
188 178 114
163 156 0
183 175 114
147 149 0
148 150 0
186 177 114
42 49 0
170 160 0
143 120 0
186 177 114
146 149 0
170 160 0
187 177 114
188 177 114
197 182 114
163 156 0
116 89 0
157 153 0
149 150 0
189 178 114
150 150 0
191 179 114
150 151 0
186 177 114
147 149 0
161 155 0
168 159 0
167 168 114
145 148 0
77 32 0
153 152 0
153 152 0
145 148 0
185 176 114
151 151 0
150 151 0
150 123 0
138 118 0
147 149 0
170 160 0
148 150 0
193 180 114
150 150 0
180 174 114
3 7 0
145 148 0
150 150 0
151 151 0
194 180 114
179 173 114
171 139 51
153 152 0
148 149 0
179 173 114
188 178 114
161 155 0
196 181 114
2 0 0
119 104 0
181 174 114
199 183 114
171 160 0
191 179 114
151 151 0
170 195 0
175 198 0
176 198 0
170 195 0
167 194 0
173 197 0
167 194 0
173 197 0
166 193 0
162 191 0
163 192 0
185 203 0
171 196 0
174 198 0
171 196 0
170 196 0
191 207 0
177 199 0
163 192 0
188 205 0
177 199 0
164 193 0
175 198 0
170 196 0
163 192 0
167 194 0
217 233 255
176 199 0
162 191 0
178 200 0
164 192 0
169 195 0
191 207 0
164 192 0
179 200 0
162 191 0
165 193 0
168 194 0
175 198 0
178 200 0
166 193 0
162 191 0
174 197 0
180 201 0
172 197 0
181 201 0
164 192 0
190 206 0
165 193 0
188 205 0
165 193 0
167 194 0
178 200 0
179 200 0
162 192 0
176 199 0
179 200 0
181 201 0
186 204 0
169 195 0
189 206 0
190 206 0
172 197 0
182 202 0
197 222 255
165 193 0
167 194 0
166 193 0
175 198 0
183 202 0
163 192 0
164 192 0
164 192 0
171 196 0
181 201 0
179 200 0
178 200 0
165 193 0
172 196 0
174 198 0
184 203 0
165 193 0
174 198 0
183 203 0
174 197 0
178 200 0
179 200 0
184 203 0
175 198 0
173 197 0
161 191 0
164 192 0
162 191 0
60 92 0
170 196 0
164 192 0
146 171 0
171 196 0
176 199 0
187 204 0
173 197 0
172 196 0
172 196 0
185 204 0
186 204 0
172 197 0
176 199 0
184 203 0
162 191 0
166 193 0
192 207 0
179 200 0
200 212 0
170 195 0
170 195 0
165 193 0
166 193 0
194 208 0
194 208 0
186 204 0
170 196 0
168 194 0
166 193 0
168 195 0
49 79 0
175 187 0
167 194 0
170 195 0
173 197 0
193 208 0
47 77 0
61 93 0
52 86 0
53 87 0
68 104 181
52 86 0
55 88 0
62 94 0
67 103 181
70 106 181
51 86 0
56 89 0
57 90 0
61 93 0
168 194 0
163 192 0
190 206 0
171 196 0
166 193 0
162 192 0
193 208 0
51 85 0
61 93 0
69 104 181
51 86 0
55 88 0
61 93 0
69 104 181
53 87 0
16 36 0
16 38 0
61 99 181
65 102 181
68 104 181
55 89 0
52 86 0
67 103 181
68 104 181
66 102 181
55 89 0
15 35 0
67 103 181
56 89 0
53 87 0
62 99 181
56 89 0
59 91 0
58 90 0
51 86 0
70 106 181
71 106 181
52 86 0
70 105 181
51 86 0
43 61 0
56 89 0
59 97 181
52 86 0
15 35 0
52 86 0
52 86 0
53 87 0
69 104 181
58 90 0
51 86 0
70 105 181
69 105 181
52 86 0
65 101 181
61 93 0
68 103 181
55 88 0
62 99 181
54 87 0
55 88 0
68 104 181
56 89 0
51 86 0
54 88 0
51 86 0
64 101 181
54 88 0
58 91 0
67 103 181
61 99 181
52 86 0
62 99 181
15 28 0
54 88 0
66 102 181
56 89 0
67 103 181
69 104 181
51 74 80
59 92 0
55 88 0
64 101 181
59 91 0
61 98 181
56 89 0
51 85 0
70 105 181
60 97 181
55 88 0
14 34 0
57 90 0
62 99 181
59 92 0
56 89 0
38 38 0
66 102 181
59 92 0
60 98 181
63 100 181
48 68 0
54 71 0
46 66 0
48 67 0
56 89 0
52 86 0
174 197 0
178 200 0
174 198 0
41 51 0
135 117 0
77 26 0
37 46 0
68 21 0
167 158 0
137 96 0
160 155 0
35 35 0
61 80 80
14 23 0
55 63 36
11 18 0
47 67 0
50 60 36
34 41 0
1 4 0
161 155 0
200 184 114
49 68 0
52 70 0
42 60 0
53 75 80
170 160 0
61 80 80
173 171 114
197 182 114
53 71 0
0 0 0
153 152 0
4 7 3
51 69 0
169 159 0
139 118 0
191 179 114
186 177 114
148 150 0
147 149 0
198 182 114
134 117 0
130 115 0
175 171 114
169 159 0
145 148 0
62 81 80
60 80 80
199 183 114
179 173 114
155 153 0
149 150 0
52 61 36
133 116 0
152 152 0
151 151 0
152 151 0
157 154 0
46 67 0
153 152 0
151 151 0
174 162 0
190 179 114
39 33 0
179 174 114
190 178 114
198 182 114
173 161 0
179 174 114
193 180 114
120 73 0
160 155 0
185 176 114
159 154 0
189 178 114
192 180 114
131 108 0
150 150 0
195 181 114
41 48 0
163 156 0
146 149 0
79 28 0
151 151 0
179 174 114
141 97 0
157 154 0
185 176 114
191 179 114
152 151 0
70 20 0
146 149 0
152 151 0
187 177 114
157 154 0
171 160 0
159 154 0
160 155 0
148 150 0
185 176 114
156 153 0
160 155 0
155 153 0
123 105 0
199 183 114
178 173 114
184 175 114
146 148 0
175 162 0
145 148 0
150 151 0
166 168 114
190 178 114
165 157 0
150 151 0
145 148 0
155 153 0
146 149 0
201 184 114
148 150 0
134 117 0
153 152 0
169 159 0
162 156 0
201 184 114
147 122 0
198 182 114
194 181 114
196 182 114
179 173 114
21 13 0
164 157 0
192 180 114
152 151 0
150 150 0
155 153 0
201 184 114
138 118 0
159 155 0
191 179 114
146 149 0
108 81 0
148 149 0
132 116 0
160 155 0
158 154 0
145 148 0
152 151 0
166 158 0
170 195 0
175 198 0
192 207 0
176 199 0
164 193 0
173 197 0
173 197 0
172 197 0
175 198 0
163 192 0
176 199 0
164 192 0
171 196 0
175 198 0
187 205 0
185 204 0
191 207 0
182 202 0
194 208 0
167 194 0
166 193 0
182 202 0
220 235 255
175 198 0
177 199 0
177 199 0
165 193 0
165 193 0
169 195 0
193 208 0
163 192 0
171 196 0
180 201 0
186 204 0
176 199 0
163 192 0
163 192 0
171 196 0
164 192 0
162 191 0
168 195 0
165 193 0
174 198 0
164 192 0
191 207 0
168 194 0
181 202 0
174 198 0
168 194 0
181 201 0
168 194 0
168 194 0
168 195 0
191 207 0
164 192 0
175 198 0
167 194 0
181 201 0
171 196 0
166 193 0
169 195 0
166 193 0
186 204 0
196 222 255
165 193 0
165 193 0
179 200 0
171 196 0
172 196 0
176 199 0
169 195 0
171 196 0
179 200 0
183 202 0
166 193 0
175 198 0
173 197 0
180 201 0
180 201 0
175 198 0
167 194 0
182 202 0
173 197 0
167 194 0
163 192 0
176 199 0
170 195 0
182 202 0
184 203 0
173 197 0
177 199 0
169 195 0
166 193 0
187 205 0
176 199 0
172 197 0
178 200 0
174 198 0
178 200 0
168 194 0
191 207 0
174 197 0
166 194 0
173 197 0
166 193 0
193 208 0
173 197 0
180 201 0
167 194 0
180 201 0
173 197 0
177 199 0
171 196 0
186 204 0
165 193 0
165 193 0
165 193 0
167 194 0
162 192 0
162 191 0
181 201 0
170 195 0
175 198 0
165 193 0
165 193 0
176 198 0
173 197 0
164 192 0
224 237 255
180 201 0
169 195 0
13 31 0
56 89 0
54 88 0
54 87 0
59 97 181
61 93 0
53 87 0
53 82 0
14 34 0
14 34 0
4 14 0
67 103 181
168 194 0
165 193 0
162 192 0
161 191 0
176 198 0
169 195 0
164 193 0
163 192 0
60 97 181
67 103 181
68 104 181
51 86 0
58 91 0
61 98 181
51 86 0
58 96 181
64 100 181
52 86 0
65 102 181
45 54 0
55 89 0
58 91 0
65 101 181
56 89 0
68 104 181
60 98 181
53 87 0
61 98 181
62 99 181
70 105 181
70 105 181
62 99 181
52 86 0
64 100 181
60 98 181
52 86 0
60 92 0
54 87 0
68 104 181
53 87 0
53 87 0
63 100 181
69 105 181
64 101 181
3 7 0
69 104 181
13 26 0
65 102 181
70 106 181
65 101 181
70 105 181
54 87 0
67 103 181
60 97 181
53 87 0
52 86 0
70 105 181
28 19 0
70 106 181
51 85 0
53 87 0
69 105 181
51 86 0
61 93 0
60 98 181
66 102 181
58 91 0
64 101 181
53 87 0
51 85 0
68 104 181
70 105 181
52 86 0
52 86 0
19 42 0
60 98 181
16 31 0
54 87 0
52 86 0
58 90 0
56 89 0
51 85 0
52 86 0
66 102 181
52 70 0
64 100 181
59 97 181
53 87 0
63 82 80
47 67 0
64 101 181
53 87 0
45 66 0
52 75 80
58 96 181
52 86 0
51 70 0
61 93 0
49 68 0
52 86 0
63 100 181
55 88 0
63 100 181
10 16 0
0 0 0
58 78 80
166 194 0
167 194 0
174 197 0
162 191 0
107 60 4
124 106 0
116 63 4
113 68 0
170 138 51
47 63 0
163 156 0
0 1 0
53 61 36
146 148 0
37 40 0
40 41 0
42 52 0
151 107 22
62 81 80
50 69 0
1 4 0
192 180 114
46 66 0
62 81 80
174 162 0
46 63 0
166 158 0
43 60 0
175 171 114
200 184 114
200 184 114
51 69 0
41 59 0
63 82 80
46 62 0
167 158 0
43 52 0
169 159 0
180 174 114
152 151 0
61 81 80
61 80 80
61 81 80
150 151 0
42 52 0
145 148 0
196 182 114
56 77 80
60 80 80
149 150 0
155 153 0
14 22 0
52 70 0
195 181 114
187 177 114
38 38 0
48 68 0
166 158 0
145 148 0
179 173 114
195 181 114
174 171 114
186 176 114
152 151 0
152 151 0
178 173 114
147 149 0
146 149 0
146 149 0
176 172 114
175 172 114
147 149 0
147 149 0
148 149 0
152 151 0
174 162 0
194 180 114
51 70 0
158 154 0
145 148 0
148 150 0
200 183 114
192 180 114
196 181 114
159 155 0
193 180 114
158 154 0
197 182 114
145 148 0
192 180 114
189 178 114
159 155 0
145 148 0
160 155 0
163 157 0
171 160 0
148 150 0
155 153 0
161 156 0
118 103 0
184 176 114
38 7 0
103 74 0
119 90 0
195 181 114
197 182 114
165 157 0
151 151 0
194 180 114
151 151 0
153 152 0
52 24 0
155 153 0
142 119 0
158 154 0
151 151 0
172 161 0
180 174 114
181 174 114
160 155 0
195 181 114
201 184 114
156 132 51
179 173 114
156 153 0
104 59 4
162 156 0
194 180 114
197 182 114
179 173 114
136 96 0
156 153 0
194 180 114
155 153 0
162 156 0
136 117 0
188 178 114
198 182 114
190 179 114
160 155 0
198 182 114
121 105 0
196 181 114
158 154 0
178 173 114
182 175 114
149 150 0
154 152 0
143 120 0
166 167 114
149 150 0
167 194 0
178 200 0
164 192 0
163 192 0
171 196 0
183 202 0
168 194 0
164 193 0
177 199 0
178 200 0
163 192 0
162 191 0
162 192 0
165 193 0
165 193 0
181 201 0
179 200 0
178 200 0
186 204 0
174 198 0
162 191 0
179 200 0
177 199 0
186 204 0
188 205 0
163 192 0
170 196 0
178 200 0
182 202 0
164 192 0
177 199 0
164 192 0
168 194 0
178 199 0
166 193 0
178 200 0
178 200 0
210 229 255
165 193 0
178 200 0
169 195 0
179 200 0
174 197 0
173 197 0
167 194 0
173 197 0
194 208 0
168 194 0
180 201 0
177 199 0
166 193 0
172 196 0
189 205 0
180 201 0
169 195 0
162 191 0
172 197 0
181 202 0
163 192 0
169 195 0
172 196 0
187 205 0
163 192 0
181 201 0
184 203 0
183 203 0
173 197 0
171 196 0
163 192 0
176 199 0
178 199 0
178 200 0
176 199 0
174 197 0
170 195 0
188 205 0
164 193 0
171 196 0
166 193 0
177 199 0
163 192 0
169 195 0
163 192 0
181 201 0
180 201 0
173 197 0
195 209 0
175 198 0
178 200 0
165 193 0
175 198 0
181 201 0
186 216 255
164 192 0
174 198 0
180 201 0
175 198 0
176 199 0
180 201 0
172 196 0
163 192 0
188 218 255
176 199 0
164 192 0
172 197 0
169 195 0
165 193 0
174 198 0
164 193 0
169 195 0
171 196 0
166 193 0
188 205 0
170 195 0
165 193 0
167 194 0
162 191 0
168 194 0
163 192 0
180 201 0
168 195 0
171 196 0
167 194 0
166 193 0
164 193 0
53 82 0
166 193 0
165 193 0
166 193 0
49 79 0
188 205 0
176 198 0
4 14 0
53 87 0
51 86 0
56 89 0
53 87 0
15 34 0
65 101 181
53 87 0
67 103 181
63 100 181
55 89 0
178 200 0
175 198 0
165 193 0
163 192 0
177 199 0
186 204 0
180 201 0
65 101 181
69 105 181
69 105 181
58 96 181
57 90 0
51 85 0
55 88 0
52 86 0
61 99 181
54 88 0
70 105 181
52 86 0
60 98 181
67 103 181
52 86 0
51 85 0
53 87 0
52 86 0
53 87 0
63 100 181
52 86 0
58 90 0
68 104 181
51 85 0
41 59 0
64 101 181
65 102 181
63 100 181
53 87 0
53 87 0
52 86 0
56 89 0
4 13 0
53 87 0
66 102 181
65 101 181
53 87 0
64 101 181
19 41 0
61 98 181
51 85 0
68 104 181
55 88 0
67 103 181
65 101 181
53 87 0
47 67 0
59 97 181
52 86 0
61 98 181
69 104 181
53 87 0
16 38 0
63 100 181
67 103 181
55 88 0
68 104 181
53 87 0
56 89 0
15 35 0
69 104 181
55 88 0
52 86 0
56 73 0
55 89 0
67 103 181
54 88 0
27 21 0
51 86 0
69 104 181
54 88 0
47 54 0
53 87 0
49 68 0
53 87 0
58 91 0
18 40 0
67 103 181
53 87 0
17 39 0
52 86 0
57 90 0
47 67 0
71 106 181
52 86 0
58 90 0
67 103 181
58 96 181
69 105 181
59 97 181
13 23 0
55 88 0
54 76 80
55 88 0
46 66 0
53 87 0
62 99 181
61 80 80
48 67 0
175 198 0
168 195 0
170 195 0
185 203 0
44 38 7
0 0 0
67 21 0
107 69 0
146 121 0
7 9 0
52 70 0
8 6 0
38 38 0
48 68 0
53 71 0
124 86 0
147 149 0
81 23 0
160 127 0
156 153 0
8 10 0
132 109 0
4 1 0
174 171 114
42 52 0
149 150 0
148 149 0
11 19 0
170 160 0
200 183 114
58 79 80
4 2 0
137 111 0
111 71 0
146 149 0
187 177 114
143 120 0
58 79 80
145 148 0
146 148 0
42 60 0
60 80 80
151 151 0
60 80 80
175 162 0
160 155 0
149 150 0
183 175 114
177 172 114
144 148 0
201 184 114
117 103 0
151 151 0
176 163 0
41 59 0
146 148 0
48 67 0
159 155 0
199 183 114
2 0 0
183 175 114
51 69 0
148 149 0
41 59 0
166 158 0
174 171 114
176 172 114
162 156 0
134 116 0
180 174 114
176 172 114
49 68 0
199 183 114
151 151 0
169 159 0
150 151 0
45 62 0
147 149 0
152 151 0
152 151 0
195 181 114
175 162 0
194 180 114
193 180 114
175 172 114
138 118 0
160 155 0
126 106 0
156 153 0
90 30 0
146 149 0
49 13 0
0 1 0
149 150 0
165 157 0
149 150 0
155 153 0
199 183 114
162 156 0
147 149 0
153 152 0
146 121 0
199 183 114
167 158 0
147 149 0
157 153 0
148 150 0
174 171 114
147 149 0
154 152 0
194 181 114
52 70 0
197 182 114
152 151 0
160 155 0
162 156 0
138 102 22
151 151 0
153 152 0
4 9 0
183 175 114
197 182 114
162 156 0
190 179 114
147 149 0
192 180 114
157 154 0
167 158 0
170 169 114
198 183 114
147 149 0
172 161 0
174 171 114
182 175 114
150 151 0
166 158 0
149 150 0
181 174 114
155 153 0
145 148 0
158 154 0
153 152 0
183 175 114
187 177 114
147 149 0
199 183 114
187 177 114
172 160 0
150 151 0
136 117 0
137 96 0
176 199 0
162 191 0
175 198 0
169 195 0
170 196 0
181 201 0
164 192 0
171 196 0
176 198 0
163 192 0
182 202 0
182 202 0
187 204 0
180 201 0
194 208 0
171 196 0
172 197 0
183 202 0
178 200 0
164 192 0
173 197 0
178 200 0
171 196 0
165 193 0
174 197 0
182 202 0
185 203 0
186 204 0
169 195 0
162 192 0
176 199 0
181 202 0
172 196 0
183 202 0
176 199 0
195 209 0
168 194 0
188 205 0
180 201 0
195 209 0
164 192 0
168 194 0
165 193 0
191 207 0
188 205 0
162 191 0
176 199 0
176 199 0
173 186 0
202 225 255
189 206 0
162 191 0
165 193 0
170 195 0
181 201 0
180 201 0
185 203 0
162 191 0
168 195 0
162 192 0
183 202 0
192 207 0
167 194 0
193 208 0
162 191 0
165 193 0
162 191 0
200 212 0
177 199 0
165 193 0
180 201 0
162 191 0
167 194 0
180 201 0
180 201 0
187 204 0
187 204 0
185 204 0
175 198 0
165 193 0
165 193 0
167 194 0
165 193 0
173 197 0
167 194 0
185 216 255
165 193 0
171 196 0
181 201 0
171 196 0
168 194 0
162 191 0
163 192 0
191 207 0
192 207 0
168 195 0
169 195 0
170 195 0
194 209 0
169 195 0
195 209 0
190 206 0
166 193 0
168 194 0
175 198 0
165 193 0
181 202 0
173 197 0
170 196 0
167 194 0
163 192 0
174 198 0
182 202 0
170 195 0
55 88 0
161 191 0
165 193 0
165 193 0
179 200 0
175 198 0
49 79 0
162 191 0
174 198 0
175 198 0
217 233 255
187 205 0
173 197 0
168 194 0
177 199 0
163 192 0
167 194 0
55 88 0
66 102 181
17 40 0
55 89 0
56 89 0
58 91 0
62 99 181
14 34 0
53 87 0
52 86 0
193 208 0
163 192 0
173 197 0
164 192 0
165 193 0
179 200 0
176 199 0
169 195 0
167 194 0
175 198 0
15 35 0
69 104 181
60 92 0
61 98 181
53 87 0
53 87 0
16 36 0
54 87 0
66 102 181
54 88 0
58 91 0
52 86 0
70 106 181
62 99 181
60 92 0
58 90 0
3 7 0
61 98 181
57 90 0
59 91 0
62 94 0
52 86 0
15 34 0
53 87 0
60 92 0
57 90 0
59 92 0
52 86 0
53 87 0
69 104 181
66 103 181
0 1 0
55 89 0
54 87 0
54 88 0
51 85 0
65 101 181
65 101 181
68 104 181
52 86 0
64 100 181
57 90 0
69 105 181
53 87 0
70 106 181
55 88 0
62 99 181
69 104 181
54 88 0
53 87 0
60 92 0
58 90 0
65 102 181
59 97 181
52 86 0
67 103 181
56 89 0
64 101 181
54 87 0
61 93 0
69 105 181
65 101 181
57 90 0
71 106 181
69 105 181
51 86 0
52 86 0
17 39 0
58 91 0
51 85 0
20 42 0
63 100 181
61 99 181
54 87 0
58 96 181
55 88 0
52 86 0
62 81 80
54 88 0
54 88 0
46 66 0
52 86 0
52 86 0
60 98 181
4 12 0
63 82 80
19 41 0
48 68 0
54 87 0
68 104 181
50 69 0
59 92 0
19 41 0
13 2 0
55 88 0
53 87 0
4 10 0
15 21 11
163 192 0
179 200 0
170 195 0
164 192 0
185 204 0
145 148 0
50 11 0
5 4 0
26 2 0
157 153 0
131 100 22
31 21 1
11 19 0
87 42 0
13 26 0
12 24 0
48 67 0
14 20 11
0 3 0
13 25 0
63 82 80
48 58 36
46 66 0
14 28 0
31 26 0
3 9 0
46 66 0
1 2 0
193 180 114
52 70 0
130 108 0
50 69 0
3 10 0
193 180 114
150 150 0
28 22 0
193 180 114
163 156 0
37 43 0
60 80 80
42 60 0
153 152 0
147 149 0
172 161 0
145 148 0
10 14 0
158 154 0
198 183 114
147 149 0
59 15 0
195 181 114
41 51 0
17 32 0
46 66 0
3 9 0
152 151 0
151 151 0
173 170 114
153 152 0
3 10 0
145 148 0
168 159 0
190 178 114
158 154 0
146 149 0
147 149 0
149 150 0
55 77 80
53 71 0
147 149 0
150 150 0
194 180 114
200 183 114
198 182 114
174 171 114
15 30 0
189 178 114
153 152 0
149 150 0
151 151 0
157 154 0
199 183 114
148 150 0
151 151 0
167 158 0
199 183 114
199 183 114
146 149 0
153 152 0
160 155 0
151 151 0
148 149 0
166 158 0
200 183 114
148 149 0
146 149 0
157 126 0
195 181 114
146 149 0
199 183 114
188 177 114
199 183 114
12 24 0
161 156 0
176 172 114
198 183 114
149 150 0
178 173 114
193 180 114
154 152 0
150 150 0
170 169 114
167 168 114
197 182 114
160 155 0
168 159 0
152 151 0
195 181 114
163 156 0
173 161 0
76 26 0
161 156 0
146 149 0
150 151 0
197 182 114
144 148 0
154 152 0
144 139 0
187 177 114
185 176 114
147 149 0
157 154 0
189 178 114
199 183 114
145 148 0
139 84 10
168 159 0
130 94 0
198 183 114
147 149 0
147 149 0
155 152 0
164 157 0
145 148 0
146 121 0
111 61 4
187 177 114
171 170 114
149 150 0
200 183 114
198 182 114
173 197 0
167 194 0
194 209 0
149 150 0
164 192 0
186 204 0
168 195 0
224 237 255
183 202 0
171 196 0
162 191 0
162 191 0
165 193 0
175 198 0
185 204 0
169 195 0
186 204 0
184 203 0
164 192 0
162 191 0
167 194 0
182 202 0
165 193 0
166 193 0
182 202 0
177 199 0
165 193 0
184 203 0
174 198 0
175 198 0
170 196 0
214 231 255
180 201 0
174 197 0
163 192 0
161 191 0
174 197 0
174 198 0
169 195 0
169 195 0
165 193 0
166 193 0
180 201 0
163 192 0
172 197 0
173 197 0
190 206 0
169 195 0
168 194 0
163 192 0
162 191 0
163 192 0
193 208 0
172 197 0
167 194 0
185 204 0
187 205 0
193 208 0
171 196 0
180 201 0
193 208 0
190 206 0
146 149 0
169 195 0
16 36 0
185 204 0
167 194 0
174 198 0
189 206 0
164 192 0
175 198 0
179 200 0
169 195 0
170 196 0
164 193 0
161 191 0
165 193 0
171 196 0
170 196 0
176 199 0
171 196 0
181 201 0
188 205 0
167 194 0
162 191 0
176 199 0
173 197 0
174 198 0
177 199 0
187 205 0
162 191 0
180 201 0
183 215 255
166 193 0
180 201 0
165 193 0
164 192 0
181 201 0
178 199 0
173 197 0
174 197 0
180 201 0
187 217 255
181 201 0
164 192 0
166 193 0
190 218 255
173 197 0
165 193 0
179 200 0
172 197 0
176 199 0
168 195 0
174 198 0
169 195 0
168 194 0
177 199 0
170 196 0
173 197 0
169 195 0
171 196 0
169 195 0
174 198 0
168 194 0
165 193 0
171 196 0
178 200 0
47 78 0
46 77 0
181 202 0
55 89 0
62 94 0
19 41 0
60 92 0
51 85 0
51 85 0
51 86 0
59 91 0
65 102 181
61 93 0
55 88 0
175 198 0
179 201 0
48 78 0
172 197 0
170 195 0
173 197 0
167 194 0
182 202 0
192 207 0
183 202 0
170 196 0
12 17 0
54 88 0
55 89 0
70 105 181
68 104 181
71 106 181
17 37 0
53 87 0
61 98 181
53 87 0
52 86 0
63 100 181
66 102 181
52 86 0
54 87 0
68 103 181
56 89 0
67 103 181
54 88 0
51 85 0
53 87 0
70 105 181
27 18 0
57 90 0
55 88 0
69 105 181
42 60 0
68 104 181
63 100 181
58 91 0
67 103 181
68 104 181
56 89 0
16 39 0
62 99 181
63 100 181
66 102 181
57 90 0
51 86 0
19 41 0
60 98 181
53 87 0
70 106 181
63 100 181
54 87 0
53 87 0
55 72 0
69 104 181
70 105 181
69 104 181
70 106 181
70 105 181
18 40 0
52 86 0
56 89 0
55 88 0
56 89 0
57 90 0
63 100 181
51 86 0
59 97 181
51 85 0
52 86 0
52 86 0
62 99 181
52 70 0
51 86 0
58 90 0
69 105 181
53 87 0
51 85 0
46 63 0
55 88 0
60 98 181
14 27 0
65 101 181
52 86 0
71 106 181
62 93 0
53 75 80
55 89 0
55 88 0
68 104 181
64 101 181
55 89 0
55 89 0
55 89 0
0 0 0
51 86 0
67 103 181
64 101 181
63 100 181
1 0 0
13 27 0
54 72 0
13 26 0
168 195 0
173 197 0
168 194 0
179 200 0
168 195 0
180 201 0
66 36 0
60 16 0
55 73 0
46 63 0
46 54 0
26 18 0
14 24 0
13 19 0
52 12 0
114 59 0
30 24 0
38 47 0
54 72 0
159 154 0
176 141 51
156 153 0
140 119 0
41 51 0
48 68 0
47 58 36
149 150 0
17 28 25
47 67 0
45 62 0
53 75 80
36 37 0
54 62 36
154 152 0
169 159 0
199 183 114
54 76 80
162 156 0
173 161 0
182 175 114
46 66 0
122 105 0
59 79 80
191 179 114
155 125 0
146 149 0
154 124 0
168 159 0
152 151 0
170 160 0
194 180 114
120 104 0
159 154 0
167 158 0
149 150 0
153 152 0
189 178 114
163 156 0
192 180 114
159 155 0
196 181 114
44 43 0
145 148 0
186 177 114
190 179 114
146 149 0
162 156 0
148 150 0
124 106 0
154 152 0
191 179 114
147 149 0
181 174 114
178 164 0
153 152 0
176 172 114
149 150 0
186 177 114
198 182 114
49 68 0
150 150 0
169 159 0
196 181 114
153 152 0
188 177 114
159 154 0
156 153 0
192 179 114
151 151 0
147 149 0
187 177 114
149 150 0
147 149 0
189 178 114
191 179 114
151 151 0
194 180 114
191 179 114
127 92 0
154 152 0
53 71 0
145 148 0
155 153 0
183 175 114
194 180 114
43 60 0
49 68 0
172 161 0
162 156 0
188 178 114
170 160 0
190 179 114
149 150 0
157 154 0
151 151 0
80 33 0
180 174 114
191 179 114
153 152 0
134 95 0
133 109 0
150 150 0
161 155 0
199 183 114
83 33 0
144 148 0
146 149 0
153 152 0
152 151 0
160 155 0
194 181 114
121 78 10
189 178 114
189 178 114
195 181 114
1 0 0
159 155 0
184 176 114
145 148 0
145 148 0
165 157 0
199 183 114
123 79 10
153 152 0
145 121 0
184 175 114
113 82 0
166 158 0
151 151 0
80 28 0
187 177 114
195 181 114
183 203 0
181 201 0
187 204 0
174 198 0
166 194 0
188 205 0
184 203 0
175 198 0
180 201 0
176 199 0
171 196 0
169 195 0
179 200 0
177 199 0
170 195 0
164 193 0
185 204 0
188 205 0
176 199 0
167 194 0
165 193 0
177 199 0
180 201 0
186 204 0
172 197 0
219 234 255
165 193 0
190 206 0
170 196 0
177 199 0
164 192 0
196 210 0
162 192 0
176 199 0
175 198 0
170 195 0
175 198 0
189 206 0
189 206 0
169 195 0
168 194 0
179 200 0
175 198 0
206 227 255
173 197 0
166 194 0
178 200 0
170 195 0
169 195 0
182 202 0
171 196 0
162 191 0
164 192 0
187 205 0
162 192 0
165 193 0
162 191 0
164 192 0
167 194 0
185 203 0
182 202 0
162 191 0
172 196 0
178 200 0
174 198 0
180 201 0
162 191 0
187 204 0
181 201 0
170 196 0
193 208 0
169 195 0
183 202 0
167 194 0
199 211 0
170 196 0
187 205 0
164 192 0
180 201 0
185 204 0
162 191 0
182 202 0
179 200 0
183 203 0
51 85 0
169 195 0
191 207 0
164 193 0
165 193 0
176 199 0
168 195 0
175 198 0
191 207 0
182 202 0
163 192 0
173 197 0
173 197 0
164 192 0
171 196 0
171 196 0
172 197 0
162 191 0
169 195 0
172 197 0
52 86 0
188 205 0
166 193 0
165 193 0
167 194 0
161 191 0
63 94 0
173 197 0
173 197 0
171 196 0
169 195 0
198 211 0
62 94 0
164 193 0
165 193 0
165 193 0
171 196 0
171 196 0
186 204 0
187 204 0
56 89 0
163 192 0
171 196 0
192 207 0
191 207 0
166 193 0
66 102 181
56 89 0
57 90 0
61 93 0
15 33 0
52 86 0
59 97 181
5 16 0
51 85 0
162 191 0
193 208 0
147 172 0
162 191 0
164 192 0
180 201 0
169 195 0
174 198 0
174 198 0
171 196 0
176 198 0
178 200 0
163 192 0
50 80 0
55 88 0
53 87 0
58 91 0
53 87 0
52 86 0
60 97 181
52 86 0
57 90 0
59 97 181
54 88 0
60 92 0
53 86 0
52 86 0
52 86 0
56 89 0
55 88 0
60 98 181
65 101 181
51 86 0
54 88 0
60 92 0
51 86 0
63 100 181
68 104 181
62 99 181
18 40 0
64 100 181
51 85 0
70 106 181
67 103 181
55 89 0
60 97 181
53 87 0
66 102 181
60 98 181
54 87 0
58 91 0
68 104 181
68 103 181
67 103 181
52 86 0
56 89 0
51 85 0
51 85 0
64 101 181
64 101 181
19 41 0
63 100 181
54 88 0
56 89 0
52 86 0
53 71 0
54 87 0
59 91 0
70 105 181
69 105 181
18 40 0
52 86 0
65 102 181
53 87 0
70 105 181
60 92 0
62 99 181
42 60 0
51 86 0
44 61 0
68 104 181
66 102 181
51 85 0
61 99 181
69 105 181
47 67 0
57 90 0
69 104 181
50 69 0
51 86 0
58 90 0
16 36 0
32 28 0
65 102 181
1 5 0
52 86 0
56 89 0
54 87 0
70 105 181
68 104 181
56 89 0
52 86 0
62 99 181
44 61 0
68 104 181
60 92 0
54 88 0
68 104 181
14 22 0
171 196 0
166 194 0
182 202 0
178 200 0
167 194 0
169 195 0
182 202 0
166 194 0
0 0 0
169 159 0
11 18 0
173 161 0
1 3 0
104 60 4
45 66 0
150 123 0
147 149 0
3 7 0
167 158 0
148 149 0
85 29 0
11 23 0
140 103 22
166 158 0
153 152 0
0 0 0
157 153 0
147 149 0
44 53 0
42 60 0
55 63 36
39 44 0
190 179 114
161 155 0
11 20 0
198 182 114
54 72 0
153 152 0
160 155 0
167 137 51
198 183 114
154 152 0
138 118 0
44 61 0
154 152 0
118 103 0
157 154 0
43 61 0
192 180 114
13 23 0
37 37 0
149 150 0
9 10 0
43 49 0
200 184 114
48 68 0
149 150 0
197 182 114
183 175 114
188 177 114
31 28 0
159 154 0
172 161 0
163 156 0
175 172 114
147 149 0
184 176 114
156 153 0
149 150 0
120 90 0
146 149 0
200 183 114
200 183 114
177 172 114
195 181 114
166 158 0
40 55 0
148 150 0
159 155 0
147 149 0
199 183 114
126 87 0
181 174 114
183 175 114
161 155 0
200 183 114
145 148 0
142 120 0
112 71 0
156 153 0
155 153 0
173 170 114
196 182 114
168 159 0
201 184 114
198 182 114
150 150 0
193 180 114
197 182 114
197 182 114
176 162 0
156 125 0
195 181 114
146 148 0
137 83 10
158 154 0
149 150 0
160 155 0
169 159 0
149 150 0
163 157 0
121 90 0
151 151 0
184 176 114
197 182 114
133 95 0
104 65 0
186 176 114
159 154 0
159 155 0
163 156 0
162 156 0
189 178 114
150 150 0
192 179 114
195 181 114
145 121 0
161 156 0
198 183 114
148 150 0
192 179 114
199 183 114
151 151 0
170 169 114
146 149 0
152 152 0
147 149 0
149 150 0
91 30 0
168 138 51
175 162 0
156 153 0
176 172 114
168 168 114
200 183 114
147 149 0
151 151 0
149 150 0
176 163 0
177 173 114
151 151 0
161 156 0
171 196 0
174 198 0
184 203 0
167 194 0
165 193 0
177 199 0
162 192 0
162 191 0
169 195 0
189 206 0
170 195 0
163 192 0
167 194 0
175 198 0
187 204 0
162 191 0
168 194 0
188 205 0
173 197 0
166 193 0
169 195 0
185 203 0
166 194 0
179 200 0
177 199 0
163 192 0
188 205 0
163 192 0
187 204 0
216 233 255
194 209 0
178 200 0
167 194 0
186 204 0
163 192 0
181 201 0
0 2 0
184 203 0
172 196 0
168 194 0
166 194 0
166 194 0
157 177 0
190 206 0
186 204 0
204 226 255
186 204 0
170 195 0
163 192 0
185 203 0
177 199 0
168 194 0
172 197 0
165 193 0
172 197 0
163 192 0
169 195 0
165 193 0
176 198 0
177 199 0
184 203 0
186 204 0
163 192 0
173 197 0
171 196 0
185 203 0
164 192 0
185 204 0
180 201 0
183 202 0
164 192 0
167 183 0
173 197 0
170 195 0
185 203 0
174 198 0
147 140 0
164 192 0
178 200 0
172 197 0
191 207 0
175 198 0
188 205 0
188 205 0
164 192 0
175 198 0
182 202 0
184 203 0
167 194 0
189 206 0
178 200 0
172 197 0
162 191 0
173 197 0
163 192 0
182 215 255
178 200 0
50 80 0
168 195 0
195 209 0
173 197 0
163 192 0
182 202 0
169 195 0
175 198 0
162 191 0
184 203 0
173 197 0
177 199 0
167 194 0
54 88 0
196 222 255
176 199 0
163 192 0
171 196 0
174 198 0
185 204 0
175 198 0
171 196 0
173 197 0
185 204 0
182 202 0
197 210 0
174 198 0
53 87 0
189 206 0
48 78 0
47 77 0
61 93 0
52 86 0
52 86 0
17 39 0
47 78 0
17 37 0
62 94 0
52 86 0
4 13 0
167 194 0
168 195 0
172 197 0
47 78 0
171 196 0
171 196 0
162 191 0
179 200 0
181 202 0
195 209 0
174 197 0
172 197 0
173 197 0
177 199 0
182 202 0
176 199 0
51 85 0
60 98 181
65 102 181
58 90 0
51 85 0
69 105 181
69 105 181
67 103 181
58 90 0
70 106 181
66 102 181
52 86 0
4 13 0
62 99 181
67 103 181
55 88 0
51 86 0
69 105 181
54 88 0
55 89 0
56 89 0
58 91 0
64 100 181
60 92 0
55 88 0
54 83 0
71 106 181
65 101 181
51 85 0
53 87 0
14 34 0
62 99 181
57 90 0
58 90 0
62 99 181
1 4 0
64 101 181
66 102 181
56 89 0
14 34 0
68 104 181
69 104 181
68 104 181
55 88 0
52 86 0
56 89 0
68 104 181
12 28 0
66 102 181
60 92 0
63 100 181
54 87 0
67 103 181
11 19 0
53 87 0
50 69 0
63 100 181
52 86 0
4 6 0
68 104 181
69 105 181
68 104 181
65 102 181
62 99 181
68 104 181
67 103 181
62 99 181
67 103 181
68 104 181
69 105 181
70 105 181
52 86 0
48 64 0
57 90 0
53 87 0
54 88 0
67 103 181
67 103 181
22 16 0
51 86 0
60 92 0
64 101 181
50 69 0
52 70 0
3 9 0
65 101 181
55 89 0
61 93 0
64 100 181
63 100 181
51 60 36
46 66 0
52 70 0
55 89 0
171 196 0
167 194 0
171 196 0
190 206 0
169 195 0
162 191 0
172 197 0
173 197 0
169 195 0
37 37 0
142 85 10
24 11 0
153 152 0
30 20 1
29 32 0
172 161 0
150 150 0
6 6 0
121 78 10
44 61 0
44 18 0
50 49 16
8 9 0
12 24 0
5 0 0
175 162 0
0 0 0
139 84 10
129 108 0
46 54 0
126 106 0
157 154 0
45 66 0
198 183 114
13 23 0
178 173 114
161 155 0
0 1 0
60 80 80
121 105 0
45 44 0
158 154 0
44 61 0
55 72 0
179 174 114
79 43 0
46 67 0
13 21 0
173 171 114
48 55 0
44 61 0
42 60 0
149 150 0
129 93 0
193 180 114
107 80 0
169 159 0
162 156 0
194 181 114
144 148 0
161 155 0
158 154 0
155 153 0
50 69 0
152 151 0
147 149 0
164 157 0
154 152 0
180 174 114
35 37 0
130 108 0
196 182 114
109 70 0
151 151 0
152 151 0
153 152 0
190 178 114
119 90 0
145 148 0
158 154 0
149 150 0
188 178 114
127 107 0
188 178 114
152 151 0
188 178 114
163 156 0
168 159 0
118 84 0
200 184 114
151 151 0
150 151 0
126 92 0
195 181 114
150 150 0
162 156 0
156 153 0
190 178 114
178 173 114
165 157 0
150 123 0
168 159 0
178 173 114
154 152 0
153 152 0
150 150 0
171 160 0
105 80 0
166 158 0
195 181 114
150 150 0
170 138 51
187 177 114
192 179 114
177 173 114
144 148 0
175 172 114
152 151 0
146 121 0
149 150 0
162 156 0
174 171 114
149 150 0
171 160 0
165 157 0
186 176 114
168 168 114
118 104 0
148 150 0
7 9 0
160 155 0
156 153 0
163 157 0
151 151 0
199 183 114
185 176 114
151 151 0
187 177 114
146 149 0
159 155 0
191 179 114
139 118 0
165 157 0
192 180 114
166 158 0
131 115 0
151 151 0
183 175 114
173 171 114
192 179 114
169 138 51
145 148 0
159 155 0
180 201 0
170 195 0
188 205 0
191 207 0
165 193 0
185 203 0
193 208 0
182 202 0
176 198 0
169 195 0
191 207 0
169 195 0
188 205 0
173 197 0
167 194 0
184 203 0
161 191 0
174 198 0
164 192 0
168 195 0
161 191 0
166 193 0
187 205 0
177 199 0
171 196 0
172 196 0
176 199 0
163 192 0
162 192 0
168 194 0
168 194 0
174 197 0
163 192 0
165 193 0
192 207 0
167 194 0
190 206 0
186 204 0
171 196 0
182 202 0
193 208 0
169 195 0
166 194 0
178 200 0
185 204 0
162 191 0
171 196 0
173 197 0
191 207 0
191 207 0
177 199 0
163 192 0
180 201 0
162 191 0
191 207 0
172 196 0
173 197 0
180 201 0
163 192 0
179 201 0
161 191 0
169 195 0
175 198 0
162 192 0
162 191 0
189 218 255
188 218 255
173 197 0
177 199 0
165 193 0
187 204 0
188 205 0
174 198 0
165 193 0
172 196 0
185 204 0
73 46 0
163 192 0
165 193 0
163 192 0
165 193 0
176 198 0
166 194 0
180 201 0
172 197 0
168 194 0
194 208 0
177 199 0
180 201 0
165 193 0
189 206 0
170 195 0
186 204 0
164 192 0
186 204 0
166 194 0
189 206 0
162 192 0
166 193 0
194 208 0
161 191 0
171 196 0
171 196 0
61 93 0
185 204 0
178 200 0
184 203 0
186 204 0
173 197 0
163 192 0
181 202 0
162 191 0
52 81 0
165 193 0
162 191 0
46 77 0
163 192 0
163 192 0
162 191 0
164 192 0
181 201 0
194 209 0
196 210 0
172 197 0
48 78 0
165 193 0
165 193 0
62 93 0
183 202 0
4 14 0
54 88 0
60 92 0
14 34 0
3 12 0
178 200 0
193 208 0
167 194 0
164 193 0
175 198 0
172 197 0
179 200 0
164 192 0
161 191 0
183 203 0
175 198 0
181 201 0
181 201 0
169 195 0
186 204 0
177 199 0
170 195 0
179 200 0
179 200 0
70 105 181
70 106 181
57 90 0
60 97 181
60 92 0
54 87 0
63 100 181
70 105 181
67 103 181
68 104 181
52 86 0
52 86 0
71 106 181
55 89 0
56 89 0
38 54 0
69 105 181
51 85 0
61 93 0
62 99 181
69 105 181
53 87 0
18 41 0
55 88 0
58 91 0
61 98 181
18 40 0
70 105 181
55 88 0
57 90 0
55 89 0
61 98 181
54 88 0
65 102 181
53 87 0
64 101 181
52 86 0
54 88 0
54 88 0
61 99 181
67 103 181
53 87 0
51 86 0
65 101 181
60 98 181
69 105 181
56 89 0
63 100 181
59 91 0
51 86 0
58 90 0
51 86 0
60 92 0
52 86 0
61 99 181
53 87 0
51 86 0
54 87 0
51 86 0
54 87 0
56 89 0
56 73 0
61 99 181
17 7 0
69 104 181
44 61 0
53 87 0
65 102 181
55 88 0
67 103 181
61 93 0
46 66 0
52 86 0
51 85 0
52 86 0
59 92 0
51 85 0
52 86 0
54 87 0
59 92 0
62 99 181
55 88 0
62 99 181
59 97 181
70 106 181
16 31 0
14 27 0
52 70 0
66 102 181
33 41 0
23 13 0
61 93 0
68 104 181
3 9 0
49 79 0
174 198 0
178 200 0
187 204 0
175 198 0
180 201 0
183 203 0
165 193 0
165 193 0
87 30 0
130 115 0
36 4 0
13 20 11
18 7 0
29 23 0
126 106 0
41 48 0
15 24 0
118 77 10
26 24 0
12 15 5
145 148 0
0 2 0
44 46 16
51 69 0
9 9 0
166 158 0
46 47 16
172 139 51
157 126 0
41 51 0
140 119 0
29 32 0
62 81 80
40 47 0
54 72 0
159 154 0
154 152 0
3 10 0
14 23 0
167 158 0
196 181 114
4 11 0
43 61 0
164 157 0
54 72 0
167 158 0
189 178 114
50 10 0
170 160 0
41 59 0
161 155 0
11 23 0
180 174 114
48 68 0
156 153 0
155 152 0
178 164 0
152 151 0
191 179 114
166 158 0
155 153 0
48 10 0
152 151 0
147 149 0
136 83 10
193 180 114
165 158 0
197 182 114
50 57 0
169 159 0
201 184 114
198 182 114
195 181 114
147 149 0
158 154 0
47 63 0
199 183 114
152 151 0
189 178 114
156 153 0
155 153 0
164 157 0
48 68 0
184 176 114
36 6 0
172 160 0
191 179 114
190 178 114
128 107 0
110 58 0
167 158 0
167 158 0
161 156 0
133 116 0
150 151 0
198 183 114
166 158 0
147 149 0
144 120 0
188 177 114
176 172 114
177 172 114
172 161 0
153 152 0
170 160 0
149 150 0
168 159 0
139 118 0
199 183 114
164 157 0
189 178 114
184 176 114
194 180 114
145 148 0
121 104 0
154 152 0
187 177 114
157 154 0
181 174 114
197 182 114
147 121 0
141 119 0
193 180 114
197 182 114
178 142 51
179 173 114
162 156 0
178 173 114
148 130 51
53 12 0
148 149 0
200 183 114
178 173 114
154 152 0
151 151 0
153 152 0
190 179 114
164 157 0
191 179 114
160 155 0
174 171 114
179 174 114
168 169 114
180 174 114
149 150 0
135 101 22
153 152 0
200 183 114
152 152 0
171 170 114
162 156 0
145 148 0
175 198 0
184 203 0
179 200 0
164 192 0
164 157 0
176 199 0
167 194 0
163 192 0
167 194 0
169 195 0
162 192 0
195 209 0
190 206 0
221 235 255
181 201 0
165 193 0
168 195 0
175 198 0
177 199 0
173 197 0
162 191 0
173 197 0
191 207 0
167 194 0
168 194 0
166 193 0
168 194 0
177 199 0
166 194 0
166 194 0
186 204 0
165 193 0
167 194 0
169 195 0
183 202 0
169 195 0
166 193 0
172 196 0
163 192 0
162 192 0
165 193 0
165 193 0
183 203 0
170 195 0
163 192 0
187 204 0
179 200 0
167 194 0
163 192 0
175 198 0
173 197 0
170 196 0
178 200 0
197 210 0
167 183 0
165 193 0
189 206 0
162 192 0
170 196 0
186 204 0
184 203 0
173 197 0
168 195 0
166 193 0
165 193 0
166 193 0
171 196 0
162 191 0
162 191 0
167 194 0
188 205 0
164 193 0
174 198 0
175 198 0
176 198 0
178 200 0
164 192 0
172 196 0
181 201 0
195 209 0
163 192 0
181 201 0
173 197 0
165 193 0
62 93 0
177 199 0
166 193 0
166 193 0
170 195 0
188 205 0
191 207 0
174 198 0
183 202 0
189 206 0
167 194 0
172 196 0
164 193 0
186 204 0
172 196 0
187 204 0
193 208 0
175 198 0
185 204 0
165 193 0
183 202 0
178 200 0
62 94 0
194 208 0
181 201 0
176 199 0
165 193 0
165 193 0
167 194 0
169 195 0
190 206 0
172 197 0
162 191 0
165 193 0
176 199 0
177 199 0
173 197 0
46 76 0
48 78 0
184 203 0
162 191 0
162 191 0
53 82 0
13 31 0
1 5 0
0 0 0
47 73 0
13 31 0
0 0 0
15 32 0
47 78 0
16 36 0
45 76 0
48 78 0
165 193 0
177 199 0
62 94 0
191 207 0
48 78 0
162 191 0
165 193 0
171 196 0
168 195 0
174 197 0
166 194 0
182 202 0
166 194 0
175 198 0
164 192 0
20 42 0
4 15 0
67 103 181
54 87 0
53 87 0
56 89 0
56 89 0
56 89 0
57 90 0
51 85 0
56 89 0
53 87 0
69 104 181
62 99 181
64 100 181
66 102 181
67 103 181
52 86 0
62 99 181
69 104 181
66 102 181
57 89 0
54 87 0
4 13 0
52 86 0
69 105 181
63 100 181
52 86 0
70 105 181
52 86 0
69 105 181
69 105 181
17 39 0
54 72 0
53 87 0
52 86 0
43 60 0
53 87 0
54 87 0
61 98 181
62 99 181
67 103 181
67 103 181
62 99 181
51 85 0
52 86 0
69 105 181
56 89 0
52 86 0
54 88 0
48 78 0
51 86 0
56 89 0
62 99 181
54 88 0
53 87 0
68 104 181
9 16 0
16 35 0
59 91 0
34 36 0
44 61 0
5 16 0
66 102 181
52 86 0
15 28 0
70 105 181
9 10 0
54 88 0
59 97 181
51 85 0
52 86 0
6 5 0
54 88 0
51 86 0
52 86 0
59 91 0
69 105 181
67 103 181
64 100 181
54 88 0
70 105 181
14 34 0
63 100 181
4 13 0
4 10 0
64 101 181
69 104 181
62 99 181
13 19 0
1 4 0
68 104 181
66 103 181
183 202 0
163 192 0
170 195 0
165 193 0
173 197 0
190 206 0
167 194 0
131 133 0
164 192 0
168 194 0
175 198 0
140 84 10
40 39 0
121 64 4
15 28 0
5 0 0
155 153 0
2 5 0
24 18 0
27 20 0
106 69 0
137 102 22
116 102 0
13 25 0
48 68 0
55 62 36
84 39 0
172 161 0
56 63 36
172 161 0
13 26 0
3 7 0
46 66 0
29 32 0
68 20 0
100 52 0
146 149 0
199 183 114
164 157 0
161 155 0
159 155 0
155 153 0
32 35 0
43 42 0
2 4 0
197 182 114
188 178 114
145 148 0
188 178 114
108 57 0
35 42 0
12 21 0
190 178 114
145 148 0
178 173 114
146 149 0
149 150 0
190 179 114
187 177 114
153 152 0
157 153 0
2 2 0
178 173 114
0 3 0
188 178 114
147 149 0
196 182 114
124 106 0
62 81 80
141 119 0
158 154 0
152 151 0
171 160 0
158 154 0
156 153 0
155 153 0
161 156 0
151 151 0
53 71 0
147 149 0
154 152 0
163 135 51
198 182 114
158 154 0
179 174 114
198 183 114
182 175 114
41 59 0
148 150 0
151 151 0
145 148 0
165 158 0
200 183 114
180 174 114
164 157 0
199 183 114
175 162 0
170 160 0
155 153 0
44 61 0
200 183 114
159 154 0
179 173 114
6 6 0
157 154 0
161 156 0
153 152 0
55 73 0
169 159 0
150 150 0
146 149 0
157 126 0
147 149 0
145 148 0
154 152 0
191 179 114
160 155 0
161 156 0
118 63 4
154 152 0
149 150 0
163 156 0
200 183 114
193 180 114
158 154 0
155 125 0
164 157 0
153 152 0
145 148 0
172 161 0
43 7 0
149 150 0
191 179 114
160 155 0
155 153 0
174 171 114
145 148 0
191 179 114
49 11 0
151 151 0
198 182 114
19 1 0
157 154 0
157 133 51
152 151 0
148 149 0
147 149 0
193 180 114
160 110 22
142 119 0
176 172 114
162 156 0
149 150 0
149 150 0
172 196 0
184 203 0
188 205 0
173 197 0
173 197 0
174 198 0
176 198 0
168 194 0
161 191 0
164 192 0
164 192 0
191 207 0
185 203 0
178 200 0
220 235 255
175 198 0
167 194 0
175 198 0
17 40 0
164 192 0
169 195 0
168 194 0
148 173 0
168 194 0
172 197 0
179 200 0
176 199 0
185 204 0
187 204 0
173 197 0
165 193 0
175 198 0
163 192 0
181 201 0
177 199 0
187 204 0
170 195 0
178 200 0
167 194 0
191 207 0
188 205 0
176 199 0
183 203 0
162 191 0
177 199 0
187 205 0
190 206 0
182 202 0
169 195 0
200 224 255
165 193 0
167 194 0
165 193 0
184 203 0
167 194 0
188 205 0
166 194 0
164 192 0
190 206 0
181 201 0
176 199 0
171 196 0
170 196 0
167 194 0
178 200 0
163 192 0
184 203 0
174 198 0
163 192 0
165 193 0
170 196 0
168 194 0
164 192 0
163 192 0
191 207 0
175 198 0
167 194 0
162 191 0
180 201 0
175 198 0
178 200 0
180 201 0
180 201 0
169 195 0
175 198 0
178 200 0
173 197 0
168 194 0
179 200 0
169 195 0
180 201 0
176 199 0
183 202 0
183 202 0
168 195 0
193 208 0
184 203 0
174 197 0
50 79 0
173 197 0
164 192 0
173 197 0
175 198 0
167 194 0
173 197 0
168 194 0
180 201 0
165 193 0
168 194 0
167 194 0
48 78 0
167 194 0
176 199 0
184 203 0
186 204 0
188 205 0
179 200 0
174 198 0
163 192 0
19 41 0
53 87 0
57 89 0
189 206 0
165 193 0
175 198 0
174 198 0
169 195 0
169 195 0
51 80 0
185 203 0
179 200 0
12 27 0
170 196 0
174 197 0
50 79 0
41 69 0
49 79 0
50 80 0
183 202 0
197 210 0
166 194 0
177 199 0
168 195 0
174 198 0
172 197 0
175 198 0
170 195 0
179 200 0
193 208 0
181 202 0
175 198 0
165 193 0
163 192 0
192 208 0
53 87 0
68 103 181
0 0 0
52 86 0
54 87 0
70 106 181
51 85 0
58 91 0
60 92 0
57 90 0
65 102 181
53 87 0
69 105 181
14 34 0
4 14 0
58 96 181
64 101 181
68 104 181
63 100 181
53 87 0
61 99 181
54 88 0
57 90 0
68 104 181
70 105 181
61 98 181
62 99 181
59 92 0
15 35 0
67 103 181
66 102 181
68 104 181
59 92 0
53 87 0
66 102 181
55 88 0
15 35 0
59 92 0
51 85 0
14 34 0
54 88 0
56 89 0
54 87 0
52 86 0
66 102 181
55 89 0
15 35 0
4 14 0
58 90 0
69 104 181
14 34 0
60 92 0
56 89 0
64 101 181
51 85 0
58 90 0
51 86 0
56 89 0
62 99 181
69 104 181
17 36 0
60 97 181
65 102 181
68 104 181
64 100 181
64 101 181
60 98 181
68 103 181
18 14 0
67 103 181
68 104 181
54 88 0
55 88 0
68 104 181
60 92 0
56 89 0
63 100 181
61 80 80
54 87 0
53 87 0
42 45 16
59 91 0
49 68 0
69 105 181
56 73 0
14 34 0
59 91 0
55 89 0
64 100 181
63 100 181
56 89 0
4 0 0
12 24 0
195 209 0
177 199 0
179 200 0
172 197 0
174 198 0
139 119 0
171 196 0
189 206 0
191 207 0
185 204 0
171 139 51
112 71 0
193 180 114
21 1 0
4 8 0
149 150 0
0 0 0
129 108 0
79 32 0
6 4 0
37 46 0
57 78 80
148 149 0
170 160 0
106 69 0
167 158 0
148 150 0
15 3 0
196 182 114
45 62 0
40 47 0
146 149 0
150 151 0
96 47 2
11 24 0
147 149 0
157 154 0
49 68 0
130 133 0
47 63 0
34 29 0
49 56 0
145 148 0
40 48 0
11 19 0
35 30 0
169 159 0
148 149 0
160 155 0
196 181 114
54 72 0
178 173 114
61 15 0
158 154 0
146 149 0
195 181 114
196 182 114
164 157 0
196 182 114
160 155 0
162 156 0
153 152 0
158 154 0
200 183 114
119 90 0
200 183 114
173 161 0
10 18 0
153 143 0
146 148 0
150 150 0
152 151 0
190 179 114
159 126 0
161 155 0
186 177 114
167 158 0
146 149 0
170 160 0
198 182 114
184 176 114
41 59 0
152 151 0
151 151 0
192 179 114
200 183 114
153 152 0
151 151 0
165 157 0
183 175 114
150 151 0
159 154 0
147 149 0
163 156 0
194 180 114
166 158 0
172 161 0
11 15 0
148 149 0
201 184 114
192 180 114
197 182 114
150 150 0
161 155 0
144 148 0
158 154 0
119 104 0
167 158 0
181 174 114
35 32 0
118 90 0
131 115 0
165 157 0
156 153 0
143 120 0
159 154 0
150 151 0
190 178 114
187 177 114
192 179 114
194 181 114
45 62 0
160 155 0
120 104 0
105 75 0
153 124 0
111 61 4
95 72 0
198 182 114
168 168 114
175 171 114
156 153 0
188 177 114
161 156 0
167 158 0
123 105 0
149 150 0
7 0 0
133 82 10
156 153 0
172 170 114
180 174 114
41 59 0
164 157 0
156 125 0
152 151 0
20 1 0
80 33 0
148 149 0
159 154 0
200 184 114
159 154 0
152 152 0
163 192 0
182 202 0
170 196 0
164 192 0
163 192 0
195 209 0
178 200 0
174 198 0
171 196 0
173 197 0
163 192 0
166 193 0
181 202 0
188 205 0
180 201 0
213 231 255
187 205 0
166 193 0
164 192 0
167 194 0
175 198 0
171 196 0
166 193 0
195 209 0
184 203 0
185 204 0
178 199 0
175 198 0
179 200 0
219 234 255
174 198 0
185 203 0
180 201 0
162 192 0
188 205 0
165 193 0
164 192 0
198 211 0
181 201 0
209 229 255
186 204 0
167 194 0
181 202 0
188 205 0
167 194 0
188 205 0
179 200 0
172 197 0
168 195 0
165 193 0
179 200 0
171 196 0
199 223 255
164 193 0
163 192 0
163 192 0
171 196 0
164 192 0
170 195 0
172 196 0
166 193 0
187 205 0
185 204 0
166 194 0
178 199 0
60 92 0
164 192 0
181 202 0
174 198 0
170 195 0
183 202 0
169 195 0
199 211 0
165 193 0
168 195 0
170 196 0
164 192 0
166 194 0
57 90 0
167 194 0
193 208 0
176 199 0
177 199 0
191 207 0
164 192 0
166 193 0
164 192 0
181 201 0
177 199 0
181 214 255
174 198 0
176 199 0
182 202 0
165 193 0
173 197 0
164 193 0
185 203 0
175 198 0
174 198 0
177 199 0
170 195 0
176 199 0
18 41 0
184 203 0
179 200 0
186 204 0
193 208 0
3 11 0
182 202 0
166 194 0
180 201 0
174 198 0
199 211 0
167 183 0
167 194 0
184 203 0
189 206 0
174 197 0
173 197 0
176 198 0
184 203 0
51 80 0
51 80 0
192 207 0
51 81 0
174 198 0
184 203 0
13 31 0
44 71 0
46 77 0
47 77 0
14 31 0
181 201 0
192 207 0
15 33 0
190 206 0
190 206 0
61 93 0
179 200 0
172 197 0
162 191 0
166 194 0
174 198 0
185 203 0
164 192 0
169 195 0
166 194 0
171 196 0
163 192 0
184 203 0
175 198 0
173 197 0
184 203 0
187 205 0
179 200 0
55 88 0
55 88 0
17 37 0
57 90 0
68 104 181
66 102 181
70 105 181
49 79 0
14 34 0
67 103 181
57 90 0
46 66 0
68 103 181
67 103 181
54 87 0
52 86 0
51 85 0
60 92 0
16 36 0
18 41 0
61 93 0
51 86 0
68 104 181
62 99 181
52 86 0
19 41 0
61 98 181
66 102 181
55 88 0
53 87 0
60 98 181
19 42 0
2 6 0
15 35 0
51 85 0
53 87 0
68 104 181
52 86 0
52 86 0
54 88 0
55 88 0
58 97 181
55 72 0
55 88 0
70 106 181
58 91 0
57 90 0
62 99 181
70 106 181
51 86 0
41 59 0
53 86 0
63 100 181
65 101 181
67 103 181
67 103 181
70 105 181
55 88 0
62 81 80
68 104 181
55 88 0
63 100 181
60 92 0
52 86 0
51 86 0
55 88 0
51 86 0
64 101 181
53 87 0
18 40 0
66 102 181
53 87 0
17 32 0
56 89 0
54 88 0
40 36 7
3 9 0
56 89 0
69 104 181
55 89 0
40 48 0
51 85 0
57 90 0
59 79 80
58 79 80
70 105 181
59 91 0
53 87 0
55 72 0
46 66 0
170 196 0
177 199 0
163 192 0
163 192 0
178 199 0
184 203 0
195 209 0
183 203 0
171 196 0
186 204 0
172 197 0
187 204 0
181 201 0
35 3 0
42 52 0
46 57 36
39 29 3
43 60 0
160 155 0
44 53 0
13 21 0
80 41 0
15 4 0
46 66 0
31 28 0
46 62 0
12 24 0
50 69 0
151 151 0
193 180 114
46 54 0
142 119 0
17 32 0
145 148 0
49 68 0
83 35 0
131 94 0
146 149 0
13 23 0
157 154 0
33 36 0
44 61 0
9 13 0
52 61 36
197 182 114
39 47 0
49 68 0
191 179 114
29 19 0
121 85 0
161 155 0
47 54 0
159 154 0
164 157 0
52 70 0
190 178 114
157 154 0
56 73 0
200 183 114
149 150 0
170 160 0
145 148 0
157 154 0
42 60 0
178 173 114
46 63 0
185 176 114
163 156 0
163 156 0
153 152 0
56 73 0
131 108 0
155 125 0
156 153 0
191 179 114
188 178 114
35 36 0
157 154 0
175 162 0
3 8 0
159 155 0
14 6 0
152 151 0
164 157 0
111 82 0
146 148 0
198 182 114
199 183 114
133 94 0
156 153 0
154 152 0
141 119 0
187 177 114
41 51 0
157 153 0
195 181 114
166 158 0
180 174 114
145 148 0
160 155 0
154 152 0
47 63 0
154 152 0
197 182 114
194 180 114
192 179 114
153 152 0
200 183 114
180 174 114
197 182 114
140 119 0
164 157 0
159 155 0
145 148 0
150 150 0
105 80 0
116 63 4
142 120 0
172 161 0
163 156 0
159 155 0
199 183 114
187 177 114
186 177 114
155 153 0
141 119 0
165 157 0
166 158 0
172 161 0
187 177 114
146 149 0
190 179 114
137 118 0
162 156 0
188 178 114
179 142 51
146 149 0
167 158 0
197 182 114
15 25 0
53 71 0
160 155 0
154 152 0
199 183 114
148 149 0
133 100 22
124 65 4
146 149 0
148 150 0
189 178 114
143 120 0
181 174 114
153 152 0
176 172 114
144 148 0
190 206 0
164 193 0
181 201 0
195 209 0
168 194 0
162 192 0
167 194 0
166 193 0
172 186 0
167 194 0
187 205 0
168 194 0
167 194 0
167 194 0
171 196 0
171 196 0
182 202 0
180 201 0
183 202 0
162 191 0
163 192 0
190 206 0
180 201 0
179 200 0
190 207 0
169 195 0
193 208 0
167 194 0
164 192 0
168 194 0
164 192 0
169 195 0
187 204 0
168 194 0
182 202 0
185 204 0
165 193 0
145 171 0
166 194 0
163 192 0
164 193 0
165 193 0
171 196 0
172 197 0
177 199 0
177 199 0
177 199 0
182 202 0
164 192 0
186 204 0
170 196 0
185 203 0
162 191 0
180 201 0
183 203 0
183 202 0
172 197 0
171 196 0
177 199 0
171 196 0
177 199 0
185 203 0
179 200 0
189 206 0
174 197 0
191 207 0
190 206 0
163 192 0
192 207 0
181 201 0
184 203 0
179 200 0
175 198 0
174 198 0
165 193 0
175 198 0
162 191 0
200 212 0
172 196 0
174 198 0
182 214 255
167 194 0
183 202 0
189 206 0
184 203 0
175 198 0
197 210 0
173 197 0
187 205 0
188 205 0
168 194 0
172 196 0
168 194 0
175 198 0
174 198 0
166 182 0
180 201 0
162 191 0
172 196 0
167 194 0
134 156 0
168 195 0
178 199 0
183 202 0
154 166 0
180 201 0
46 72 0
183 202 0
145 171 0
54 87 0
199 211 0
166 193 0
58 91 0
187 204 0
167 194 0
169 195 0
188 205 0
171 196 0
176 198 0
168 194 0
170 196 0
186 204 0
171 196 0
47 77 0
56 84 0
49 79 0
5 15 0
4 13 0
52 81 0
0 2 0
53 82 0
186 204 0
183 203 0
60 92 0
50 80 0
61 93 0
198 211 0
165 193 0
163 192 0
46 76 0
185 203 0
162 191 0
57 90 0
165 193 0
177 199 0
181 202 0
176 199 0
195 209 0
167 194 0
193 208 0
187 204 0
164 193 0
61 93 0
58 91 0
170 196 0
62 99 181
69 104 181
68 104 181
53 87 0
60 98 181
67 103 181
18 40 0
70 105 181
58 91 0
16 36 0
65 101 181
67 103 181
56 89 0
19 42 0
51 85 0
29 27 0
51 85 0
52 86 0
15 35 0
16 36 0
70 105 181
53 87 0
65 101 181
69 104 181
62 99 181
59 91 0
17 39 0
70 105 181
53 87 0
59 97 181
65 102 181
69 105 181
54 88 0
51 86 0
5 17 0
70 106 181
69 104 181
70 105 181
71 106 181
65 102 181
65 101 181
59 97 181
55 88 0
53 87 0
68 104 181
67 103 181
68 104 181
56 89 0
64 101 181
55 88 0
16 31 0
46 66 0
59 97 181
66 102 181
56 89 0
53 87 0
22 9 0
70 105 181
54 88 0
50 69 0
47 67 0
57 90 0
52 86 0
51 85 0
54 88 0
55 88 0
51 85 0
58 90 0
53 87 0
52 86 0
52 86 0
68 104 181
54 88 0
51 86 0
64 101 181
54 88 0
47 67 0
50 69 0
57 90 0
55 88 0
34 34 0
57 90 0
55 88 0
44 61 0
61 81 80
53 71 0
65 101 181
59 92 0
48 67 0
3 10 0
172 197 0
162 191 0
170 196 0
192 208 0
180 201 0
172 197 0
162 191 0
165 193 0
173 161 0
188 205 0
168 194 0
48 78 0
178 199 0
148 150 0
1 1 0
44 53 0
15 28 0
123 64 4
54 16 0
171 139 51
3 10 0
149 122 0
50 69 0
87 46 0
37 40 0
162 156 0
120 85 0
73 40 0
4 0 0
170 160 0
146 149 0
51 70 0
47 67 0
138 97 0
109 66 0
152 151 0
149 150 0
33 33 0
38 44 0
145 148 0
41 59 0
43 52 0
190 178 114
53 71 0
159 154 0
45 54 0
147 149 0
10 13 0
50 69 0
162 156 0
145 148 0
164 157 0
149 150 0
45 62 0
171 160 0
160 155 0
166 158 0
20 14 0
199 183 114
154 152 0
48 68 0
55 72 0
0 2 0
144 148 0
157 153 0
155 153 0
155 153 0
159 154 0
161 155 0
168 159 0
49 65 0
194 181 114
161 155 0
193 180 114
151 151 0
50 69 0
181 174 114
153 124 0
170 160 0
54 72 0
156 125 0
163 156 0
153 152 0
146 149 0
151 151 0
85 45 0
153 152 0
62 28 0
146 149 0
190 179 114
197 182 114
193 180 114
188 178 114
145 148 0
144 148 0
193 180 114
196 182 114
196 181 114
75 26 0
169 159 0
193 180 114
154 152 0
164 157 0
163 156 0
169 159 0
163 156 0
155 153 0
191 179 114
186 177 114
159 155 0
191 179 114
154 152 0
147 149 0
147 149 0
188 177 114
145 121 0
198 182 114
173 161 0
158 126 0
165 157 0
156 125 0
163 156 0
201 184 114
193 180 114
146 149 0
166 158 0
160 155 0
173 171 114
84 41 0
132 116 0
129 99 22
158 154 0
149 150 0
143 120 0
155 153 0
161 155 0
193 180 114
1 0 0
143 120 0
163 157 0
146 121 0
146 148 0
91 37 0
149 150 0
99 47 2
151 151 0
151 151 0
185 176 114
18 7 0
199 183 114
193 180 114
157 154 0
148 149 0
147 122 0
153 152 0
172 197 0
171 196 0
164 192 0
179 200 0
147 149 0
191 207 0
177 199 0
162 191 0
163 192 0
173 197 0
165 193 0
184 203 0
192 208 0
183 202 0
173 197 0
222 236 255
168 194 0
188 205 0
194 208 0
163 192 0
179 200 0
167 194 0
167 194 0
162 192 0
168 194 0
172 197 0
170 195 0
166 194 0
222 236 255
170 195 0
177 199 0
166 194 0
168 195 0
163 192 0
192 207 0
183 202 0
191 207 0
177 199 0
161 191 0
166 193 0
163 192 0
167 194 0
171 196 0
165 193 0
147 172 0
163 192 0
183 203 0
174 198 0
182 202 0
164 192 0
169 195 0
170 196 0
176 199 0
166 194 0
162 191 0
169 195 0
174 198 0
182 202 0
187 204 0
164 192 0
182 202 0
63 95 0
164 192 0
171 196 0
181 202 0
182 202 0
165 193 0
178 200 0
164 193 0
187 205 0
173 197 0
177 199 0
173 197 0
163 192 0
180 201 0
165 193 0
169 195 0
180 201 0
160 179 0
172 196 0
182 202 0
180 201 0
172 197 0
165 193 0
175 198 0
166 194 0
171 196 0
172 196 0
170 195 0
146 172 0
59 91 0
184 203 0
180 201 0
178 200 0
172 197 0
187 205 0
187 205 0
164 192 0
166 194 0
176 199 0
166 194 0
184 203 0
177 199 0
194 209 0
174 198 0
179 200 0
165 193 0
186 204 0
195 209 0
151 174 0
141 159 0
164 181 0
172 196 0
177 199 0
185 204 0
62 93 0
54 87 0
188 205 0
191 207 0
61 93 0
148 173 0
192 207 0
13 31 0
62 94 0
0 1 0
168 194 0
15 33 0
176 199 0
46 76 0
0 0 0
176 199 0
52 81 0
14 32 0
179 200 0
182 202 0
169 195 0
179 200 0
61 93 0
195 209 0
168 195 0
179 200 0
164 192 0
164 193 0
168 195 0
171 196 0
170 196 0
179 200 0
171 196 0
164 192 0
182 202 0
165 193 0
192 207 0
167 194 0
179 200 0
171 196 0
53 87 0
51 85 0
52 86 0
52 86 0
56 89 0
70 105 181
51 85 0
67 103 181
60 92 0
55 89 0
52 86 0
61 99 181
60 98 181
53 87 0
56 89 0
68 104 181
56 89 0
51 85 0
57 90 0
4 14 0
66 102 181
68 103 181
15 35 0
59 91 0
51 86 0
70 106 181
69 105 181
54 87 0
52 86 0
65 101 181
68 104 181
52 86 0
70 105 181
69 104 181
59 92 0
66 102 181
56 89 0
51 85 0
66 102 181
55 89 0
56 89 0
62 99 181
59 92 0
60 92 0
53 87 0
54 88 0
62 93 0
51 85 0
14 34 0
58 91 0
70 105 181
55 88 0
69 105 181
56 89 0
0 0 0
53 87 0
54 88 0
62 99 181
54 87 0
69 105 181
14 34 0
13 27 0
64 101 181
66 102 181
53 87 0
53 87 0
18 41 0
52 74 80
53 87 0
51 86 0
67 103 181
57 90 0
54 88 0
66 102 181
54 87 0
15 35 0
52 86 0
7 1 0
68 104 181
65 101 181
15 35 0
61 93 0
14 34 0
14 34 0
54 88 0
3 7 0
63 100 181
50 69 0
70 106 181
181 202 0
179 200 0
172 196 0
173 197 0
63 95 0
170 195 0
162 191 0
178 200 0
179 200 0
184 203 0
187 204 0
178 200 0
165 193 0
162 192 0
150 151 0
80 28 0
42 52 0
3 9 0
6 4 0
15 28 0
10 16 0
39 47 0
107 80 0
119 90 0
3 9 0
62 81 80
105 56 0
156 153 0
145 148 0
157 154 0
107 69 0
42 49 0
154 152 0
196 182 114
62 81 80
37 37 0
43 61 0
32 28 0
152 151 0
39 41 0
50 69 0
62 81 80
92 50 0
44 53 0
159 154 0
104 79 0
154 152 0
152 151 0
146 149 0
193 180 114
142 138 0
146 149 0
48 68 0
59 79 80
173 161 0
155 153 0
184 176 114
158 126 0
149 150 0
150 150 0
146 149 0
191 179 114
122 78 10
155 153 0
172 161 0
44 61 0
152 151 0
161 156 0
167 158 0
41 59 0
157 154 0
148 150 0
154 152 0
200 183 114
11 23 0
146 149 0
173 161 0
38 38 0
147 149 0
11 22 0
151 151 0
126 107 0
150 151 0
153 152 0
182 175 114
145 148 0
41 59 0
93 71 0
181 175 114
151 151 0
193 180 114
147 149 0
148 149 0
167 158 0
148 150 0
152 151 0
136 111 0
137 96 0
147 149 0
147 149 0
176 172 114
156 125 0
178 173 114
153 152 0
156 153 0
123 86 0
116 103 0
197 182 114
116 103 0
151 151 0
169 159 0
140 119 0
162 156 0
191 179 114
170 160 0
30 21 1
189 178 114
160 155 0
163 157 0
195 181 114
187 177 114
145 148 0
168 159 0
150 150 0
132 109 0
147 149 0
154 152 0
163 156 0
200 183 114
10 0 0
137 111 0
164 157 0
201 184 114
160 155 0
156 153 0
159 154 0
199 183 114
149 106 22
155 153 0
201 184 114
149 150 0
154 152 0
151 151 0
136 101 22
150 150 0
151 151 0
148 150 0
166 158 0
166 158 0
153 152 0
157 153 0
113 51 2
153 131 51
147 149 0
155 153 0
151 131 51
189 206 0
170 195 0
181 201 0
164 192 0
165 193 0
167 194 0
172 197 0
175 198 0
165 193 0
180 201 0
162 192 0
190 206 0
169 195 0
171 196 0
175 198 0
181 201 0
171 196 0
177 199 0
184 203 0
194 208 0
179 200 0
185 203 0
165 193 0
168 194 0
178 200 0
185 203 0
171 196 0
166 193 0
175 198 0
186 204 0
164 192 0
168 194 0
181 201 0
178 200 0
168 194 0
164 192 0
175 198 0
182 202 0
182 202 0
166 193 0
189 205 0
178 200 0
184 203 0
165 193 0
165 193 0
163 192 0
169 195 0
155 177 0
184 203 0
183 203 0
167 194 0
180 201 0
180 201 0
174 198 0
186 204 0
171 196 0
169 184 0
179 200 0
178 200 0
178 200 0
164 192 0
173 197 0
169 195 0
190 206 0
166 193 0
195 209 0
184 203 0
168 194 0
166 194 0
194 209 0
195 209 0
171 196 0
173 197 0
167 194 0
169 195 0
181 201 0
174 198 0
53 82 0
188 205 0
167 194 0
185 204 0
186 204 0
178 200 0
183 215 255
183 202 0
169 195 0
170 195 0
153 175 0
174 198 0
198 210 0
164 192 0
169 195 0
174 198 0
167 194 0
182 202 0
177 199 0
166 193 0
174 187 0
42 65 0
169 195 0
157 177 0
160 179 0
166 194 0
187 205 0
179 200 0
163 192 0
189 206 0
198 211 0
164 192 0
181 202 0
190 206 0
177 199 0
182 202 0
162 191 0
57 90 0
48 78 0
173 197 0
191 207 0
54 82 0
46 72 0
179 200 0
39 63 0
176 199 0
48 78 0
169 195 0
185 204 0
50 80 0
46 77 0
180 201 0
45 71 0
184 203 0
147 172 0
180 201 0
1 5 0
167 194 0
164 193 0
58 90 0
166 194 0
169 195 0
168 195 0
184 203 0
185 203 0
180 201 0
180 201 0
169 195 0
187 205 0
162 191 0
184 203 0
164 192 0
178 200 0
168 195 0
182 202 0
162 191 0
193 208 0
189 206 0
162 192 0
56 89 0
52 86 0
56 89 0
52 86 0
60 92 0
69 105 181
54 88 0
51 85 0
54 87 0
70 105 181
54 87 0
58 90 0
53 87 0
57 90 0
64 101 181
52 86 0
52 86 0
70 106 181
67 103 181
70 105 181
68 104 181
67 103 181
68 104 181
51 85 0
52 86 0
53 87 0
64 101 181
56 89 0
59 91 0
54 88 0
55 89 0
64 100 181
62 99 181
68 104 181
56 89 0
55 89 0
57 90 0
51 85 0
18 40 0
70 105 181
52 86 0
53 87 0
61 99 181
52 86 0
19 41 0
52 86 0
61 99 181
59 91 0
70 106 181
59 91 0
53 87 0
58 90 0
51 86 0
56 89 0
66 102 181
54 88 0
54 88 0
51 86 0
54 87 0
61 93 0
8 7 0
68 103 181
19 41 0
46 66 0
53 87 0
68 104 181
67 103 181
65 101 181
59 97 181
49 68 0
67 103 181
43 42 0
56 89 0
30 26 0
67 103 181
46 66 0
68 104 181
56 89 0
57 90 0
51 60 36
52 86 0
65 101 181
52 86 0
55 88 0
66 102 181
67 103 181
52 86 0
13 26 0
171 196 0
166 193 0
165 157 0
165 193 0
163 192 0
173 197 0
169 195 0
171 196 0
162 192 0
162 191 0
179 200 0
170 195 0
171 196 0
175 198 0
172 197 0
14 17 5
44 43 0
164 136 51
157 154 0
2 5 0
156 153 0
161 134 51
5 0 0
129 108 0
43 7 0
41 42 0
1 1 0
7 8 0
91 43 0
29 19 0
6 1 0
148 149 0
39 38 0
155 153 0
164 157 0
125 106 0
166 158 0
42 52 0
12 19 0
76 28 0
33 41 0
36 46 0
164 157 0
129 108 0
103 68 0
54 72 0
146 121 0
49 68 0
34 36 0
0 2 0
12 24 0
186 177 114
151 123 0
3 10 0
199 183 114
38 46 0
42 60 0
190 179 114
162 156 0
155 153 0
161 155 0
152 151 0
163 156 0
145 148 0
129 108 0
28 20 0
146 148 0
162 156 0
158 154 0
150 150 0
45 62 0
150 150 0
155 153 0
148 149 0
186 177 114
189 178 114
194 181 114
160 155 0
150 150 0
157 154 0
50 56 0
183 175 114
154 152 0
160 155 0
146 149 0
36 46 0
149 150 0
185 176 114
198 182 114
183 175 114
154 152 0
146 149 0
149 150 0
168 159 0
154 152 0
169 159 0
165 157 0
146 149 0
51 69 0
158 154 0
200 183 114
195 181 114
200 183 114
147 149 0
50 69 0
157 153 0
161 156 0
146 149 0
150 150 0
195 181 114
195 181 114
184 176 114
152 151 0
161 155 0
150 151 0
148 150 0
146 149 0
149 150 0
161 155 0
201 184 114
149 150 0
84 36 0
174 162 0
150 150 0
187 177 114
142 138 0
147 149 0
53 10 0
155 152 0
181 174 114
171 160 0
95 44 0
150 123 0
175 172 114
108 57 0
200 183 114
163 156 0
137 118 0
158 154 0
172 161 0
149 122 0
155 152 0
145 148 0
175 162 0
155 153 0
127 107 0
133 116 0
133 116 0
125 106 0
164 136 51
153 152 0
153 108 22
157 154 0
197 182 114
161 155 0
151 151 0
170 196 0
178 200 0
191 207 0
183 202 0
168 195 0
158 178 0
180 201 0
169 195 0
175 198 0
197 210 0
164 193 0
175 198 0
163 192 0
172 197 0
191 207 0
169 195 0
169 195 0
164 192 0
169 195 0
168 195 0
191 207 0
168 194 0
172 197 0
187 205 0
165 193 0
161 191 0
164 193 0
165 193 0
166 193 0
171 196 0
144 171 0
173 197 0
187 205 0
185 204 0
171 196 0
166 193 0
186 204 0
191 207 0
171 196 0
172 197 0
167 194 0
177 199 0
167 194 0
164 193 0
184 203 0
163 192 0
179 200 0
163 192 0
181 201 0
176 199 0
168 195 0
164 192 0
171 196 0
174 198 0
169 195 0
163 192 0
177 189 0
168 194 0
173 197 0
163 192 0
182 202 0
174 197 0
174 198 0
174 198 0
174 198 0
173 197 0
183 203 0
156 177 0
181 202 0
175 198 0
166 193 0
180 201 0
196 210 0
177 189 0
179 200 0
189 206 0
191 207 0
169 195 0
172 197 0
185 216 255
166 193 0
181 201 0
171 196 0
196 209 0
180 201 0
186 204 0
198 211 0
145 171 0
192 207 0
176 199 0
167 194 0
178 200 0
196 210 0
197 210 0
167 194 0
49 79 0
151 174 0
177 199 0
191 219 255
187 205 0
194 209 0
62 94 0
179 200 0
195 209 0
166 193 0
165 193 0
170 195 0
172 196 0
169 195 0
175 198 0
146 172 0
212 230 255
173 197 0
50 80 0
179 200 0
224 237 255
185 203 0
50 80 0
177 199 0
181 201 0
166 193 0
58 90 0
172 197 0
185 203 0
49 79 0
187 205 0
61 93 0
189 206 0
172 197 0
183 202 0
169 195 0
185 203 0
164 192 0
192 207 0
0 0 0
165 193 0
190 206 0
174 198 0
163 192 0
162 191 0
167 194 0
181 201 0
167 194 0
191 207 0
161 191 0
168 194 0
164 192 0
182 202 0
165 193 0
166 193 0
173 197 0
182 202 0
176 199 0
179 200 0
170 196 0
191 207 0
52 86 0
18 41 0
19 41 0
54 87 0
52 86 0
60 92 0
66 102 181
69 104 181
66 102 181
61 98 181
15 35 0
68 104 181
62 93 0
3 9 0
56 89 0
58 91 0
53 87 0
67 103 181
69 105 181
49 79 0
68 104 181
69 104 181
61 99 181
70 105 181
53 87 0
52 86 0
53 87 0
52 86 0
68 104 181
19 42 0
60 98 181
66 102 181
54 87 0
60 92 0
69 105 181
69 104 181
57 90 0
55 88 0
58 90 0
52 86 0
52 86 0
13 25 0
4 12 0
0 2 0
70 106 181
18 40 0
51 86 0
51 85 0
52 86 0
59 91 0
68 104 181
51 85 0
60 92 0
17 40 0
53 87 0
52 86 0
63 100 181
44 61 0
69 104 181
68 104 181
57 90 0
52 86 0
45 62 0
55 88 0
68 104 181
68 104 181
68 103 181
54 87 0
15 35 0
60 92 0
59 92 0
52 86 0
4 12 0
40 59 0
61 93 0
68 104 181
15 35 0
52 86 0
16 36 0
49 68 0
59 91 0
56 89 0
51 86 0
54 88 0
60 97 181
56 77 80
58 91 0
166 194 0
190 207 0
177 199 0
170 195 0
174 198 0
55 72 0
158 154 0
166 193 0
170 196 0
127 92 0
170 195 0
195 209 0
3 5 0
186 204 0
185 203 0
181 202 0
174 198 0
192 207 0
154 152 0
1 3 0
38 35 7
34 36 0
129 93 0
154 124 0
164 157 0
115 83 0
15 24 0
47 67 0
40 48 0
152 151 0
12 24 0
11 15 0
15 28 0
45 44 0
165 157 0
13 5 0
152 151 0
49 68 0
123 64 4
192 180 114
43 60 0
3 9 0
0 0 0
0 0 0
55 72 0
181 174 114
148 149 0
60 80 80
187 177 114
192 180 114
148 149 0
145 148 0
126 75 0
148 149 0
116 102 0
41 42 0
161 155 0
187 177 114
184 176 114
49 59 36
146 148 0
160 155 0
46 62 0
159 155 0
157 154 0
132 116 0
121 104 0
165 157 0
154 152 0
30 26 0
152 151 0
145 148 0
151 151 0
93 71 0
163 156 0
159 155 0
159 155 0
161 156 0
153 152 0
194 180 114
148 149 0
145 148 0
120 90 0
154 152 0
166 158 0
152 151 0
195 181 114
165 157 0
10 18 0
161 155 0
173 161 0
106 49 2
197 182 114
201 184 114
42 8 0
166 158 0
172 160 0
187 177 114
192 179 114
156 153 0
163 156 0
13 25 0
151 151 0
176 162 0
166 158 0
142 120 0
199 183 114
31 3 0
197 182 114
125 106 0
100 55 0
183 175 114
183 175 114
163 156 0
191 179 114
147 149 0
162 156 0
195 181 114
163 156 0
53 71 0
33 41 0
136 117 0
173 161 0
193 180 114
138 111 0
196 182 114
198 183 114
92 61 0
193 180 114
188 177 114
106 49 2
194 180 114
157 154 0
36 46 0
155 153 0
174 140 51
195 181 114
139 97 0
200 183 114
145 148 0
116 103 0
196 181 114
186 177 114
200 183 114
157 154 0
47 15 0
148 149 0
168 159 0
152 107 22
147 149 0
175 140 51
156 153 0
118 73 0
186 177 114
151 151 0
155 152 0
147 149 0
172 196 0
180 201 0
169 195 0
175 198 0
172 197 0
167 194 0
166 193 0
171 196 0
186 204 0
173 197 0
167 194 0
49 79 0
168 194 0
183 203 0
168 195 0
180 201 0
0 0 0
184 203 0
181 201 0
171 196 0
168 195 0
173 197 0
166 193 0
162 191 0
185 204 0
163 192 0
180 201 0
169 195 0
164 192 0
167 194 0
167 194 0
176 199 0
182 202 0
174 198 0
174 198 0
166 193 0
167 194 0
178 200 0
182 202 0
170 195 0
145 171 0
187 204 0
164 193 0
177 199 0
167 194 0
170 196 0
184 203 0
151 174 0
187 205 0
179 200 0
171 196 0
169 195 0
173 197 0
186 204 0
202 225 255
166 194 0
179 200 0
168 194 0
186 204 0
164 192 0
62 94 0
190 206 0
191 207 0
172 197 0
186 204 0
186 204 0
171 196 0
172 186 0
174 197 0
176 199 0
196 209 0
174 198 0
185 204 0
52 81 0
173 197 0
187 217 255
196 209 0
188 205 0
172 197 0
181 201 0
179 200 0
170 195 0
186 217 255
55 84 0
169 195 0
173 197 0
146 171 0
191 207 0
171 196 0
182 202 0
163 192 0
196 209 0
179 200 0
178 200 0
143 160 0
182 202 0
0 0 0
189 206 0
165 193 0
3 11 0
167 194 0
56 89 0
174 198 0
177 199 0
180 201 0
173 197 0
45 76 0
194 208 0
172 196 0
162 192 0
50 80 0
169 195 0
192 207 0
180 201 0
191 207 0
171 196 0
62 93 0
3 12 0
184 203 0
170 195 0
175 198 0
14 31 0
49 79 0
51 81 0
180 201 0
188 205 0
4 13 0
15 35 0
190 206 0
192 207 0
176 199 0
172 197 0
189 206 0
46 77 0
189 206 0
192 207 0
162 191 0
57 89 0
164 193 0
172 197 0
49 79 0
165 193 0
196 210 0
173 197 0
170 195 0
171 196 0
176 199 0
167 194 0
186 204 0
168 194 0
184 203 0
165 193 0
167 194 0
169 195 0
168 194 0
46 77 0
176 199 0
67 103 181
56 89 0
65 102 181
55 88 0
63 100 181
66 102 181
51 86 0
16 36 0
61 93 0
58 90 0
53 87 0
51 86 0
49 74 0
53 87 0
53 87 0
68 103 181
51 80 0
53 87 0
18 40 0
66 102 181
15 34 0
55 89 0
51 85 0
62 99 181
70 106 181
58 90 0
51 86 0
53 87 0
66 102 181
52 86 0
58 91 0
57 90 0
68 104 181
54 87 0
51 85 0
52 86 0
70 105 181
51 86 0
60 98 181
45 66 0
64 101 181
19 42 0
57 90 0
52 86 0
0 2 0
32 28 0
69 104 181
18 40 0
67 103 181
52 86 0
51 85 0
64 101 181
59 91 0
56 89 0
52 86 0
4 14 0
52 86 0
51 85 0
63 100 181
64 101 181
51 85 0
52 81 0
62 99 181
40 41 0
56 89 0
57 90 0
57 90 0
53 87 0
46 62 0
67 103 181
33 31 0
64 101 181
61 93 0
55 72 0
57 90 0
55 63 36
53 87 0
5 16 0
53 71 0
69 105 181
62 81 80
17 39 0
68 104 181
53 87 0
54 88 0
188 205 0
170 195 0
175 198 0
167 194 0
166 194 0
173 197 0
165 193 0
167 194 0
167 194 0
174 197 0
60 92 0
183 203 0
188 205 0
179 200 0
163 192 0
186 204 0
167 194 0
174 198 0
140 137 0
167 194 0
169 159 0
136 117 0
116 103 0
71 22 0
42 60 0
0 0 0
174 162 0
108 60 4
57 78 80
24 15 0
45 50 0
174 140 51
168 159 0
57 13 0
108 49 2
124 75 0
151 151 0
103 56 0
0 1 0
153 124 0
46 57 36
47 63 0
4 11 0
152 151 0
158 154 0
157 154 0
49 68 0
159 154 0
7 1 0
156 153 0
151 151 0
48 64 0
159 126 0
157 154 0
1 0 0
151 151 0
196 182 114
31 33 0
166 158 0
128 107 0
153 152 0
165 157 0
160 155 0
49 68 0
149 150 0
151 151 0
165 157 0
144 148 0
146 149 0
134 95 0
159 127 0
132 109 0
45 62 0
123 91 0
198 183 114
148 150 0
102 60 0
157 126 0
93 71 0
199 183 114
145 148 0
172 161 0
43 52 0
184 175 114
168 159 0
152 151 0
150 150 0
198 183 114
44 61 0
144 148 0
187 177 114
151 151 0
150 150 0
190 179 114
152 151 0
174 162 0
154 152 0
151 151 0
112 82 0
167 158 0
184 176 114
151 123 0
165 157 0
171 160 0
194 181 114
114 72 0
164 157 0
193 180 114
156 153 0
194 181 114
160 155 0
193 180 114
165 157 0
158 154 0
161 155 0
188 177 114
150 150 0
193 180 114
193 180 114
152 151 0
165 157 0
148 149 0
145 148 0
161 155 0
45 53 0
150 150 0
154 152 0
149 150 0
160 155 0
150 151 0
147 149 0
162 156 0
104 65 0
1 0 0
177 141 51
164 157 0
153 124 0
161 155 0
126 65 4
162 156 0
143 120 0
195 181 114
167 158 0
117 103 0
169 159 0
166 158 0
89 37 0
163 157 0
9 16 0
157 154 0
162 156 0
145 148 0
187 177 114
145 148 0
168 159 0
162 156 0
199 183 114
33 22 1
190 206 0
175 162 0
181 201 0
187 204 0
172 197 0
169 195 0
186 204 0
192 207 0
173 197 0
179 200 0
165 193 0
175 198 0
172 197 0
175 198 0
169 195 0
168 194 0
189 205 0
155 176 0
164 192 0
177 199 0
182 202 0
163 192 0
185 203 0
177 199 0
166 193 0
179 200 0
166 194 0
181 201 0
184 203 0
181 201 0
193 208 0
186 204 0
224 237 255
171 196 0
176 199 0
174 197 0
163 192 0
198 223 255
146 172 0
172 197 0
182 202 0
175 198 0
214 231 255
165 193 0
174 198 0
180 201 0
178 200 0
164 192 0
170 196 0
178 200 0
167 194 0
141 159 0
165 193 0
167 194 0
173 197 0
182 202 0
162 191 0
182 202 0
163 192 0
170 195 0
183 203 0
189 206 0
195 221 255
180 201 0
191 207 0
192 208 0
192 207 0
166 193 0
187 205 0
169 195 0
177 199 0
170 196 0
165 193 0
178 200 0
196 209 0
174 198 0
186 204 0
178 199 0
177 199 0
173 197 0
177 199 0
199 211 0
167 194 0
170 195 0
178 200 0
189 206 0
175 198 0
181 201 0
181 201 0
180 201 0
163 181 0
52 86 0
180 201 0
196 209 0
167 183 0
150 174 0
193 208 0
147 172 0
168 184 0
156 177 0
191 207 0
197 210 0
177 199 0
145 171 0
196 210 0
208 228 255
176 199 0
46 77 0
189 205 0
131 154 0
193 208 0
222 236 255
57 90 0
62 94 0
61 93 0
176 188 0
163 192 0
150 174 0
178 200 0
171 196 0
162 191 0
48 78 0
61 93 0
50 80 0
164 192 0
46 72 0
182 202 0
53 82 0
42 69 0
182 202 0
45 76 0
192 207 0
3 12 0
47 77 0
173 197 0
187 205 0
196 210 0
181 201 0
174 198 0
175 198 0
179 200 0
162 192 0
165 193 0
192 207 0
175 198 0
183 203 0
185 204 0
187 205 0
162 191 0
59 91 0
177 199 0
170 196 0
184 203 0
176 199 0
60 92 0
168 194 0
59 92 0
181 201 0
54 88 0
56 89 0
54 88 0
55 88 0
65 101 181
53 87 0
56 89 0
52 86 0
18 41 0
54 88 0
70 105 181
62 99 181
23 11 0
53 87 0
70 106 181
69 104 181
19 41 0
19 42 0
55 89 0
65 101 181
66 102 181
53 87 0
66 102 181
10 16 0
51 85 0
19 41 0
63 100 181
62 99 181
53 87 0
60 92 0
15 35 0
54 87 0
58 91 0
54 88 0
54 88 0
65 101 181
67 103 181
65 101 181
51 86 0
64 101 181
14 34 0
61 93 0
52 86 0
59 91 0
50 69 0
70 105 181
17 37 0
65 101 181
51 86 0
52 86 0
67 103 181
64 100 181
53 87 0
65 101 181
66 102 181
55 88 0
67 103 181
65 101 181
56 89 0
15 35 0
52 86 0
64 101 181
57 90 0
52 86 0
54 88 0
18 40 0
54 88 0
53 87 0
15 35 0
69 105 181
51 86 0
46 67 0
52 86 0
58 90 0
68 104 181
53 87 0
55 88 0
57 90 0
49 68 0
41 59 0
15 35 0
55 72 0
54 72 0
13 26 0
190 206 0
178 200 0
170 196 0
163 192 0
176 199 0
162 191 0
191 207 0
159 154 0
191 207 0
171 196 0
162 192 0
167 194 0
162 191 0
185 203 0
164 193 0
171 196 0
63 94 0
169 195 0
162 191 0
166 194 0
48 11 0
51 70 0
66 21 0
50 10 0
11 23 0
11 15 0
198 183 114
14 27 0
135 110 0
9 16 0
40 48 0
163 157 0
113 67 0
154 152 0
9 2 0
42 52 0
36 4 0
49 68 0
43 60 0
10 17 0
149 150 0
153 152 0
76 28 0
15 29 0
0 1 0
10 17 0
49 68 0
148 149 0
103 69 0
120 78 10
146 149 0
196 181 114
157 153 0
169 159 0
196 181 114
146 148 0
78 32 0
164 157 0
150 150 0
1 3 0
136 117 0
17 13 0
198 182 114
45 62 0
146 148 0
152 151 0
12 24 0
116 89 0
41 59 0
105 65 0
165 158 0
195 181 114
162 156 0
146 149 0
193 180 114
150 150 0
165 157 0
155 153 0
131 109 0
172 161 0
52 74 80
196 182 114
191 179 114
85 55 0
50 57 0
149 122 0
184 176 114
145 148 0
142 119 0
159 154 0
189 178 114
154 152 0
149 150 0
45 62 0
43 60 0
153 152 0
161 135 51
199 183 114
63 16 0
175 171 114
146 149 0
130 94 0
149 150 0
144 148 0
155 153 0
160 155 0
188 178 114
151 151 0
155 125 0
193 180 114
184 176 114
181 174 114
121 105 0
122 91 0
130 81 10
161 155 0
180 174 114
158 154 0
66 24 0
145 148 0
145 148 0
150 151 0
167 158 0
156 153 0
167 158 0
157 154 0
162 156 0
162 156 0
160 155 0
201 184 114
158 154 0
196 181 114
148 149 0
87 48 0
157 154 0
140 119 0
100 60 0
12 24 0
160 155 0
166 158 0
152 151 0
149 150 0
168 159 0
187 177 114
151 151 0
99 52 0
153 107 22
188 177 114
176 172 114
152 151 0
49 68 0
146 149 0
136 117 0
201 184 114
150 151 0
151 151 0
152 152 0
156 153 0
164 192 0
169 195 0
170 195 0
196 210 0
0 0 0
177 199 0
163 192 0
179 200 0
164 192 0
174 197 0
167 194 0
162 191 0
163 192 0
168 194 0
164 192 0
183 202 0
165 193 0
177 199 0
192 207 0
162 191 0
166 193 0
169 195 0
178 200 0
170 196 0
172 197 0
182 202 0
46 77 0
191 207 0
164 192 0
163 192 0
165 193 0
196 209 0
165 193 0
178 200 0
171 196 0
165 193 0
186 204 0
169 195 0
177 199 0
183 202 0
185 203 0
189 206 0
173 197 0
195 209 0
180 201 0
175 198 0
165 193 0
164 192 0
177 199 0
168 194 0
184 203 0
181 201 0
186 204 0
172 197 0
188 205 0
181 201 0
175 198 0
169 195 0
180 201 0
166 193 0
170 196 0
175 198 0
173 197 0
178 200 0
170 196 0
146 172 0
167 194 0
172 197 0
164 181 0
168 194 0
188 205 0
168 195 0
62 94 0
178 200 0
165 193 0
152 175 0
172 196 0
185 204 0
160 179 0
172 196 0
164 192 0
198 211 0
53 87 0
193 208 0
166 182 0
172 197 0
146 172 0
163 192 0
166 182 0
197 210 0
194 209 0
179 200 0
187 205 0
195 209 0
175 198 0
179 200 0
164 192 0
38 62 0
165 181 0
178 200 0
196 210 0
202 225 255
11 27 0
183 203 0
53 87 0
49 79 0
180 201 0
40 64 0
192 208 0
150 164 0
223 237 255
161 180 0
162 180 0
52 81 0
189 206 0
176 199 0
193 208 0
198 211 0
190 206 0
47 77 0
172 197 0
173 197 0
195 209 0
47 77 0
56 84 0
173 197 0
181 201 0
167 194 0
47 77 0
180 201 0
15 33 0
52 81 0
185 203 0
169 195 0
55 83 0
162 191 0
162 192 0
46 77 0
182 202 0
183 202 0
165 193 0
178 200 0
173 197 0
165 193 0
165 193 0
178 200 0
170 196 0
163 192 0
171 196 0
168 194 0
175 198 0
51 80 0
189 206 0
168 194 0
167 194 0
163 192 0
178 200 0
165 193 0
162 191 0
48 78 0
58 91 0
56 89 0
51 86 0
64 101 181
53 87 0
17 37 0
61 98 181
55 88 0
14 34 0
56 89 0
67 103 181
0 2 0
61 93 0
63 100 181
14 34 0
47 78 0
17 36 0
65 101 181
55 88 0
51 86 0
57 90 0
54 87 0
4 13 0
61 98 181
69 105 181
65 101 181
70 105 181
70 105 181
68 104 181
61 98 181
70 106 181
56 89 0
62 99 181
67 103 181
14 34 0
52 70 0
53 87 0
51 85 0
54 88 0
62 99 181
53 87 0
68 103 181
68 104 181
58 91 0
14 34 0
53 87 0
53 82 0
16 31 0
54 87 0
54 88 0
70 106 181
56 89 0
69 105 181
51 85 0
65 101 181
59 91 0
68 103 181
68 104 181
15 35 0
51 86 0
54 87 0
63 100 181
42 49 0
59 91 0
64 101 181
52 86 0
31 32 0
57 90 0
70 105 181
56 89 0
51 70 0
51 85 0
51 69 0
51 85 0
67 103 181
51 70 0
11 19 0
65 102 181
67 103 181
56 89 0
0 1 0
164 192 0
172 196 0
168 194 0
186 204 0
168 194 0
162 156 0
171 196 0
128 93 0
165 193 0
167 194 0
168 194 0
169 195 0
186 204 0
137 136 0
180 201 0
165 193 0
170 195 0
169 195 0
180 201 0
177 199 0
168 194 0
167 194 0
0 0 0
41 51 0
122 64 4
56 73 0
7 8 0
106 80 0
0 1 0
45 62 0
90 37 0
113 62 4
38 38 0
72 25 0
46 67 0
150 151 0
164 157 0
159 126 0
55 76 80
49 68 0
11 16 0
201 184 114
140 97 0
41 59 0
56 77 80
125 106 0
151 151 0
200 183 114
13 21 0
48 59 36
30 23 0
134 116 0
161 155 0
0 1 0
37 43 0
125 106 0
44 50 0
154 152 0
161 155 0
153 152 0
157 154 0
172 161 0
159 155 0
187 177 114
101 64 0
54 71 0
153 152 0
184 176 114
164 157 0
146 148 0
187 177 114
191 179 114
148 150 0
150 150 0
150 150 0
154 152 0
173 161 0
157 153 0
0 2 0
195 181 114
186 177 114
194 180 114
146 149 0
179 164 0
150 151 0
55 72 0
154 124 0
154 152 0
154 152 0
193 180 114
136 117 0
157 154 0
191 179 114
55 72 0
201 184 114
146 149 0
145 148 0
158 154 0
25 13 0
106 60 4
147 149 0
193 180 114
156 153 0
149 150 0
152 151 0
193 180 114
167 158 0
172 161 0
196 181 114
165 157 0
146 149 0
168 159 0
155 125 0
145 148 0
150 151 0
121 90 0
163 156 0
161 155 0
192 180 114
146 149 0
197 182 114
144 148 0
151 151 0
162 156 0
131 115 0
40 48 0
159 155 0
201 184 114
178 173 114
187 177 114
162 156 0
127 107 0
192 180 114
153 152 0
129 115 0
152 152 0
149 150 0
146 105 22
149 150 0
169 159 0
130 115 0
164 157 0
197 182 114
0 0 0
158 154 0
130 115 0
48 9 0
185 176 114
188 178 114
148 150 0
134 116 0
192 180 114
148 150 0
68 25 0
145 148 0
143 120 0
183 175 114
148 150 0
193 180 114
198 211 0
163 192 0
188 205 0
164 193 0
173 197 0
181 201 0
163 192 0
184 203 0
170 196 0
169 195 0
164 192 0
165 193 0
178 200 0
174 198 0
178 200 0
191 207 0
177 199 0
182 202 0
181 202 0
175 198 0
167 194 0
171 196 0
172 196 0
167 194 0
185 204 0
170 195 0
176 199 0
167 194 0
175 198 0
191 207 0
168 194 0
186 204 0
176 199 0
165 193 0
163 192 0
164 192 0
223 236 255
176 199 0
162 191 0
183 202 0
184 203 0
167 194 0
195 209 0
162 191 0
173 186 0
215 232 255
166 193 0
173 197 0
176 198 0
170 196 0
59 91 0
165 193 0
188 205 0
177 199 0
164 193 0
169 195 0
174 198 0
189 206 0
150 174 0
154 176 0
197 210 0
172 186 0
184 203 0
174 198 0
182 202 0
175 198 0
193 208 0
187 205 0
177 199 0
187 204 0
183 203 0
170 196 0
173 197 0
191 207 0
173 197 0
175 198 0
171 196 0
178 200 0
171 196 0
164 192 0
162 191 0
172 197 0
47 77 0
190 206 0
169 195 0
179 200 0
187 205 0
183 203 0
173 186 0
148 173 0
147 172 0
188 205 0
199 211 0
163 192 0
164 181 0
162 180 0
4 14 0
170 196 0
0 0 0
182 202 0
13 30 0
185 203 0
191 207 0
169 195 0
151 174 0
156 177 0
188 205 0
118 112 0
173 197 0
177 199 0
145 171 0
177 199 0
49 79 0
189 206 0
191 207 0
119 139 0
0 0 0
46 76 0
162 192 0
54 83 0
197 210 0
181 202 0
174 198 0
190 206 0
172 197 0
49 79 0
46 77 0
14 31 0
177 199 0
145 171 0
192 207 0
181 202 0
183 202 0
184 203 0
168 194 0
55 83 0
13 31 0
163 192 0
179 200 0
166 194 0
176 199 0
56 89 0
163 192 0
186 204 0
168 194 0
176 199 0
50 80 0
168 194 0
194 209 0
168 194 0
168 195 0
171 196 0
51 81 0
53 82 0
168 195 0
169 195 0
56 89 0
57 90 0
165 193 0
55 89 0
51 85 0
51 85 0
57 90 0
67 103 181
54 88 0
52 86 0
60 92 0
67 103 181
55 88 0
68 104 181
14 34 0
16 36 0
17 39 0
61 98 181
58 91 0
59 91 0
64 101 181
57 90 0
51 85 0
65 101 181
56 89 0
62 99 181
66 102 181
52 86 0
14 34 0
53 86 0
63 100 181
61 93 0
19 42 0
60 97 181
51 85 0
68 104 181
58 91 0
52 70 0
57 90 0
66 102 181
58 91 0
47 67 0
59 91 0
64 100 181
68 104 181
65 102 181
65 102 181
61 98 181
52 86 0
56 89 0
69 105 181
67 103 181
19 41 0
19 42 0
52 86 0
69 105 181
15 35 0
64 101 181
53 87 0
5 16 0
70 106 181
55 88 0
68 103 181
57 90 0
52 86 0
56 89 0
56 89 0
61 98 181
58 91 0
65 101 181
56 89 0
70 105 181
70 106 181
59 91 0
69 104 181
19 42 0
55 89 0
69 105 181
16 36 0
0 0 0
49 68 0
41 59 0
4 10 0
34 34 0
69 105 181
58 90 0
189 206 0
168 194 0
129 132 0
179 200 0
179 200 0
172 196 0
185 204 0
188 205 0
167 194 0
170 195 0
168 195 0
60 93 0
177 199 0
181 201 0
181 202 0
170 196 0
164 192 0
182 202 0
165 193 0
163 192 0
175 198 0
4 2 0
160 155 0
161 134 51
158 154 0
127 107 0
31 28 0
0 0 0
11 16 0
39 47 0
53 71 0
136 101 22
103 56 0
88 34 0
48 67 0
128 66 4
41 59 0
162 156 0
42 60 0
24 15 0
2 5 0
163 156 0
193 180 114
130 108 0
60 80 80
164 157 0
152 124 0
164 157 0
11 22 0
2 5 0
110 67 0
193 180 114
159 154 0
153 152 0
150 150 0
195 181 114
55 72 0
52 70 0
51 69 0
192 180 114
171 160 0
162 156 0
161 155 0
32 28 0
89 53 0
145 148 0
171 160 0
42 42 0
47 67 0
195 181 114
162 156 0
151 151 0
146 149 0
188 178 114
156 153 0
159 127 0
147 149 0
160 155 0
156 153 0
160 155 0
161 155 0
147 149 0
159 154 0
157 154 0
146 148 0
157 153 0
117 63 4
197 182 114
168 159 0
188 178 114
162 156 0
139 118 0
147 149 0
150 150 0
4 11 0
150 150 0
148 150 0
159 155 0
35 7 0
196 181 114
145 148 0
191 179 114
149 150 0
164 157 0
134 135 0
172 161 0
53 71 0
46 62 0
155 153 0
154 108 22
145 148 0
196 182 114
148 122 0
186 177 114
174 171 114
114 83 0
188 177 114
125 106 0
194 181 114
187 177 114
162 156 0
133 116 0
148 149 0
163 135 51
165 157 0
152 151 0
158 154 0
191 179 114
129 115 0
147 149 0
162 156 0
193 180 114
155 153 0
24 10 0
131 94 0
150 151 0
168 159 0
138 102 22
74 26 0
110 81 0
198 182 114
154 152 0
156 153 0
47 9 0
71 29 0
123 75 0
190 179 114
154 152 0
160 155 0
146 129 51
172 160 0
177 163 0
176 172 114
169 159 0
169 169 114
193 180 114
153 152 0
147 122 0
163 192 0
168 194 0
186 204 0
175 198 0
183 202 0
170 196 0
171 196 0
165 193 0
168 195 0
52 81 0
190 206 0
163 192 0
171 196 0
167 194 0
175 198 0
171 196 0
192 207 0
184 203 0
173 197 0
182 202 0
169 195 0
164 192 0
178 200 0
145 139 0
178 200 0
171 196 0
184 203 0
196 210 0
174 198 0
212 230 255
186 204 0
164 193 0
167 194 0
181 202 0
162 191 0
163 192 0
175 198 0
196 210 0
156 177 0
168 195 0
162 191 0
188 205 0
192 207 0
164 193 0
63 94 0
169 195 0
187 204 0
185 204 0
172 196 0
171 196 0
179 200 0
181 201 0
210 229 255
163 192 0
191 207 0
164 193 0
147 172 0
175 198 0
189 206 0
194 209 0
188 205 0
183 202 0
167 194 0
183 202 0
194 209 0
188 205 0
171 196 0
178 200 0
180 201 0
181 201 0
187 205 0
190 206 0
179 200 0
186 204 0
180 201 0
180 201 0
163 192 0
174 198 0
169 195 0
184 203 0
177 199 0
169 184 0
194 209 0
178 200 0
184 203 0
198 210 0
147 172 0
172 197 0
152 143 0
199 224 255
187 205 0
133 155 0
183 203 0
190 206 0
177 199 0
177 199 0
192 207 0
169 195 0
147 172 0
185 204 0
210 229 255
51 80 0
167 183 0
50 79 0
184 203 0
194 208 0
47 77 0
164 192 0
190 206 0
54 82 0
13 31 0
194 208 0
183 202 0
163 192 0
173 197 0
173 197 0
162 191 0
193 208 0
173 197 0
61 93 0
13 31 0
199 211 0
169 195 0
183 203 0
183 203 0
179 200 0
163 192 0
50 79 0
180 201 0
0 1 0
184 203 0
185 203 0
196 210 0
178 200 0
192 207 0
190 206 0
172 197 0
58 91 0
166 182 0
167 194 0
175 198 0
184 203 0
179 200 0
166 194 0
185 204 0
188 205 0
177 199 0
195 209 0
191 207 0
162 191 0
164 193 0
167 194 0
179 200 0
171 196 0
173 197 0
1 6 0
163 192 0
163 192 0
184 203 0
162 192 0
190 206 0
51 85 0
54 88 0
51 85 0
61 98 181
51 85 0
58 91 0
58 90 0
56 89 0
51 85 0
70 105 181
57 90 0
53 87 0
51 85 0
66 102 181
67 103 181
52 86 0
59 91 0
59 91 0
52 86 0
14 34 0
57 90 0
67 103 181
67 103 181
66 102 181
53 87 0
70 106 181
66 102 181
52 86 0
70 105 181
58 90 0
57 90 0
59 92 0
52 86 0
53 87 0
54 72 0
58 91 0
51 85 0
70 106 181
56 89 0
42 49 0
31 32 0
63 100 181
53 87 0
70 106 181
58 91 0
53 87 0
54 88 0
53 87 0
55 89 0
52 86 0
70 105 181
57 90 0
10 18 0
67 103 181
14 34 0
51 85 0
52 86 0
51 85 0
70 106 181
67 103 181
52 86 0
63 100 181
3 7 0
53 71 0
66 102 181
27 17 0
6 8 0
52 86 0
59 91 0
58 90 0
58 90 0
12 24 0
66 102 181
4 13 0
43 61 0
67 103 181
52 86 0
60 92 0
162 192 0
185 204 0
169 159 0
31 30 0
47 55 0
56 73 0
170 196 0
164 193 0
181 201 0
182 202 0
165 193 0
155 153 0
179 200 0
15 28 0
62 19 0
176 198 0
187 205 0
41 51 0
181 201 0
162 192 0
162 191 0
177 163 0
164 192 0
123 74 0
193 208 0
188 205 0
47 63 0
43 60 0
69 25 0
86 42 0
163 156 0
49 56 0
41 59 0
123 105 0
147 149 0
91 37 0
130 99 22
144 148 0
9 14 0
3 0 0
134 95 0
122 105 0
45 62 0
70 25 0
128 107 0
130 93 0
153 152 0
15 28 0
172 161 0
39 47 0
46 66 0
199 183 114
80 23 0
172 161 0
146 149 0
166 158 0
161 155 0
147 149 0
189 178 114
200 183 114
145 148 0
159 155 0
46 63 0
142 85 10
146 149 0
161 156 0
1 4 0
192 180 114
146 149 0
151 151 0
2 4 0
150 151 0
152 151 0
46 63 0
162 156 0
134 110 0
156 153 0
159 155 0
200 183 114
155 125 0
148 149 0
146 149 0
109 66 0
161 155 0
153 152 0
170 159 0
164 157 0
144 120 0
162 156 0
156 153 0
158 126 0
152 151 0
116 83 0
200 183 114
145 148 0
198 183 114
164 157 0
136 117 0
200 184 114
39 47 0
149 150 0
99 73 0
84 45 0
127 76 0
184 176 114
123 79 10
155 153 0
175 162 0
165 158 0
161 155 0
27 8 0
155 153 0
159 154 0
114 51 2
149 150 0
196 181 114
129 108 0
152 124 0
189 178 114
169 159 0
193 180 114
160 155 0
143 85 10
198 182 114
197 182 114
198 183 114
181 174 114
46 66 0
162 156 0
143 120 0
169 159 0
155 108 22
199 183 114
147 149 0
123 105 0
183 175 114
185 176 114
150 150 0
158 154 0
192 180 114
161 155 0
193 180 114
192 180 114
148 150 0
154 152 0
149 150 0
185 176 114
148 149 0
200 184 114
165 157 0
173 161 0
200 183 114
182 175 114
56 73 0
100 48 2
157 153 0
147 149 0
22 1 0
151 151 0
150 150 0
152 151 0
172 196 0
162 192 0
177 199 0
168 195 0
162 191 0
177 199 0
169 195 0
174 198 0
169 195 0
62 93 0
173 197 0
188 205 0
172 196 0
165 193 0
167 194 0
169 195 0
197 210 0
177 199 0
167 194 0
165 193 0
178 200 0
167 194 0
172 197 0
177 199 0
170 196 0
173 197 0
166 193 0
194 209 0
176 198 0
174 198 0
181 201 0
163 192 0
162 192 0
164 192 0
167 194 0
171 196 0
177 199 0
167 194 0
165 193 0
179 200 0
185 203 0
164 192 0
164 192 0
169 195 0
164 192 0
220 235 255
172 197 0
175 198 0
181 201 0
187 205 0
185 204 0
176 199 0
162 191 0
183 202 0
153 175 0
169 184 0
191 207 0
172 197 0
179 200 0
164 192 0
174 197 0
191 207 0
177 199 0
187 205 0
180 201 0
172 186 0
179 200 0
164 192 0
171 185 0
159 179 0
182 202 0
154 176 0
157 178 0
179 200 0
185 204 0
186 204 0
168 184 0
172 197 0
117 137 0
163 181 0
183 203 0
168 184 0
163 181 0
198 210 0
198 223 255
155 176 0
162 180 0
113 127 0
168 195 0
190 206 0
171 185 0
156 177 0
191 207 0
163 192 0
171 196 0
196 209 0
157 168 0
187 205 0
186 204 0
52 86 0
140 159 0
185 204 0
174 198 0
197 210 0
166 194 0
196 210 0
185 203 0
182 202 0
179 200 0
184 203 0
63 94 0
190 206 0
0 2 0
55 83 0
49 74 0
162 191 0
57 90 0
193 208 0
167 194 0
177 199 0
181 202 0
62 93 0
175 198 0
174 197 0
187 205 0
173 197 0
52 81 0
165 193 0
51 80 0
47 78 0
163 192 0
54 83 0
163 192 0
50 80 0
163 192 0
166 193 0
166 193 0
175 198 0
180 201 0
198 211 0
164 192 0
183 203 0
168 195 0
181 201 0
171 196 0
166 193 0
167 194 0
165 193 0
164 192 0
60 92 0
185 204 0
47 77 0
59 91 0
166 193 0
172 197 0
165 193 0
174 198 0
47 77 0
174 198 0
165 193 0
168 195 0
178 200 0
52 86 0
53 87 0
18 40 0
52 86 0
58 90 0
52 86 0
60 98 181
55 88 0
68 104 181
60 92 0
67 103 181
4 15 0
62 99 181
14 34 0
51 85 0
61 93 0
66 102 181
54 88 0
66 102 181
67 103 181
69 105 181
16 36 0
52 86 0
53 87 0
51 85 0
56 89 0
15 35 0
69 105 181
55 89 0
58 91 0
52 86 0
57 90 0
68 104 181
55 88 0
16 36 0
63 100 181
56 89 0
70 105 181
53 87 0
59 91 0
66 103 181
17 37 0
16 36 0
53 86 0
59 91 0
69 104 181
67 103 181
54 88 0
14 34 0
57 90 0
52 86 0
67 103 181
52 86 0
53 87 0
42 60 0
52 86 0
52 86 0
55 88 0
69 105 181
26 23 0
66 102 181
67 103 181
62 99 181
64 101 181
0 0 0
14 34 0
51 86 0
52 86 0
56 89 0
8 12 0
43 49 0
11 23 0
56 89 0
59 91 0
15 29 0
53 71 0
166 193 0
163 192 0
188 205 0
162 191 0
190 206 0
185 204 0
60 93 0
166 193 0
186 204 0
173 197 0
113 82 0
163 192 0
161 155 0
51 85 0
163 192 0
0 0 0
162 156 0
164 192 0
164 192 0
166 194 0
159 155 0
165 193 0
165 193 0
163 192 0
179 164 0
145 140 0
177 199 0
45 62 0
155 153 0
123 64 4
135 83 10
89 37 0
11 19 0
2 5 0
130 108 0
14 27 0
137 117 0
14 27 0
151 151 0
101 74 0
17 6 0
12 24 0
44 61 0
41 59 0
155 125 0
157 154 0
42 60 0
151 151 0
146 149 0
118 63 4
194 181 114
96 47 2
150 151 0
47 63 0
158 126 0
146 149 0
155 153 0
11 19 0
55 72 0
14 27 0
153 152 0
24 4 0
162 156 0
150 123 0
20 1 0
146 149 0
148 149 0
49 64 0
158 154 0
158 154 0
142 98 0
198 182 114
157 154 0
147 149 0
164 157 0
161 155 0
146 149 0
54 72 0
125 106 0
151 151 0
162 156 0
151 151 0
154 152 0
41 48 0
190 178 114
122 91 0
151 151 0
155 125 0
154 152 0
165 157 0
121 78 10
46 63 0
54 72 0
155 153 0
158 154 0
98 73 0
71 25 0
145 148 0
149 150 0
55 72 0
162 156 0
35 36 0
147 149 0
161 156 0
115 72 0
162 156 0
146 149 0
150 150 0
133 116 0
151 151 0
47 9 0
153 152 0
157 154 0
158 154 0
161 156 0
151 123 0
190 178 114
154 152 0
146 149 0
115 72 0
88 36 0
154 152 0
148 150 0
157 154 0
165 157 0
167 158 0
148 150 0
149 150 0
154 132 51
147 149 0
97 54 0
200 183 114
157 153 0
151 151 0
93 58 0
120 104 0
150 130 51
147 149 0
154 152 0
88 36 0
146 149 0
122 105 0
158 154 0
147 149 0
190 178 114
155 108 22
165 136 51
147 149 0
147 149 0
164 157 0
43 61 0
196 181 114
44 61 0
150 123 0
58 11 0
200 183 114
160 155 0
190 178 114
151 151 0
146 148 0
147 149 0
158 126 0
172 196 0
183 202 0
174 198 0
165 193 0
190 206 0
165 193 0
182 202 0
185 203 0
170 196 0
168 195 0
168 195 0
165 193 0
190 206 0
52 81 0
195 209 0
167 194 0
171 196 0
167 194 0
175 198 0
165 193 0
167 194 0
188 205 0
162 191 0
195 209 0
188 205 0
170 196 0
167 194 0
197 210 0
175 198 0
170 195 0
177 199 0
51 80 0
163 192 0
169 195 0
167 194 0
184 203 0
166 193 0
212 230 255
170 195 0
173 197 0
166 194 0
148 173 0
176 198 0
170 196 0
178 200 0
189 206 0
177 199 0
186 204 0
176 199 0
187 205 0
170 196 0
188 205 0
46 77 0
166 193 0
197 210 0
138 157 0
186 204 0
140 159 0
191 207 0
178 200 0
176 199 0
172 197 0
174 198 0
169 195 0
187 205 0
158 178 0
186 204 0
175 198 0
151 174 0
197 210 0
53 87 0
195 209 0
188 205 0
177 188 0
168 183 0
185 204 0
168 195 0
160 179 0
158 178 0
130 153 0
163 181 0
153 175 0
168 183 0
148 173 0
178 200 0
54 87 0
164 193 0
148 173 0
119 138 0
132 154 0
170 195 0
191 207 0
171 196 0
151 164 0
167 194 0
147 172 0
53 87 0
197 210 0
167 194 0
37 62 0
145 171 0
196 210 0
223 236 255
161 180 0
183 202 0
51 80 0
153 176 0
169 184 0
174 198 0
191 207 0
183 202 0
153 175 0
184 203 0
165 193 0
178 200 0
162 191 0
171 196 0
1 4 0
170 195 0
197 210 0
47 77 0
46 77 0
161 180 0
47 78 0
55 88 0
177 199 0
192 208 0
168 194 0
60 92 0
51 80 0
170 195 0
168 194 0
184 203 0
190 206 0
174 198 0
163 192 0
182 202 0
191 207 0
162 191 0
177 199 0
175 198 0
163 192 0
168 194 0
179 200 0
192 207 0
47 78 0
178 200 0
173 197 0
163 192 0
166 193 0
181 201 0
187 205 0
179 200 0
174 198 0
169 195 0
47 77 0
168 195 0
166 193 0
180 201 0
171 196 0
196 209 0
51 86 0
51 86 0
68 104 181
4 13 0
59 92 0
68 104 181
15 35 0
19 42 0
51 85 0
70 106 181
61 93 0
65 101 181
51 85 0
66 102 181
52 86 0
61 93 0
63 100 181
64 101 181
54 88 0
65 102 181
57 90 0
67 103 181
56 89 0
52 86 0
58 91 0
56 89 0
70 105 181
51 86 0
51 85 0
59 91 0
66 103 181
61 93 0
37 40 0
70 105 181
59 97 181
4 14 0
60 92 0
65 102 181
58 90 0
52 86 0
69 104 181
61 93 0
15 35 0
60 92 0
54 88 0
64 101 181
67 103 181
53 87 0
51 85 0
51 70 0
57 90 0
61 93 0
53 87 0
53 87 0
16 36 0
3 4 0
58 91 0
21 10 0
59 91 0
52 86 0
9 14 0
55 88 0
19 41 0
53 87 0
37 46 0
69 105 181
54 88 0
66 102 181
62 81 80
56 89 0
60 92 0
52 86 0
53 87 0
51 85 0
57 90 0
19 42 0
56 89 0
51 85 0
179 200 0
58 91 0
172 197 0
48 78 0
168 194 0
168 195 0
62 94 0
164 192 0
164 192 0
193 208 0
161 191 0
130 133 0
163 192 0
164 193 0
171 196 0
178 199 0
178 200 0
43 61 0
162 191 0
186 204 0
56 73 0
3 7 0
171 196 0
167 194 0
168 194 0
162 192 0
162 192 0
134 110 0
157 133 51
127 66 4
162 156 0
98 44 0
62 13 0
36 43 0
28 29 0
47 54 0
157 153 0
157 153 0
102 39 0
87 34 0
38 38 0
174 162 0
154 152 0
120 104 0
42 60 0
0 0 0
3 6 0
23 22 0
158 154 0
176 162 0
152 151 0
163 156 0
135 110 0
150 151 0
125 106 0
149 150 0
130 115 0
120 104 0
154 152 0
159 126 0
9 16 0
150 150 0
152 151 0
148 149 0
147 149 0
133 109 0
170 160 0
146 149 0
149 150 0
138 96 0
47 63 0
171 160 0
120 104 0
150 151 0
144 120 0
121 104 0
44 43 0
28 29 0
164 157 0
152 151 0
170 160 0
150 150 0
154 152 0
113 71 0
44 61 0
121 85 0
161 156 0
191 179 114
152 152 0
151 151 0
48 55 0
136 117 0
156 153 0
145 148 0
130 115 0
187 177 114
154 152 0
144 148 0
189 178 114
171 160 0
91 30 0
184 176 114
121 105 0
117 103 0
47 63 0
116 103 0
145 148 0
182 175 114
150 150 0
162 156 0
123 91 0
158 154 0
146 149 0
149 150 0
148 122 0
197 182 114
129 108 0
161 155 0
155 153 0
155 153 0
145 121 0
147 149 0
152 151 0
141 119 0
151 151 0
159 154 0
162 156 0
166 158 0
166 158 0
175 140 51
163 157 0
200 183 114
62 19 0
150 150 0
149 150 0
154 152 0
137 117 0
146 121 0
161 155 0
150 123 0
146 149 0
172 170 114
171 160 0
146 105 22
90 57 0
147 149 0
147 122 0
146 149 0
195 181 114
138 118 0
117 103 0
154 152 0
189 178 114
56 15 0
157 154 0
125 92 0
152 151 0
181 174 114
157 153 0
147 149 0
183 175 114
174 198 0
166 193 0
164 192 0
177 199 0
173 197 0
181 202 0
190 206 0
170 195 0
193 208 0
194 208 0
162 191 0
171 196 0
162 191 0
168 194 0
164 192 0
185 203 0
176 198 0
164 192 0
179 200 0
166 193 0
162 191 0
169 195 0
177 199 0
163 192 0
181 201 0
182 202 0
184 203 0
193 208 0
196 210 0
168 195 0
38 54 0
164 192 0
194 209 0
167 194 0
57 90 0
17 37 0
177 199 0
169 195 0
173 197 0
193 208 0
173 197 0
172 186 0
189 206 0
169 195 0
195 209 0
185 204 0
181 202 0
182 202 0
171 196 0
175 198 0
219 234 255
182 202 0
192 207 0
183 202 0
167 194 0
180 201 0
182 202 0
181 201 0
173 197 0
181 201 0
182 202 0
182 202 0
182 202 0
194 209 0
188 205 0
155 176 0
190 206 0
176 199 0
184 203 0
196 209 0
188 205 0
147 162 0
193 208 0
189 206 0
168 194 0
122 140 0
179 200 0
162 191 0
162 191 0
188 205 0
121 139 0
176 199 0
138 157 0
183 202 0
153 175 0
165 182 0
193 208 0
133 155 0
164 193 0
131 154 0
188 205 0
120 139 0
137 157 0
161 191 0
217 233 255
164 193 0
170 185 0
48 73 0
166 194 0
178 189 0
177 199 0
156 177 0
162 191 0
196 209 0
43 70 0
194 209 0
45 76 0
171 196 0
47 77 0
170 195 0
171 196 0
171 196 0
182 202 0
16 36 0
162 191 0
182 202 0
165 193 0
51 81 0
185 204 0
199 211 0
153 175 0
177 199 0
183 202 0
187 205 0
168 194 0
3 12 0
47 77 0
55 88 0
184 203 0
16 38 0
165 193 0
51 80 0
181 202 0
166 193 0
187 205 0
165 193 0
172 196 0
191 207 0
187 205 0
184 203 0
183 202 0
166 193 0
191 207 0
163 192 0
190 206 0
176 198 0
163 192 0
180 201 0
175 198 0
162 191 0
52 81 0
167 194 0
178 200 0
192 208 0
176 199 0
4 14 0
171 196 0
179 200 0
178 200 0
162 191 0
54 83 0
183 202 0
193 208 0
56 89 0
0 0 0
53 87 0
55 88 0
60 93 0
68 104 181
67 103 181
61 93 0
51 86 0
55 88 0
67 103 181
68 104 181
69 105 181
17 37 0
63 94 0
51 86 0
69 105 181
51 86 0
56 89 0
70 105 181
51 85 0
67 103 181
70 105 181
52 86 0
60 93 0
63 94 0
52 86 0
14 34 0
67 103 181
55 72 0
52 86 0
0 1 0
61 93 0
17 37 0
65 102 181
70 105 181
14 34 0
51 85 0
63 100 181
53 87 0
57 90 0
17 39 0
54 87 0
52 86 0
0 0 0
66 102 181
53 87 0
70 105 181
70 105 181
55 89 0
53 87 0
15 35 0
53 71 0
51 86 0
55 88 0
57 90 0
52 86 0
58 91 0
51 86 0
53 87 0
54 88 0
58 90 0
66 102 181
15 35 0
42 60 0
50 69 0
4 14 0
62 99 181
5 16 0
53 86 0
27 20 0
58 90 0
45 62 0
53 87 0
175 198 0
164 192 0
162 191 0
168 195 0
147 149 0
169 195 0
15 29 0
165 193 0
162 192 0
12 24 0
168 195 0
165 193 0
167 194 0
4 13 0
176 162 0
184 203 0
113 95 0
169 195 0
96 62 0
164 192 0
164 192 0
46 76 0
177 199 0
178 200 0
173 197 0
176 199 0
166 193 0
162 192 0
175 198 0
172 196 0
51 60 36
35 34 0
25 18 0
133 94 0
166 158 0
132 100 22
154 152 0
6 3 0
132 109 0
172 161 0
116 103 0
97 51 0
10 18 0
38 35 7
56 73 0
13 25 0
36 43 0
43 61 0
165 157 0
105 75 0
161 155 0
117 103 0
51 70 0
67 20 0
107 65 0
148 149 0
116 103 0
151 151 0
168 159 0
158 154 0
166 158 0
158 154 0
145 148 0
156 125 0
157 153 0
41 59 0
117 72 0
54 71 0
158 154 0
149 150 0
39 47 0
47 67 0
9 4 0
190 179 114
19 14 0
166 158 0
147 149 0
149 150 0
175 141 51
146 149 0
192 179 114
153 152 0
157 153 0
94 58 0
119 104 0
119 78 10
154 152 0
199 183 114
167 158 0
143 120 0
163 157 0
62 81 80
148 149 0
147 149 0
148 150 0
161 156 0
148 149 0
169 159 0
156 153 0
156 153 0
158 154 0
177 141 51
173 161 0
145 148 0
150 150 0
188 178 114
138 118 0
162 156 0
109 57 0
145 148 0
27 4 0
146 149 0
150 150 0
121 105 0
132 109 0
44 43 0
28 22 0
154 152 0
118 103 0
193 180 114
161 155 0
160 127 0
154 124 0
137 118 0
119 104 0
169 159 0
195 181 114
170 160 0
2 2 0
134 95 0
144 148 0
159 155 0
24 15 0
193 180 114
88 40 0
164 157 0
153 152 0
153 152 0
171 160 0
198 182 114
155 153 0
163 156 0
135 117 0
150 150 0
198 182 114
148 150 0
81 29 0
153 152 0
198 182 114
153 131 51
157 133 51
200 184 114
117 73 0
63 17 0
153 152 0
167 158 0
167 158 0
164 157 0
150 150 0
175 140 51
135 101 22
193 180 114
158 154 0
60 92 0
194 208 0
178 200 0
174 197 0
166 193 0
170 196 0
163 192 0
166 193 0
164 192 0
162 191 0
170 196 0
181 202 0
163 192 0
172 196 0
164 192 0
166 193 0
168 194 0
168 194 0
180 201 0
172 196 0
167 194 0
189 206 0
170 196 0
177 199 0
180 201 0
169 195 0
194 208 0
166 194 0
162 191 0
197 210 0
162 180 0
165 193 0
163 192 0
187 205 0
178 200 0
178 200 0
164 193 0
194 208 0
167 194 0
166 194 0
185 203 0
188 205 0
163 192 0
165 193 0
184 203 0
176 199 0
141 159 0
179 200 0
163 192 0
164 192 0
175 198 0
182 202 0
188 205 0
182 202 0
188 205 0
174 198 0
177 199 0
196 210 0
146 172 0
149 173 0
181 201 0
179 200 0
168 183 0
180 201 0
181 202 0
176 198 0
210 229 255
46 77 0
176 198 0
188 205 0
63 94 0
161 191 0
170 196 0
194 209 0
189 206 0
174 186 0
42 69 0
162 192 0
47 73 0
146 172 0
177 199 0
197 210 0
174 187 0
174 198 0
168 195 0
178 200 0
154 176 0
157 177 0
182 202 0
195 209 0
121 139 0
169 184 0
182 202 0
129 153 0
168 183 0
189 218 255
150 174 0
180 201 0
194 209 0
174 198 0
153 166 0
53 82 0
192 207 0
149 173 0
169 195 0
149 173 0
199 211 0
47 77 0
163 192 0
162 191 0
195 209 0
189 206 0
184 203 0
0 0 0
179 200 0
162 191 0
62 94 0
189 206 0
54 83 0
48 78 0
156 177 0
162 191 0
170 195 0
56 84 0
53 82 0
166 193 0
195 209 0
176 199 0
164 193 0
177 199 0
154 176 0
182 202 0
186 204 0
187 205 0
185 204 0
192 207 0
162 191 0
189 206 0
155 176 0
175 198 0
184 203 0
165 193 0
51 81 0
170 196 0
175 198 0
166 194 0
51 80 0
185 204 0
173 197 0
164 193 0
187 204 0
51 80 0
193 208 0
166 193 0
181 201 0
162 191 0
168 195 0
40 63 0
50 79 0
61 93 0
172 197 0
175 198 0
62 93 0
180 201 0
56 89 0
53 87 0
51 85 0
54 88 0
52 86 0
61 99 181
64 100 181
4 14 0
52 86 0
53 87 0
63 100 181
51 85 0
15 35 0
64 101 181
55 88 0
53 87 0
70 105 181
68 103 181
55 88 0
68 103 181
69 105 181
60 92 0
66 103 181
56 89 0
54 88 0
29 19 0
51 86 0
68 104 181
52 86 0
58 91 0
16 36 0
52 86 0
15 35 0
16 36 0
56 89 0
51 85 0
55 88 0
69 105 181
52 86 0
56 89 0
16 36 0
4 14 0
53 87 0
60 92 0
58 91 0
52 86 0
0 0 0
53 87 0
18 41 0
70 105 181
53 87 0
56 89 0
66 102 181
62 99 181
51 80 0
57 90 0
62 99 181
3 6 0
55 88 0
13 26 0
69 104 181
52 86 0
16 9 0
8 11 0
51 85 0
15 34 0
55 88 0
2 5 0
65 102 181
59 91 0
19 41 0
30 32 0
110 94 0
172 197 0
181 201 0
61 93 0
178 199 0
167 194 0
163 192 0
42 60 0
62 94 0
50 79 0
3 8 0
180 201 0
33 33 0
40 48 0
167 194 0
173 197 0
29 29 0
169 195 0
175 198 0
161 156 0
171 160 0
135 135 0
175 198 0
185 203 0
136 111 0
183 203 0
157 153 0
173 197 0
173 197 0
180 201 0
14 27 0
179 201 0
117 103 0
145 121 0
144 148 0
129 93 0
137 118 0
44 61 0
42 42 0
0 1 0
47 67 0
116 103 0
0 1 0
50 56 0
44 61 0
147 122 0
159 155 0
88 53 0
43 43 0
161 155 0
29 31 0
129 108 0
138 111 0
168 159 0
123 64 4
147 149 0
85 45 0
61 22 0
19 13 0
130 108 0
49 68 0
54 72 0
35 42 0
130 108 0
141 119 0
24 14 0
6 7 0
133 109 0
14 5 0
154 152 0
199 183 114
173 161 0
174 162 0
129 80 10
10 0 0
155 153 0
169 159 0
32 41 0
145 148 0
145 148 0
145 148 0
28 22 0
41 48 0
151 151 0
0 0 0
162 156 0
42 60 0
166 158 0
159 154 0
173 139 51
159 155 0
84 29 0
123 105 0
195 181 114
116 103 0
19 2 0
47 11 0
151 151 0
195 181 114
197 182 114
151 151 0
110 81 0
12 20 0
126 92 0
155 153 0
147 122 0
124 106 0
159 127 0
118 103 0
136 96 0
15 28 0
160 155 0
147 149 0
200 183 114
132 116 0
147 149 0
69 29 0
25 19 0
163 156 0
160 155 0
164 157 0
186 176 114
148 149 0
116 103 0
150 151 0
148 149 0
151 151 0
147 149 0
149 150 0
155 153 0
161 155 0
159 155 0
171 160 0
150 151 0
3 10 0
146 148 0
79 28 0
161 156 0
166 158 0
153 152 0
126 107 0
169 159 0
197 182 114
193 180 114
183 175 114
162 156 0
196 182 114
23 14 0
167 158 0
41 36 7
193 180 114
98 38 0
40 6 0
145 121 0
86 29 0
158 154 0
160 155 0
144 104 22
93 71 0
155 153 0
147 149 0
93 43 0
174 171 114
143 120 0
169 195 0
165 193 0
185 203 0
173 197 0
172 196 0
169 195 0
166 193 0
193 208 0
162 192 0
162 191 0
166 193 0
166 193 0
175 198 0
177 199 0
187 204 0
184 203 0
181 201 0
182 202 0
174 197 0
168 195 0
164 193 0
162 192 0
178 200 0
167 194 0
177 199 0
166 193 0
172 196 0
178 200 0
171 196 0
181 201 0
164 193 0
173 197 0
56 89 0
162 191 0
52 81 0
179 201 0
175 198 0
59 92 0
186 204 0
182 202 0
49 79 0
153 175 0
172 196 0
149 164 0
164 193 0
168 194 0
172 196 0
180 201 0
158 178 0
189 206 0
17 37 0
196 209 0
53 87 0
189 206 0
176 188 0
172 197 0
178 200 0
153 175 0
191 207 0
146 172 0
189 206 0
191 207 0
166 182 0
218 234 255
187 205 0
158 168 0
163 192 0
194 208 0
158 178 0
165 182 0
190 206 0
63 94 0
214 231 255
165 193 0
151 174 0
151 164 0
158 178 0
196 210 0
166 194 0
189 206 0
168 194 0
173 197 0
195 209 0
191 207 0
51 85 0
169 195 0
196 210 0
167 183 0
162 191 0
2 8 0
185 204 0
128 143 0
172 186 0
171 185 0
185 203 0
185 204 0
193 208 0
149 173 0
154 176 0
185 204 0
45 72 0
48 74 0
1 5 0
56 89 0
196 210 0
191 207 0
180 201 0
171 196 0
138 158 0
28 24 0
188 205 0
163 192 0
49 79 0
4 14 0
62 94 0
4 14 0
170 196 0
182 202 0
49 79 0
62 94 0
177 199 0
188 205 0
61 93 0
165 193 0
52 86 0
189 206 0
48 78 0
17 37 0
176 198 0
186 204 0
170 196 0
45 71 0
164 192 0
176 199 0
181 201 0
46 77 0
164 193 0
174 198 0
167 194 0
197 210 0
166 194 0
171 196 0
171 196 0
165 193 0
179 200 0
164 192 0
176 198 0
167 194 0
175 198 0
168 195 0
138 157 0
172 185 0
166 193 0
171 196 0
187 205 0
180 201 0
168 195 0
169 195 0
183 202 0
187 205 0
176 199 0
165 193 0
194 208 0
192 208 0
190 206 0
15 35 0
55 88 0
69 105 181
20 42 0
19 41 0
0 0 0
51 86 0
55 89 0
67 103 181
4 10 0
69 105 181
53 87 0
52 86 0
65 102 181
55 88 0
55 89 0
2 6 0
53 87 0
51 86 0
66 102 181
53 87 0
34 42 0
53 87 0
61 93 0
68 104 181
51 86 0
52 86 0
58 90 0
15 35 0
52 86 0
55 88 0
15 35 0
54 88 0
68 104 181
53 87 0
69 104 181
15 35 0
51 86 0
16 38 0
52 86 0
54 88 0
17 36 0
67 103 181
67 103 181
56 89 0
16 36 0
52 86 0
54 88 0
55 88 0
53 87 0
51 85 0
0 2 0
53 87 0
53 87 0
36 37 0
18 41 0
53 87 0
53 87 0
54 88 0
3 7 0
51 85 0
52 86 0
4 14 0
15 31 0
54 88 0
52 86 0
60 93 0
58 90 0
17 36 0
52 70 0
166 193 0
180 201 0
62 94 0
177 199 0
184 203 0
173 197 0
162 191 0
185 204 0
49 79 0
177 199 0
46 77 0
167 194 0
167 194 0
41 56 0
180 201 0
164 192 0
168 195 0
162 192 0
105 75 0
99 60 0
51 70 0
170 195 0
183 202 0
190 206 0
174 197 0
165 193 0
101 60 0
7 11 0
42 60 0
172 161 0
163 192 0
166 193 0
166 194 0
58 90 0
156 153 0
139 97 0
17 14 0
126 75 0
156 125 0
133 109 0
167 158 0
76 32 0
12 24 0
126 65 4
92 30 0
6 0 0
118 103 0
114 83 0
144 120 0
156 153 0
156 153 0
54 72 0
168 159 0
53 14 0
42 60 0
4 0 0
29 31 0
75 42 0
155 125 0
108 70 0
49 64 0
94 43 0
3 6 0
173 161 0
135 82 10
44 61 0
8 12 0
146 149 0
34 36 0
103 68 0
162 156 0
151 123 0
98 59 0
165 157 0
132 134 0
69 20 0
70 20 0
44 53 0
44 61 0
158 154 0
151 151 0
160 134 51
112 82 0
15 29 0
152 151 0
117 103 0
166 158 0
175 162 0
153 152 0
163 156 0
87 42 0
151 151 0
94 38 0
145 148 0
35 42 0
159 154 0
44 61 0
161 156 0
142 103 22
148 149 0
186 177 114
145 148 0
158 154 0
175 162 0
199 183 114
156 153 0
147 149 0
152 151 0
149 150 0
148 122 0
200 183 114
148 149 0
148 150 0
146 121 0
44 61 0
160 155 0
148 150 0
125 92 0
119 90 0
122 105 0
157 154 0
154 152 0
146 149 0
145 148 0
118 63 4
135 117 0
83 39 0
198 182 114
157 153 0
147 149 0
147 149 0
193 180 114
148 150 0
197 182 114
151 151 0
152 151 0
186 176 114
25 22 0
154 152 0
151 151 0
160 155 0
16 5 0
193 180 114
183 175 114
149 150 0
195 181 114
198 183 114
158 154 0
149 150 0
193 180 114
149 150 0
126 92 0
163 156 0
26 3 0
178 173 114
154 132 51
160 155 0
155 152 0
157 154 0
200 183 114
151 131 51
115 72 0
194 181 114
90 35 0
190 178 114
178 200 0
168 195 0
166 193 0
163 192 0
182 202 0
176 199 0
172 196 0
173 197 0
169 195 0
169 195 0
166 193 0
164 192 0
176 198 0
162 192 0
55 88 0
187 205 0
162 191 0
173 197 0
169 195 0
176 199 0
169 195 0
178 200 0
174 197 0
117 97 0
176 198 0
163 192 0
178 200 0
191 207 0
186 204 0
185 203 0
179 200 0
170 196 0
166 193 0
162 191 0
174 198 0
163 192 0
173 197 0
195 209 0
176 198 0
166 193 0
193 208 0
166 194 0
168 195 0
197 210 0
179 200 0
186 204 0
169 195 0
199 211 0
177 199 0
179 200 0
182 202 0
164 192 0
170 185 0
182 202 0
176 198 0
175 198 0
56 85 0
183 202 0
149 173 0
158 178 0
172 196 0
180 201 0
194 209 0
195 209 0
176 199 0
159 179 0
188 205 0
174 198 0
190 206 0
193 208 0
173 197 0
194 208 0
195 209 0
172 197 0
218 234 255
42 69 0
176 199 0
175 187 0
139 158 0
150 164 0
192 207 0
130 153 0
168 195 0
191 207 0
59 92 0
167 194 0
167 183 0
194 209 0
178 200 0
171 196 0
168 195 0
172 196 0
196 210 0
171 196 0
186 204 0
0 0 0
173 197 0
198 211 0
43 70 0
58 91 0
163 180 0
48 78 0
17 40 0
12 30 0
176 198 0
155 176 0
180 201 0
177 199 0
178 189 0
46 76 0
198 211 0
170 196 0
60 92 0
165 193 0
163 192 0
172 197 0
172 196 0
174 187 0
157 178 0
193 208 0
167 194 0
166 193 0
46 77 0
47 77 0
185 203 0
43 70 0
162 191 0
17 37 0
50 79 0
184 203 0
51 80 0
168 194 0
181 202 0
162 191 0
182 202 0
183 202 0
175 198 0
51 85 0
49 79 0
191 207 0
185 204 0
182 202 0
162 192 0
180 201 0
176 199 0
164 193 0
173 197 0
49 79 0
163 192 0
177 199 0
166 194 0
165 193 0
48 78 0
163 192 0
174 198 0
177 199 0
172 196 0
61 93 0
172 196 0
170 196 0
175 198 0
163 192 0
192 207 0
168 195 0
48 73 0
164 192 0
4 14 0
64 101 181
51 86 0
58 90 0
69 104 181
54 87 0
16 36 0
14 34 0
17 39 0
54 88 0
17 37 0
69 105 181
58 91 0
15 35 0
51 86 0
64 101 181
66 102 181
54 88 0
57 90 0
70 106 181
59 92 0
64 101 181
51 85 0
56 89 0
65 102 181
69 105 181
61 99 181
54 87 0
4 13 0
56 89 0
55 88 0
16 38 0
14 34 0
5 16 0
52 86 0
58 91 0
52 86 0
53 87 0
69 104 181
52 86 0
56 89 0
14 34 0
55 88 0
47 77 0
66 102 181
62 99 181
52 86 0
51 85 0
54 87 0
23 20 0
3 7 0
51 86 0
55 88 0
63 100 181
52 86 0
19 41 0
52 86 0
55 89 0
51 85 0
0 1 0
17 10 0
66 102 181
14 34 0
52 86 0
54 88 0
53 71 0
33 29 0
54 72 0
54 82 0
54 83 0
138 136 0
167 194 0
167 194 0
10 17 0
181 201 0
162 191 0
162 191 0
186 204 0
162 192 0
165 193 0
131 133 0
171 196 0
184 203 0
40 6 0
42 5 0
188 205 0
166 193 0
94 43 0
52 81 0
55 88 0
109 81 0
180 201 0
30 32 0
195 209 0
185 203 0
148 141 0
136 135 0
190 206 0
165 193 0
108 93 0
180 201 0
150 142 0
164 192 0
176 199 0
3 8 0
26 21 0
11 19 0
135 101 22
10 17 0
127 93 0
33 41 0
25 2 0
97 38 0
99 47 2
152 151 0
154 152 0
74 26 0
126 87 0
46 54 0
166 158 0
157 126 0
119 104 0
150 123 0
51 69 0
84 29 0
149 150 0
147 149 0
74 34 0
132 109 0
157 154 0
153 152 0
42 60 0
150 151 0
4 11 0
39 38 0
142 119 0
35 36 0
150 150 0
72 32 0
151 151 0
77 43 0
128 107 0
10 17 0
10 15 0
147 149 0
161 155 0
144 148 0
147 149 0
175 162 0
157 126 0
59 19 0
148 150 0
35 8 0
95 38 0
158 154 0
12 0 0
147 149 0
42 7 0
11 23 0
172 161 0
152 152 0
70 32 0
48 55 0
135 117 0
22 17 0
167 158 0
138 96 0
158 154 0
197 182 114
103 68 0
35 35 0
41 11 0
66 23 0
85 48 0
146 148 0
156 153 0
195 181 114
175 162 0
154 152 0
200 183 114
24 21 0
192 180 114
162 156 0
165 157 0
169 159 0
197 182 114
157 153 0
171 160 0
198 182 114
146 149 0
182 175 114
197 182 114
15 28 0
130 94 0
170 160 0
145 148 0
87 34 0
37 46 0
150 123 0
151 151 0
193 180 114
198 182 114
37 28 3
165 157 0
161 155 0
146 149 0
40 36 7
135 117 0
146 149 0
193 180 114
48 20 0
159 154 0
56 19 0
147 149 0
150 150 0
149 150 0
166 136 51
168 159 0
146 149 0
40 5 0
158 154 0
148 150 0
151 151 0
153 152 0
0 0 0
200 183 114
157 153 0
146 149 0
154 124 0
139 97 0
195 181 114
163 156 0
153 152 0
172 139 51
184 203 0
170 196 0
165 193 0
169 195 0
177 199 0
168 194 0
188 205 0
183 203 0
174 198 0
174 198 0
170 196 0
176 199 0
168 194 0
185 203 0
165 193 0
88 42 0
184 203 0
174 197 0
165 193 0
184 203 0
179 200 0
55 89 0
177 199 0
169 195 0
167 194 0
174 197 0
186 204 0
175 198 0
181 201 0
163 192 0
162 191 0
178 200 0
168 194 0
166 193 0
189 206 0
194 209 0
185 204 0
197 210 0
168 194 0
170 196 0
173 197 0
187 205 0
167 194 0
169 195 0
193 208 0
174 197 0
221 235 255
170 195 0
165 193 0
187 204 0
194 209 0
162 191 0
47 77 0
168 194 0
179 200 0
146 140 0
42 69 0
162 191 0
169 195 0
170 195 0
188 205 0
192 207 0
172 197 0
166 194 0
187 204 0
169 195 0
153 176 0
167 194 0
145 161 0
142 159 0
195 209 0
176 188 0
135 156 0
197 210 0
177 199 0
140 158 0
174 197 0
187 204 0
172 196 0
170 196 0
172 197 0
168 194 0
169 195 0
174 187 0
167 183 0
172 186 0
144 171 0
56 89 0
186 204 0
49 79 0
148 163 0
167 183 0
187 205 0
195 209 0
176 199 0
46 77 0
192 208 0
169 184 0
191 207 0
39 63 0
175 198 0
186 204 0
199 211 0
173 197 0
180 201 0
178 200 0
174 197 0
147 172 0
164 181 0
52 81 0
170 195 0
165 193 0
156 177 0
191 207 0
49 79 0
168 195 0
172 197 0
167 194 0
173 197 0
13 30 0
106 123 0
186 204 0
1 4 0
191 207 0
41 68 0
14 32 0
166 194 0
54 83 0
60 92 0
162 192 0
57 90 0
184 203 0
179 200 0
149 173 0
186 204 0
178 200 0
13 31 0
192 208 0
171 196 0
56 89 0
172 197 0
186 204 0
60 92 0
170 196 0
55 89 0
171 196 0
174 197 0
47 77 0
47 78 0
187 205 0
169 195 0
193 208 0
165 193 0
163 192 0
46 77 0
182 202 0
175 198 0
51 81 0
52 81 0
182 202 0
54 82 0
181 201 0
175 198 0
163 192 0
17 37 0
170 195 0
170 195 0
185 203 0
60 93 0
4 13 0
69 105 181
69 105 181
51 85 0
59 91 0
14 34 0
69 104 181
69 104 181
18 41 0
63 100 181
68 104 181
53 87 0
64 101 181
70 105 181
57 90 0
56 89 0
52 86 0
58 91 0
59 92 0
60 92 0
69 105 181
66 102 181
10 17 0
18 40 0
54 88 0
56 89 0
42 57 0
14 34 0
51 85 0
52 86 0
66 102 181
66 102 181
58 91 0
68 104 181
17 39 0
51 85 0
53 87 0
59 91 0
19 41 0
58 91 0
16 36 0
67 103 181
16 36 0
57 90 0
56 89 0
52 86 0
53 87 0
13 25 0
14 34 0
3 3 0
57 90 0
56 89 0
64 101 181
15 34 0
60 92 0
70 105 181
56 89 0
53 87 0
58 91 0
0 0 0
59 91 0
27 23 0
69 104 181
41 59 0
11 23 0
48 67 0
53 82 0
49 79 0
170 196 0
3 7 0
48 78 0
188 205 0
63 16 0
132 133 0
179 164 0
134 134 0
50 79 0
170 196 0
45 62 0
45 76 0
7 7 0
189 206 0
168 195 0
165 193 0
152 143 0
137 136 0
142 138 0
176 198 0
154 144 0
173 197 0
180 201 0
59 91 0
15 4 0
114 96 0
99 45 0
185 203 0
138 136 0
180 201 0
175 198 0
184 203 0
169 195 0
31 32 0
164 192 0
13 23 0
114 62 4
140 103 22
47 67 0
169 159 0
146 149 0
155 125 0
156 153 0
33 22 1
176 163 0
156 109 22
120 85 0
32 28 0
9 16 0
39 44 0
1 3 0
148 122 0
122 105 0
7 6 0
149 150 0
121 85 0
10 15 0
157 126 0
78 50 0
139 97 0
157 154 0
48 64 0
155 153 0
145 148 0
159 154 0
151 151 0
158 154 0
159 154 0
149 150 0
163 156 0
149 150 0
164 157 0
161 155 0
149 150 0
123 105 0
150 150 0
151 151 0
145 121 0
150 123 0
141 119 0
160 155 0
42 52 0
147 149 0
2 5 0
152 151 0
155 153 0
154 152 0
74 49 0
129 108 0
95 44 0
138 111 0
88 49 0
147 121 0
198 182 114
106 65 0
148 150 0
159 155 0
169 159 0
171 160 0
152 151 0
160 155 0
74 27 0
119 104 0
147 149 0
149 150 0
52 13 0
89 56 0
158 154 0
196 181 114
182 175 114
157 154 0
121 105 0
167 158 0
153 152 0
194 181 114
124 106 0
172 160 0
167 158 0
145 148 0
151 151 0
196 182 114
142 98 0
130 94 0
110 61 4
145 148 0
199 183 114
146 149 0
157 154 0
163 156 0
147 149 0
4 1 0
155 153 0
119 90 0
173 161 0
164 157 0
158 154 0
158 126 0
200 183 114
192 179 114
174 140 51
201 184 114
146 148 0
172 170 114
155 153 0
124 79 10
148 149 0
142 120 0
166 158 0
165 136 51
165 157 0
140 119 0
147 149 0
122 105 0
104 69 0
199 183 114
147 149 0
168 159 0
162 156 0
15 1 0
147 149 0
155 153 0
155 153 0
142 120 0
165 193 0
162 191 0
50 80 0
162 192 0
176 199 0
183 202 0
183 202 0
171 196 0
167 194 0
167 194 0
172 196 0
169 195 0
165 193 0
196 210 0
170 195 0
182 202 0
179 200 0
185 203 0
177 199 0
165 193 0
162 192 0
178 200 0
162 191 0
186 204 0
178 200 0
164 192 0
181 201 0
165 193 0
177 199 0
177 163 0
162 192 0
169 195 0
191 207 0
149 164 0
175 198 0
164 192 0
180 201 0
168 195 0
174 198 0
185 204 0
172 197 0
185 204 0
184 203 0
172 196 0
185 203 0
168 194 0
165 193 0
173 197 0
184 203 0
167 194 0
174 198 0
190 206 0
194 209 0
191 207 0
176 198 0
135 156 0
169 195 0
169 184 0
162 180 0
48 74 0
196 210 0
193 208 0
149 173 0
167 194 0
189 206 0
172 196 0
183 203 0
175 198 0
162 192 0
196 210 0
177 199 0
186 204 0
17 37 0
192 207 0
168 195 0
178 200 0
183 202 0
156 177 0
191 207 0
193 208 0
164 192 0
201 224 255
152 165 0
188 205 0
145 171 0
175 198 0
171 196 0
148 173 0
192 220 255
171 185 0
6 18 0
155 177 0
176 199 0
47 73 0
150 174 0
176 198 0
179 200 0
180 201 0
178 200 0
165 193 0
179 200 0
166 193 0
172 196 0
174 198 0
162 192 0
170 196 0
168 195 0
179 200 0
193 208 0
62 93 0
183 202 0
181 201 0
191 207 0
173 197 0
56 84 0
174 198 0
63 94 0
47 77 0
188 205 0
15 35 0
177 199 0
164 193 0
14 32 0
171 196 0
56 89 0
170 195 0
172 197 0
183 202 0
157 177 0
173 197 0
189 206 0
195 209 0
181 202 0
17 37 0
177 199 0
14 32 0
162 191 0
182 202 0
164 192 0
197 210 0
61 93 0
164 181 0
181 201 0
177 199 0
59 91 0
177 199 0
168 195 0
177 199 0
183 203 0
166 194 0
187 205 0
60 92 0
47 77 0
14 32 0
186 204 0
165 193 0
48 78 0
165 193 0
188 205 0
52 86 0
166 193 0
48 78 0
185 203 0
187 205 0
192 207 0
170 196 0
52 81 0
172 197 0
191 207 0
64 101 181
52 86 0
46 77 0
65 101 181
46 66 0
54 87 0
17 36 0
58 90 0
15 35 0
66 102 181
54 87 0
70 105 181
15 35 0
63 100 181
56 89 0
55 72 0
67 103 181
54 87 0
53 82 0
55 89 0
53 87 0
51 86 0
62 94 0
66 102 181
52 86 0
59 91 0
55 88 0
58 90 0
16 38 0
57 90 0
69 105 181
61 98 181
59 91 0
70 105 181
59 92 0
67 103 181
52 86 0
69 105 181
54 88 0
59 91 0
53 87 0
42 52 0
56 89 0
48 64 0
3 8 0
54 87 0
0 1 0
51 85 0
51 86 0
51 86 0
67 103 181
65 102 181
67 103 181
57 90 0
51 85 0
66 102 181
58 90 0
56 89 0
66 102 181
46 67 0
67 103 181
58 91 0
173 197 0
183 202 0
181 201 0
44 61 0
60 92 0
60 92 0
46 77 0
56 89 0
177 163 0
172 197 0
50 56 0
4 13 0
0 2 0
191 207 0
179 200 0
151 142 0
1 1 0
137 136 0
143 139 0
163 192 0
161 191 0
150 142 0
46 54 0
50 79 0
44 50 0
59 18 0
167 194 0
176 199 0
38 54 0
177 163 0
12 24 0
165 193 0
172 161 0
29 4 0
169 195 0
184 203 0
164 192 0
167 194 0
41 59 0
177 199 0
172 197 0
188 205 0
173 139 51
154 152 0
39 38 0
158 154 0
131 108 0
86 34 0
37 46 0
171 160 0
164 157 0
9 2 0
45 7 0
17 32 0
143 120 0
130 94 0
130 108 0
34 41 0
10 13 0
56 20 0
38 47 0
13 25 0
86 39 0
153 152 0
56 73 0
146 121 0
74 37 0
40 59 0
47 63 0
164 157 0
147 149 0
168 159 0
169 159 0
46 67 0
148 122 0
146 149 0
151 151 0
166 158 0
98 73 0
146 149 0
124 91 0
98 73 0
26 15 0
145 148 0
124 106 0
135 117 0
149 150 0
151 151 0
191 179 114
161 155 0
47 63 0
35 34 0
170 160 0
166 158 0
195 181 114
157 154 0
139 118 0
109 70 0
45 62 0
164 157 0
147 149 0
156 153 0
152 124 0
37 28 3
33 33 0
146 148 0
155 153 0
158 154 0
56 73 0
197 182 114
44 61 0
157 154 0
194 180 114
156 153 0
148 150 0
53 71 0
148 149 0
198 183 114
152 152 0
159 154 0
145 148 0
149 150 0
171 160 0
63 21 0
159 154 0
48 68 0
171 160 0
150 150 0
148 150 0
151 151 0
4 8 0
147 149 0
148 149 0
196 181 114
154 152 0
200 184 114
190 179 114
166 158 0
167 158 0
194 181 114
152 151 0
169 159 0
166 158 0
149 150 0
162 156 0
160 155 0
165 157 0
183 175 114
147 149 0
192 180 114
197 182 114
12 5 0
145 148 0
138 102 22
43 61 0
148 150 0
97 72 0
147 149 0
123 74 0
76 32 0
194 181 114
160 155 0
151 151 0
199 183 114
159 155 0
65 20 0
167 159 0
162 156 0
148 149 0
173 197 0
178 200 0
177 199 0
171 196 0
168 194 0
178 199 0
174 198 0
170 195 0
163 192 0
164 192 0
164 193 0
168 194 0
182 202 0
166 193 0
178 200 0
170 196 0
180 201 0
179 200 0
185 203 0
171 196 0
184 203 0
172 197 0
174 198 0
165 193 0
173 197 0
183 202 0
163 192 0
183 203 0
169 195 0
181 201 0
181 201 0
165 193 0
167 194 0
168 195 0
176 198 0
194 209 0
187 204 0
162 191 0
179 200 0
172 196 0
192 208 0
168 194 0
188 205 0
143 139 0
187 204 0
170 196 0
198 211 0
166 182 0
174 198 0
164 193 0
195 209 0
164 192 0
180 201 0
168 194 0
176 199 0
165 193 0
177 199 0
199 211 0
161 179 0
175 198 0
183 203 0
190 206 0
189 206 0
168 195 0
187 205 0
187 205 0
167 183 0
186 204 0
166 193 0
187 204 0
52 86 0
203 225 255
52 86 0
164 193 0
170 184 0
60 92 0
155 176 0
193 208 0
196 209 0
166 193 0
156 177 0
175 198 0
148 163 0
181 202 0
196 209 0
150 174 0
195 209 0
179 200 0
172 197 0
186 204 0
166 193 0
46 76 0
188 205 0
56 89 0
1 5 0
179 200 0
172 197 0
167 194 0
166 194 0
165 193 0
166 193 0
193 208 0
185 204 0
1 5 0
164 192 0
197 210 0
181 201 0
165 193 0
186 204 0
166 194 0
170 195 0
14 32 0
179 200 0
53 82 0
48 78 0
185 203 0
51 81 0
59 91 0
178 200 0
53 82 0
49 79 0
182 202 0
54 88 0
186 204 0
163 192 0
177 199 0
170 195 0
182 202 0
191 207 0
60 92 0
185 204 0
170 185 0
196 210 0
48 78 0
171 196 0
170 195 0
49 79 0
187 205 0
190 207 0
171 196 0
190 206 0
167 194 0
196 210 0
181 201 0
52 81 0
162 192 0
163 181 0
162 191 0
168 195 0
161 191 0
46 76 0
47 77 0
176 199 0
173 197 0
41 68 0
47 77 0
164 192 0
193 208 0
1 5 0
161 191 0
52 81 0
188 205 0
195 209 0
173 197 0
60 92 0
191 207 0
13 31 0
167 194 0
181 201 0
185 203 0
58 90 0
14 34 0
52 86 0
16 35 0
70 105 181
52 86 0
58 90 0
58 91 0
65 101 181
54 87 0
19 8 0
16 36 0
0 0 0
66 102 181
52 86 0
14 34 0
67 103 181
52 86 0
0 2 0
59 92 0
54 87 0
15 35 0
65 102 181
51 85 0
18 40 0
67 103 181
70 105 181
4 11 0
18 41 0
56 89 0
14 34 0
53 86 0
70 105 181
54 88 0
53 87 0
14 27 0
4 14 0
18 41 0
0 3 0
69 105 181
64 100 181
68 104 181
51 86 0
54 88 0
14 34 0
52 86 0
52 86 0
53 87 0
53 87 0
52 86 0
65 102 181
9 16 0
58 90 0
14 34 0
53 87 0
67 103 181
45 62 0
66 103 181
0 0 0
39 41 0
188 205 0
188 205 0
195 209 0
17 7 0
165 193 0
186 204 0
41 48 0
43 61 0
193 208 0
171 196 0
46 77 0
13 31 0
172 196 0
163 192 0
143 139 0
158 154 0
41 59 0
173 197 0
179 200 0
186 204 0
9 13 0
36 43 0
46 76 0
169 195 0
180 201 0
178 200 0
13 31 0
166 194 0
166 194 0
63 95 0
166 158 0
187 204 0
132 134 0
178 200 0
142 138 0
133 134 0
174 198 0
183 203 0
61 93 0
112 95 0
178 200 0
180 201 0
72 29 0
50 80 0
41 5 0
49 24 0
20 13 0
138 118 0
26 28 0
9 10 0
96 51 0
20 13 0
53 14 0
93 71 0
38 47 0
4 11 0
93 71 0
49 68 0
162 156 0
96 72 0
165 157 0
156 153 0
175 162 0
55 72 0
162 156 0
149 150 0
148 150 0
41 59 0
30 32 0
38 33 0
129 108 0
12 20 0
149 150 0
10 3 0
146 149 0
150 151 0
120 64 4
97 72 0
125 106 0
73 24 0
0 0 0
171 160 0
167 158 0
150 150 0
153 152 0
7 10 0
156 153 0
149 150 0
154 152 0
159 155 0
145 148 0
152 151 0
166 158 0
123 74 0
126 92 0
132 109 0
162 156 0
154 152 0
50 56 0
12 5 0
144 120 0
158 154 0
163 156 0
149 150 0
145 121 0
166 158 0
168 159 0
33 3 0
154 152 0
189 178 114
148 149 0
171 160 0
150 151 0
153 152 0
105 56 0
159 154 0
101 74 0
167 158 0
161 155 0
137 96 0
151 151 0
147 149 0
175 162 0
147 149 0
153 152 0
193 180 114
146 149 0
154 152 0
184 176 114
151 151 0
147 149 0
156 153 0
195 181 114
137 96 0
153 152 0
175 140 51
151 151 0
41 59 0
119 78 10
149 150 0
159 154 0
162 156 0
145 148 0
101 74 0
94 71 0
160 155 0
137 96 0
77 50 0
197 182 114
193 180 114
147 149 0
158 154 0
146 121 0
40 47 0
200 184 114
116 77 10
153 152 0
176 172 114
138 96 0
152 151 0
133 109 0
156 153 0
147 149 0
145 148 0
173 161 0
96 47 2
165 157 0
152 151 0
200 183 114
150 150 0
176 198 0
180 201 0
57 90 0
185 204 0
170 195 0
168 194 0
168 195 0
163 192 0
173 197 0
178 200 0
164 192 0
162 192 0
169 195 0
168 195 0
176 199 0
177 199 0
178 200 0
179 200 0
184 203 0
174 197 0
182 202 0
173 197 0
181 201 0
179 200 0
168 195 0
165 193 0
53 87 0
183 202 0
158 154 0
181 201 0
184 203 0
183 202 0
180 201 0
172 196 0
166 194 0
171 196 0
183 203 0
172 197 0
185 203 0
181 201 0
168 194 0
156 177 0
169 195 0
174 198 0
179 200 0
165 193 0
168 194 0
195 209 0
193 208 0
196 210 0
165 193 0
179 200 0
179 200 0
166 193 0
139 158 0
197 210 0
160 179 0
187 205 0
177 188 0
168 183 0
170 184 0
169 195 0
169 195 0
172 196 0
175 198 0
146 172 0
190 206 0
169 195 0
175 198 0
152 175 0
178 200 0
163 192 0
183 202 0
152 175 0
170 196 0
166 193 0
177 199 0
197 210 0
196 210 0
181 201 0
177 199 0
188 205 0
154 176 0
148 173 0
169 195 0
178 200 0
47 77 0
188 205 0
190 206 0
188 205 0
175 198 0
162 192 0
164 192 0
165 193 0
63 94 0
165 193 0
199 211 0
167 194 0
199 211 0
165 193 0
194 208 0
189 206 0
176 198 0
54 83 0
168 195 0
182 202 0
182 202 0
171 196 0
53 82 0
183 202 0
177 199 0
166 193 0
165 193 0
13 31 0
182 202 0
194 208 0
171 196 0
50 80 0
55 84 0
175 198 0
159 179 0
154 176 0
53 82 0
52 81 0
177 199 0
167 194 0
181 201 0
162 191 0
49 79 0
192 207 0
145 171 0
167 194 0
164 192 0
180 201 0
146 172 0
192 207 0
194 209 0
48 78 0
178 200 0
46 77 0
185 204 0
166 193 0
55 84 0
190 206 0
183 202 0
182 202 0
178 200 0
50 80 0
55 83 0
131 145 0
50 80 0
181 201 0
173 197 0
62 94 0
182 202 0
161 191 0
185 204 0
174 198 0
181 201 0
3 12 0
163 192 0
17 36 0
1 4 0
197 210 0
163 192 0
168 195 0
176 199 0
51 80 0
182 202 0
175 198 0
194 208 0
15 35 0
66 102 181
18 41 0
15 32 0
70 105 181
56 89 0
61 93 0
59 92 0
51 86 0
0 1 0
61 93 0
17 39 0
67 103 181
50 69 0
54 88 0
67 103 181
16 36 0
68 104 181
69 105 181
53 87 0
55 88 0
70 105 181
67 103 181
67 103 181
54 87 0
52 86 0
51 85 0
56 89 0
60 92 0
14 34 0
55 88 0
1 5 0
5 16 0
65 102 181
51 85 0
55 88 0
13 25 0
51 85 0
15 35 0
15 29 0
53 87 0
55 88 0
53 87 0
53 87 0
49 64 0
70 105 181
16 36 0
53 87 0
52 86 0
65 102 181
0 1 0
13 27 0
1 4 0
70 106 181
53 87 0
51 86 0
15 35 0
15 29 0
188 205 0
14 32 0
163 192 0
170 195 0
39 47 0
182 202 0
0 0 0
163 192 0
96 62 0
185 203 0
138 136 0
171 196 0
188 205 0
25 22 0
14 31 0
74 32 0
56 73 0
61 93 0
192 207 0
2 0 0
165 193 0
9 13 0
59 22 0
169 195 0
0 0 0
13 19 0
184 203 0
159 155 0
149 141 0
132 109 0
178 163 0
166 193 0
187 205 0
31 32 0
86 48 0
43 61 0
50 65 0
176 162 0
170 160 0
170 195 0
68 27 0
41 56 0
173 197 0
192 207 0
62 94 0
193 208 0
144 148 0
131 100 22
157 126 0
193 180 114
15 4 0
154 124 0
147 149 0
131 109 0
69 29 0
157 154 0
34 36 0
29 26 0
79 32 0
169 159 0
113 71 0
43 42 0
100 73 0
2 5 0
54 16 0
149 150 0
15 28 0
45 62 0
154 152 0
151 151 0
41 59 0
3 10 0
75 30 0
165 157 0
44 61 0
52 70 0
156 153 0
199 183 114
131 94 0
157 154 0
43 60 0
157 154 0
95 38 0
113 51 2
163 157 0
160 127 0
0 0 0
23 22 0
41 48 0
44 61 0
29 30 0
132 109 0
155 153 0
145 148 0
149 150 0
148 150 0
168 159 0
147 149 0
154 152 0
146 148 0
52 70 0
37 43 0
50 69 0
152 151 0
114 83 0
149 150 0
198 183 114
151 151 0
98 63 0
131 115 0
91 30 0
162 156 0
150 123 0
168 159 0
72 18 0
161 155 0
154 108 22
142 120 0
167 158 0
146 149 0
47 47 16
42 8 0
128 107 0
200 184 114
164 157 0
149 123 0
57 73 0
45 53 0
197 182 114
145 148 0
188 178 114
159 127 0
46 54 0
154 152 0
163 156 0
165 136 51
119 85 0
120 104 0
150 151 0
166 158 0
124 91 0
151 151 0
149 150 0
158 133 51
145 148 0
144 104 22
197 182 114
166 158 0
146 148 0
157 154 0
154 152 0
43 9 0
147 149 0
198 182 114
111 61 4
166 158 0
147 149 0
196 181 114
135 117 0
139 118 0
147 149 0
152 124 0
160 155 0
195 181 114
111 50 2
155 153 0
44 9 0
75 37 0
145 148 0
93 46 2
173 161 0
164 192 0
178 200 0
166 193 0
168 194 0
184 203 0
162 192 0
167 194 0
174 198 0
166 193 0
167 194 0
170 195 0
162 192 0
164 192 0
174 198 0
165 193 0
168 195 0
166 158 0
192 207 0
170 195 0
181 201 0
172 196 0
173 197 0
172 197 0
187 205 0
154 176 0
184 203 0
186 204 0
172 197 0
174 197 0
183 202 0
15 35 0
182 202 0
198 211 0
169 195 0
163 192 0
184 203 0
179 200 0
168 194 0
170 196 0
170 195 0
162 191 0
170 195 0
184 203 0
42 69 0
177 199 0
176 198 0
188 205 0
170 195 0
175 198 0
163 192 0
189 206 0
171 196 0
186 204 0
164 193 0
184 203 0
169 195 0
193 208 0
170 196 0
166 182 0
167 194 0
163 192 0
164 193 0
168 183 0
62 94 0
199 211 0
185 203 0
170 195 0
191 207 0
176 199 0
155 176 0
169 195 0
191 207 0
168 184 0
170 185 0
45 71 0
137 157 0
168 195 0
164 181 0
170 196 0
166 182 0
147 172 0
165 193 0
205 227 255
158 178 0
186 204 0
162 191 0
174 198 0
170 195 0
166 193 0
177 199 0
172 197 0
174 198 0
163 192 0
146 172 0
163 192 0
185 203 0
181 201 0
174 197 0
171 196 0
165 193 0
186 204 0
170 195 0
162 180 0
55 88 0
43 70 0
183 203 0
49 75 0
166 193 0
173 197 0
172 197 0
174 198 0
54 88 0
170 195 0
163 192 0
47 77 0
196 210 0
151 174 0
182 202 0
131 145 0
166 193 0
194 208 0
50 80 0
175 198 0
15 35 0
167 194 0
182 202 0
187 205 0
156 177 0
185 203 0
178 200 0
47 77 0
173 197 0
190 206 0
189 206 0
52 81 0
176 199 0
164 192 0
173 197 0
50 79 0
134 155 0
192 207 0
48 78 0
62 94 0
62 94 0
178 200 0
178 200 0
168 183 0
174 198 0
1 5 0
62 94 0
61 93 0
197 210 0
168 194 0
3 12 0
53 82 0
192 207 0
146 172 0
51 80 0
17 37 0
169 195 0
57 90 0
167 194 0
195 209 0
49 79 0
59 91 0
172 196 0
53 82 0
1 5 0
0 0 0
52 81 0
61 93 0
1 4 0
188 205 0
4 14 0
58 90 0
13 31 0
59 91 0
14 34 0
4 15 0
60 92 0
67 103 181
14 34 0
62 99 181
65 101 181
17 37 0
17 37 0
54 87 0
60 92 0
3 8 0
14 34 0
53 87 0
68 103 181
0 0 0
54 88 0
9 13 0
65 101 181
60 92 0
53 87 0
65 102 181
55 88 0
61 93 0
16 35 0
53 87 0
56 89 0
1 4 0
70 105 181
18 40 0
59 91 0
56 89 0
18 41 0
58 91 0
43 43 0
66 102 181
53 87 0
61 93 0
55 88 0
68 104 181
55 89 0
0 2 0
3 9 0
16 35 0
19 41 0
55 88 0
19 41 0
66 102 181
54 88 0
55 88 0
13 25 0
193 208 0
189 206 0
48 78 0
167 194 0
186 204 0
58 91 0
11 19 0
184 203 0
1 4 0
42 60 0
165 193 0
52 81 0
189 205 0
134 134 0
149 141 0
182 202 0
168 195 0
162 156 0
3 7 0
191 207 0
187 205 0
14 27 0
189 205 0
170 196 0
184 203 0
142 138 0
155 125 0
137 111 0
188 205 0
48 55 0
133 134 0
38 54 0
180 201 0
1 1 0
48 9 0
166 193 0
109 94 0
175 198 0
46 63 0
45 76 0
177 199 0
184 203 0
187 204 0
50 80 0
75 40 0
135 135 0
188 205 0
177 163 0
131 133 0
143 104 22
176 141 51
2 5 0
158 154 0
13 22 0
156 153 0
152 151 0
136 101 22
151 123 0
152 151 0
165 157 0
124 105 0
101 55 0
140 119 0
53 12 0
49 56 0
98 44 0
3 10 0
4 11 0
165 157 0
161 155 0
1 0 0
145 121 0
160 155 0
108 49 2
163 157 0
151 151 0
83 29 0
145 148 0
155 152 0
129 81 10
158 154 0
42 60 0
157 126 0
28 29 0
1 3 0
157 154 0
166 158 0
170 160 0
31 32 0
152 124 0
56 73 0
146 149 0
82 33 0
149 150 0
3 4 0
168 159 0
137 111 0
146 149 0
151 151 0
125 92 0
145 148 0
48 67 0
156 153 0
192 179 114
169 159 0
34 11 0
161 155 0
10 3 0
155 153 0
55 72 0
17 7 0
137 111 0
134 116 0
190 179 114
164 157 0
150 151 0
46 47 16
146 149 0
198 182 114
112 61 4
132 115 0
161 155 0
146 149 0
145 148 0
149 150 0
196 182 114
163 156 0
148 149 0
59 34 0
148 122 0
157 154 0
147 149 0
146 121 0
68 20 0
150 130 51
152 151 0
118 103 0
166 158 0
197 182 114
125 106 0
133 116 0
144 148 0
186 177 114
153 152 0
176 162 0
162 156 0
158 154 0
81 28 0
132 116 0
115 62 4
101 48 2
5 2 0
154 152 0
200 184 114
87 34 0
131 115 0
152 151 0
200 183 114
197 182 114
29 3 0
148 150 0
156 153 0
166 158 0
148 149 0
172 161 0
179 142 51
129 108 0
32 3 0
152 151 0
153 152 0
155 153 0
141 103 22
190 206 0
162 192 0
162 191 0
169 195 0
178 200 0
177 199 0
164 192 0
163 192 0
166 194 0
162 192 0
169 195 0
184 203 0
165 193 0
184 203 0
186 204 0
165 182 0
182 202 0
176 199 0
169 195 0
190 206 0
176 199 0
193 208 0
168 194 0
168 194 0
175 198 0
162 192 0
176 199 0
189 206 0
183 202 0
182 202 0
171 196 0
159 155 0
175 198 0
157 178 0
181 201 0
173 197 0
174 198 0
187 204 0
130 133 0
180 201 0
191 207 0
170 195 0
179 201 0
161 191 0
167 194 0
162 191 0
13 31 0
179 200 0
198 211 0
174 198 0
181 201 0
52 86 0
169 184 0
187 204 0
148 173 0
183 202 0
188 205 0
172 197 0
172 197 0
167 194 0
192 207 0
176 199 0
164 181 0
189 206 0
198 211 0
175 198 0
189 205 0
187 205 0
172 197 0
219 235 255
170 196 0
169 195 0
181 201 0
167 194 0
164 193 0
63 94 0
195 209 0
63 95 0
170 195 0
171 196 0
183 202 0
58 90 0
177 199 0
194 209 0
173 197 0
178 200 0
172 196 0
189 206 0
175 162 0
166 194 0
185 204 0
164 192 0
177 199 0
198 211 0
175 198 0
57 90 0
194 209 0
180 201 0
165 193 0
165 193 0
167 194 0
48 78 0
13 31 0
195 209 0
195 209 0
178 200 0
173 197 0
46 76 0
190 206 0
52 81 0
51 80 0
170 196 0
56 84 0
189 206 0
14 32 0
62 93 0
174 187 0
159 169 0
46 77 0
46 77 0
193 208 0
180 201 0
174 197 0
183 202 0
16 36 0
179 200 0
188 205 0
191 207 0
196 210 0
171 196 0
174 198 0
45 71 0
169 195 0
177 199 0
190 206 0
167 194 0
49 79 0
185 204 0
182 202 0
163 192 0
58 90 0
46 77 0
169 195 0
180 201 0
170 195 0
172 197 0
162 191 0
1 5 0
183 202 0
118 138 0
14 30 0
52 81 0
52 81 0
178 200 0
184 203 0
190 206 0
178 200 0
176 199 0
51 80 0
0 1 0
185 203 0
174 198 0
48 78 0
173 197 0
41 68 0
61 93 0
183 202 0
163 192 0
46 76 0
46 77 0
15 33 0
57 90 0
169 195 0
62 94 0
14 31 0
14 32 0
15 28 0
57 90 0
17 40 0
70 106 181
54 88 0
15 34 0
54 88 0
14 34 0
66 102 181
53 87 0
15 34 0
52 86 0
15 35 0
53 87 0
54 88 0
67 103 181
55 88 0
57 90 0
52 86 0
66 102 181
19 42 0
14 34 0
5 16 0
53 87 0
54 88 0
13 30 0
4 14 0
19 41 0
57 90 0
70 105 181
52 86 0
52 86 0
16 35 0
70 106 181
8 9 0
54 87 0
14 34 0
54 88 0
67 103 181
52 86 0
70 105 181
69 105 181
67 103 181
15 35 0
23 14 0
52 86 0
54 87 0
14 27 0
38 54 0
52 86 0
187 204 0
3 6 0
179 200 0
4 12 0
16 36 0
41 48 0
0 0 0
13 25 0
4 13 0
171 196 0
43 57 0
0 0 0
54 82 0
173 197 0
8 14 0
189 206 0
2 4 0
169 195 0
185 204 0
49 64 0
46 77 0
10 2 0
54 20 0
52 81 0
166 194 0
163 192 0
38 46 0
11 19 0
170 195 0
62 94 0
142 138 0
185 203 0
47 78 0
178 164 0
55 72 0
143 113 0
43 60 0
153 124 0
24 25 0
34 41 0
189 206 0
171 196 0
166 193 0
11 23 0
40 55 0
132 109 0
46 76 0
24 21 0
140 137 0
182 202 0
136 135 0
138 111 0
86 42 0
193 180 114
174 140 51
125 65 4
152 124 0
33 41 0
53 12 0
36 43 0
116 63 4
34 42 0
121 64 4
163 156 0
103 79 0
147 149 0
32 20 0
37 5 0
162 156 0
154 152 0
11 16 0
56 73 0
153 124 0
165 157 0
137 111 0
149 150 0
164 157 0
29 23 0
35 5 0
83 55 0
115 59 0
156 153 0
11 16 0
15 0 0
28 29 0
145 148 0
167 158 0
151 123 0
29 32 0
147 149 0
131 94 0
160 155 0
51 70 0
157 154 0
153 124 0
15 29 0
154 124 0
95 54 0
6 5 0
36 10 0
167 158 0
152 152 0
63 14 0
122 74 0
145 148 0
33 35 0
135 95 0
137 117 0
171 160 0
172 139 51
162 156 0
133 100 22
196 181 114
157 153 0
192 179 114
169 159 0
177 163 0
45 50 0
156 153 0
149 150 0
156 125 0
72 21 0
150 150 0
127 107 0
153 152 0
135 117 0
157 154 0
140 97 0
145 148 0
163 156 0
150 151 0
171 160 0
56 73 0
80 51 0
125 92 0
117 103 0
60 19 0
163 157 0
200 183 114
21 17 0
162 156 0
43 60 0
119 104 0
104 75 0
145 148 0
105 65 0
175 162 0
147 149 0
169 159 0
118 103 0
194 181 114
159 155 0
184 176 114
146 149 0
0 0 0
127 107 0
147 149 0
170 160 0
74 22 0
154 152 0
188 178 114
159 155 0
135 117 0
158 154 0
145 148 0
155 153 0
122 91 0
141 119 0
149 150 0
139 118 0
139 118 0
160 134 51
145 148 0
141 103 22
152 151 0
63 94 0
169 195 0
167 194 0
165 193 0
177 199 0
191 207 0
184 203 0
164 192 0
181 201 0
172 196 0
171 196 0
184 203 0
175 198 0
166 194 0
180 201 0
164 193 0
170 195 0
171 196 0
164 192 0
59 91 0
194 209 0
162 192 0
171 196 0
176 198 0
167 194 0
190 207 0
162 191 0
162 191 0
189 206 0
173 197 0
174 197 0
192 207 0
171 196 0
195 209 0
171 196 0
167 194 0
176 188 0
169 195 0
178 200 0
163 192 0
169 195 0
171 196 0
168 194 0
183 203 0
183 203 0
179 200 0
191 207 0
54 88 0
162 191 0
162 191 0
168 194 0
170 195 0
178 200 0
169 195 0
183 203 0
162 191 0
179 200 0
163 192 0
173 197 0
164 192 0
163 192 0
165 193 0
168 195 0
141 159 0
164 193 0
182 202 0
132 145 0
169 195 0
183 202 0
164 193 0
49 79 0
190 206 0
190 206 0
168 195 0
168 194 0
165 193 0
171 196 0
54 83 0
167 194 0
175 198 0
169 195 0
168 194 0
192 207 0
162 191 0
176 198 0
58 91 0
193 208 0
185 204 0
170 195 0
174 198 0
184 203 0
55 88 0
50 80 0
54 88 0
178 200 0
48 78 0
61 93 0
176 199 0
176 199 0
58 90 0
173 197 0
177 199 0
183 202 0
178 199 0
167 194 0
182 202 0
187 205 0
187 205 0
185 204 0
176 199 0
167 194 0
173 197 0
52 81 0
175 198 0
48 78 0
122 140 0
182 202 0
4 13 0
191 207 0
46 77 0
164 193 0
17 37 0
198 211 0
163 192 0
165 193 0
167 194 0
48 78 0
47 77 0
48 78 0
168 194 0
46 77 0
149 173 0
54 88 0
195 209 0
157 177 0
48 78 0
47 78 0
196 210 0
52 86 0
183 202 0
187 204 0
165 193 0
196 210 0
63 95 0
155 176 0
52 81 0
190 206 0
189 206 0
195 209 0
184 203 0
188 205 0
166 193 0
52 86 0
170 195 0
187 205 0
53 82 0
13 31 0
179 200 0
177 199 0
170 195 0
17 37 0
47 77 0
173 197 0
46 72 0
189 206 0
178 200 0
50 79 0
54 83 0
47 77 0
194 209 0
47 77 0
179 200 0
195 209 0
3 12 0
15 33 0
50 80 0
184 203 0
59 92 0
11 23 0
65 102 181
52 86 0
65 102 181
59 91 0
46 77 0
19 41 0
52 86 0
14 34 0
57 90 0
15 35 0
52 86 0
51 85 0
60 92 0
55 84 0
69 105 181
15 34 0
59 92 0
53 87 0
53 87 0
4 13 0
51 85 0
53 87 0
58 90 0
1 5 0
12 21 0
68 104 181
51 86 0
58 91 0
51 85 0
16 36 0
58 91 0
64 101 181
14 34 0
16 36 0
54 88 0
68 104 181
14 28 0
58 90 0
17 37 0
65 102 181
55 88 0
55 88 0
53 87 0
54 83 0
55 84 0
3 0 0
182 202 0
186 204 0
24 16 0
106 93 0
1 4 0
47 77 0
14 31 0
51 80 0
14 32 0
13 31 0
40 55 0
173 197 0
9 16 0
170 196 0
168 195 0
172 197 0
185 203 0
56 89 0
34 36 0
144 139 0
168 195 0
149 141 0
173 197 0
174 198 0
120 104 0
6 4 0
183 202 0
139 136 0
170 195 0
166 193 0
180 201 0
174 197 0
46 77 0
55 72 0
193 208 0
155 144 0
172 161 0
95 62 0
189 206 0
171 196 0
17 10 0
178 164 0
3 12 0
161 156 0
47 77 0
166 194 0
194 208 0
55 72 0
47 77 0
187 205 0
3 1 0
138 96 0
190 206 0
109 61 4
10 15 0
26 7 0
129 114 0
26 24 0
50 10 0
148 150 0
157 126 0
43 50 0
9 14 0
30 32 0
2 4 0
81 23 0
2 2 0
135 110 0
13 22 0
32 41 0
43 60 0
64 26 0
162 156 0
49 68 0
146 121 0
58 15 0
164 157 0
153 152 0
118 103 0
43 52 0
149 122 0
153 107 22
32 5 0
139 102 22
136 96 0
151 107 22
176 163 0
1 2 0
40 41 0
0 2 0
46 54 0
127 107 0
86 36 0
11 23 0
88 53 0
152 151 0
126 106 0
161 155 0
152 124 0
9 13 0
170 160 0
159 155 0
122 91 0
42 60 0
148 150 0
171 160 0
102 74 0
55 72 0
172 161 0
113 71 0
153 152 0
152 151 0
146 149 0
116 77 10
159 155 0
102 74 0
153 152 0
147 149 0
147 121 0
146 148 0
33 4 0
135 101 22
96 38 0
147 149 0
154 152 0
151 151 0
190 178 114
143 120 0
172 161 0
155 152 0
152 151 0
145 148 0
52 71 0
147 149 0
141 103 22
148 150 0
191 179 114
148 149 0
114 72 0
200 183 114
148 150 0
161 156 0
166 158 0
153 131 51
149 150 0
159 155 0
163 157 0
172 161 0
154 152 0
148 150 0
105 75 0
101 64 0
54 72 0
197 182 114
186 176 114
199 183 114
194 180 114
31 23 0
124 79 10
188 178 114
147 149 0
188 178 114
189 178 114
104 69 0
173 161 0
167 158 0
164 157 0
63 19 0
165 136 51
156 153 0
64 14 0
122 105 0
126 107 0
82 29 0
174 198 0
164 192 0
190 206 0
170 196 0
9 16 0
172 196 0
162 191 0
185 204 0
163 192 0
186 204 0
179 200 0
169 195 0
133 155 0
176 198 0
162 191 0
180 201 0
162 191 0
180 201 0
47 77 0
169 195 0
172 196 0
187 205 0
189 206 0
54 82 0
179 200 0
175 198 0
184 203 0
164 192 0
165 193 0
180 201 0
164 193 0
162 180 0
177 199 0
163 192 0
179 200 0
171 196 0
139 158 0
148 173 0
173 197 0
178 200 0
172 197 0
172 196 0
185 203 0
4 14 0
170 195 0
170 196 0
169 195 0
165 193 0
168 194 0
172 197 0
168 194 0
47 78 0
183 203 0
177 199 0
192 207 0
176 199 0
168 195 0
182 202 0
186 204 0
187 205 0
179 200 0
172 197 0
192 207 0
176 199 0
177 199 0
170 196 0
189 206 0
174 198 0
51 80 0
167 194 0
173 197 0
176 199 0
191 207 0
169 195 0
198 211 0
178 200 0
52 86 0
186 204 0
184 203 0
182 202 0
179 200 0
162 191 0
62 94 0
182 202 0
163 192 0
170 195 0
167 194 0
191 207 0
186 204 0
200 212 0
60 92 0
183 202 0
164 192 0
166 182 0
167 194 0
56 89 0
183 202 0
173 197 0
177 199 0
165 193 0
189 206 0
174 197 0
145 171 0
188 205 0
54 87 0
145 161 0
181 201 0
196 210 0
146 171 0
183 203 0
192 207 0
168 195 0
53 82 0
153 175 0
198 211 0
196 210 0
178 200 0
197 210 0
194 208 0
171 196 0
51 81 0
168 194 0
149 173 0
164 192 0
188 205 0
52 81 0
198 211 0
148 163 0
193 208 0
55 89 0
188 205 0
17 37 0
49 79 0
17 37 0
186 204 0
184 203 0
47 78 0
42 69 0
48 78 0
180 201 0
191 207 0
15 33 0
177 199 0
53 82 0
3 11 0
49 79 0
168 194 0
168 194 0
185 203 0
170 195 0
47 73 0
186 204 0
163 192 0
16 36 0
173 197 0
173 197 0
167 194 0
54 83 0
4 13 0
181 202 0
183 202 0
0 0 0
48 78 0
177 199 0
14 34 0
174 198 0
52 81 0
15 33 0
148 173 0
175 198 0
161 191 0
190 206 0
196 210 0
166 182 0
4 14 0
0 2 0
62 94 0
50 80 0
54 87 0
0 0 0
62 99 181
10 1 0
65 101 181
65 102 181
65 101 181
58 90 0
55 88 0
55 88 0
14 34 0
51 85 0
51 85 0
60 92 0
51 85 0
51 85 0
66 103 181
16 36 0
57 90 0
56 89 0
55 88 0
53 87 0
14 29 0
53 87 0
59 92 0
55 88 0
54 87 0
51 85 0
53 87 0
59 91 0
5 16 0
10 17 0
52 86 0
52 86 0
19 42 0
52 86 0
65 102 181
55 88 0
4 15 0
42 60 0
45 62 0
15 35 0
59 91 0
4 11 0
191 207 0
13 31 0
17 37 0
0 0 0
169 195 0
181 201 0
185 204 0
189 206 0
188 205 0
192 207 0
163 156 0
15 5 0
4 12 0
185 204 0
165 157 0
46 76 0
189 206 0
167 194 0
14 26 0
48 64 0
9 15 0
36 26 0
164 157 0
169 195 0
162 191 0
41 48 0
188 205 0
42 60 0
122 91 0
175 162 0
47 78 0
13 25 0
180 201 0
176 199 0
153 143 0
170 160 0
188 205 0
184 203 0
11 2 0
195 209 0
171 160 0
193 208 0
184 203 0
176 163 0
153 143 0
57 90 0
62 18 0
106 93 0
96 68 0
193 208 0
139 112 0
139 137 0
27 29 0
85 64 0
189 206 0
79 50 0
177 199 0
148 141 0
98 44 0
33 33 0
16 5 0
132 100 22
80 41 0
131 94 0
8 10 0
107 66 0
159 155 0
147 122 0
9 10 0
88 42 0
44 61 0
46 62 0
119 63 4
129 108 0
77 41 0
138 118 0
178 141 51
155 153 0
154 125 0
95 62 0
49 56 0
167 158 0
13 21 0
147 149 0
174 161 0
151 123 0
136 102 22
144 120 0
152 151 0
177 141 51
171 160 0
138 118 0
170 160 0
2 4 0
122 105 0
72 39 0
153 152 0
111 82 0
44 61 0
157 154 0
125 106 0
166 158 0
96 72 0
157 154 0
146 148 0
158 154 0
163 157 0
159 155 0
149 150 0
126 92 0
155 153 0
150 150 0
196 181 114
139 118 0
45 62 0
166 158 0
112 82 0
159 155 0
124 79 10
150 150 0
155 153 0
145 148 0
147 149 0
166 158 0
153 152 0
33 8 0
148 150 0
119 104 0
148 150 0
170 159 0
160 155 0
128 107 0
155 153 0
171 160 0
165 157 0
151 151 0
185 176 114
165 157 0
142 103 22
146 149 0
148 149 0
144 120 0
33 26 3
149 141 0
114 51 2
30 24 0
193 180 114
110 61 4
145 148 0
154 124 0
37 43 0
83 33 0
13 21 0
75 22 0
122 86 0
132 82 10
151 151 0
165 157 0
150 151 0
166 158 0
165 157 0
150 130 51
156 153 0
182 175 114
145 148 0
150 150 0
193 180 114
136 83 10
159 154 0
196 182 114
142 104 22
15 5 0
162 156 0
159 155 0
158 154 0
177 172 114
147 149 0
158 154 0
172 196 0
171 196 0
164 192 0
164 193 0
176 199 0
186 204 0
162 191 0
175 198 0
162 191 0
166 193 0
173 197 0
169 195 0
48 78 0
194 209 0
170 196 0
168 195 0
162 192 0
171 196 0
186 204 0
169 195 0
193 208 0
174 198 0
176 198 0
181 201 0
165 193 0
163 192 0
175 198 0
179 200 0
177 199 0
163 192 0
140 97 0
174 197 0
163 192 0
186 204 0
168 194 0
163 192 0
183 202 0
177 199 0
165 193 0
55 89 0
172 197 0
130 153 0
183 202 0
175 198 0
173 197 0
179 200 0
173 197 0
184 203 0
188 205 0
190 206 0
176 199 0
183 203 0
185 203 0
174 197 0
172 197 0
177 199 0
186 204 0
164 192 0
156 153 0
162 180 0
179 200 0
172 196 0
165 193 0
191 207 0
173 197 0
167 194 0
185 203 0
182 202 0
145 171 0
178 200 0
166 194 0
177 199 0
165 193 0
169 195 0
181 201 0
183 202 0
185 204 0
176 199 0
161 191 0
174 198 0
183 203 0
170 195 0
179 201 0
193 208 0
183 202 0
56 89 0
180 201 0
53 82 0
16 33 0
0 0 0
151 174 0
173 197 0
172 197 0
193 208 0
175 198 0
54 83 0
186 204 0
60 92 0
194 208 0
46 77 0
180 201 0
186 204 0
172 196 0
180 201 0
180 201 0
177 199 0
59 91 0
195 209 0
162 192 0
57 90 0
46 76 0
13 31 0
175 198 0
183 202 0
152 175 0
181 201 0
177 199 0
3 12 0
191 207 0
166 193 0
53 82 0
196 210 0
170 196 0
166 182 0
45 76 0
195 209 0
180 201 0
199 211 0
173 197 0
170 196 0
174 198 0
175 198 0
183 202 0
165 193 0
15 33 0
172 197 0
174 197 0
180 201 0
50 79 0
169 195 0
188 205 0
13 30 0
169 195 0
16 36 0
171 196 0
176 199 0
189 205 0
180 201 0
185 203 0
151 174 0
180 201 0
198 211 0
46 77 0
0 2 0
56 89 0
50 79 0
183 202 0
177 199 0
13 31 0
185 204 0
16 36 0
42 69 0
47 77 0
184 203 0
166 193 0
171 196 0
194 209 0
48 78 0
177 199 0
54 83 0
183 202 0
176 199 0
15 33 0
0 2 0
4 13 0
1 4 0
3 12 0
176 199 0
46 77 0
0 2 0
14 32 0
14 32 0
55 88 0
16 36 0
0 0 0
67 103 181
70 105 181
1 5 0
53 87 0
52 86 0
46 77 0
38 47 0
54 88 0
19 41 0
46 77 0
15 35 0
54 88 0
0 0 0
55 88 0
0 1 0
56 89 0
18 40 0
51 85 0
19 41 0
66 103 181
55 88 0
61 93 0
68 103 181
15 35 0
58 91 0
18 6 0
15 34 0
51 86 0
56 73 0
53 87 0
52 86 0
19 41 0
15 35 0
0 0 0
0 0 0
15 32 0
32 23 0
192 207 0
53 82 0
0 0 0
10 17 0
3 8 0
50 80 0
53 82 0
171 196 0
3 12 0
36 53 0
23 13 0
34 42 0
16 36 0
178 200 0
141 113 0
13 25 0
163 192 0
165 193 0
178 200 0
4 11 0
176 199 0
42 57 0
145 140 0
182 202 0
13 27 0
13 31 0
19 14 0
185 204 0
142 113 0
1 0 0
188 205 0
173 197 0
187 205 0
41 56 0
165 193 0
11 23 0
123 74 0
141 137 0
137 136 0
77 37 0
135 110 0
51 80 0
136 96 0
6 7 0
47 78 0
180 201 0
9 14 0
10 13 0
3 9 0
185 203 0
13 5 0
88 65 0
181 201 0
183 202 0
103 75 0
46 77 0
62 94 0
116 97 0
147 141 0
164 157 0
162 156 0
114 78 0
116 62 4
163 156 0
40 48 0
155 153 0
9 13 0
124 79 10
163 156 0
106 76 0
23 1 0
75 49 0
124 65 4
12 20 0
141 119 0
3 8 0
146 149 0
93 37 0
61 80 80
48 10 0
35 37 0
55 17 0
176 141 51
21 20 0
45 62 0
13 0 0
155 153 0
122 74 0
163 156 0
127 107 0
158 126 0
159 154 0
167 158 0
35 42 0
145 148 0
123 86 0
57 12 0
156 153 0
2 2 0
146 149 0
54 62 36
150 150 0
149 150 0
74 32 0
129 108 0
196 181 114
158 126 0
34 34 0
157 126 0
170 160 0
153 152 0
156 153 0
141 84 10
164 157 0
20 1 0
130 115 0
51 21 0
149 150 0
95 72 0
159 154 0
161 155 0
133 116 0
2 3 0
159 154 0
149 150 0
2 5 0
22 1 0
168 159 0
153 152 0
122 105 0
147 149 0
147 149 0
160 155 0
162 156 0
156 153 0
173 161 0
156 125 0
173 140 51
132 81 10
192 179 114
168 159 0
156 153 0
172 139 51
61 18 0
135 95 0
149 150 0
154 108 22
101 74 0
200 183 114
171 160 0
169 159 0
186 177 114
45 62 0
166 158 0
62 28 0
152 151 0
151 151 0
111 61 4
33 3 0
157 154 0
137 117 0
130 108 0
96 72 0
144 148 0
158 154 0
141 97 0
54 20 0
146 149 0
156 153 0
135 101 22
152 151 0
193 180 114
166 158 0
160 155 0
149 150 0
144 148 0
151 151 0
170 138 51
169 184 0
184 203 0
193 208 0
162 191 0
186 204 0
173 197 0
193 208 0
167 194 0
176 199 0
171 196 0
197 210 0
177 199 0
162 192 0
171 196 0
173 197 0
162 192 0
163 192 0
176 199 0
178 200 0
173 197 0
190 206 0
166 193 0
169 195 0
165 193 0
52 81 0
170 195 0
182 202 0
179 200 0
183 203 0
170 195 0
182 202 0
182 202 0
189 205 0
151 174 0
176 199 0
167 194 0
173 197 0
185 203 0
184 203 0
172 197 0
162 191 0
176 199 0
187 205 0
174 197 0
165 193 0
175 198 0
173 197 0
46 77 0
163 192 0
187 204 0
170 196 0
193 208 0
164 192 0
162 192 0
168 194 0
178 200 0
183 202 0
162 191 0
200 212 0
164 192 0
191 207 0
171 196 0
185 203 0
184 203 0
178 200 0
171 196 0
191 207 0
165 193 0
196 209 0
15 32 0
181 202 0
172 196 0
169 184 0
168 194 0
171 196 0
180 201 0
176 199 0
180 201 0
175 198 0
168 194 0
15 33 0
176 199 0
176 199 0
175 198 0
167 194 0
178 200 0
170 184 0
62 93 0
129 144 0
171 196 0
174 198 0
53 87 0
163 192 0
163 192 0
174 198 0
162 192 0
176 188 0
186 204 0
190 206 0
55 84 0
177 199 0
152 175 0
170 195 0
193 208 0
172 197 0
173 197 0
161 180 0
186 204 0
176 199 0
160 179 0
196 209 0
176 199 0
191 207 0
162 192 0
60 92 0
183 202 0
133 155 0
46 72 0
147 172 0
164 192 0
46 77 0
161 179 0
186 204 0
176 198 0
172 197 0
49 79 0
174 197 0
60 92 0
173 197 0
177 199 0
166 193 0
190 206 0
146 172 0
46 77 0
49 79 0
182 202 0
56 89 0
13 29 0
189 206 0
160 179 0
165 193 0
48 78 0
57 90 0
182 202 0
169 195 0
166 193 0
55 88 0
170 195 0
187 204 0
172 196 0
48 78 0
181 201 0
133 155 0
163 192 0
190 206 0
48 78 0
46 77 0
197 210 0
46 76 0
62 94 0
50 80 0
48 78 0
179 200 0
172 197 0
154 176 0
15 33 0
51 80 0
46 77 0
194 209 0
59 91 0
62 94 0
4 12 0
185 203 0
173 197 0
183 202 0
184 203 0
4 14 0
53 82 0
15 33 0
171 196 0
0 0 0
4 12 0
13 30 0
46 77 0
45 71 0
14 34 0
60 92 0
19 42 0
15 33 0
15 35 0
56 89 0
14 34 0
70 105 181
19 42 0
56 89 0
15 35 0
63 100 181
61 93 0
5 16 0
54 88 0
3 12 0
69 105 181
16 36 0
54 87 0
5 16 0
16 36 0
15 35 0
67 103 181
62 94 0
54 88 0
44 43 0
65 102 181
51 85 0
1 5 0
68 104 181
14 34 0
39 55 0
3 12 0
1 4 0
13 31 0
12 24 0
52 81 0
50 80 0
139 137 0
48 78 0
47 63 0
196 210 0
12 19 0
3 7 0
51 80 0
14 32 0
185 204 0
36 53 0
55 84 0
12 24 0
14 22 0
3 9 0
13 31 0
30 32 0
176 199 0
194 209 0
190 206 0
4 15 0
35 34 0
168 195 0
146 140 0
132 134 0
142 138 0
13 31 0
32 35 0
17 32 0
48 64 0
16 5 0
168 194 0
172 197 0
53 82 0
46 77 0
9 15 0
13 31 0
171 196 0
40 55 0
0 0 0
14 31 0
3 10 0
46 76 0
179 200 0
123 74 0
91 50 0
138 118 0
53 82 0
2 3 0
95 62 0
1 0 0
3 7 0
11 2 0
46 76 0
134 134 0
48 78 0
186 204 0
68 33 0
11 19 0
159 127 0
173 197 0
47 63 0
71 37 0
174 140 51
60 21 0
2 5 0
0 2 0
42 60 0
198 182 114
133 100 22
4 2 0
108 61 4
150 123 0
140 119 0
37 46 0
13 3 0
137 111 0
156 125 0
11 16 0
88 42 0
161 156 0
130 133 0
166 158 0
157 126 0
152 152 0
145 148 0
127 80 10
152 151 0
151 151 0
150 150 0
155 153 0
151 151 0
105 75 0
118 77 10
34 41 0
154 152 0
142 119 0
160 155 0
153 152 0
104 59 4
169 159 0
170 160 0
145 148 0
81 51 0
2 0 0
118 84 0
121 105 0
151 151 0
49 56 0
147 149 0
168 159 0
146 149 0
120 104 0
158 126 0
156 153 0
56 73 0
174 162 0
159 127 0
158 154 0
157 126 0
168 159 0
167 158 0
132 109 0
194 181 114
139 112 0
63 14 0
159 155 0
169 159 0
172 161 0
156 153 0
146 148 0
159 155 0
156 125 0
166 158 0
149 123 0
142 98 0
135 110 0
157 153 0
160 155 0
104 60 4
146 149 0
163 156 0
166 158 0
150 151 0
119 104 0
45 7 0
98 44 0
133 95 0
151 151 0
132 116 0
127 107 0
156 153 0
157 133 51
195 181 114
147 149 0
37 43 0
163 156 0
12 17 0
190 179 114
97 63 0
143 104 22
145 148 0
195 181 114
147 149 0
132 100 22
158 126 0
199 183 114
154 152 0
146 149 0
146 149 0
105 69 0
36 7 0
88 42 0
163 156 0
109 70 0
160 155 0
194 181 114
156 153 0
195 209 0
170 195 0
172 196 0
169 195 0
162 191 0
170 196 0
177 199 0
192 207 0
169 195 0
171 196 0
168 194 0
192 207 0
180 201 0
169 195 0
163 192 0
167 194 0
175 198 0
180 201 0
188 205 0
192 208 0
179 200 0
176 199 0
171 196 0
190 206 0
56 89 0
186 204 0
192 207 0
179 200 0
174 198 0
172 196 0
173 197 0
185 204 0
182 202 0
185 203 0
181 201 0
181 201 0
187 205 0
194 208 0
57 90 0
180 201 0
155 177 0
178 200 0
177 199 0
164 193 0
169 195 0
171 196 0
178 200 0
193 208 0
51 80 0
168 195 0
45 71 0
167 194 0
12 30 0
171 196 0
169 195 0
149 173 0
185 203 0
170 195 0
186 204 0
170 195 0
172 186 0
192 208 0
183 202 0
49 79 0
189 206 0
168 195 0
181 201 0
164 192 0
167 194 0
182 202 0
173 197 0
160 179 0
173 197 0
175 198 0
165 193 0
173 197 0
195 209 0
146 172 0
131 154 0
180 201 0
172 197 0
164 192 0
169 184 0
198 211 0
179 200 0
170 195 0
174 197 0
171 185 0
170 195 0
165 193 0
43 70 0
169 195 0
168 194 0
182 202 0
165 193 0
41 68 0
177 199 0
167 194 0
175 198 0
165 182 0
151 174 0
186 204 0
177 199 0
197 210 0
166 182 0
0 0 0
147 172 0
141 159 0
162 191 0
53 82 0
189 206 0
51 80 0
56 84 0
156 177 0
148 173 0
180 201 0
173 197 0
199 211 0
162 192 0
172 197 0
162 191 0
186 204 0
178 200 0
195 209 0
169 195 0
173 186 0
162 191 0
62 94 0
154 176 0
165 193 0
184 203 0
185 203 0
196 209 0
147 172 0
53 82 0
55 84 0
164 181 0
47 77 0
189 206 0
188 205 0
55 83 0
187 205 0
192 207 0
196 209 0
192 208 0
164 193 0
48 78 0
48 78 0
192 207 0
46 77 0
183 203 0
4 12 0
173 197 0
184 203 0
59 91 0
186 204 0
158 178 0
4 14 0
150 174 0
163 192 0
62 94 0
50 79 0
189 206 0
47 78 0
163 192 0
172 197 0
196 209 0
47 78 0
169 195 0
163 181 0
3 12 0
50 80 0
177 199 0
181 201 0
50 79 0
0 2 0
17 37 0
171 185 0
1 4 0
184 203 0
3 12 0
176 199 0
62 94 0
52 81 0
0 2 0
3 12 0
53 87 0
3 12 0
4 13 0
4 14 0
15 34 0
55 88 0
52 86 0
59 91 0
15 35 0
41 59 0
14 34 0
17 37 0
0 0 0
8 8 0
57 90 0
57 90 0
53 87 0
0 0 0
16 36 0
3 10 0
17 36 0
68 104 181
53 87 0
14 34 0
17 37 0
68 104 181
3 12 0
26 20 0
0 2 0
1 5 0
1 5 0
3 8 0
8 12 0
1 5 0
8 13 0
15 33 0
181 201 0
14 32 0
4 13 0
28 24 0
13 31 0
0 0 0
4 13 0
103 91 0
29 30 0
11 22 0
50 79 0
4 3 0
176 163 0
13 21 0
190 206 0
44 61 0
89 42 0
185 203 0
4 14 0
113 95 0
0 2 0
4 12 0
98 54 0
73 40 0
182 202 0
187 205 0
176 198 0
177 199 0
163 192 0
38 47 0
35 40 0
171 196 0
12 21 0
183 202 0
172 197 0
134 116 0
189 206 0
178 163 0
166 193 0
197 210 0
190 206 0
180 201 0
98 51 0
164 193 0
0 0 0
178 200 0
137 136 0
130 133 0
96 62 0
42 60 0
180 201 0
129 108 0
182 202 0
13 7 0
143 138 0
13 21 0
10 0 0
124 106 0
114 96 0
178 200 0
143 138 0
63 94 0
36 15 0
54 17 0
138 111 0
131 100 22
171 160 0
30 28 0
167 158 0
92 53 0
114 51 2
114 51 2
39 47 0
56 73 0
152 151 0
135 117 0
83 35 0
152 151 0
164 136 51
21 17 0
152 123 0
121 104 0
149 122 0
145 148 0
145 148 0
40 48 0
39 47 0
116 62 4
133 109 0
145 148 0
155 153 0
13 0 0
45 66 0
172 161 0
151 151 0
33 41 0
153 124 0
126 106 0
174 140 51
117 84 0
42 60 0
159 154 0
149 122 0
166 158 0
22 15 0
14 3 0
135 110 0
141 97 0
152 152 0
165 157 0
137 111 0
157 153 0
36 46 0
153 152 0
154 152 0
69 33 0
161 155 0
155 153 0
120 64 4
76 37 0
151 151 0
146 149 0
146 121 0
49 18 0
129 93 0
162 156 0
153 124 0
196 181 114
160 155 0
198 182 114
160 155 0
193 180 114
149 130 51
157 154 0
150 151 0
153 152 0
121 104 0
7 7 0
98 54 0
152 151 0
118 84 0
101 74 0
125 106 0
102 48 2
149 123 0
160 155 0
125 92 0
162 156 0
51 24 0
161 156 0
154 152 0
144 120 0
105 56 0
106 80 0
141 119 0
155 153 0
179 142 51
153 152 0
111 61 4
54 15 0
122 105 0
156 153 0
163 156 0
188 177 114
197 182 114
37 34 7
149 150 0
27 16 0
145 148 0
105 56 0
175 162 0
153 152 0
192 180 114
150 150 0
183 175 114
148 149 0
159 154 0
137 83 10
162 191 0
175 198 0
180 201 0
178 200 0
167 194 0
162 191 0
178 200 0
168 195 0
175 198 0
178 200 0
168 194 0
163 192 0
182 202 0
189 206 0
175 198 0
180 201 0
178 200 0
164 193 0
159 179 0
173 197 0
186 204 0
189 205 0
156 153 0
168 194 0
196 210 0
164 193 0
169 195 0
189 206 0
171 196 0
171 196 0
180 201 0
176 199 0
166 194 0
56 89 0
190 206 0
192 207 0
173 197 0
181 201 0
178 200 0
162 191 0
175 198 0
184 203 0
177 199 0
179 201 0
180 201 0
179 200 0
172 196 0
54 87 0
185 203 0
169 195 0
181 202 0
185 203 0
170 196 0
166 193 0
181 201 0
167 194 0
175 198 0
176 199 0
109 125 0
150 174 0
49 79 0
152 175 0
151 174 0
55 88 0
170 195 0
199 211 0
186 204 0
164 192 0
199 212 0
185 204 0
174 197 0
193 208 0
186 204 0
177 199 0
163 192 0
0 0 0
168 194 0
172 196 0
54 87 0
193 208 0
169 195 0
192 207 0
183 203 0
143 160 0
169 195 0
186 204 0
190 206 0
150 164 0
169 195 0
199 211 0
48 73 0
57 90 0
154 176 0
48 78 0
178 200 0
164 193 0
179 200 0
182 202 0
193 208 0
158 178 0
49 79 0
171 196 0
190 206 0
154 176 0
166 193 0
180 201 0
174 197 0
63 95 0
17 39 0
170 184 0
170 196 0
53 87 0
165 193 0
175 198 0
169 195 0
167 194 0
166 193 0
179 200 0
17 37 0
168 183 0
185 204 0
144 161 0
46 77 0
198 211 0
42 69 0
56 89 0
181 201 0
186 204 0
162 192 0
172 196 0
170 196 0
162 180 0
52 86 0
52 81 0
54 82 0
48 78 0
176 199 0
171 185 0
9 22 0
179 200 0
52 81 0
193 208 0
170 196 0
181 201 0
187 205 0
168 194 0
183 202 0
14 32 0
4 12 0
182 202 0
43 70 0
177 199 0
164 192 0
48 74 0
16 36 0
159 179 0
185 203 0
171 196 0
54 88 0
180 201 0
1 5 0
50 80 0
189 206 0
47 77 0
186 204 0
53 82 0
50 79 0
49 79 0
179 200 0
1 5 0
61 93 0
189 206 0
172 197 0
180 201 0
53 82 0
15 32 0
13 30 0
176 198 0
52 81 0
4 13 0
1 5 0
14 31 0
53 82 0
5 15 0
1 5 0
15 33 0
61 93 0
13 31 0
9 15 0
4 12 0
0 2 0
53 87 0
4 13 0
54 87 0
0 0 0
69 104 181
5 16 0
0 0 0
56 89 0
14 34 0
19 42 0
66 102 181
4 2 0
55 89 0
0 0 0
68 103 181
52 86 0
5 15 0
5 15 0
0 1 0
0 0 0
4 13 0
4 14 0
4 12 0
0 0 0
0 1 0
0 0 0
50 79 0
1 4 0
4 13 0
183 203 0
12 20 0
182 202 0
12 24 0
34 42 0
42 60 0
1 6 0
12 3 0
142 138 0
4 11 0
3 7 0
178 200 0
36 43 0
48 64 0
10 21 0
133 94 0
39 40 0
17 37 0
50 79 0
33 33 0
181 201 0
46 76 0
53 82 0
10 1 0
167 194 0
54 83 0
50 80 0
188 205 0
191 207 0
55 72 0
191 207 0
143 139 0
0 2 0
179 200 0
132 134 0
50 79 0
140 97 0
108 81 0
147 141 0
63 94 0
41 59 0
133 134 0
43 61 0
137 136 0
77 43 0
179 200 0
93 61 0
3 9 0
41 59 0
14 29 0
94 71 0
134 110 0
49 64 0
170 196 0
172 197 0
167 158 0
0 1 0
26 27 0
43 61 0
154 144 0
36 53 0
179 200 0
67 23 0
142 113 0
134 116 0
69 29 0
36 5 0
88 65 0
134 101 22
85 45 0
139 97 0
147 105 22
46 62 0
31 23 0
154 152 0
86 53 0
88 34 0
170 160 0
117 103 0
17 1 0
28 3 0
151 151 0
163 136 51
155 153 0
105 69 0
122 86 0
123 105 0
48 68 0
151 151 0
170 160 0
35 42 0
157 154 0
50 56 0
125 92 0
152 151 0
117 103 0
0 0 0
37 46 0
126 75 0
161 155 0
156 153 0
147 149 0
148 150 0
44 61 0
117 84 0
166 158 0
156 153 0
102 64 0
120 104 0
162 156 0
146 149 0
147 149 0
25 20 0
33 29 0
120 104 0
151 151 0
123 79 10
150 123 0
149 122 0
158 126 0
143 120 0
160 155 0
106 60 4
154 124 0
155 153 0
173 161 0
145 148 0
151 151 0
118 103 0
116 102 0
195 181 114
157 109 22
160 155 0
150 150 0
150 151 0
122 86 0
132 100 22
142 120 0
163 157 0
173 161 0
141 84 10
159 155 0
155 125 0
157 154 0
197 182 114
194 180 114
32 3 0
165 157 0
162 156 0
153 152 0
158 154 0
145 148 0
169 159 0
78 43 0
154 152 0
101 55 0
137 118 0
143 120 0
86 29 0
139 118 0
166 158 0
75 35 0
15 4 0
138 96 0
164 157 0
170 160 0
145 148 0
171 139 51
175 140 51
187 177 114
153 152 0
71 25 0
152 151 0
152 151 0
162 156 0
139 118 0
157 153 0
85 29 0
119 104 0
157 154 0
184 203 0
191 207 0
163 192 0
169 195 0
187 204 0
156 177 0
180 201 0
181 202 0
171 196 0
182 202 0
185 204 0
169 195 0
178 200 0
163 192 0
177 199 0
173 197 0
177 199 0
178 199 0
178 200 0
164 192 0
189 206 0
58 90 0
162 180 0
194 208 0
183 203 0
182 202 0
169 195 0
185 204 0
165 193 0
12 28 0
180 201 0
179 200 0
166 193 0
193 208 0
172 197 0
169 195 0
179 200 0
165 193 0
177 199 0
183 203 0
181 202 0
175 198 0
167 194 0
171 196 0
189 206 0
169 195 0
154 176 0
183 203 0
171 196 0
189 206 0
164 192 0
195 209 0
172 197 0
170 195 0
168 194 0
169 195 0
165 193 0
172 197 0
184 203 0
180 201 0
176 199 0
155 176 0
187 205 0
180 201 0
178 200 0
169 195 0
187 205 0
5 15 0
170 195 0
168 194 0
57 89 0
199 211 0
175 198 0
199 211 0
167 194 0
50 80 0
173 197 0
167 194 0
190 206 0
46 72 0
49 79 0
195 209 0
178 200 0
182 202 0
50 79 0
49 79 0
50 79 0
185 203 0
49 79 0
173 197 0
167 194 0
53 82 0
152 175 0
199 211 0
48 78 0
168 183 0
197 210 0
192 207 0
177 199 0
174 197 0
192 207 0
196 209 0
164 192 0
156 177 0
63 94 0
172 196 0
161 180 0
198 211 0
47 77 0
175 198 0
189 206 0
178 200 0
196 210 0
188 205 0
193 208 0
53 82 0
183 203 0
186 204 0
190 206 0
152 175 0
185 203 0
3 11 0
168 183 0
181 201 0
166 193 0
54 87 0
185 204 0
172 196 0
145 171 0
179 200 0
199 211 0
4 13 0
50 80 0
50 80 0
48 78 0
193 208 0
186 204 0
195 209 0
177 199 0
149 173 0
169 195 0
19 42 0
185 203 0
56 84 0
183 202 0
180 201 0
173 197 0
180 201 0
170 195 0
46 77 0
47 77 0
46 77 0
169 195 0
180 201 0
13 25 0
167 194 0
63 94 0
173 197 0
166 194 0
170 185 0
47 78 0
183 202 0
52 81 0
194 208 0
61 93 0
52 81 0
4 13 0
47 78 0
49 79 0
49 79 0
179 200 0
52 81 0
14 31 0
1 5 0
15 32 0
177 199 0
13 30 0
175 198 0
198 211 0
49 79 0
180 201 0
54 83 0
14 31 0
49 79 0
0 2 0
4 12 0
0 0 0
61 93 0
0 0 0
53 82 0
0 0 0
0 2 0
4 10 0
187 205 0
54 83 0
0 2 0
1 5 0
53 82 0
0 0 0
0 0 0
0 0 0
4 13 0
4 13 0
0 0 0
11 21 0
0 0 0
0 0 0
0 0 0
1 3 0
0 0 0
0 3 0
0 1 0
0 0 0
4 12 0
0 0 0
3 10 0
2 6 0
15 33 0
1 5 0
0 0 0
4 13 0
0 1 0
1 5 0
9 16 0
50 80 0
168 195 0
47 77 0
11 16 0
1 3 0
0 0 0
36 46 0
51 80 0
168 195 0
182 202 0
0 0 0
1 4 0
52 81 0
46 77 0
171 160 0
81 27 0
47 77 0
62 94 0
0 1 0
44 53 0
61 93 0
62 94 0
41 42 0
53 82 0
189 206 0
127 93 0
43 49 0
89 40 0
25 16 0
178 164 0
173 197 0
172 197 0
136 135 0
1 0 0
0 0 0
183 202 0
47 77 0
52 81 0
46 76 0
11 3 0
121 104 0
178 163 0
62 94 0
50 65 0
180 201 0
138 136 0
39 47 0
43 15 0
190 206 0
46 76 0
174 162 0
132 109 0
188 205 0
183 202 0
78 47 0
62 21 0
140 112 0
182 202 0
178 200 0
38 15 0
50 80 0
64 21 0
142 138 0
17 10 0
74 30 0
177 199 0
192 207 0
117 103 0
121 85 0
136 111 0
137 102 22
3 6 0
11 3 0
159 154 0
32 7 0
32 27 0
158 109 22
113 71 0
76 26 0
124 106 0
120 104 0
163 156 0
172 161 0
135 95 0
152 131 51
163 157 0
88 42 0
152 151 0
138 111 0
55 72 0
157 126 0
24 18 0
8 9 0
172 161 0
33 36 0
167 158 0
167 158 0
160 155 0
14 28 0
72 32 0
81 44 0
159 154 0
150 150 0
157 126 0
47 54 0
149 150 0
150 151 0
162 156 0
153 152 0
153 152 0
145 148 0
108 57 0
162 156 0
159 155 0
131 109 0
148 122 0
105 80 0
150 150 0
47 14 0
125 106 0
150 150 0
146 121 0
172 161 0
154 152 0
145 148 0
139 103 22
136 117 0
45 12 0
150 150 0
27 17 0
146 149 0
136 117 0
157 153 0
199 183 114
169 159 0
150 123 0
199 183 114
148 122 0
145 148 0
118 84 0
151 123 0
150 150 0
133 82 10
132 115 0
154 152 0
199 183 114
95 58 0
163 156 0
123 105 0
174 162 0
166 158 0
196 181 114
158 154 0
99 39 0
189 178 114
156 125 0
157 153 0
145 148 0
68 21 0
184 176 114
119 104 0
45 10 0
52 12 0
183 175 114
100 52 0
134 82 10
95 62 0
136 96 0
124 106 0
146 149 0
160 155 0
159 126 0
197 182 114
167 158 0
197 182 114
153 107 22
170 196 0
184 203 0
164 192 0
164 193 0
162 191 0
172 196 0
169 195 0
181 201 0
177 199 0
175 198 0
181 201 0
173 197 0
179 200 0
175 198 0
192 208 0
182 202 0
182 202 0
195 209 0
187 205 0
169 195 0
176 199 0
188 205 0
163 192 0
165 193 0
173 197 0
165 193 0
176 199 0
175 198 0
173 197 0
164 193 0
170 184 0
173 197 0
163 192 0
177 199 0
172 196 0
175 198 0
173 197 0
177 199 0
193 208 0
175 187 0
176 199 0
193 208 0
187 205 0
191 207 0
176 199 0
182 202 0
175 198 0
183 202 0
145 171 0
199 212 0
150 174 0
167 194 0
178 200 0
175 198 0
182 202 0
193 208 0
59 91 0
49 79 0
165 193 0
170 196 0
177 199 0
187 205 0
191 207 0
196 209 0
190 206 0
176 199 0
192 207 0
170 196 0
170 196 0
146 172 0
200 212 0
166 193 0
196 210 0
172 196 0
189 206 0
181 202 0
188 205 0
187 204 0
171 196 0
196 209 0
175 198 0
194 209 0
191 207 0
188 205 0
168 194 0
59 91 0
56 84 0
175 198 0
194 208 0
162 191 0
177 199 0
176 199 0
47 78 0
195 209 0
151 174 0
49 79 0
167 183 0
177 199 0
197 210 0
188 205 0
174 198 0
178 189 0
63 94 0
152 143 0
194 208 0
171 196 0
168 194 0
195 209 0
178 199 0
200 212 0
177 199 0
46 77 0
163 192 0
195 209 0
163 192 0
182 202 0
146 162 0
177 199 0
136 156 0
55 84 0
188 205 0
4 14 0
55 89 0
161 191 0
190 206 0
197 210 0
163 192 0
189 206 0
190 206 0
173 197 0
172 197 0
170 195 0
47 77 0
145 171 0
172 185 0
168 195 0
178 200 0
170 195 0
180 201 0
183 202 0
183 202 0
182 202 0
180 201 0
164 193 0
47 77 0
168 195 0
194 209 0
46 77 0
177 199 0
165 193 0
47 73 0
183 202 0
52 81 0
53 87 0
190 206 0
48 78 0
52 81 0
13 30 0
162 191 0
13 30 0
189 206 0
159 179 0
4 12 0
151 174 0
0 0 0
58 90 0
178 200 0
47 77 0
49 79 0
174 198 0
52 81 0
14 34 0
164 192 0
178 200 0
176 199 0
55 84 0
49 79 0
61 93 0
0 0 0
1 5 0
0 2 0
1 4 0
189 206 0
1 4 0
3 12 0
51 80 0
4 12 0
14 32 0
4 13 0
3 12 0
0 0 0
196 209 0
0 0 0
62 94 0
4 13 0
0 0 0
51 80 0
1 5 0
14 32 0
184 203 0
0 1 0
0 1 0
4 14 0
187 205 0
0 0 0
0 0 0
0 2 0
3 12 0
0 0 0
0 0 0
46 76 0
17 37 0
17 37 0
9 13 0
2 6 0
12 22 0
14 32 0
194 209 0
3 12 0
19 13 0
130 133 0
48 78 0
52 81 0
12 19 0
0 1 0
96 44 0
28 22 0
176 198 0
176 199 0
14 32 0
17 37 0
1 5 0
0 2 0
173 197 0
0 0 0
62 94 0
15 5 0
14 31 0
12 22 0
3 10 0
49 79 0
157 145 0
10 18 0
179 200 0
63 94 0
166 193 0
153 124 0
186 204 0
11 23 0
1 4 0
190 206 0
46 76 0
40 55 0
153 144 0
14 32 0
187 205 0
39 54 0
12 24 0
38 54 0
0 2 0
155 144 0
170 195 0
170 196 0
43 61 0
37 53 0
184 203 0
145 140 0
44 61 0
8 9 0
192 207 0
183 202 0
104 92 0
191 207 0
169 159 0
181 201 0
40 55 0
146 121 0
182 202 0
188 205 0
72 29 0
43 57 0
16 8 0
186 204 0
39 54 0
66 26 0
121 99 0
15 2 0
9 10 0
94 58 0
104 69 0
122 99 0
82 38 0
79 41 0
44 61 0
70 36 0
120 104 0
113 72 0
92 57 0
158 109 22
44 37 7
48 63 0
111 58 0
171 160 0
163 135 51
145 121 0
160 155 0
160 155 0
105 65 0
78 32 0
25 6 0
136 101 22
49 68 0
153 152 0
39 11 0
105 75 0
149 150 0
42 60 0
12 21 0
94 71 0
80 44 0
153 152 0
59 15 0
106 65 0
146 149 0
33 41 0
157 153 0
157 154 0
83 36 0
125 92 0
122 105 0
167 158 0
159 127 0
135 82 10
148 150 0
171 160 0
123 105 0
155 153 0
94 62 0
174 161 0
6 0 0
32 3 0
145 148 0
160 155 0
10 18 0
158 154 0
166 158 0
173 161 0
122 105 0
41 59 0
156 153 0
163 156 0
155 153 0
153 152 0
164 157 0
158 154 0
1 1 0
117 103 0
156 125 0
152 107 22
166 158 0
24 22 0
164 157 0
23 14 0
164 157 0
126 106 0
133 95 0
157 153 0
5 0 0
166 158 0
70 29 0
152 151 0
155 153 0
76 22 0
109 49 2
152 151 0
147 149 0
155 153 0
159 154 0
151 151 0
157 153 0
153 152 0
126 106 0
154 152 0
142 98 0
62 28 0
47 8 0
131 108 0
148 149 0
140 103 22
156 153 0
112 78 0
148 122 0
8 12 0
13 0 0
64 17 0
147 149 0
166 158 0
129 81 10
149 150 0
186 177 114
148 173 0
168 195 0
188 205 0
173 197 0
165 193 0
165 193 0
154 166 0
179 200 0
166 193 0
181 201 0
184 203 0
177 199 0
182 202 0
174 197 0
170 195 0
182 202 0
43 70 0
173 197 0
172 197 0
162 180 0
176 198 0
176 198 0
55 88 0
174 197 0
178 200 0
169 195 0
162 191 0
170 196 0
174 197 0
168 194 0
164 192 0
198 211 0
190 206 0
177 199 0
184 203 0
158 178 0
172 196 0
54 83 0
178 200 0
196 210 0
172 197 0
186 204 0
164 192 0
164 192 0
182 202 0
175 198 0
58 91 0
173 197 0
168 195 0
184 203 0
170 195 0
194 209 0
170 196 0
189 206 0
177 199 0
175 198 0
184 203 0
180 201 0
184 203 0
163 192 0
167 183 0
184 203 0
173 197 0
189 206 0
181 201 0
176 198 0
185 203 0
166 193 0
182 202 0
190 207 0
192 207 0
194 208 0
165 193 0
179 200 0
190 206 0
182 202 0
164 192 0
186 204 0
190 206 0
157 178 0
152 175 0
193 208 0
176 199 0
190 206 0
168 194 0
173 197 0
180 201 0
195 209 0
152 175 0
119 138 0
17 37 0
180 201 0
151 174 0
42 69 0
59 91 0
52 81 0
184 203 0
171 196 0
193 208 0
194 209 0
191 207 0
175 187 0
184 203 0
167 183 0
46 77 0
177 199 0
165 193 0
151 165 0
173 186 0
177 199 0
175 187 0
53 82 0
184 203 0
1 5 0
182 202 0
189 206 0
172 185 0
165 182 0
51 80 0
58 91 0
197 210 0
178 200 0
61 93 0
187 204 0
173 197 0
178 200 0
46 77 0
182 202 0
46 72 0
185 203 0
168 195 0
175 187 0
171 196 0
189 206 0
168 194 0
17 37 0
170 196 0
169 195 0
185 204 0
172 197 0
13 31 0
189 206 0
189 205 0
52 81 0
46 77 0
176 199 0
45 76 0
163 192 0
17 37 0
50 79 0
169 195 0
184 203 0
162 191 0
162 191 0
49 79 0
158 178 0
52 81 0
57 90 0
163 192 0
185 203 0
173 197 0
15 33 0
181 202 0
53 82 0
42 69 0
52 81 0
189 206 0
51 80 0
168 194 0
53 82 0
53 82 0
46 77 0
62 93 0
175 198 0
49 79 0
0 0 0
51 80 0
53 87 0
52 81 0
55 84 0
160 179 0
13 31 0
61 93 0
182 202 0
15 33 0
15 33 0
17 37 0
13 31 0
181 201 0
52 81 0
181 201 0
52 81 0
181 201 0
4 13 0
193 208 0
1 5 0
14 32 0
62 94 0
3 12 0
1 4 0
50 80 0
51 81 0
1 6 0
4 12 0
51 80 0
0 1 0
156 153 0
49 75 0
0 0 0
0 0 0
1 5 0
0 2 0
0 0 0
32 38 0
1 5 0
185 203 0
13 31 0
1 1 0
0 2 0
175 198 0
12 19 0
187 205 0
12 21 0
174 198 0
54 83 0
15 33 0
179 200 0
0 0 0
48 64 0
0 0 0
4 14 0
14 32 0
184 203 0
194 209 0
58 90 0
177 199 0
162 156 0
147 141 0
131 109 0
193 208 0
0 0 0
107 57 0
37 53 0
171 160 0
62 94 0
177 199 0
33 38 0
38 54 0
88 46 0
139 137 0
40 55 0
46 76 0
44 61 0
183 203 0
188 205 0
157 145 0
24 19 0
184 203 0
178 200 0
189 206 0
188 205 0
173 197 0
49 56 0
47 78 0
48 64 0
171 196 0
50 79 0
48 64 0
173 161 0
47 77 0
175 198 0
190 206 0
6 4 0
144 139 0
178 200 0
142 138 0
139 112 0
172 161 0
31 27 0
94 62 0
182 202 0
113 95 0
123 86 0
23 6 0
148 122 0
9 10 0
173 161 0
20 1 0
0 0 0
129 93 0
20 15 0
175 162 0
32 27 0
184 203 0
144 120 0
148 106 22
86 42 0
84 41 0
54 62 36
158 133 51
103 75 0
75 40 0
154 152 0
152 124 0
123 86 0
161 155 0
163 156 0
136 96 0
152 151 0
164 157 0
133 109 0
151 151 0
107 49 2
149 123 0
166 158 0
51 13 0
118 84 0
159 126 0
153 152 0
115 89 0
156 153 0
149 150 0
56 16 0
120 85 0
162 156 0
55 72 0
2 6 0
117 103 0
128 107 0
164 157 0
120 85 0
145 121 0
155 125 0
168 159 0
129 93 0
127 107 0
101 64 0
126 106 0
85 34 0
146 149 0
178 141 51
150 123 0
175 162 0
50 20 0
108 76 0
166 158 0
150 150 0
164 157 0
108 49 2
166 158 0
149 150 0
175 162 0
7 7 0
14 22 0
174 140 51
151 151 0
163 156 0
26 15 0
161 156 0
134 110 0
120 104 0
154 152 0
154 125 0
149 150 0
105 60 4
125 80 10
29 3 0
166 158 0
139 118 0
0 0 0
122 105 0
146 148 0
98 54 0
142 119 0
145 148 0
167 158 0
117 77 10
55 17 0
58 15 0
9 11 0
158 154 0
160 155 0
151 151 0
98 59 0
156 153 0
160 155 0
146 149 0
50 69 0
145 148 0
158 133 51
87 29 0
166 158 0
158 154 0
23 1 0
87 30 0
168 159 0
48 11 0
146 149 0
159 155 0
147 149 0
175 198 0
178 200 0
177 199 0
186 204 0
197 210 0
166 194 0
182 202 0
172 196 0
167 194 0
172 197 0
2 5 0
173 197 0
173 197 0
186 204 0
185 203 0
189 206 0
178 200 0
178 200 0
156 153 0
189 205 0
162 191 0
171 196 0
145 171 0
174 198 0
178 200 0
198 211 0
179 200 0
169 195 0
169 195 0
171 196 0
186 204 0
167 194 0
184 203 0
170 195 0
154 176 0
200 212 0
193 208 0
189 206 0
169 195 0
153 175 0
184 203 0
184 203 0
136 135 0
179 200 0
13 31 0
164 192 0
167 194 0
191 207 0
189 206 0
152 175 0
164 181 0
171 196 0
181 201 0
174 198 0
49 79 0
185 203 0
177 199 0
169 195 0
166 193 0
148 173 0
177 199 0
174 197 0
182 202 0
171 196 0
174 198 0
194 208 0
165 193 0
44 71 0
178 200 0
183 202 0
167 194 0
176 199 0
183 202 0
192 207 0
166 194 0
176 199 0
169 195 0
169 195 0
169 195 0
155 176 0
184 203 0
197 210 0
185 203 0
185 203 0
188 205 0
178 200 0
175 198 0
49 79 0
157 177 0
165 193 0
186 204 0
145 171 0
171 196 0
53 82 0
198 211 0
187 205 0
164 192 0
173 197 0
182 202 0
176 199 0
163 181 0
172 197 0
186 204 0
198 210 0
196 209 0
187 204 0
168 194 0
171 185 0
195 209 0
153 176 0
155 176 0
163 192 0
172 197 0
152 175 0
59 91 0
41 69 0
53 82 0
189 206 0
13 31 0
180 201 0
170 195 0
43 70 0
174 198 0
162 191 0
162 191 0
44 71 0
13 28 0
185 204 0
182 202 0
50 79 0
153 175 0
41 68 0
176 188 0
13 31 0
168 195 0
187 205 0
193 208 0
163 192 0
190 206 0
155 176 0
62 94 0
176 199 0
49 79 0
181 201 0
50 79 0
58 90 0
182 202 0
187 205 0
145 171 0
193 208 0
49 78 0
164 181 0
173 197 0
169 195 0
166 182 0
15 33 0
164 193 0
183 203 0
188 205 0
174 198 0
167 194 0
14 32 0
184 203 0
156 177 0
191 207 0
16 36 0
49 79 0
3 11 0
4 14 0
181 201 0
13 31 0
177 199 0
177 163 0
62 93 0
183 202 0
1 5 0
0 0 0
49 79 0
193 208 0
181 201 0
62 94 0
49 79 0
178 200 0
186 204 0
1 5 0
1 4 0
17 37 0
51 80 0
2 6 0
1 5 0
47 77 0
192 207 0
54 83 0
1 5 0
13 31 0
50 80 0
13 31 0
4 13 0
0 2 0
13 29 0
1 5 0
50 80 0
61 93 0
13 29 0
0 1 0
4 12 0
0 0 0
3 12 0
17 37 0
14 32 0
4 13 0
4 13 0
2 4 0
17 37 0
10 21 0
54 83 0
61 93 0
190 206 0
173 197 0
185 204 0
184 203 0
48 78 0
12 19 0
108 93 0
0 0 0
180 201 0
0 0 0
186 204 0
185 203 0
5 15 0
168 159 0
167 158 0
178 200 0
25 21 0
175 198 0
168 195 0
177 199 0
9 14 0
0 2 0
145 140 0
51 81 0
46 63 0
46 76 0
47 63 0
51 80 0
5 3 0
13 25 0
162 191 0
187 205 0
33 33 0
192 207 0
134 134 0
131 133 0
3 7 0
43 50 0
177 199 0
49 79 0
147 140 0
167 158 0
15 35 0
50 80 0
55 89 0
47 67 0
10 21 0
165 193 0
43 61 0
17 37 0
61 93 0
5 5 0
46 77 0
96 72 0
33 39 0
156 145 0
139 118 0
16 36 0
193 208 0
184 203 0
34 39 0
180 201 0
183 203 0
182 202 0
27 28 0
6 7 0
2 5 0
93 53 0
0 0 0
120 98 0
10 21 0
130 93 0
50 56 0
113 78 0
91 40 0
49 79 0
57 90 0
13 25 0
111 77 0
177 163 0
26 28 0
139 97 0
22 20 0
12 17 0
120 104 0
88 42 0
173 161 0
0 1 0
112 82 0
0 0 0
152 151 0
164 157 0
154 125 0
136 96 0
31 3 0
105 75 0
107 76 0
156 153 0
157 109 22
169 159 0
98 59 0
96 44 0
119 104 0
96 59 0
38 40 0
150 151 0
37 43 0
22 11 0
111 82 0
154 152 0
157 154 0
149 150 0
137 117 0
137 111 0
116 102 0
7 1 0
58 12 0
158 154 0
4 11 0
157 154 0
84 52 0
146 149 0
151 151 0
126 65 4
41 7 0
147 149 0
150 150 0
149 150 0
163 156 0
172 161 0
132 100 22
152 151 0
153 152 0
34 4 0
44 61 0
118 103 0
145 121 0
168 159 0
143 120 0
98 47 2
111 67 0
151 151 0
42 60 0
67 20 0
140 112 0
130 94 0
120 104 0
98 47 2
136 96 0
154 152 0
166 158 0
162 156 0
126 106 0
54 13 0
142 119 0
98 44 0
153 152 0
198 183 114
77 26 0
153 152 0
13 21 0
127 107 0
145 148 0
149 150 0
195 181 114
102 48 2
162 135 51
171 160 0
104 56 0
149 150 0
165 157 0
170 160 0
132 116 0
154 152 0
146 148 0
196 181 114
153 152 0
67 20 0
156 153 0
43 7 0
164 157 0
128 107 0
96 54 0
164 193 0
54 87 0
185 203 0
53 87 0
189 205 0
180 201 0
183 202 0
177 199 0
179 200 0
173 197 0
163 192 0
162 191 0
169 195 0
186 204 0
54 87 0
178 200 0
172 196 0
175 198 0
174 197 0
164 192 0
172 197 0
172 197 0
182 202 0
163 192 0
191 207 0
187 204 0
177 199 0
185 204 0
185 203 0
163 192 0
189 206 0
178 200 0
165 193 0
184 203 0
170 196 0
176 199 0
185 203 0
193 208 0
175 198 0
174 197 0
176 199 0
168 195 0
170 196 0
167 194 0
177 199 0
166 193 0
175 198 0
176 198 0
190 206 0
176 199 0
171 196 0
168 194 0
197 210 0
173 197 0
169 195 0
176 199 0
164 193 0
191 207 0
192 208 0
165 193 0
168 195 0
174 197 0
160 179 0
166 194 0
181 201 0
170 195 0
175 187 0
187 204 0
187 204 0
185 204 0
164 193 0
46 77 0
170 196 0
182 202 0
48 78 0
166 193 0
62 94 0
183 202 0
181 202 0
182 202 0
173 197 0
146 172 0
198 211 0
47 77 0
183 202 0
186 204 0
184 203 0
49 79 0
184 203 0
188 205 0
17 37 0
170 195 0
199 211 0
171 196 0
162 191 0
52 81 0
167 183 0
50 80 0
172 197 0
164 181 0
132 154 0
167 183 0
168 195 0
187 205 0
193 208 0
197 210 0
49 79 0
166 182 0
42 69 0
15 33 0
175 198 0
195 209 0
169 195 0
154 176 0
156 177 0
196 209 0
149 163 0
47 78 0
157 177 0
177 199 0
195 209 0
190 206 0
192 208 0
172 196 0
162 191 0
198 211 0
52 86 0
187 204 0
198 211 0
46 77 0
174 198 0
52 81 0
177 199 0
148 173 0
174 198 0
55 88 0
15 32 0
172 197 0
48 78 0
195 209 0
171 196 0
190 206 0
52 81 0
171 196 0
176 198 0
191 207 0
177 199 0
194 208 0
182 202 0
170 195 0
177 199 0
195 209 0
172 196 0
168 195 0
183 202 0
195 209 0
173 197 0
54 83 0
50 65 0
163 192 0
179 200 0
174 197 0
14 32 0
13 31 0
177 199 0
4 15 0
190 207 0
198 211 0
56 84 0
171 196 0
47 77 0
54 83 0
179 200 0
49 79 0
15 33 0
47 77 0
0 2 0
168 195 0
51 80 0
183 202 0
49 79 0
3 12 0
52 81 0
50 79 0
143 138 0
46 12 0
188 205 0
48 78 0
50 80 0
188 205 0
13 31 0
3 12 0
0 2 0
55 83 0
50 79 0
52 81 0
150 142 0
1 5 0
4 13 0
187 205 0
3 12 0
17 37 0
50 80 0
181 201 0
4 14 0
50 80 0
0 0 0
59 92 0
173 197 0
1 6 0
50 80 0
4 12 0
14 31 0
166 158 0
0 0 0
49 79 0
62 94 0
47 77 0
185 203 0
177 199 0
1 5 0
61 93 0
193 208 0
15 33 0
2 4 0
13 30 0
52 81 0
4 12 0
132 94 0
176 163 0
62 93 0
5 15 0
183 203 0
166 193 0
46 76 0
168 194 0
129 115 0
51 81 0
175 162 0
60 93 0
47 77 0
51 80 0
59 91 0
132 133 0
59 92 0
12 19 0
37 53 0
0 0 0
24 16 0
169 195 0
0 0 0
17 37 0
11 22 0
37 46 0
145 140 0
63 94 0
46 77 0
177 199 0
168 195 0
116 97 0
11 20 0
178 199 0
176 162 0
174 162 0
154 152 0
3 10 0
183 202 0
45 51 0
175 198 0
44 50 0
77 32 0
11 17 0
21 16 0
50 80 0
118 89 0
136 96 0
109 77 0
88 53 0
46 62 0
120 90 0
136 96 0
101 60 0
168 159 0
176 162 0
123 99 0
71 37 0
67 27 0
167 158 0
182 202 0
26 24 0
178 163 0
127 87 0
1 0 0
49 79 0
6 8 0
185 204 0
94 67 0
104 75 0
98 69 0
69 25 0
129 93 0
34 9 0
143 120 0
111 71 0
111 71 0
129 108 0
32 33 0
33 41 0
88 42 0
32 41 0
113 68 0
63 19 0
78 23 0
75 22 0
83 33 0
140 119 0
39 47 0
160 127 0
146 121 0
41 59 0
117 84 0
154 144 0
136 83 10
153 152 0
160 155 0
147 149 0
38 8 0
149 150 0
150 151 0
96 62 0
147 121 0
88 53 0
35 34 0
133 95 0
64 17 0
112 62 4
162 156 0
151 151 0
152 124 0
152 123 0
156 153 0
97 72 0
127 107 0
119 90 0
123 105 0
160 155 0
146 149 0
150 150 0
122 105 0
179 142 51
147 105 22
149 150 0
26 3 0
131 108 0
170 160 0
143 120 0
126 65 4
164 157 0
33 21 1
191 179 114
80 28 0
200 183 114
154 152 0
107 80 0
151 151 0
153 152 0
172 139 51
104 60 4
145 148 0
159 154 0
147 149 0
54 15 0
169 159 0
161 155 0
152 107 22
98 51 0
156 125 0
115 102 0
66 17 0
83 55 0
123 79 10
155 132 51
161 155 0
115 83 0
134 110 0
123 105 0
115 83 0
132 116 0
164 157 0
169 159 0
115 72 0
116 72 0
152 151 0
148 106 22
145 148 0
26 20 0
127 66 4
16 7 0
25 14 0
184 203 0
169 195 0
176 199 0
163 192 0
165 193 0
175 198 0
168 195 0
162 180 0
190 206 0
186 204 0
166 193 0
166 194 0
168 195 0
164 193 0
176 199 0
176 199 0
165 193 0
166 194 0
180 201 0
148 163 0
191 207 0
145 171 0
185 203 0
182 202 0
178 200 0
125 134 0
192 207 0
158 178 0
163 192 0
166 193 0
182 202 0
174 198 0
165 193 0
179 200 0
171 196 0
175 198 0
166 193 0
172 196 0
179 200 0
157 177 0
188 205 0
171 196 0
181 201 0
192 207 0
152 151 0
165 193 0
169 195 0
175 198 0
180 201 0
173 197 0
175 198 0
178 200 0
173 197 0
142 160 0
185 203 0
186 204 0
16 36 0
173 197 0
166 193 0
185 204 0
195 209 0
195 209 0
47 77 0
164 192 0
170 184 0
180 201 0
176 199 0
174 198 0
184 203 0
171 196 0
189 206 0
174 198 0
188 205 0
187 205 0
166 182 0
196 210 0
190 206 0
182 202 0
176 199 0
131 154 0
173 197 0
184 203 0
192 207 0
192 207 0
163 192 0
164 193 0
1 5 0
162 191 0
53 82 0
173 197 0
163 192 0
154 176 0
159 178 0
167 194 0
173 197 0
194 208 0
197 210 0
150 174 0
196 209 0
154 176 0
186 204 0
44 71 0
143 160 0
51 80 0
172 197 0
176 198 0
167 183 0
109 125 0
14 32 0
48 15 0
174 187 0
143 160 0
162 192 0
45 76 0
155 176 0
190 206 0
52 81 0
164 181 0
164 181 0
191 207 0
195 209 0
166 194 0
182 202 0
174 198 0
178 200 0
182 202 0
14 32 0
178 200 0
180 201 0
46 76 0
195 209 0
163 192 0
169 195 0
17 37 0
53 82 0
182 202 0
155 177 0
184 203 0
184 203 0
186 204 0
172 197 0
162 191 0
176 199 0
145 171 0
175 198 0
191 207 0
170 196 0
3 12 0
53 82 0
167 194 0
47 77 0
13 30 0
58 90 0
62 94 0
60 93 0
15 35 0
49 79 0
46 77 0
166 194 0
12 27 0
162 192 0
48 78 0
187 205 0
171 196 0
50 79 0
48 78 0
53 82 0
52 81 0
175 198 0
4 13 0
46 77 0
172 197 0
185 204 0
51 80 0
196 210 0
45 71 0
60 92 0
54 83 0
0 0 0
52 81 0
14 32 0
14 32 0
52 81 0
172 197 0
51 81 0
4 13 0
42 69 0
3 12 0
15 35 0
1 4 0
0 0 0
177 199 0
54 83 0
49 79 0
60 92 0
192 207 0
15 32 0
0 0 0
3 12 0
1 5 0
4 14 0
189 206 0
4 13 0
48 64 0
49 79 0
3 12 0
13 31 0
190 206 0
62 94 0
1 5 0
118 103 0
4 13 0
0 0 0
47 63 0
1 3 0
50 80 0
40 39 0
145 148 0
187 204 0
185 204 0
116 84 0
17 37 0
12 24 0
52 81 0
13 30 0
39 54 0
4 13 0
47 78 0
15 33 0
47 77 0
3 12 0
14 26 0
109 81 0
167 194 0
17 37 0
39 54 0
156 153 0
193 208 0
183 203 0
150 142 0
146 140 0
48 78 0
183 202 0
137 136 0
150 123 0
191 207 0
48 78 0
38 54 0
184 203 0
17 37 0
99 84 0
46 77 0
43 57 0
172 197 0
48 64 0
142 138 0
187 204 0
37 53 0
55 83 0
185 204 0
1 4 0
62 24 0
184 203 0
3 7 0
1 5 0
53 82 0
39 55 0
178 163 0
87 46 0
134 110 0
101 64 0
48 78 0
49 64 0
112 95 0
136 135 0
186 204 0
117 97 0
56 20 0
38 9 0
147 141 0
163 157 0
62 26 0
193 208 0
72 32 0
2 6 0
181 201 0
146 140 0
134 134 0
12 24 0
10 21 0
48 78 0
129 132 0
191 207 0
149 141 0
48 64 0
116 83 0
118 103 0
72 39 0
9 14 0
0 0 0
19 5 0
186 204 0
191 207 0
81 28 0
92 43 0
0 0 0
29 25 0
27 16 0
148 106 22
165 157 0
118 63 4
156 125 0
113 67 0
6 4 0
119 85 0
164 136 51
19 2 0
158 154 0
168 137 51
66 21 0
22 4 0
8 10 0
157 154 0
21 3 0
41 48 0
66 14 0
144 120 0
149 122 0
146 148 0
139 84 10
93 71 0
15 6 0
155 152 0
129 81 10
131 109 0
173 140 51
156 153 0
152 151 0
165 157 0
5 2 0
81 29 0
133 109 0
151 151 0
113 51 2
154 152 0
116 84 0
147 149 0
157 126 0
157 153 0
34 27 3
173 161 0
157 154 0
154 152 0
116 102 0
161 155 0
197 182 114
155 152 0
83 41 0
145 148 0
106 56 0
163 156 0
195 181 114
35 4 0
150 151 0
162 156 0
165 157 0
169 159 0
149 150 0
93 37 0
94 53 0
160 155 0
159 134 51
109 81 0
170 159 0
156 125 0
162 156 0
119 104 0
97 54 0
167 158 0
133 100 22
33 25 0
147 122 0
152 151 0
168 159 0
156 153 0
137 111 0
133 95 0
145 121 0
138 118 0
177 141 51
145 148 0
176 172 114
152 107 22
140 103 22
127 80 10
141 119 0
176 141 51
151 151 0
139 136 0
120 63 4
176 198 0
192 207 0
172 197 0
162 191 0
168 194 0
173 197 0
188 205 0
165 193 0
172 197 0
181 201 0
47 77 0
168 194 0
183 202 0
166 193 0
175 198 0
162 191 0
184 203 0
167 194 0
166 193 0
187 205 0
188 205 0
154 176 0
172 196 0
188 205 0
185 204 0
181 201 0
188 205 0
192 207 0
165 193 0
167 194 0
187 204 0
163 192 0
175 198 0
183 202 0
175 198 0
17 38 0
170 184 0
179 200 0
174 198 0
178 200 0
174 198 0
191 207 0
199 211 0
191 207 0
173 197 0
177 199 0
176 198 0
148 173 0
157 178 0
190 206 0
174 197 0
165 193 0
189 206 0
183 202 0
186 204 0
188 205 0
194 208 0
167 194 0
166 194 0
182 202 0
190 206 0
162 192 0
182 202 0
55 89 0
193 208 0
177 199 0
185 204 0
190 206 0
151 174 0
182 202 0
171 196 0
189 206 0
188 205 0
190 206 0
196 209 0
195 209 0
15 32 0
198 211 0
191 207 0
192 207 0
176 199 0
167 194 0
186 204 0
188 205 0
50 80 0
144 171 0
177 199 0
17 37 0
157 177 0
154 176 0
14 32 0
153 175 0
191 207 0
138 157 0
150 174 0
173 186 0
166 194 0
165 193 0
166 193 0
43 70 0
177 189 0
180 201 0
167 194 0
185 203 0
189 205 0
154 176 0
167 183 0
145 171 0
193 208 0
135 135 0
4 13 0
54 82 0
176 199 0
186 204 0
166 193 0
56 85 0
53 82 0
13 30 0
191 207 0
176 199 0
198 211 0
14 32 0
178 200 0
195 209 0
167 194 0
168 195 0
49 79 0
51 80 0
189 206 0
48 78 0
56 89 0
175 198 0
184 203 0
53 82 0
191 207 0
196 209 0
187 205 0
185 203 0
14 32 0
48 78 0
195 209 0
47 78 0
187 205 0
41 69 0
165 193 0
171 196 0
13 30 0
178 200 0
177 199 0
13 30 0
50 79 0
183 203 0
52 81 0
4 12 0
173 197 0
14 32 0
46 76 0
5 15 0
42 69 0
194 208 0
177 199 0
175 198 0
166 193 0
182 202 0
14 30 0
177 199 0
0 0 0
178 200 0
200 212 0
179 200 0
173 197 0
4 13 0
50 80 0
13 31 0
47 78 0
183 202 0
188 205 0
0 0 0
46 76 0
51 81 0
175 198 0
46 77 0
191 207 0
61 93 0
15 33 0
1 5 0
193 208 0
55 83 0
185 204 0
0 0 0
52 81 0
53 82 0
62 94 0
13 31 0
0 0 0
3 9 0
5 15 0
0 0 0
17 37 0
0 1 0
1 5 0
0 0 0
0 0 0
183 202 0
47 77 0
17 37 0
47 77 0
138 136 0
14 32 0
3 7 0
7 8 0
175 198 0
0 0 0
3 12 0
0 1 0
104 92 0
37 53 0
0 0 0
8 15 0
53 82 0
0 0 0
46 77 0
0 0 0
47 63 0
63 94 0
12 30 0
14 28 0
50 80 0
14 32 0
47 63 0
38 44 0
55 83 0
45 62 0
180 201 0
50 79 0
28 25 0
6 6 0
46 76 0
44 61 0
0 0 0
49 79 0
63 94 0
4 12 0
169 195 0
0 1 0
11 23 0
50 65 0
50 75 0
121 74 0
37 53 0
39 45 0
30 19 0
50 65 0
185 204 0
180 201 0
149 142 0
141 138 0
12 23 0
41 48 0
46 62 0
13 25 0
147 172 0
72 29 0
148 150 0
163 192 0
179 200 0
182 202 0
143 138 0
10 17 0
168 194 0
192 207 0
44 53 0
86 56 0
36 37 0
31 23 0
48 78 0
92 66 0
169 195 0
78 31 0
17 38 0
84 52 0
37 53 0
38 44 0
156 145 0
13 25 0
8 11 0
185 204 0
31 37 0
150 142 0
82 33 0
116 97 0
116 83 0
145 139 0
25 6 0
0 1 0
40 11 0
168 159 0
37 43 0
96 68 0
27 4 0
22 16 0
44 58 0
40 59 0
61 93 0
154 125 0
122 86 0
175 162 0
99 63 0
109 70 0
104 75 0
52 10 0
102 64 0
150 123 0
65 20 0
85 41 0
158 154 0
2 6 0
121 105 0
162 156 0
171 139 51
168 159 0
156 153 0
134 82 10
31 31 0
105 60 4
105 49 2
152 107 22
145 121 0
12 24 0
159 154 0
25 10 0
65 20 0
53 16 0
5 3 0
100 73 0
26 2 0
166 158 0
152 123 0
20 3 0
20 7 0
145 121 0
30 30 0
68 31 0
132 109 0
153 152 0
127 107 0
153 124 0
146 121 0
150 123 0
161 155 0
162 156 0
121 78 10
196 181 114
134 116 0
148 149 0
147 149 0
76 28 0
139 102 22
131 109 0
175 140 51
195 181 114
154 152 0
157 154 0
160 134 51
158 126 0
154 152 0
117 84 0
103 48 2
153 152 0
144 120 0
177 141 51
49 10 0
169 159 0
192 180 114
151 151 0
182 175 114
81 27 0
155 153 0
142 85 10
150 151 0
152 124 0
70 22 0
148 149 0
104 60 4
32 8 0
156 125 0
53 17 0
153 152 0
147 121 0
147 149 0
150 150 0
151 106 22
147 149 0
114 68 0
38 40 0
17 4 0
160 134 51
180 201 0
150 150 0
163 192 0
163 192 0
173 197 0
195 209 0
176 199 0
197 210 0
187 204 0
163 192 0
190 206 0
187 205 0
180 201 0
185 203 0
165 193 0
184 203 0
185 204 0
166 193 0
186 204 0
175 198 0
186 204 0
170 196 0
168 195 0
165 193 0
178 200 0
198 211 0
183 203 0
188 205 0
167 194 0
177 199 0
186 204 0
178 200 0
182 202 0
190 206 0
167 194 0
188 205 0
198 210 0
186 204 0
61 93 0
165 193 0
199 211 0
173 197 0
134 155 0
160 179 0
180 201 0
182 202 0
166 194 0
194 209 0
169 195 0
160 179 0
182 202 0
169 195 0
163 192 0
175 198 0
181 201 0
180 201 0
175 198 0
184 203 0
186 204 0
194 209 0
176 198 0
168 195 0
158 178 0
192 208 0
177 199 0
182 202 0
165 193 0
176 199 0
182 202 0
49 79 0
173 197 0
187 204 0
196 210 0
190 206 0
171 196 0
180 201 0
182 202 0
147 172 0
161 180 0
198 211 0
169 195 0
195 209 0
146 172 0
190 206 0
193 208 0
162 191 0
156 177 0
48 78 0
194 208 0
149 173 0
185 204 0
152 175 0
192 207 0
198 211 0
141 159 0
164 181 0
165 193 0
180 201 0
13 29 0
15 33 0
136 156 0
165 193 0
199 211 0
164 181 0
170 185 0
180 201 0
174 187 0
145 171 0
166 193 0
48 73 0
56 84 0
186 204 0
181 201 0
137 157 0
188 205 0
190 206 0
170 196 0
49 79 0
171 196 0
168 194 0
194 208 0
46 76 0
169 195 0
62 94 0
46 77 0
167 183 0
179 200 0
174 198 0
168 183 0
161 180 0
53 82 0
163 181 0
197 210 0
185 203 0
161 180 0
172 196 0
192 207 0
174 198 0
11 27 0
151 174 0
194 208 0
183 203 0
61 93 0
172 197 0
185 204 0
60 92 0
47 77 0
51 80 0
181 201 0
180 201 0
171 196 0
172 197 0
59 91 0
0 0 0
4 13 0
61 93 0
149 173 0
191 207 0
163 192 0
47 77 0
54 82 0
175 198 0
46 77 0
191 207 0
181 201 0
193 208 0
190 206 0
49 79 0
53 82 0
169 195 0
50 80 0
46 76 0
1 5 0
53 82 0
180 201 0
47 78 0
13 31 0
15 32 0
14 31 0
179 200 0
47 77 0
56 89 0
17 37 0
168 195 0
54 83 0
53 82 0
176 199 0
147 172 0
0 0 0
48 78 0
17 37 0
4 15 0
52 81 0
53 82 0
62 93 0
185 203 0
60 92 0
179 201 0
172 197 0
178 200 0
46 77 0
21 19 0
185 204 0
147 172 0
173 197 0
49 79 0
178 200 0
61 93 0
174 198 0
0 2 0
174 198 0
0 0 0
1 4 0
180 201 0
15 32 0
177 199 0
170 160 0
13 30 0
49 79 0
54 83 0
48 64 0
145 139 0
50 65 0
172 196 0
51 80 0
0 3 0
50 80 0
9 14 0
12 24 0
59 92 0
181 201 0
60 92 0
0 0 0
4 12 0
180 201 0
2 6 0
171 196 0
51 80 0
190 206 0
47 78 0
173 197 0
136 135 0
186 204 0
189 206 0
191 207 0
41 59 0
148 141 0
14 31 0
164 192 0
191 207 0
50 80 0
185 204 0
166 193 0
36 43 0
139 118 0
12 24 0
15 25 0
46 76 0
37 46 0
10 15 0
168 195 0
0 0 0
171 196 0
190 206 0
151 142 0
164 192 0
58 91 0
172 161 0
0 0 0
13 26 0
120 90 0
78 41 0
2 6 0
170 160 0
138 111 0
167 158 0
141 119 0
22 20 0
134 110 0
193 208 0
136 135 0
176 199 0
177 199 0
190 206 0
183 202 0
53 82 0
140 137 0
87 65 0
119 98 0
56 25 0
35 34 0
25 2 0
7 0 0
168 159 0
89 53 0
47 63 0
190 206 0
12 3 0
187 204 0
108 66 0
40 55 0
40 41 0
112 67 0
46 10 0
136 110 0
16 0 0
130 93 0
123 74 0
177 163 0
21 4 0
177 163 0
7 8 0
122 105 0
7 8 0
160 155 0
173 161 0
164 157 0
19 1 0
134 95 0
169 159 0
20 8 0
131 100 22
120 90 0
159 154 0
140 119 0
169 159 0
116 84 0
127 107 0
78 23 0
135 82 10
119 78 10
147 149 0
36 6 0
11 23 0
128 107 0
153 152 0
40 41 0
172 160 0
120 104 0
120 104 0
146 121 0
164 157 0
117 103 0
119 104 0
155 153 0
29 22 0
146 148 0
189 178 114
164 157 0
138 102 22
83 45 0
95 62 0
5 4 0
137 102 22
143 120 0
157 154 0
132 81 10
93 43 0
70 39 0
99 73 0
195 181 114
159 154 0
171 160 0
147 149 0
124 105 0
76 23 0
97 63 0
58 15 0
131 108 0
143 120 0
86 53 0
151 151 0
19 7 0
166 158 0
112 61 4
123 105 0
165 158 0
96 72 0
126 106 0
193 180 114
151 151 0
126 106 0
138 118 0
124 92 0
145 121 0
157 126 0
178 142 51
83 52 0
152 151 0
89 30 0
124 106 0
111 61 4
173 161 0
105 65 0
137 118 0
129 132 0
181 201 0
170 195 0
167 194 0
171 196 0
178 200 0
169 195 0
154 144 0
178 200 0
163 192 0
180 201 0
166 193 0
184 203 0
164 193 0
180 201 0
176 199 0
193 208 0
171 196 0
173 197 0
173 197 0
182 202 0
177 199 0
177 199 0
179 200 0
183 202 0
166 193 0
187 205 0
50 80 0
187 205 0
185 204 0
185 204 0
174 197 0
179 200 0
171 196 0
187 205 0
171 196 0
151 174 0
172 196 0
188 205 0
172 197 0
165 193 0
189 206 0
177 199 0
185 203 0
188 205 0
187 205 0
167 194 0
183 202 0
178 200 0
180 201 0
189 206 0
183 202 0
180 201 0
185 204 0
190 206 0
180 201 0
173 197 0
192 207 0
167 194 0
176 198 0
195 209 0
187 205 0
186 204 0
170 196 0
176 199 0
147 172 0
51 81 0
177 199 0
49 79 0
197 210 0
178 200 0
197 210 0
187 205 0
187 204 0
182 202 0
174 198 0
176 198 0
196 210 0
165 193 0
191 207 0
180 201 0
155 176 0
192 207 0
192 207 0
0 0 0
41 68 0
163 192 0
182 202 0
199 211 0
163 192 0
162 191 0
196 209 0
12 28 0
188 205 0
166 182 0
179 200 0
181 201 0
146 172 0
166 182 0
178 200 0
169 184 0
183 203 0
192 207 0
162 191 0
187 205 0
166 194 0
159 179 0
199 211 0
195 209 0
178 200 0
193 208 0
160 179 0
183 202 0
185 204 0
171 196 0
171 196 0
174 197 0
169 195 0
167 194 0
164 192 0
167 194 0
58 91 0
48 78 0
170 185 0
180 201 0
193 208 0
185 203 0
56 89 0
181 201 0
185 203 0
176 198 0
166 182 0
163 180 0
166 193 0
177 199 0
183 202 0
165 193 0
195 209 0
167 183 0
180 201 0
171 196 0
166 193 0
55 83 0
163 192 0
56 84 0
177 199 0
174 198 0
184 203 0
170 195 0
182 202 0
173 197 0
52 81 0
188 205 0
63 94 0
164 193 0
175 198 0
179 200 0
173 197 0
187 205 0
164 192 0
180 201 0
163 192 0
55 84 0
183 202 0
175 198 0
186 204 0
187 204 0
51 81 0
166 193 0
49 79 0
185 204 0
183 203 0
50 80 0
193 208 0
46 76 0
49 79 0
54 82 0
49 79 0
13 30 0
164 192 0
0 0 0
63 94 0
176 199 0
162 191 0
17 37 0
175 198 0
3 12 0
4 12 0
47 77 0
47 77 0
50 79 0
182 202 0
175 198 0
62 93 0
49 79 0
13 30 0
173 197 0
182 202 0
0 2 0
14 32 0
168 194 0
48 74 0
53 82 0
174 197 0
186 204 0
53 82 0
0 2 0
37 46 0
146 172 0
179 200 0
182 202 0
193 208 0
5 15 0
13 31 0
155 144 0
17 37 0
189 206 0
0 0 0
44 61 0
180 201 0
14 32 0
47 77 0
46 77 0
16 36 0
160 155 0
181 202 0
195 209 0
14 32 0
174 198 0
0 0 0
0 0 0
14 32 0
19 10 0
178 200 0
185 203 0
56 89 0
2 5 0
2 4 0
4 11 0
54 83 0
161 156 0
4 12 0
3 9 0
62 94 0
101 64 0
188 205 0
165 193 0
165 193 0
0 0 0
163 192 0
180 201 0
15 24 0
186 204 0
46 77 0
0 0 0
13 31 0
159 126 0
55 83 0
55 83 0
34 36 0
53 71 0
17 37 0
47 77 0
172 196 0
190 206 0
186 204 0
44 43 0
174 161 0
189 206 0
121 91 0
151 151 0
46 77 0
191 207 0
58 18 0
171 196 0
2 3 0
166 194 0
176 199 0
166 158 0
165 157 0
141 113 0
183 202 0
47 78 0
190 206 0
44 61 0
58 90 0
59 92 0
16 31 0
115 96 0
9 12 0
97 68 0
121 121 0
174 162 0
171 196 0
12 20 0
29 36 0
179 200 0
182 202 0
64 19 0
113 95 0
191 207 0
35 42 0
181 201 0
110 81 0
71 34 0
145 139 0
147 141 0
142 138 0
169 159 0
46 12 0
173 161 0
2 3 0
22 3 0
45 62 0
1 0 0
32 8 0
102 60 0
182 202 0
79 48 0
35 14 0
97 59 0
51 20 0
63 19 0
79 35 0
16 2 0
67 36 0
85 36 0
72 21 0
99 52 0
48 9 0
158 126 0
146 149 0
126 87 0
41 59 0
159 126 0
165 157 0
152 124 0
89 37 0
158 126 0
149 150 0
45 62 0
37 6 0
155 152 0
131 109 0
153 152 0
127 107 0
98 59 0
113 82 0
153 152 0
170 160 0
121 85 0
165 136 51
118 77 10
149 150 0
157 126 0
43 49 0
96 59 0
151 151 0
140 103 22
143 120 0
107 81 0
137 102 22
198 183 114
174 162 0
161 156 0
56 10 0
174 140 51
110 71 0
164 157 0
126 107 0
197 182 114
95 72 0
79 38 0
103 74 0
56 12 0
141 103 22
131 81 10
162 156 0
108 81 0
138 112 0
117 77 10
155 153 0
146 121 0
160 155 0
116 102 0
122 105 0
154 152 0
161 155 0
148 150 0
138 102 22
116 89 0
153 152 0
98 44 0
124 79 10
105 75 0
162 156 0
122 86 0
138 102 22
191 207 0
168 194 0
188 205 0
188 205 0
162 191 0
163 192 0
169 195 0
166 194 0
184 203 0
162 191 0
179 200 0
171 196 0
184 203 0
192 207 0
188 205 0
156 177 0
170 195 0
170 196 0
166 193 0
162 191 0
173 197 0
171 196 0
184 203 0
179 200 0
186 204 0
171 196 0
189 206 0
176 199 0
171 196 0
170 196 0
196 210 0
190 206 0
170 196 0
170 196 0
188 205 0
187 205 0
191 207 0
182 202 0
193 208 0
181 201 0
189 206 0
171 185 0
193 208 0
167 194 0
187 204 0
200 212 0
159 179 0
198 210 0
45 72 0
179 200 0
172 197 0
175 198 0
184 203 0
194 208 0
190 206 0
174 198 0
176 198 0
182 202 0
164 192 0
145 171 0
178 200 0
194 208 0
189 206 0
168 195 0
162 191 0
152 175 0
196 210 0
8 3 0
177 199 0
172 197 0
159 178 0
185 203 0
169 195 0
182 202 0
49 79 0
172 197 0
194 209 0
140 159 0
183 202 0
193 208 0
161 179 0
153 175 0
13 31 0
41 68 0
167 194 0
195 209 0
175 187 0
178 199 0
0 2 0
173 197 0
185 203 0
185 204 0
153 165 0
171 185 0
192 208 0
168 194 0
152 175 0
191 207 0
152 175 0
175 198 0
154 176 0
56 89 0
190 206 0
48 78 0
190 206 0
178 200 0
154 166 0
181 201 0
156 177 0
165 193 0
48 78 0
145 171 0
15 33 0
181 201 0
176 199 0
47 77 0
151 174 0
167 194 0
179 200 0
46 77 0
162 191 0
51 81 0
174 198 0
183 202 0
15 35 0
184 203 0
181 201 0
53 87 0
173 197 0
55 88 0
190 206 0
186 204 0
167 194 0
165 182 0
174 187 0
193 208 0
178 200 0
168 195 0
52 86 0
185 204 0
185 204 0
47 77 0
48 78 0
169 195 0
170 195 0
52 81 0
14 31 0
192 207 0
3 12 0
161 191 0
47 78 0
58 91 0
189 206 0
174 197 0
50 80 0
173 197 0
197 210 0
167 194 0
50 79 0
12 28 0
193 208 0
46 76 0
191 207 0
165 193 0
1 4 0
50 80 0
164 192 0
166 193 0
53 82 0
187 204 0
1 5 0
47 77 0
51 80 0
52 81 0
187 205 0
168 195 0
61 93 0
15 35 0
192 207 0
56 84 0
165 193 0
3 11 0
178 200 0
189 206 0
17 37 0
176 199 0
5 15 0
183 203 0
174 198 0
42 60 0
61 93 0
4 13 0
0 0 0
61 93 0
190 206 0
14 32 0
189 206 0
94 62 0
1 6 0
49 79 0
48 78 0
51 80 0
178 200 0
173 197 0
50 80 0
62 94 0
50 80 0
176 199 0
169 159 0
49 79 0
52 81 0
59 91 0
1 5 0
184 203 0
60 92 0
140 137 0
4 13 0
169 195 0
61 93 0
13 30 0
49 65 0
44 61 0
1 4 0
50 79 0
141 137 0
154 176 0
4 12 0
12 21 0
54 72 0
182 202 0
13 31 0
62 94 0
49 79 0
0 2 0
58 91 0
62 94 0
173 197 0
49 79 0
50 69 0
166 158 0
42 60 0
49 79 0
124 92 0
41 59 0
136 135 0
49 65 0
13 31 0
49 65 0
165 193 0
41 59 0
42 60 0
96 62 0
37 53 0
14 32 0
146 140 0
50 79 0
49 79 0
181 201 0
38 54 0
55 12 0
52 70 0
9 16 0
192 207 0
166 193 0
186 204 0
26 23 0
150 151 0
178 200 0
191 207 0
180 201 0
165 193 0
177 163 0
130 115 0
97 63 0
165 157 0
132 133 0
178 164 0
43 61 0
192 207 0
148 141 0
155 153 0
16 36 0
183 202 0
195 209 0
133 134 0
50 80 0
167 194 0
0 1 0
171 160 0
191 207 0
143 139 0
37 43 0
110 94 0
37 32 0
104 92 0
196 209 0
92 67 0
144 139 0
146 140 0
44 61 0
134 110 0
29 30 0
178 163 0
3 1 0
154 144 0
185 203 0
153 143 0
172 160 0
0 3 0
141 98 0
177 163 0
46 77 0
102 74 0
41 11 0
41 59 0
14 3 0
106 65 0
36 5 0
70 37 0
175 162 0
97 72 0
102 60 0
91 40 0
95 51 0
131 108 0
21 19 0
175 162 0
85 55 0
173 161 0
140 84 10
58 13 0
170 160 0
97 38 0
126 87 0
29 7 0
121 104 0
97 72 0
99 52 0
8 8 0
150 150 0
1 0 0
151 107 22
158 154 0
101 74 0
76 35 0
112 61 4
137 118 0
164 157 0
162 156 0
83 29 0
44 9 0
153 152 0
171 160 0
132 81 10
152 151 0
116 77 10
142 120 0
127 80 10
125 106 0
175 140 51
74 22 0
117 103 0
105 75 0
197 182 114
157 133 51
149 122 0
155 153 0
129 108 0
54 21 0
166 158 0
141 98 0
155 153 0
83 52 0
2 5 0
119 104 0
157 154 0
172 161 0
146 149 0
165 157 0
148 129 51
159 109 22
159 155 0
159 155 0
32 8 0
196 181 114
111 71 0
88 46 0
153 152 0
190 178 114
152 123 0
153 124 0
148 105 22
127 76 0
165 193 0
63 18 0
176 199 0
191 207 0
118 103 0
173 197 0
135 135 0
196 209 0
173 197 0
167 194 0
172 197 0
186 204 0
164 192 0
159 155 0
178 200 0
170 195 0
164 157 0
182 202 0
171 196 0
170 195 0
149 173 0
193 208 0
56 89 0
183 202 0
166 193 0
174 198 0
163 192 0
176 199 0
175 198 0
173 197 0
183 202 0
163 192 0
171 196 0
193 208 0
134 147 0
186 204 0
172 197 0
178 200 0
168 194 0
168 194 0
194 208 0
192 207 0
156 177 0
171 196 0
178 199 0
189 206 0
165 193 0
173 197 0
194 208 0
170 196 0
186 204 0
198 211 0
187 204 0
184 203 0
197 210 0
173 197 0
188 205 0
175 198 0
146 172 0
178 200 0
177 199 0
191 207 0
165 193 0
148 173 0
185 204 0
160 179 0
175 198 0
186 204 0
192 207 0
185 203 0
169 195 0
197 210 0
198 211 0
0 0 0
172 186 0
171 196 0
12 28 0
166 193 0
46 76 0
189 206 0
178 200 0
195 209 0
180 201 0
144 160 0
177 199 0
195 209 0
159 179 0
174 198 0
172 186 0
164 192 0
199 211 0
162 191 0
187 204 0
46 76 0
153 175 0
173 186 0
148 173 0
162 191 0
164 181 0
185 204 0
178 200 0
42 69 0
147 172 0
158 178 0
163 181 0
145 171 0
175 198 0
197 210 0
188 205 0
162 191 0
3 10 0
193 208 0
146 172 0
169 184 0
168 194 0
179 200 0
179 200 0
51 80 0
164 192 0
43 70 0
166 193 0
51 80 0
49 79 0
46 77 0
189 206 0
139 158 0
52 81 0
46 77 0
180 201 0
194 208 0
197 210 0
178 200 0
174 198 0
196 209 0
170 196 0
50 80 0
48 78 0
199 211 0
0 2 0
171 196 0
191 207 0
168 194 0
162 191 0
60 92 0
49 79 0
14 31 0
178 200 0
163 192 0
11 27 0
181 201 0
174 198 0
182 202 0
53 87 0
183 203 0
191 207 0
177 199 0
178 200 0
17 37 0
13 31 0
166 193 0
194 208 0
185 203 0
171 196 0
52 81 0
62 94 0
16 36 0
155 176 0
180 201 0
183 203 0
182 202 0
163 192 0
63 94 0
16 36 0
153 175 0
190 206 0
163 192 0
61 93 0
53 82 0
52 81 0
174 198 0
178 200 0
167 194 0
163 192 0
165 193 0
61 93 0
181 201 0
36 57 0
4 14 0
51 80 0
111 77 0
170 196 0
8 15 0
196 209 0
166 193 0
52 81 0
49 79 0
196 210 0
187 205 0
1 5 0
167 194 0
47 77 0
167 194 0
189 206 0
176 198 0
54 83 0
187 205 0
168 195 0
156 177 0
13 31 0
168 194 0
3 9 0
48 78 0
10 21 0
14 32 0
174 198 0
178 200 0
0 0 0
0 1 0
170 196 0
169 195 0
4 13 0
177 199 0
1 4 0
176 198 0
41 59 0
145 148 0
3 12 0
46 76 0
4 14 0
4 13 0
47 77 0
48 78 0
178 200 0
180 201 0
1 5 0
58 91 0
4 13 0
13 30 0
11 23 0
13 31 0
174 197 0
59 91 0
42 56 0
12 19 0
13 31 0
168 194 0
49 79 0
49 79 0
168 194 0
192 207 0
52 81 0
13 31 0
38 54 0
163 192 0
188 205 0
0 0 0
3 12 0
47 77 0
44 61 0
100 45 0
167 194 0
169 195 0
166 158 0
166 193 0
168 159 0
190 206 0
168 195 0
171 196 0
182 202 0
58 90 0
112 95 0
77 35 0
169 159 0
33 35 0
98 51 0
185 203 0
45 12 0
52 81 0
140 112 0
58 91 0
177 199 0
190 206 0
142 138 0
167 194 0
1 5 0
2 5 0
48 78 0
176 199 0
58 17 0
12 24 0
34 34 0
189 206 0
0 0 0
152 143 0
178 199 0
41 59 0
73 21 0
169 195 0
37 46 0
8 11 0
38 46 0
192 208 0
4 14 0
178 200 0
3 0 0
14 32 0
142 138 0
124 75 0
68 20 0
71 45 0
195 209 0
137 111 0
48 64 0
99 60 0
175 162 0
85 64 0
188 205 0
117 97 0
178 163 0
145 139 0
101 45 0
52 81 0
125 87 0
194 208 0
60 29 0
15 12 0
139 118 0
141 119 0
119 98 0
59 22 0
153 143 0
50 65 0
142 113 0
143 120 0
96 51 0
123 100 0
144 139 0
98 69 0
177 163 0
76 43 0
15 1 0
76 35 0
104 48 2
105 69 0
85 52 0
106 69 0
126 106 0
109 66 0
153 131 51
72 34 0
87 30 0
32 25 0
163 157 0
120 104 0
120 104 0
22 17 0
167 137 51
128 107 0
35 22 1
151 151 0
179 164 0
90 57 0
154 152 0
165 158 0
43 37 7
28 3 0
147 105 22
124 106 0
150 150 0
139 112 0
161 156 0
130 108 0
100 55 0
121 104 0
130 99 22
79 38 0
125 87 0
141 119 0
122 64 4
161 155 0
157 154 0
106 60 4
157 126 0
100 47 2
135 110 0
100 39 0
166 158 0
75 40 0
172 160 0
154 152 0
56 15 0
140 112 0
170 138 51
196 181 114
105 60 4
84 55 0
188 178 114
157 154 0
141 97 0
177 199 0
149 141 0
162 191 0
188 205 0
170 160 0
167 194 0
184 203 0
188 205 0
105 80 0
184 203 0
136 135 0
103 74 0
162 191 0
165 158 0
177 163 0
182 202 0
186 204 0
48 13 0
184 203 0
183 202 0
167 194 0
178 200 0
164 193 0
166 193 0
177 199 0
183 202 0
169 195 0
170 195 0
183 202 0
164 193 0
182 202 0
186 204 0
196 210 0
189 206 0
179 200 0
163 192 0
194 209 0
183 203 0
164 192 0
194 209 0
197 210 0
174 198 0
167 194 0
171 196 0
184 203 0
189 206 0
169 195 0
170 195 0
189 206 0
167 194 0
189 206 0
173 197 0
170 196 0
167 194 0
170 196 0
188 205 0
175 198 0
181 201 0
177 199 0
168 195 0
166 182 0
162 191 0
182 202 0
174 197 0
47 77 0
195 209 0
172 197 0
192 208 0
169 195 0
195 209 0
195 209 0
192 207 0
173 197 0
170 184 0
155 176 0
150 174 0
167 194 0
171 196 0
185 203 0
184 203 0
189 206 0
196 209 0
147 172 0
16 36 0
169 195 0
165 193 0
148 173 0
185 204 0
131 145 0
196 210 0
172 196 0
190 207 0
180 201 0
162 180 0
171 185 0
162 191 0
164 192 0
148 173 0
188 205 0
13 29 0
168 183 0
167 194 0
172 197 0
181 201 0
43 70 0
156 177 0
145 171 0
183 202 0
171 185 0
142 160 0
184 203 0
97 59 0
179 200 0
198 211 0
7 9 0
153 175 0
54 87 0
186 204 0
184 203 0
17 39 0
186 204 0
168 195 0
171 196 0
180 201 0
140 158 0
171 196 0
179 201 0
49 79 0
153 175 0
168 195 0
183 202 0
169 195 0
169 195 0
62 94 0
172 186 0
174 198 0
51 80 0
46 76 0
166 193 0
63 94 0
174 198 0
49 78 0
48 78 0
196 210 0
185 203 0
62 94 0
169 195 0
60 92 0
165 193 0
166 193 0
172 196 0
164 192 0
4 13 0
174 198 0
173 197 0
190 206 0
165 193 0
169 195 0
167 194 0
47 77 0
52 81 0
170 196 0
161 180 0
155 176 0
13 31 0
172 197 0
165 193 0
176 199 0
163 192 0
169 195 0
180 201 0
47 77 0
179 200 0
184 203 0
14 32 0
163 192 0
150 174 0
184 203 0
171 196 0
178 200 0
165 193 0
56 84 0
17 36 0
178 200 0
196 210 0
48 78 0
164 192 0
46 76 0
61 93 0
171 196 0
171 196 0
1 5 0
164 193 0
168 194 0
174 198 0
14 32 0
173 197 0
167 194 0
173 186 0
62 94 0
47 78 0
13 31 0
3 8 0
176 198 0
13 31 0
48 78 0
179 200 0
4 12 0
189 206 0
59 91 0
0 0 0
0 0 0
176 199 0
14 32 0
182 202 0
44 71 0
62 94 0
192 207 0
193 208 0
52 81 0
62 94 0
16 35 0
15 32 0
49 79 0
5 15 0
59 91 0
190 206 0
182 202 0
13 31 0
50 79 0
3 8 0
167 194 0
49 79 0
48 78 0
13 30 0
0 1 0
13 25 0
183 202 0
4 13 0
179 200 0
0 0 0
179 200 0
55 83 0
184 203 0
0 0 0
48 78 0
135 135 0
15 33 0
172 196 0
11 22 0
173 161 0
47 77 0
174 197 0
109 81 0
42 56 0
170 195 0
170 195 0
61 93 0
193 208 0
55 72 0
90 49 0
177 199 0
55 72 0
50 69 0
163 192 0
62 94 0
4 9 0
12 24 0
136 135 0
176 198 0
140 137 0
0 2 0
180 201 0
140 119 0
159 154 0
119 104 0
55 72 0
173 197 0
165 193 0
171 160 0
13 31 0
3 6 0
174 198 0
184 203 0
15 33 0
0 2 0
1 2 0
12 21 0
44 58 0
12 4 0
178 200 0
186 204 0
89 40 0
135 135 0
177 199 0
164 157 0
166 193 0
92 66 0
100 45 0
190 206 0
112 95 0
167 194 0
146 140 0
41 48 0
131 133 0
42 56 0
39 54 0
50 24 0
8 6 0
141 113 0
173 161 0
2 2 0
176 198 0
168 159 0
149 141 0
170 160 0
148 141 0
132 109 0
136 96 0
154 125 0
81 42 0
143 139 0
175 162 0
63 33 0
142 98 0
141 113 0
60 92 0
16 1 0
123 99 0
112 78 0
24 6 0
47 14 0
141 113 0
138 111 0
74 30 0
54 21 0
8 2 0
56 25 0
33 34 0
176 162 0
82 27 0
77 47 0
42 18 0
59 19 0
61 16 0
96 72 0
141 97 0
147 129 51
157 153 0
74 32 0
172 139 51
156 125 0
128 80 10
88 42 0
105 69 0
0 0 0
119 104 0
42 6 0
93 37 0
118 84 0
42 10 0
137 96 0
121 105 0
119 63 4
125 106 0
163 156 0
120 104 0
132 109 0
117 84 0
163 156 0
158 109 22
151 151 0
114 72 0
108 61 4
85 41 0
146 121 0
154 124 0
147 122 0
147 149 0
39 47 0
199 183 114
154 152 0
142 120 0
94 53 0
123 79 10
118 103 0
66 35 0
86 42 0
108 76 0
123 64 4
157 154 0
166 194 0
183 175 114
146 140 0
176 198 0
179 200 0
194 209 0
176 198 0
142 138 0
174 162 0
145 140 0
163 192 0
141 112 0
175 198 0
131 133 0
166 193 0
175 162 0
178 200 0
172 196 0
168 194 0
152 143 0
182 202 0
171 196 0
184 203 0
197 210 0
176 199 0
23 15 0
183 202 0
177 199 0
174 198 0
181 202 0
167 194 0
162 191 0
168 194 0
4 13 0
182 202 0
194 209 0
171 196 0
173 197 0
162 191 0
178 200 0
165 193 0
177 199 0
171 196 0
174 198 0
183 202 0
169 195 0
181 201 0
168 194 0
179 200 0
170 196 0
161 180 0
186 204 0
184 203 0
192 207 0
172 197 0
186 204 0
195 209 0
178 200 0
186 204 0
181 201 0
172 196 0
168 195 0
152 175 0
195 209 0
165 193 0
167 194 0
189 206 0
176 199 0
184 203 0
169 184 0
131 154 0
178 200 0
191 207 0
199 211 0
198 211 0
155 176 0
191 207 0
149 173 0
168 195 0
181 201 0
161 179 0
190 206 0
162 180 0
152 175 0
142 159 0
182 202 0
52 86 0
196 209 0
15 33 0
142 159 0
164 193 0
195 209 0
181 202 0
162 180 0
183 203 0
186 204 0
175 198 0
58 90 0
184 203 0
190 206 0
193 208 0
161 179 0
51 80 0
46 77 0
186 204 0
162 192 0
144 161 0
172 197 0
171 196 0
174 197 0
164 193 0
197 210 0
175 198 0
47 73 0
184 203 0
188 205 0
47 78 0
163 192 0
165 193 0
171 196 0
162 191 0
169 195 0
167 194 0
140 158 0
185 204 0
187 204 0
1 5 0
3 12 0
179 200 0
195 209 0
185 204 0
165 193 0
62 94 0
165 182 0
196 209 0
162 192 0
190 206 0
169 195 0
182 202 0
146 172 0
14 32 0
166 183 0
169 195 0
170 195 0
167 194 0
189 205 0
180 201 0
180 201 0
15 28 0
190 206 0
16 36 0
178 200 0
170 196 0
188 205 0
185 203 0
189 206 0
189 205 0
187 204 0
182 202 0
169 195 0
179 200 0
185 203 0
52 81 0
181 201 0
45 76 0
15 35 0
166 194 0
172 197 0
180 201 0
170 195 0
41 69 0
50 79 0
174 197 0
176 199 0
165 193 0
61 93 0
162 192 0
4 14 0
50 80 0
171 196 0
181 201 0
189 206 0
57 90 0
63 94 0
177 199 0
47 78 0
61 93 0
54 83 0
176 199 0
14 34 0
172 196 0
177 199 0
178 200 0
52 81 0
163 192 0
190 207 0
167 194 0
166 193 0
13 31 0
48 78 0
195 209 0
52 81 0
148 172 0
182 202 0
47 77 0
42 69 0
15 33 0
4 15 0
53 82 0
180 201 0
176 199 0
57 90 0
10 18 0
13 30 0
53 82 0
179 200 0
39 54 0
50 79 0
13 31 0
169 195 0
173 161 0
190 206 0
176 199 0
3 7 0
4 13 0
13 31 0
166 193 0
14 32 0
53 82 0
15 33 0
17 37 0
50 80 0
170 196 0
168 195 0
172 196 0
170 195 0
17 37 0
56 84 0
4 14 0
28 22 0
177 199 0
178 200 0
1 6 0
4 13 0
11 27 0
172 196 0
173 197 0
36 43 0
187 204 0
47 78 0
0 2 0
39 47 0
164 192 0
63 94 0
173 197 0
3 8 0
46 77 0
165 193 0
187 204 0
62 94 0
48 64 0
41 56 0
11 17 0
51 80 0
164 192 0
39 55 0
13 25 0
61 93 0
13 27 0
51 80 0
172 196 0
57 12 0
13 31 0
33 36 0
0 1 0
11 19 0
167 194 0
178 200 0
110 58 0
170 195 0
197 210 0
188 205 0
15 33 0
162 192 0
169 195 0
165 193 0
116 97 0
171 196 0
36 53 0
133 134 0
168 195 0
185 204 0
173 197 0
149 142 0
122 74 0
155 144 0
176 199 0
163 192 0
42 60 0
165 193 0
50 79 0
182 202 0
126 106 0
168 159 0
44 53 0
187 204 0
129 132 0
10 13 0
132 134 0
174 198 0
170 195 0
197 210 0
196 210 0
177 199 0
116 72 0
40 55 0
164 157 0
3 5 0
172 161 0
178 199 0
192 207 0
173 161 0
150 142 0
142 119 0
178 200 0
170 160 0
144 139 0
40 45 0
181 201 0
44 9 0
142 113 0
44 50 0
137 117 0
183 203 0
1 2 0
87 53 0
138 111 0
154 144 0
91 66 0
188 205 0
183 202 0
110 77 0
5 1 0
107 93 0
53 14 0
70 36 0
40 13 0
136 135 0
194 208 0
172 161 0
60 28 0
191 207 0
93 67 0
176 163 0
177 163 0
110 77 0
138 111 0
175 162 0
75 42 0
150 142 0
130 108 0
123 86 0
124 91 0
59 25 0
45 6 0
110 77 0
101 55 0
78 37 0
103 69 0
1 1 0
67 20 0
138 102 22
116 83 0
83 52 0
56 20 0
116 84 0
141 103 22
44 61 0
157 154 0
166 137 51
94 46 2
98 44 0
116 77 10
132 116 0
127 107 0
50 15 0
104 75 0
30 26 0
111 71 0
157 154 0
119 85 0
149 150 0
169 138 51
151 123 0
80 42 0
151 123 0
184 203 0
175 198 0
129 108 0
136 135 0
145 139 0
140 112 0
176 199 0
170 195 0
188 205 0
175 198 0
171 196 0
175 198 0
189 206 0
122 105 0
173 197 0
163 156 0
172 197 0
186 204 0
134 135 0
84 64 0
156 145 0
187 205 0
190 206 0
130 133 0
164 157 0
169 195 0
192 207 0
136 135 0
185 204 0
174 162 0
129 93 0
2 0 0
175 198 0
173 197 0
168 184 0
162 191 0
166 194 0
171 196 0
163 192 0
172 196 0
168 194 0
189 206 0
177 199 0
191 207 0
164 192 0
180 201 0
185 203 0
183 202 0
177 199 0
172 196 0
191 207 0
186 204 0
181 202 0
191 207 0
190 206 0
194 209 0
177 199 0
181 202 0
177 199 0
166 194 0
195 209 0
169 195 0
176 199 0
54 87 0
188 205 0
189 206 0
157 168 0
17 37 0
191 207 0
192 207 0
170 196 0
159 179 0
176 198 0
183 203 0
193 208 0
155 176 0
171 196 0
191 207 0
177 199 0
167 194 0
53 87 0
166 193 0
162 191 0
185 204 0
163 192 0
187 204 0
0 0 0
178 200 0
193 208 0
175 198 0
184 203 0
159 179 0
165 181 0
192 208 0
166 193 0
169 195 0
193 208 0
184 203 0
174 198 0
164 192 0
178 200 0
146 172 0
170 195 0
153 175 0
152 175 0
175 198 0
176 199 0
54 83 0
172 185 0
141 159 0
147 162 0
166 182 0
171 196 0
180 201 0
151 175 0
188 205 0
149 173 0
151 174 0
186 204 0
167 194 0
150 164 0
44 71 0
188 205 0
46 72 0
45 72 0
165 193 0
168 194 0
196 210 0
148 173 0
179 201 0
190 207 0
148 173 0
171 196 0
185 203 0
187 205 0
179 200 0
169 195 0
153 166 0
177 199 0
172 185 0
58 90 0
179 200 0
168 183 0
185 204 0
183 202 0
167 183 0
190 206 0
163 192 0
182 202 0
55 88 0
167 194 0
173 197 0
48 78 0
157 178 0
167 183 0
177 199 0
168 194 0
179 200 0
163 192 0
162 191 0
58 91 0
46 77 0
183 202 0
11 27 0
162 191 0
163 192 0
62 94 0
3 12 0
62 94 0
50 80 0
173 197 0
59 92 0
164 193 0
180 201 0
184 203 0
174 197 0
14 32 0
172 196 0
163 192 0
3 12 0
180 201 0
165 193 0
187 204 0
55 83 0
169 195 0
49 79 0
196 210 0
172 197 0
166 194 0
192 208 0
135 156 0
164 192 0
163 192 0
171 196 0
184 203 0
175 198 0
176 199 0
182 202 0
13 31 0
61 93 0
192 208 0
15 32 0
17 37 0
48 78 0
57 90 0
165 193 0
176 199 0
51 80 0
174 198 0
182 202 0
170 195 0
49 79 0
59 91 0
13 30 0
53 82 0
171 196 0
55 83 0
159 127 0
1 4 0
169 195 0
187 205 0
172 196 0
4 14 0
52 81 0
47 77 0
194 208 0
46 76 0
171 196 0
55 89 0
46 76 0
196 209 0
47 77 0
48 78 0
1 5 0
194 208 0
13 22 0
184 203 0
170 196 0
49 79 0
49 79 0
53 82 0
13 30 0
167 158 0
170 196 0
186 204 0
51 80 0
56 89 0
170 196 0
13 31 0
151 151 0
167 194 0
16 6 0
131 133 0
55 84 0
0 0 0
194 208 0
14 32 0
51 80 0
176 199 0
170 196 0
4 14 0
13 31 0
1 5 0
33 48 0
4 14 0
8 11 0
189 205 0
45 62 0
48 64 0
55 72 0
56 89 0
50 80 0
60 92 0
177 199 0
48 64 0
173 197 0
161 155 0
2 6 0
49 79 0
194 208 0
112 95 0
184 203 0
181 202 0
52 81 0
168 195 0
167 158 0
170 196 0
193 208 0
8 9 0
172 196 0
42 57 0
57 90 0
188 205 0
42 60 0
73 46 0
134 135 0
163 192 0
48 64 0
192 207 0
185 203 0
179 200 0
187 204 0
163 192 0
15 24 0
154 144 0
41 42 0
132 109 0
150 142 0
163 156 0
0 3 0
196 209 0
44 53 0
60 18 0
186 204 0
179 200 0
11 23 0
181 201 0
62 94 0
130 133 0
52 81 0
143 139 0
30 37 0
134 134 0
49 56 0
190 206 0
139 112 0
110 94 0
43 43 0
25 19 0
59 92 0
89 53 0
177 199 0
109 77 0
126 92 0
93 67 0
121 91 0
148 141 0
143 139 0
183 203 0
40 55 0
142 138 0
102 52 0
87 65 0
176 162 0
70 37 0
176 163 0
36 43 0
41 51 0
33 5 0
140 137 0
167 158 0
117 97 0
31 5 0
77 43 0
183 202 0
114 68 0
152 143 0
87 39 0
140 119 0
110 94 0
149 141 0
23 19 0
118 97 0
79 47 0
29 7 0
148 163 0
17 3 0
186 204 0
62 22 0
126 87 0
77 47 0
113 95 0
116 83 0
130 108 0
124 106 0
176 162 0
133 94 0
174 161 0
80 36 0
172 161 0
127 107 0
28 15 0
177 199 0
149 141 0
148 141 0
130 133 0
95 59 0
19 9 0
149 122 0
102 64 0
150 106 22
139 137 0
105 92 0
175 198 0
146 121 0
150 123 0
105 92 0
143 139 0
78 37 0
166 158 0
154 144 0
156 145 0
149 141 0
163 156 0
185 204 0
181 202 0
72 32 0
142 119 0
166 158 0
167 194 0
170 196 0
183 202 0
104 56 0
174 162 0
169 159 0
169 195 0
175 198 0
177 199 0
142 113 0
167 194 0
182 202 0
167 194 0
179 200 0
163 192 0
166 193 0
172 196 0
171 196 0
191 207 0
164 193 0
139 137 0
144 139 0
166 193 0
176 199 0
174 198 0
172 197 0
162 191 0
167 194 0
172 197 0
172 196 0
181 201 0
172 197 0
171 196 0
171 196 0
162 191 0
184 203 0
157 177 0
155 176 0
177 199 0
182 202 0
175 198 0
171 196 0
166 193 0
176 199 0
169 195 0
167 194 0
172 197 0
185 204 0
175 198 0
172 186 0
185 203 0
196 210 0
164 192 0
189 206 0
177 199 0
193 208 0
158 178 0
172 196 0
179 200 0
183 202 0
163 192 0
17 37 0
194 208 0
157 177 0
163 192 0
173 197 0
164 181 0
171 196 0
159 179 0
133 155 0
63 94 0
154 176 0
188 205 0
178 200 0
171 196 0
171 196 0
13 31 0
156 177 0
171 196 0
163 192 0
173 186 0
191 207 0
156 177 0
198 211 0
184 203 0
159 178 0
180 201 0
177 188 0
11 27 0
193 208 0
162 191 0
163 192 0
194 209 0
49 79 0
13 29 0
188 205 0
170 196 0
175 198 0
148 173 0
192 208 0
130 153 0
167 194 0
187 205 0
186 204 0
147 172 0
174 198 0
130 133 0
169 195 0
196 210 0
177 188 0
179 200 0
163 180 0
176 199 0
176 199 0
133 155 0
182 202 0
166 193 0
41 68 0
197 210 0
175 198 0
177 199 0
161 180 0
174 187 0
185 203 0
51 80 0
51 81 0
191 207 0
172 197 0
189 206 0
47 77 0
1 5 0
49 75 0
154 176 0
53 87 0
167 194 0
13 31 0
163 181 0
41 65 0
174 197 0
193 208 0
177 199 0
190 206 0
178 200 0
187 205 0
173 197 0
162 191 0
165 193 0
185 204 0
174 198 0
170 195 0
54 82 0
52 81 0
191 207 0
176 198 0
161 191 0
10 21 0
193 208 0
173 197 0
162 191 0
53 82 0
55 83 0
58 90 0
14 32 0
175 198 0
162 192 0
162 191 0
169 195 0
13 31 0
63 94 0
166 193 0
4 13 0
48 78 0
166 193 0
165 193 0
14 32 0
3 12 0
169 195 0
173 197 0
50 80 0
53 82 0
185 204 0
189 206 0
165 193 0
14 32 0
199 212 0
47 77 0
177 199 0
50 80 0
61 93 0
3 12 0
173 197 0
165 193 0
172 196 0
161 155 0
0 1 0
164 192 0
13 31 0
167 194 0
62 94 0
191 207 0
46 77 0
46 77 0
0 0 0
52 81 0
185 204 0
45 76 0
13 31 0
177 199 0
3 12 0
175 198 0
62 94 0
42 49 0
13 31 0
175 198 0
180 201 0
173 197 0
50 80 0
0 0 0
13 31 0
60 92 0
51 80 0
46 77 0
53 82 0
3 12 0
48 78 0
53 82 0
136 135 0
169 195 0
187 204 0
60 92 0
48 64 0
170 195 0
181 202 0
60 92 0
13 31 0
48 78 0
3 12 0
14 32 0
164 193 0
14 32 0
1 5 0
191 207 0
186 204 0
62 94 0
191 207 0
170 195 0
13 30 0
13 30 0
170 195 0
165 193 0
4 11 0
34 36 0
49 79 0
182 202 0
48 64 0
5 6 0
46 77 0
179 200 0
180 201 0
41 59 0
10 14 0
2 6 0
186 204 0
143 138 0
174 198 0
45 51 0
36 42 0
49 79 0
172 196 0
177 199 0
3 11 0
166 193 0
175 162 0
6 8 0
160 155 0
14 32 0
180 201 0
110 58 0
41 59 0
162 191 0
48 64 0
163 192 0
176 199 0
178 200 0
181 201 0
12 24 0
188 205 0
173 197 0
173 197 0
174 198 0
136 135 0
171 196 0
196 210 0
46 62 0
79 31 0
136 136 0
28 15 0
142 138 0
47 67 0
43 52 0
45 76 0
163 157 0
47 63 0
179 200 0
184 203 0
8 13 0
51 80 0
110 94 0
124 100 0
48 64 0
44 61 0
53 71 0
181 201 0
29 36 0
185 204 0
73 28 0
37 46 0
138 136 0
45 62 0
9 15 0
188 205 0
147 140 0
132 134 0
190 206 0
163 156 0
13 19 0
155 125 0
32 11 0
43 57 0
193 208 0
178 200 0
32 41 0
123 91 0
152 143 0
128 93 0
141 113 0
153 143 0
123 86 0
55 25 0
21 14 0
150 142 0
137 111 0
111 95 0
140 137 0
123 99 0
177 163 0
172 161 0
120 98 0
69 36 0
36 12 0
55 25 0
28 8 0
181 201 0
53 24 0
120 98 0
54 20 0
102 45 0
146 140 0
90 54 0
104 92 0
72 37 0
46 16 0
185 203 0
187 204 0
101 52 0
73 34 0
134 134 0
139 112 0
63 33 0
191 207 0
144 139 0
87 42 0
51 24 0
154 144 0
115 96 0
189 206 0
113 82 0
97 54 0
133 116 0
184 203 0
14 4 0
24 21 0
182 202 0
136 135 0
148 141 0
177 163 0
174 198 0
181 201 0
175 198 0
190 206 0
193 208 0
132 109 0
129 93 0
173 161 0
20 1 0
139 112 0
194 209 0
183 203 0
170 160 0
109 81 0
172 196 0
123 100 0
194 209 0
187 204 0
170 160 0
115 59 0
136 135 0
138 111 0
174 161 0
150 142 0
185 203 0
150 150 0
186 204 0
186 204 0
170 195 0
175 198 0
164 157 0
164 192 0
103 56 0
152 151 0
166 193 0
175 198 0
163 192 0
174 198 0
183 202 0
166 193 0
167 194 0
178 200 0
163 192 0
60 92 0
167 194 0
180 201 0
171 196 0
196 210 0
183 203 0
169 195 0
175 198 0
162 192 0
174 197 0
190 206 0
173 197 0
178 200 0
176 199 0
199 211 0
185 204 0
191 207 0
191 207 0
176 198 0
196 209 0
174 198 0
167 194 0
171 196 0
169 195 0
189 206 0
172 196 0
191 207 0
184 203 0
172 197 0
185 203 0
37 61 0
149 173 0
194 209 0
195 209 0
179 200 0
190 206 0
176 199 0
173 186 0
179 200 0
189 206 0
145 171 0
189 206 0
178 200 0
150 164 0
177 199 0
185 204 0
178 199 0
150 174 0
167 194 0
181 201 0
189 205 0
181 202 0
140 159 0
149 173 0
191 207 0
183 203 0
170 195 0
185 203 0
168 195 0
163 192 0
169 184 0
165 182 0
172 196 0
163 192 0
182 202 0
146 172 0
186 204 0
169 195 0
161 180 0
182 202 0
161 179 0
41 69 0
158 178 0
178 200 0
184 203 0
177 199 0
178 200 0
197 210 0
94 83 0
197 210 0
198 211 0
164 192 0
165 193 0
182 202 0
176 199 0
155 176 0
50 79 0
169 195 0
168 195 0
180 201 0
176 198 0
181 202 0
50 79 0
168 195 0
190 206 0
183 202 0
53 87 0
174 198 0
154 176 0
166 193 0
160 179 0
180 201 0
190 206 0
174 198 0
186 204 0
151 174 0
51 80 0
58 90 0
167 194 0
181 201 0
155 176 0
164 193 0
165 193 0
179 200 0
168 194 0
182 202 0
162 192 0
194 209 0
57 90 0
46 77 0
161 191 0
166 193 0
172 196 0
188 205 0
177 199 0
46 77 0
193 208 0
188 205 0
53 82 0
51 81 0
167 194 0
187 205 0
177 199 0
168 195 0
164 192 0
173 197 0
46 77 0
0 2 0
46 77 0
189 206 0
184 203 0
45 76 0
176 199 0
62 94 0
171 196 0
172 197 0
190 206 0
57 90 0
195 209 0
185 204 0
162 191 0
162 192 0
13 30 0
51 80 0
177 199 0
165 193 0
47 78 0
183 202 0
47 77 0
48 78 0
184 203 0
165 193 0
163 192 0
158 178 0
1 5 0
174 198 0
177 199 0
164 192 0
59 91 0
0 0 0
172 197 0
177 199 0
182 202 0
171 196 0
46 77 0
46 76 0
4 14 0
181 201 0
60 92 0
49 68 0
0 0 0
14 32 0
13 31 0
48 78 0
62 94 0
1 4 0
189 206 0
14 9 0
50 79 0
9 16 0
55 83 0
3 9 0
141 137 0
193 208 0
168 195 0
166 193 0
14 31 0
49 79 0
49 79 0
17 37 0
14 32 0
48 78 0
60 92 0
63 94 0
179 200 0
42 60 0
0 1 0
44 61 0
61 93 0
50 69 0
52 81 0
13 30 0
46 77 0
169 195 0
179 200 0
181 201 0
164 193 0
46 77 0
165 193 0
175 198 0
51 80 0
38 54 0
146 140 0
170 196 0
47 63 0
47 77 0
46 76 0
174 198 0
182 202 0
146 149 0
13 21 0
194 208 0
46 77 0
164 192 0
49 65 0
168 194 0
167 194 0
173 197 0
137 136 0
131 133 0
58 91 0
140 137 0
122 99 0
28 29 0
47 63 0
50 80 0
39 54 0
52 86 0
12 19 0
190 206 0
192 207 0
169 195 0
96 51 0
162 191 0
176 199 0
9 11 0
134 135 0
59 91 0
155 144 0
13 30 0
74 30 0
26 28 0
49 79 0
62 94 0
15 32 0
175 162 0
188 205 0
47 78 0
184 203 0
131 133 0
173 197 0
47 78 0
36 43 0
141 113 0
164 192 0
153 124 0
9 16 0
131 115 0
69 45 0
169 159 0
165 157 0
180 201 0
147 140 0
190 206 0
177 199 0
60 92 0
73 46 0
74 32 0
151 142 0
175 198 0
155 144 0
48 64 0
159 155 0
93 67 0
173 197 0
5 5 0
187 205 0
144 139 0
12 24 0
177 199 0
177 199 0
69 36 0
103 75 0
96 51 0
0 0 0
71 45 0
164 157 0
185 204 0
192 207 0
176 163 0
89 53 0
148 141 0
32 38 0
174 162 0
142 138 0
117 97 0
60 32 0
127 93 0
102 45 0
188 205 0
55 25 0
61 29 0
97 62 0
115 96 0
123 74 0
82 27 0
130 115 0
74 26 0
89 66 0
89 65 0
100 55 0
7 0 0
197 210 0
21 4 0
118 97 0
75 49 0
121 98 0
173 161 0
20 5 0
140 119 0
117 97 0
147 140 0
90 54 0
109 76 0
175 162 0
189 206 0
184 203 0
187 204 0
187 204 0
116 72 0
94 67 0
123 105 0
178 200 0
177 199 0
87 42 0
74 32 0
147 141 0
178 200 0
189 206 0
113 95 0
174 198 0
117 97 0
148 141 0
157 126 0
178 200 0
177 199 0
179 200 0
181 201 0
196 210 0
174 162 0
183 202 0
176 199 0
182 202 0
167 194 0
178 200 0
116 89 0
173 197 0
129 132 0
180 201 0
132 134 0
59 19 0
184 203 0
170 196 0
169 195 0
193 208 0
180 201 0
176 199 0
164 157 0
140 137 0
165 193 0
134 134 0
115 96 0
180 201 0
171 196 0
167 194 0
175 198 0
165 193 0
181 201 0
171 196 0
164 193 0
170 196 0
177 199 0
177 189 0
167 194 0
165 193 0
184 203 0
193 208 0
166 194 0
190 206 0
191 207 0
189 206 0
176 199 0
172 196 0
164 192 0
169 184 0
170 196 0
171 196 0
175 187 0
155 176 0
175 198 0
189 206 0
179 200 0
193 208 0
147 172 0
1 7 0
172 196 0
164 181 0
175 198 0
169 195 0
165 193 0
180 201 0
193 208 0
59 91 0
186 204 0
182 202 0
183 203 0
171 185 0
177 199 0
181 201 0
193 208 0
148 173 0
180 201 0
192 208 0
197 210 0
164 192 0
193 208 0
174 198 0
179 200 0
165 193 0
156 177 0
177 199 0
159 178 0
172 196 0
189 205 0
193 208 0
177 199 0
189 206 0
153 175 0
175 187 0
157 178 0
170 196 0
177 199 0
168 194 0
41 68 0
164 181 0
145 171 0
179 200 0
46 77 0
10 25 0
185 204 0
194 209 0
49 79 0
195 209 0
162 192 0
184 203 0
173 197 0
190 206 0
199 211 0
189 206 0
174 197 0
0 0 0
170 196 0
159 178 0
188 205 0
194 209 0
52 86 0
170 196 0
191 207 0
179 200 0
152 175 0
168 195 0
195 209 0
63 95 0
189 205 0
59 92 0
170 195 0
199 211 0
169 195 0
186 204 0
187 205 0
195 209 0
145 171 0
48 78 0
165 193 0
56 89 0
50 80 0
167 194 0
182 202 0
51 81 0
199 211 0
190 206 0
62 94 0
178 200 0
167 194 0
168 195 0
186 204 0
168 195 0
171 196 0
184 203 0
16 36 0
172 197 0
47 77 0
186 204 0
44 61 0
165 193 0
171 196 0
181 201 0
173 197 0
168 194 0
47 77 0
48 78 0
48 78 0
164 192 0
167 194 0
188 205 0
183 202 0
179 200 0
147 172 0
181 201 0
47 78 0
47 77 0
164 192 0
164 193 0
180 201 0
61 93 0
185 204 0
185 204 0
3 12 0
62 94 0
61 93 0
1 5 0
46 76 0
183 203 0
162 192 0
177 199 0
58 91 0
179 200 0
187 204 0
46 77 0
52 81 0
170 195 0
187 204 0
170 195 0
60 93 0
52 86 0
47 63 0
174 198 0
53 87 0
49 79 0
53 82 0
172 196 0
173 197 0
168 194 0
16 36 0
172 196 0
169 195 0
168 194 0
13 30 0
16 36 0
135 135 0
193 208 0
178 200 0
181 202 0
179 200 0
13 30 0
179 200 0
53 82 0
17 37 0
63 94 0
0 3 0
186 204 0
16 36 0
46 77 0
177 199 0
175 198 0
50 80 0
47 77 0
9 14 0
47 77 0
174 198 0
13 26 0
165 193 0
54 82 0
169 195 0
62 94 0
49 18 0
46 77 0
3 7 0
3 10 0
177 199 0
15 32 0
51 80 0
57 90 0
182 202 0
193 208 0
1 5 0
180 201 0
59 92 0
152 151 0
172 197 0
183 203 0
54 83 0
52 81 0
172 196 0
52 81 0
62 94 0
47 63 0
188 205 0
151 151 0
4 4 0
31 28 0
163 192 0
3 9 0
186 204 0
176 199 0
14 26 0
63 95 0
176 163 0
172 196 0
176 198 0
180 201 0
62 94 0
185 203 0
37 46 0
12 24 0
10 15 0
152 123 0
162 192 0
142 113 0
190 206 0
56 73 0
183 202 0
168 194 0
42 49 0
164 192 0
170 195 0
167 194 0
196 210 0
6 5 0
52 81 0
164 192 0
166 193 0
148 141 0
162 191 0
163 192 0
187 205 0
162 192 0
131 133 0
183 202 0
186 204 0
181 201 0
161 155 0
138 136 0
15 32 0
83 63 0
3 7 0
131 133 0
33 39 0
186 204 0
116 97 0
47 78 0
139 136 0
21 10 0
107 57 0
131 133 0
62 94 0
29 32 0
134 134 0
0 0 0
172 196 0
166 158 0
0 0 0
185 203 0
183 202 0
0 1 0
153 124 0
152 124 0
57 25 0
138 111 0
107 93 0
187 205 0
55 72 0
171 196 0
179 200 0
17 13 0
21 1 0
9 12 0
185 204 0
132 134 0
139 137 0
138 111 0
170 160 0
153 143 0
94 67 0
145 139 0
180 201 0
71 37 0
40 55 0
106 92 0
60 92 0
59 19 0
173 161 0
177 163 0
169 159 0
178 200 0
59 25 0
150 142 0
85 64 0
72 39 0
56 25 0
193 208 0
173 161 0
137 136 0
180 201 0
141 138 0
171 160 0
46 10 0
184 203 0
109 94 0
134 135 0
178 200 0
179 200 0
115 96 0
95 67 0
60 22 0
14 8 0
189 206 0
178 163 0
179 200 0
179 200 0
100 69 0
93 58 0
188 205 0
126 107 0
172 197 0
130 133 0
106 92 0
194 209 0
78 26 0
143 138 0
172 197 0
181 201 0
54 17 0
140 137 0
169 195 0
167 194 0
183 202 0
171 196 0
177 199 0
142 138 0
182 202 0
139 137 0
150 123 0
145 139 0
61 22 0
131 133 0
161 155 0
183 202 0
180 201 0
195 209 0
173 197 0
194 208 0
88 53 0
168 194 0
136 135 0
113 67 0
190 206 0
183 203 0
155 153 0
166 158 0
180 201 0
174 162 0
168 194 0
169 195 0
163 192 0
172 197 0
168 194 0
191 207 0
181 201 0
177 199 0
168 195 0
178 200 0
177 188 0
178 200 0
187 205 0
167 194 0
186 204 0
178 200 0
185 203 0
172 196 0
157 177 0
174 198 0
175 198 0
173 197 0
183 203 0
173 197 0
180 201 0
178 200 0
184 203 0
188 205 0
188 205 0
178 200 0
175 198 0
171 196 0
175 198 0
175 198 0
166 194 0
174 197 0
175 198 0
170 195 0
172 197 0
171 196 0
147 172 0
156 177 0
174 197 0
176 199 0
164 193 0
147 172 0
154 176 0
186 204 0
188 205 0
154 176 0
181 201 0
177 199 0
156 177 0
165 193 0
191 207 0
142 160 0
163 192 0
197 210 0
178 200 0
180 201 0
182 202 0
172 197 0
61 93 0
134 155 0
162 180 0
161 180 0
178 199 0
58 91 0
170 196 0
162 191 0
188 205 0
153 176 0
190 206 0
181 201 0
168 194 0
145 171 0
170 185 0
190 206 0
187 205 0
170 196 0
157 178 0
150 174 0
164 193 0
49 79 0
159 179 0
138 148 0
179 200 0
154 176 0
198 211 0
171 185 0
171 196 0
148 173 0
178 200 0
173 197 0
0 0 0
163 192 0
183 202 0
194 208 0
178 200 0
43 70 0
186 204 0
166 193 0
182 202 0
187 204 0
175 198 0
178 200 0
168 194 0
167 194 0
47 77 0
194 208 0
47 77 0
178 200 0
192 207 0
182 202 0
176 199 0
192 207 0
127 143 0
169 195 0
163 192 0
185 203 0
174 198 0
169 195 0
166 193 0
166 193 0
176 199 0
173 197 0
181 201 0
194 208 0
163 192 0
168 194 0
164 193 0
172 197 0
11 27 0
186 204 0
51 81 0
185 203 0
53 82 0
162 191 0
186 204 0
163 192 0
167 194 0
163 192 0
160 155 0
174 197 0
50 80 0
185 204 0
179 200 0
178 200 0
189 205 0
165 193 0
59 92 0
164 192 0
60 92 0
156 177 0
53 82 0
165 193 0
171 196 0
182 202 0
170 195 0
3 6 0
1 4 0
163 192 0
4 12 0
169 195 0
182 202 0
62 94 0
48 78 0
169 195 0
168 194 0
167 194 0
170 196 0
165 193 0
62 94 0
17 37 0
173 197 0
56 89 0
172 197 0
54 83 0
171 196 0
51 80 0
168 194 0
179 200 0
49 79 0
174 198 0
11 21 0
46 77 0
184 203 0
51 80 0
196 209 0
54 82 0
52 81 0
48 78 0
171 196 0
184 203 0
135 135 0
166 193 0
165 193 0
191 207 0
197 210 0
51 80 0
166 193 0
168 194 0
173 197 0
16 36 0
16 36 0
186 204 0
170 195 0
37 53 0
46 77 0
46 77 0
47 55 0
192 207 0
46 72 0
52 81 0
17 37 0
178 200 0
53 82 0
192 207 0
176 199 0
53 82 0
172 197 0
51 80 0
49 79 0
180 201 0
177 189 0
171 196 0
3 8 0
35 42 0
51 80 0
43 52 0
0 0 0
9 14 0
13 31 0
63 94 0
47 63 0
20 8 0
182 202 0
190 206 0
48 64 0
194 208 0
60 92 0
184 203 0
17 37 0
13 31 0
2 6 0
146 148 0
63 94 0
176 199 0
13 30 0
164 193 0
180 201 0
50 79 0
54 87 0
49 79 0
166 193 0
56 89 0
162 192 0
12 24 0
47 77 0
167 194 0
191 207 0
177 199 0
50 69 0
174 198 0
193 208 0
176 198 0
5 5 0
168 159 0
77 50 0
14 27 0
137 136 0
140 137 0
54 72 0
3 7 0
28 25 0
45 76 0
0 2 0
8 10 0
53 82 0
52 70 0
14 26 0
165 193 0
0 3 0
192 208 0
139 137 0
191 207 0
62 94 0
181 201 0
171 196 0
176 198 0
180 201 0
171 196 0
176 199 0
15 29 0
193 208 0
174 197 0
175 198 0
136 135 0
12 30 0
83 41 0
97 68 0
103 92 0
139 137 0
40 39 0
185 203 0
51 80 0
14 0 0
187 205 0
171 160 0
28 5 0
64 23 0
119 98 0
140 112 0
98 51 0
178 164 0
143 139 0
50 11 0
52 13 0
112 77 0
177 199 0
186 204 0
151 123 0
134 134 0
72 45 0
92 43 0
121 91 0
108 93 0
120 98 0
178 200 0
170 160 0
21 2 0
41 6 0
55 16 0
153 144 0
118 97 0
94 67 0
90 66 0
98 51 0
151 123 0
102 55 0
68 44 0
175 162 0
179 200 0
15 2 0
189 206 0
146 140 0
94 67 0
185 203 0
38 15 0
17 6 0
181 201 0
137 136 0
111 77 0
109 94 0
178 200 0
144 139 0
116 96 0
138 136 0
133 134 0
181 201 0
153 143 0
137 136 0
2 0 0
117 97 0
13 0 0
176 199 0
172 196 0
180 201 0
190 206 0
28 2 0
7 0 0
142 138 0
134 135 0
168 194 0
172 197 0
138 136 0
131 133 0
137 111 0
175 162 0
119 98 0
152 123 0
178 163 0
141 138 0
176 199 0
190 206 0
160 155 0
194 208 0
175 198 0
177 199 0
174 162 0
176 199 0
149 142 0
167 194 0
187 205 0
179 200 0
195 209 0
151 151 0
179 200 0
185 203 0
164 193 0
177 199 0
181 201 0
162 192 0
194 208 0
196 210 0
184 203 0
171 196 0
162 191 0
168 194 0
188 205 0
181 201 0
158 178 0
189 206 0
167 194 0
167 194 0
172 196 0
164 193 0
169 195 0
192 207 0
164 193 0
163 192 0
148 173 0
168 195 0
176 199 0
173 197 0
179 200 0
172 196 0
189 205 0
198 211 0
165 193 0
177 199 0
197 210 0
180 201 0
190 206 0
187 205 0
164 193 0
186 204 0
162 191 0
190 206 0
162 192 0
172 196 0
189 206 0
189 206 0
169 195 0
186 204 0
170 195 0
177 199 0
170 195 0
177 199 0
164 192 0
169 195 0
54 88 0
178 200 0
192 207 0
173 197 0
187 205 0
153 175 0
177 199 0
165 193 0
163 192 0
179 200 0
163 192 0
173 197 0
186 204 0
194 208 0
188 205 0
40 64 0
157 177 0
175 198 0
45 76 0
185 204 0
163 181 0
195 209 0
177 199 0
187 205 0
158 168 0
196 210 0
157 177 0
13 31 0
197 210 0
179 200 0
50 79 0
194 209 0
162 191 0
173 197 0
178 200 0
165 193 0
171 196 0
167 194 0
174 198 0
154 176 0
196 209 0
49 79 0
172 196 0
182 202 0
147 172 0
161 180 0
163 180 0
54 82 0
191 207 0
169 195 0
179 200 0
48 78 0
149 173 0
152 165 0
170 196 0
164 192 0
182 202 0
51 80 0
61 93 0
187 205 0
183 202 0
54 83 0
180 201 0
53 82 0
4 13 0
192 208 0
50 80 0
163 192 0
173 197 0
176 199 0
193 208 0
47 78 0
172 196 0
46 77 0
53 87 0
197 210 0
55 89 0
176 199 0
162 191 0
169 195 0
170 195 0
166 193 0
200 212 0
165 193 0
193 208 0
175 198 0
171 196 0
189 206 0
174 198 0
196 210 0
178 200 0
48 78 0
174 198 0
170 195 0
47 77 0
174 198 0
167 194 0
162 191 0
163 192 0
185 204 0
191 207 0
165 193 0
181 201 0
178 200 0
55 83 0
162 191 0
162 191 0
167 194 0
189 206 0
171 196 0
17 37 0
166 193 0
49 79 0
58 90 0
165 193 0
4 13 0
54 83 0
178 199 0
49 79 0
178 200 0
183 202 0
17 37 0
188 205 0
60 92 0
61 93 0
190 206 0
51 80 0
165 193 0
145 171 0
54 82 0
193 208 0
171 185 0
4 13 0
59 91 0
178 200 0
165 193 0
174 198 0
49 79 0
185 203 0
165 193 0
192 208 0
173 197 0
14 31 0
60 92 0
61 93 0
176 198 0
168 195 0
166 193 0
176 199 0
174 198 0
61 93 0
107 93 0
49 79 0
166 193 0
169 195 0
1 4 0
48 78 0
1 3 0
172 196 0
173 197 0
46 77 0
190 206 0
146 148 0
13 31 0
179 200 0
40 48 0
164 192 0
15 33 0
178 200 0
10 18 0
60 92 0
54 83 0
167 194 0
12 19 0
164 192 0
176 199 0
47 78 0
172 197 0
4 13 0
57 90 0
53 82 0
165 193 0
166 193 0
191 207 0
15 35 0
187 205 0
177 199 0
155 144 0
178 200 0
142 138 0
196 210 0
196 210 0
162 192 0
164 193 0
180 201 0
182 202 0
179 200 0
49 79 0
48 78 0
131 133 0
13 25 0
46 62 0
183 202 0
52 81 0
165 193 0
164 157 0
12 24 0
167 194 0
186 204 0
15 7 0
188 205 0
171 196 0
13 30 0
180 201 0
2 4 0
167 194 0
53 82 0
31 32 0
3 7 0
110 94 0
168 194 0
166 193 0
48 78 0
179 200 0
150 142 0
16 36 0
139 137 0
172 196 0
167 194 0
162 191 0
180 201 0
175 198 0
147 140 0
42 49 0
183 203 0
172 161 0
163 192 0
182 202 0
12 21 0
100 73 0
189 206 0
160 155 0
15 28 0
165 193 0
166 193 0
43 60 0
171 196 0
133 134 0
121 98 0
1 6 0
3 7 0
86 39 0
2 1 0
146 140 0
175 198 0
176 162 0
192 207 0
175 198 0
45 62 0
115 96 0
29 37 0
174 198 0
37 53 0
95 62 0
112 78 0
159 126 0
191 207 0
138 136 0
140 137 0
181 201 0
151 143 0
178 200 0
23 13 0
109 94 0
127 107 0
91 66 0
188 205 0
17 13 0
39 54 0
41 8 0
140 112 0
74 46 0
60 32 0
11 0 0
50 17 0
101 64 0
136 111 0
181 202 0
195 209 0
116 84 0
154 144 0
190 206 0
132 94 0
10 0 0
125 75 0
6 7 0
155 176 0
97 68 0
126 107 0
143 139 0
95 58 0
111 77 0
178 200 0
136 111 0
147 122 0
141 138 0
108 93 0
117 97 0
104 75 0
131 109 0
102 74 0
78 37 0
149 122 0
90 35 0
148 141 0
169 159 0
140 137 0
117 97 0
173 197 0
133 134 0
157 145 0
140 137 0
189 205 0
174 162 0
134 134 0
178 200 0
134 135 0
116 97 0
185 204 0
27 3 0
175 198 0
154 144 0
133 134 0
170 196 0
181 201 0
191 207 0
146 140 0
148 141 0
170 196 0
167 158 0
167 158 0
130 132 0
183 203 0
133 109 0
183 203 0
179 200 0
185 204 0
168 194 0
185 203 0
165 193 0
171 160 0
182 202 0
173 197 0
177 199 0
192 208 0
163 192 0
165 181 0
178 200 0
171 196 0
133 155 0
164 192 0
170 195 0
170 195 0
170 184 0
169 195 0
50 79 0
188 205 0
169 195 0
186 204 0
174 198 0
162 191 0
162 191 0
166 182 0
169 195 0
171 196 0
190 206 0
175 187 0
182 202 0
182 202 0
150 174 0
174 198 0
184 203 0
174 197 0
170 195 0
180 201 0
149 173 0
175 198 0
167 194 0
166 193 0
182 202 0
184 203 0
150 174 0
174 198 0
174 198 0
181 202 0
187 205 0
163 192 0
179 200 0
189 205 0
184 203 0
188 205 0
180 201 0
168 194 0
175 198 0
188 205 0
193 208 0
147 172 0
180 201 0
145 171 0
196 209 0
189 206 0
188 205 0
53 82 0
184 203 0
171 196 0
163 181 0
187 204 0
175 198 0
147 172 0
164 192 0
166 193 0
192 207 0
171 196 0
172 197 0
148 163 0
169 184 0
13 31 0
170 196 0
186 204 0
173 197 0
176 199 0
181 201 0
184 203 0
194 208 0
141 138 0
190 206 0
175 198 0
14 32 0
191 207 0
173 186 0
166 182 0
173 197 0
189 205 0
149 173 0
132 145 0
171 196 0
186 204 0
176 199 0
191 207 0
170 195 0
171 196 0
174 198 0
168 194 0
166 194 0
178 200 0
63 94 0
151 174 0
171 196 0
174 198 0
54 88 0
168 195 0
176 199 0
162 191 0
4 14 0
167 194 0
182 202 0
171 185 0
177 199 0
164 192 0
183 202 0
180 201 0
52 81 0
178 200 0
181 201 0
179 200 0
170 196 0
49 79 0
183 202 0
139 158 0
48 78 0
171 196 0
164 193 0
176 199 0
179 200 0
159 179 0
188 205 0
183 203 0
162 192 0
191 207 0
194 208 0
172 196 0
46 76 0
4 14 0
63 94 0
48 78 0
13 31 0
187 205 0
196 209 0
47 78 0
169 195 0
173 197 0
14 32 0
54 88 0
166 193 0
9 22 0
49 79 0
47 77 0
173 197 0
46 76 0
166 193 0
0 0 0
47 77 0
3 11 0
166 193 0
182 202 0
168 194 0
163 192 0
50 80 0
49 79 0
189 206 0
52 81 0
193 208 0
13 31 0
170 195 0
163 192 0
184 203 0
41 59 0
173 197 0
168 194 0
173 197 0
63 94 0
48 67 0
171 196 0
60 92 0
168 194 0
46 77 0
50 79 0
14 32 0
2 2 0
3 12 0
192 207 0
49 79 0
138 118 0
52 81 0
55 84 0
3 8 0
46 77 0
171 196 0
175 198 0
50 80 0
153 175 0
0 0 0
1 5 0
138 112 0
47 78 0
167 194 0
13 29 0
165 193 0
196 210 0
187 205 0
48 78 0
14 32 0
52 81 0
174 197 0
43 57 0
168 195 0
49 64 0
42 49 0
3 2 0
13 31 0
61 93 0
162 191 0
61 93 0
178 200 0
17 37 0
4 13 0
14 32 0
1 5 0
174 198 0
1 4 0
48 78 0
53 82 0
195 209 0
173 197 0
16 36 0
46 77 0
165 193 0
48 64 0
162 191 0
188 205 0
11 22 0
12 30 0
176 163 0
48 64 0
167 158 0
49 79 0
59 91 0
164 193 0
182 202 0
2 4 0
194 208 0
189 206 0
163 192 0
0 0 0
186 204 0
164 192 0
179 200 0
188 205 0
63 94 0
46 76 0
147 149 0
186 204 0
187 205 0
193 208 0
38 38 0
162 191 0
178 200 0
189 206 0
10 17 0
0 0 0
178 163 0
133 134 0
163 157 0
158 126 0
170 196 0
145 139 0
40 55 0
22 15 0
187 205 0
166 194 0
129 93 0
193 208 0
140 137 0
173 197 0
165 193 0
43 61 0
140 97 0
37 53 0
155 125 0
15 6 0
196 209 0
174 198 0
33 39 0
59 92 0
165 193 0
33 39 0
155 153 0
188 205 0
42 10 0
105 92 0
174 161 0
48 68 0
148 141 0
3 8 0
170 196 0
145 139 0
184 203 0
0 0 0
150 142 0
134 134 0
42 60 0
179 200 0
45 61 0
74 30 0
49 79 0
84 64 0
178 200 0
140 137 0
54 88 0
154 144 0
49 79 0
139 137 0
183 202 0
137 136 0
43 60 0
175 162 0
142 138 0
32 7 0
69 23 0
106 93 0
140 137 0
141 138 0
71 20 0
47 77 0
182 202 0
95 68 0
108 93 0
140 112 0
194 208 0
195 209 0
126 92 0
109 81 0
37 53 0
149 141 0
147 141 0
46 62 0
174 198 0
107 57 0
101 64 0
73 46 0
148 141 0
83 55 0
169 159 0
176 163 0
177 199 0
39 9 0
91 66 0
175 198 0
83 55 0
137 111 0
149 141 0
178 200 0
181 201 0
171 196 0
184 203 0
173 161 0
141 113 0
112 95 0
74 46 0
143 139 0
98 69 0
143 139 0
194 209 0
83 47 0
56 17 0
181 201 0
104 92 0
136 136 0
186 204 0
153 143 0
148 141 0
166 193 0
182 202 0
138 111 0
167 194 0
165 193 0
173 197 0
130 133 0
166 158 0
129 132 0
174 162 0
170 195 0
163 192 0
189 206 0
180 201 0
177 163 0
169 195 0
101 60 0
105 92 0
136 135 0
182 202 0
185 203 0
169 195 0
177 199 0
184 203 0
45 76 0
168 183 0
164 192 0
165 193 0
165 193 0
187 205 0
178 200 0
178 200 0
167 183 0
177 199 0
194 209 0
177 199 0
183 203 0
182 202 0
158 178 0
165 193 0
179 190 0
188 205 0
169 195 0
170 195 0
179 200 0
180 201 0
183 202 0
164 192 0
188 205 0
195 209 0
178 200 0
184 203 0
198 210 0
177 199 0
198 211 0
167 183 0
162 191 0
182 202 0
56 89 0
152 175 0
162 192 0
199 211 0
178 200 0
173 197 0
147 162 0
182 202 0
196 210 0
196 209 0
153 175 0
4 13 0
162 192 0
176 199 0
180 201 0
145 171 0
53 82 0
154 176 0
151 174 0
193 208 0
162 191 0
150 174 0
41 69 0
164 181 0
183 202 0
176 199 0
163 192 0
155 176 0
177 199 0
171 196 0
172 185 0
177 199 0
192 207 0
174 197 0
131 133 0
173 197 0
179 200 0
194 209 0
176 199 0
193 208 0
169 195 0
189 206 0
46 77 0
164 192 0
48 78 0
190 206 0
187 204 0
159 178 0
175 198 0
183 203 0
13 29 0
164 193 0
169 195 0
178 200 0
53 82 0
157 178 0
165 193 0
175 187 0
19 41 0
186 204 0
170 195 0
49 79 0
168 194 0
17 37 0
181 201 0
181 201 0
196 209 0
173 197 0
164 192 0
48 78 0
177 199 0
166 193 0
165 193 0
145 171 0
194 208 0
62 94 0
176 199 0
163 192 0
184 203 0
162 180 0
166 193 0
178 200 0
47 78 0
197 210 0
179 200 0
177 199 0
59 92 0
176 188 0
190 206 0
56 89 0
169 195 0
57 90 0
162 191 0
173 197 0
162 191 0
49 79 0
164 193 0
163 192 0
167 194 0
62 94 0
50 80 0
163 192 0
168 194 0
173 197 0
57 90 0
173 197 0
62 93 0
48 78 0
176 199 0
172 197 0
61 93 0
186 204 0
54 83 0
163 192 0
52 81 0
166 194 0
165 193 0
172 197 0
163 192 0
192 207 0
43 70 0
53 82 0
63 94 0
188 205 0
171 196 0
183 202 0
50 79 0
168 195 0
174 198 0
61 93 0
164 192 0
15 32 0
183 202 0
50 79 0
1 5 0
182 202 0
0 0 0
185 204 0
4 13 0
189 206 0
190 206 0
171 196 0
170 195 0
46 77 0
191 207 0
173 197 0
53 82 0
53 82 0
174 198 0
49 79 0
97 68 0
165 193 0
168 194 0
54 83 0
178 200 0
58 91 0
47 77 0
193 208 0
165 193 0
167 194 0
57 90 0
54 72 0
174 198 0
176 199 0
15 32 0
188 205 0
52 81 0
194 208 0
184 203 0
168 195 0
187 205 0
49 79 0
2 8 0
22 13 0
168 194 0
168 194 0
10 12 0
163 192 0
163 192 0
1 4 0
181 201 0
167 194 0
173 197 0
50 79 0
150 142 0
58 91 0
47 77 0
51 80 0
54 83 0
154 124 0
174 198 0
45 62 0
124 100 0
42 49 0
172 196 0
157 154 0
162 191 0
47 78 0
47 77 0
55 88 0
48 78 0
61 93 0
15 32 0
0 2 0
154 152 0
90 54 0
47 77 0
61 93 0
175 198 0
58 90 0
44 61 0
142 113 0
169 195 0
61 93 0
174 162 0
55 83 0
17 37 0
49 79 0
174 198 0
169 195 0
162 191 0
180 201 0
167 194 0
45 62 0
55 88 0
99 73 0
172 197 0
176 162 0
167 194 0
169 195 0
185 203 0
183 202 0
150 150 0
37 53 0
62 94 0
162 191 0
187 205 0
131 133 0
183 202 0
142 138 0
54 88 0
149 141 0
173 197 0
77 47 0
56 73 0
179 200 0
33 41 0
194 209 0
139 137 0
55 31 0
40 6 0
118 90 0
169 195 0
160 155 0
169 195 0
136 135 0
132 109 0
154 144 0
165 193 0
106 80 0
13 22 0
165 193 0
183 203 0
2 0 0
48 78 0
147 140 0
113 71 0
37 43 0
104 92 0
189 205 0
169 195 0
191 207 0
170 195 0
168 159 0
172 196 0
43 60 0
177 163 0
191 207 0
130 133 0
114 96 0
174 162 0
138 136 0
43 42 0
135 135 0
149 141 0
74 42 0
142 120 0
140 112 0
168 159 0
150 142 0
148 141 0
61 18 0
163 157 0
188 205 0
1 0 0
137 136 0
177 199 0
112 95 0
26 3 0
150 142 0
179 200 0
147 141 0
128 93 0
171 160 0
176 199 0
24 3 0
23 7 0
189 206 0
182 202 0
190 206 0
165 157 0
47 78 0
181 201 0
186 204 0
138 136 0
91 49 0
182 202 0
112 78 0
95 68 0
182 202 0
70 29 0
89 53 0
123 99 0
154 144 0
116 84 0
120 98 0
146 121 0
174 198 0
169 195 0
24 2 0
171 196 0
176 199 0
150 142 0
89 65 0
152 124 0
172 197 0
32 28 0
182 202 0
170 195 0
195 209 0
129 93 0
165 193 0
165 193 0
195 209 0
188 205 0
132 133 0
15 1 0
136 136 0
141 138 0
184 203 0
153 152 0
169 159 0
149 141 0
132 134 0
139 118 0
180 201 0
129 108 0
183 202 0
168 194 0
165 193 0
171 196 0
187 205 0
198 210 0
166 194 0
181 201 0
197 210 0
187 205 0
170 196 0
189 206 0
199 211 0
171 196 0
164 193 0
186 204 0
168 194 0
166 193 0
166 193 0
173 197 0
167 194 0
188 205 0
169 195 0
171 196 0
188 205 0
181 202 0
180 201 0
190 206 0
161 191 0
174 198 0
176 199 0
172 196 0
188 205 0
172 197 0
196 210 0
186 204 0
169 195 0
188 205 0
180 201 0
179 200 0
170 195 0
185 203 0
181 201 0
176 199 0
189 206 0
174 197 0
194 208 0
156 177 0
162 191 0
159 179 0
183 203 0
175 198 0
171 196 0
195 209 0
168 183 0
173 197 0
194 208 0
48 78 0
186 204 0
171 196 0
167 183 0
161 180 0
184 203 0
196 209 0
177 199 0
164 181 0
151 174 0
153 175 0
186 204 0
158 178 0
181 201 0
175 198 0
145 171 0
169 184 0
173 197 0
193 208 0
180 201 0
187 205 0
175 198 0
182 202 0
199 211 0
53 82 0
184 203 0
177 199 0
184 203 0
190 206 0
47 77 0
150 174 0
161 191 0
171 196 0
166 182 0
46 77 0
62 94 0
166 193 0
169 195 0
63 94 0
46 76 0
181 201 0
42 69 0
190 206 0
175 198 0
191 207 0
165 193 0
189 206 0
163 192 0
170 195 0
172 197 0
55 89 0
163 192 0
60 92 0
59 91 0
181 202 0
170 196 0
189 206 0
181 201 0
178 200 0
189 205 0
195 209 0
173 197 0
194 208 0
174 198 0
186 204 0
173 197 0
150 174 0
194 209 0
170 195 0
165 193 0
175 198 0
168 194 0
189 206 0
177 199 0
52 81 0
42 69 0
44 70 0
189 206 0
50 80 0
188 205 0
164 181 0
189 206 0
195 209 0
164 193 0
162 191 0
163 192 0
174 198 0
181 202 0
187 205 0
56 84 0
167 158 0
54 82 0
169 195 0
191 207 0
167 194 0
186 204 0
61 93 0
55 89 0
162 191 0
164 193 0
155 176 0
3 12 0
105 92 0
170 196 0
175 198 0
163 192 0
163 192 0
3 12 0
61 93 0
17 37 0
47 77 0
165 193 0
2 2 0
170 195 0
8 12 0
145 171 0
177 199 0
15 35 0
168 195 0
14 32 0
51 81 0
162 192 0
62 94 0
46 77 0
162 191 0
50 80 0
52 81 0
14 32 0
47 78 0
171 196 0
179 200 0
170 196 0
184 203 0
57 90 0
171 196 0
169 195 0
3 12 0
15 35 0
51 80 0
56 89 0
169 195 0
50 79 0
175 198 0
187 205 0
176 199 0
52 81 0
163 192 0
62 94 0
0 0 0
0 0 0
165 193 0
183 202 0
17 37 0
190 206 0
51 80 0
7 7 0
189 206 0
172 197 0
174 198 0
47 77 0
54 83 0
154 144 0
188 205 0
43 60 0
188 205 0
163 192 0
174 197 0
48 78 0
62 94 0
48 78 0
13 31 0
50 80 0
15 35 0
185 203 0
1 2 0
51 81 0
175 198 0
175 198 0
49 79 0
4 13 0
48 78 0
55 88 0
162 191 0
192 207 0
193 208 0
175 198 0
0 0 0
167 194 0
171 196 0
194 208 0
169 195 0
3 9 0
149 141 0
188 205 0
143 139 0
169 195 0
155 144 0
127 92 0
161 191 0
53 82 0
1 4 0
185 203 0
173 197 0
162 191 0
34 36 0
3 8 0
48 78 0
148 141 0
49 79 0
174 198 0
173 197 0
147 141 0
179 200 0
168 194 0
164 157 0
165 193 0
162 191 0
193 208 0
51 80 0
192 207 0
0 3 0
182 202 0
160 155 0
125 75 0
48 78 0
168 159 0
146 140 0
164 192 0
129 132 0
30 9 0
49 79 0
191 207 0
175 162 0
158 178 0
45 76 0
172 196 0
148 141 0
163 192 0
160 155 0
167 194 0
187 205 0
18 7 0
131 133 0
172 197 0
61 15 0
179 200 0
132 134 0
192 207 0
127 107 0
170 160 0
189 206 0
26 28 0
174 162 0
184 203 0
11 20 0
144 139 0
164 193 0
182 202 0
7 11 0
191 207 0
168 194 0
48 64 0
113 95 0
184 203 0
134 134 0
121 99 0
65 16 0
180 201 0
10 0 0
175 198 0
41 48 0
192 207 0
177 199 0
32 38 0
75 46 0
134 134 0
146 140 0
110 94 0
12 21 0
182 202 0
118 97 0
149 141 0
183 202 0
146 140 0
71 28 0
7 9 0
137 136 0
152 143 0
149 142 0
34 36 0
89 53 0
140 112 0
34 7 0
195 209 0
150 142 0
139 137 0
20 2 0
174 162 0
143 139 0
108 93 0
141 137 0
120 98 0
72 34 0
161 155 0
187 205 0
136 111 0
141 113 0
99 69 0
64 29 0
85 64 0
2 5 0
78 41 0
145 140 0
172 196 0
85 64 0
33 38 0
169 159 0
176 199 0
141 138 0
149 122 0
75 46 0
184 203 0
170 195 0
134 116 0
128 107 0
35 5 0
172 197 0
122 105 0
66 27 0
132 134 0
143 139 0
170 160 0
186 204 0
176 163 0
138 136 0
178 200 0
170 196 0
136 135 0
164 193 0
135 135 0
183 203 0
141 113 0
165 193 0
183 202 0
135 117 0
139 137 0
5 0 0
182 202 0
177 199 0
196 210 0
183 202 0
168 195 0
178 200 0
198 210 0
174 197 0
169 195 0
185 203 0
190 206 0
172 196 0
180 201 0
169 195 0
172 197 0
162 191 0
144 171 0
189 206 0
184 203 0
178 200 0
189 206 0
146 172 0
174 198 0
178 200 0
186 204 0
152 175 0
137 157 0
172 197 0
175 198 0
189 206 0
153 175 0
167 194 0
191 207 0
175 198 0
185 203 0
47 77 0
181 201 0
185 203 0
183 202 0
151 174 0
178 200 0
164 181 0
176 199 0
191 207 0
193 208 0
189 206 0
185 204 0
142 160 0
190 206 0
178 199 0
192 207 0
163 192 0
175 198 0
181 201 0
194 208 0
177 199 0
53 82 0
165 182 0
189 206 0
191 207 0
199 211 0
150 174 0
48 78 0
173 197 0
189 206 0
166 182 0
173 197 0
186 204 0
166 193 0
179 200 0
46 77 0
186 204 0
160 179 0
168 195 0
183 202 0
172 196 0
184 203 0
192 208 0
149 173 0
173 197 0
185 204 0
188 205 0
172 197 0
150 174 0
167 194 0
173 197 0
188 205 0
175 198 0
194 208 0
172 197 0
174 198 0
168 194 0
165 193 0
14 32 0
165 193 0
180 201 0
179 200 0
173 197 0
166 193 0
52 82 0
180 201 0
167 194 0
164 192 0
181 202 0
172 197 0
55 84 0
50 80 0
48 78 0
186 204 0
164 193 0
190 206 0
182 202 0
172 196 0
152 175 0
168 195 0
170 195 0
46 77 0
164 192 0
166 194 0
187 205 0
191 207 0
167 194 0
52 81 0
166 194 0
187 205 0
174 198 0
173 197 0
173 197 0
183 203 0
192 207 0
178 200 0
187 205 0
190 206 0
53 82 0
173 197 0
168 194 0
0 0 0
186 204 0
175 198 0
4 13 0
59 91 0
165 193 0
51 80 0
163 192 0
53 82 0
167 194 0
190 206 0
188 205 0
63 95 0
170 195 0
164 192 0
190 207 0
179 200 0
59 92 0
166 193 0
182 202 0
164 193 0
172 196 0
165 193 0
187 204 0
179 200 0
62 94 0
167 194 0
172 197 0
173 197 0
48 78 0
46 76 0
167 194 0
167 194 0
17 37 0
178 200 0
172 197 0
46 77 0
162 191 0
176 199 0
46 76 0
169 195 0
181 201 0
190 206 0
178 199 0
179 200 0
179 200 0
165 193 0
168 195 0
166 194 0
58 91 0
60 92 0
164 192 0
175 198 0
50 80 0
180 201 0
14 32 0
174 197 0
49 79 0
50 79 0
190 206 0
186 204 0
0 2 0
163 192 0
63 94 0
3 12 0
1 4 0
181 202 0
49 79 0
58 91 0
192 207 0
191 207 0
45 76 0
62 94 0
47 77 0
168 195 0
171 196 0
173 197 0
62 93 0
166 193 0
165 193 0
59 91 0
178 199 0
171 196 0
164 192 0
62 94 0
191 207 0
162 191 0
168 195 0
192 207 0
1 5 0
47 77 0
187 204 0
52 81 0
174 198 0
177 199 0
13 30 0
13 31 0
61 93 0
14 32 0
169 195 0
29 36 0
48 64 0
61 93 0
51 80 0
175 198 0
52 81 0
179 200 0
62 94 0
163 192 0
3 8 0
162 191 0
59 91 0
136 135 0
108 76 0
192 207 0
165 158 0
165 193 0
51 81 0
161 156 0
149 150 0
179 200 0
130 115 0
164 192 0
138 136 0
165 193 0
175 198 0
100 52 0
166 193 0
46 63 0
0 0 0
190 206 0
185 203 0
61 93 0
181 201 0
58 91 0
188 205 0
152 151 0
49 79 0
183 202 0
130 115 0
72 34 0
42 60 0
181 201 0
52 81 0
163 192 0
115 96 0
170 195 0
55 20 0
163 192 0
1 3 0
153 152 0
198 210 0
168 159 0
190 206 0
182 202 0
141 138 0
0 2 0
26 28 0
132 134 0
46 7 0
163 192 0
111 67 0
181 201 0
63 94 0
165 193 0
184 203 0
100 45 0
174 197 0
98 68 0
186 204 0
193 208 0
192 207 0
184 203 0
142 138 0
8 15 0
144 139 0
190 206 0
35 42 0
174 197 0
165 158 0
46 62 0
4 11 0
170 195 0
185 204 0
47 78 0
158 154 0
50 80 0
95 68 0
137 111 0
149 141 0
76 35 0
91 43 0
170 195 0
48 78 0
153 124 0
151 142 0
171 160 0
180 201 0
140 137 0
91 66 0
35 25 0
104 75 0
75 49 0
173 197 0
177 163 0
121 85 0
30 26 0
153 143 0
68 23 0
36 53 0
118 89 0
181 201 0
56 22 0
183 202 0
65 21 0
15 0 0
184 203 0
95 54 0
150 142 0
177 199 0
176 198 0
179 200 0
106 93 0
35 7 0
191 207 0
24 13 0
133 134 0
189 206 0
111 95 0
156 145 0
116 97 0
186 204 0
23 2 0
183 202 0
133 109 0
113 78 0
165 157 0
136 135 0
151 142 0
136 110 0
172 161 0
176 199 0
174 198 0
168 194 0
170 160 0
175 198 0
137 136 0
127 93 0
187 205 0
181 201 0
152 124 0
146 140 0
75 46 0
106 93 0
171 196 0
96 62 0
168 159 0
178 200 0
145 140 0
135 135 0
172 196 0
126 87 0
106 92 0
152 143 0
154 152 0
169 195 0
171 196 0
170 195 0
178 200 0
164 192 0
164 181 0
181 201 0
166 193 0
149 163 0
175 198 0
186 204 0
188 205 0
178 189 0
168 195 0
189 206 0
169 195 0
199 211 0
180 201 0
183 202 0
166 193 0
174 198 0
175 198 0
187 205 0
182 202 0
191 207 0
171 196 0
162 192 0
186 204 0
181 201 0
169 195 0
189 206 0
139 158 0
154 176 0
182 202 0
177 199 0
180 201 0
172 197 0
180 201 0
175 198 0
134 155 0
194 208 0
184 203 0
186 204 0
172 196 0
193 208 0
151 174 0
197 210 0
184 203 0
168 195 0
167 194 0
173 186 0
187 204 0
164 192 0
53 82 0
155 176 0
166 182 0
172 197 0
176 188 0
166 193 0
177 199 0
195 209 0
191 207 0
172 186 0
56 89 0
184 203 0
149 173 0
62 93 0
117 137 0
15 33 0
173 197 0
188 205 0
174 198 0
179 200 0
173 197 0
145 171 0
197 210 0
165 193 0
195 209 0
179 200 0
174 198 0
183 203 0
132 134 0
170 195 0
199 211 0
165 181 0
194 209 0
169 195 0
167 183 0
58 91 0
50 80 0
176 188 0
175 198 0
13 29 0
42 69 0
182 202 0
147 172 0
175 198 0
14 32 0
173 197 0
170 195 0
3 12 0
42 69 0
60 92 0
176 199 0
182 202 0
183 202 0
177 199 0
174 197 0
181 202 0
176 199 0
172 197 0
166 193 0
163 192 0
179 200 0
196 209 0
180 201 0
195 209 0
162 192 0
178 200 0
182 202 0
45 76 0
178 199 0
166 193 0
174 197 0
174 197 0
180 201 0
170 195 0
176 199 0
170 196 0
59 92 0
186 204 0
52 86 0
146 172 0
197 210 0
14 32 0
15 35 0
186 204 0
175 198 0
174 198 0
48 78 0
167 194 0
181 201 0
61 93 0
11 21 0
162 191 0
162 192 0
166 193 0
48 78 0
49 79 0
56 89 0
182 202 0
49 79 0
189 206 0
154 176 0
48 78 0
188 205 0
178 200 0
61 93 0
174 198 0
13 31 0
63 94 0
186 204 0
165 193 0
164 192 0
169 195 0
163 192 0
51 80 0
58 90 0
14 32 0
48 78 0
189 206 0
162 191 0
165 193 0
47 77 0
60 92 0
4 13 0
179 200 0
191 207 0
14 31 0
45 76 0
171 196 0
194 208 0
162 191 0
13 31 0
175 198 0
122 91 0
178 200 0
162 191 0
11 16 0
46 77 0
47 77 0
167 194 0
177 199 0
57 90 0
182 202 0
47 77 0
173 197 0
165 193 0
195 209 0
45 76 0
49 79 0
50 79 0
171 196 0
13 31 0
46 76 0
13 31 0
169 195 0
50 80 0
55 83 0
13 31 0
170 196 0
14 32 0
164 193 0
164 192 0
86 39 0
163 192 0
14 32 0
46 77 0
12 19 0
195 209 0
54 83 0
52 81 0
177 163 0
163 192 0
4 14 0
190 206 0
46 63 0
175 198 0
187 205 0
196 209 0
3 12 0
48 78 0
174 197 0
99 45 0
14 32 0
173 197 0
171 196 0
37 37 0
131 133 0
174 197 0
168 194 0
49 79 0
51 81 0
168 194 0
166 194 0
185 203 0
174 198 0
48 78 0
171 196 0
148 141 0
195 209 0
60 92 0
164 192 0
175 162 0
49 68 0
172 197 0
152 143 0
164 192 0
163 192 0
178 200 0
45 62 0
0 0 0
182 202 0
131 133 0
46 62 0
58 90 0
153 152 0
173 161 0
42 60 0
133 134 0
10 17 0
177 199 0
181 201 0
11 22 0
14 32 0
104 92 0
51 80 0
177 199 0
182 202 0
173 197 0
167 194 0
129 132 0
163 192 0
152 124 0
171 160 0
61 93 0
185 204 0
46 77 0
76 47 0
166 158 0
139 137 0
61 93 0
46 77 0
171 196 0
192 207 0
197 210 0
166 158 0
164 192 0
150 142 0
34 42 0
146 121 0
40 55 0
168 195 0
191 207 0
49 79 0
1 3 0
44 50 0
173 197 0
1 4 0
124 100 0
150 142 0
131 133 0
40 55 0
176 163 0
152 143 0
173 161 0
178 200 0
180 201 0
185 204 0
183 202 0
39 9 0
177 199 0
187 205 0
131 108 0
136 111 0
149 141 0
111 71 0
46 62 0
136 136 0
8 13 0
139 137 0
15 10 0
164 157 0
48 20 0
122 99 0
173 161 0
176 199 0
143 139 0
171 196 0
133 134 0
188 205 0
60 93 0
140 112 0
177 163 0
169 159 0
186 204 0
41 11 0
108 57 0
189 206 0
180 201 0
143 139 0
147 140 0
83 52 0
140 112 0
90 57 0
183 202 0
192 207 0
131 133 0
107 93 0
67 27 0
131 133 0
179 200 0
175 198 0
194 208 0
169 195 0
50 13 0
179 200 0
152 143 0
186 204 0
90 66 0
169 159 0
160 155 0
181 201 0
140 137 0
172 196 0
133 134 0
136 110 0
173 197 0
179 200 0
109 94 0
179 200 0
167 194 0
177 199 0
179 200 0
171 196 0
136 110 0
171 196 0
65 23 0
157 154 0
189 206 0
192 208 0
189 206 0
92 66 0
171 196 0
177 199 0
166 158 0
185 204 0
184 203 0
114 96 0
152 143 0
183 203 0
163 192 0
192 207 0
172 186 0
165 193 0
177 199 0
58 91 0
195 209 0
184 203 0
182 202 0
189 206 0
192 207 0
166 193 0
171 196 0
146 172 0
183 202 0
172 196 0
183 202 0
177 199 0
177 199 0
162 180 0
174 197 0
167 194 0
174 198 0
177 199 0
176 199 0
156 177 0
180 201 0
158 178 0
177 199 0
182 202 0
165 193 0
150 174 0
183 202 0
171 185 0
174 198 0
197 210 0
168 194 0
196 209 0
187 205 0
177 199 0
165 193 0
165 182 0
147 172 0
163 192 0
193 208 0
183 203 0
193 208 0
184 203 0
185 204 0
1 3 0
185 203 0
168 183 0
146 172 0
171 196 0
132 154 0
186 204 0
191 207 0
147 172 0
165 182 0
190 206 0
170 196 0
186 204 0
62 94 0
184 203 0
151 174 0
168 183 0
171 196 0
52 81 0
195 209 0
197 210 0
176 199 0
190 206 0
168 194 0
174 198 0
192 207 0
133 155 0
170 195 0
168 194 0
167 194 0
186 204 0
179 200 0
187 205 0
47 77 0
175 198 0
164 192 0
147 172 0
192 207 0
189 205 0
186 204 0
198 211 0
56 84 0
183 202 0
41 68 0
179 200 0
13 31 0
171 196 0
164 192 0
186 204 0
171 196 0
189 205 0
170 195 0
191 207 0
181 202 0
167 194 0
186 204 0
180 201 0
165 193 0
55 88 0
53 82 0
187 205 0
176 198 0
166 182 0
166 193 0
191 207 0
63 94 0
172 196 0
174 197 0
192 207 0
53 87 0
17 37 0
168 194 0
181 201 0
163 192 0
173 197 0
194 208 0
180 201 0
189 205 0
196 210 0
62 93 0
1 4 0
196 210 0
170 195 0
163 192 0
182 202 0
187 205 0
59 91 0
164 192 0
168 195 0
191 207 0
59 92 0
162 191 0
173 197 0
187 205 0
53 82 0
49 79 0
194 209 0
59 92 0
162 191 0
170 196 0
50 79 0
175 198 0
13 31 0
173 197 0
152 143 0
175 198 0
177 199 0
164 192 0
169 195 0
181 201 0
171 196 0
190 206 0
48 78 0
171 196 0
15 33 0
178 200 0
196 210 0
196 210 0
165 193 0
165 193 0
178 200 0
167 194 0
188 205 0
168 194 0
55 84 0
186 204 0
168 195 0
186 204 0
176 199 0
162 192 0
164 192 0
48 78 0
155 166 0
62 93 0
13 29 0
172 196 0
16 35 0
17 37 0
51 80 0
186 204 0
47 77 0
164 192 0
174 197 0
53 82 0
185 203 0
13 30 0
179 200 0
171 196 0
178 200 0
187 204 0
166 194 0
139 137 0
165 193 0
173 197 0
0 2 0
46 76 0
47 78 0
164 192 0
13 31 0
46 76 0
47 77 0
168 194 0
44 50 0
180 201 0
12 30 0
182 202 0
163 192 0
4 14 0
162 191 0
54 83 0
176 199 0
48 78 0
112 58 0
187 204 0
55 83 0
188 205 0
165 193 0
169 195 0
46 66 0
59 91 0
49 79 0
3 8 0
30 32 0
145 140 0
63 94 0
161 191 0
162 192 0
58 91 0
47 77 0
51 80 0
53 82 0
163 192 0
165 193 0
86 53 0
175 198 0
129 132 0
55 83 0
193 208 0
150 123 0
139 137 0
35 42 0
163 192 0
168 194 0
174 198 0
7 8 0
186 204 0
180 201 0
173 197 0
169 195 0
187 204 0
3 12 0
173 197 0
48 64 0
189 206 0
183 203 0
122 91 0
158 154 0
187 204 0
92 66 0
47 78 0
49 64 0
170 196 0
88 65 0
62 93 0
144 139 0
4 0 0
195 209 0
187 205 0
168 195 0
198 210 0
166 193 0
73 46 0
3 9 0
187 205 0
181 201 0
194 208 0
177 199 0
57 90 0
166 193 0
164 192 0
186 204 0
166 193 0
165 193 0
29 30 0
130 108 0
53 82 0
171 196 0
148 141 0
24 18 0
185 203 0
168 194 0
52 81 0
169 195 0
178 200 0
167 194 0
170 196 0
140 112 0
55 89 0
2 4 0
180 201 0
170 196 0
169 159 0
120 98 0
169 195 0
144 139 0
44 61 0
169 159 0
148 141 0
130 115 0
52 70 0
155 144 0
173 197 0
185 203 0
177 163 0
180 201 0
123 100 0
189 206 0
116 89 0
178 163 0
27 28 0
193 208 0
116 96 0
101 64 0
50 80 0
138 96 0
182 202 0
69 44 0
41 56 0
132 154 0
14 1 0
138 111 0
133 134 0
190 206 0
91 66 0
122 74 0
86 64 0
34 29 0
172 197 0
174 197 0
62 21 0
129 108 0
133 134 0
98 69 0
132 134 0
193 208 0
138 111 0
37 15 0
191 207 0
86 65 0
179 200 0
152 143 0
70 45 0
151 142 0
133 134 0
171 160 0
131 108 0
178 200 0
138 111 0
190 206 0
137 111 0
158 154 0
186 204 0
181 201 0
133 134 0
115 96 0
188 205 0
87 56 0
124 100 0
64 33 0
193 208 0
133 134 0
173 197 0
148 141 0
196 209 0
193 208 0
169 195 0
129 93 0
153 152 0
142 138 0
174 198 0
177 163 0
166 193 0
145 140 0
182 202 0
169 195 0
166 158 0
162 156 0
190 206 0
177 163 0
170 196 0
178 200 0
176 198 0
184 203 0
166 194 0
176 198 0
168 194 0
187 204 0
174 197 0
166 193 0
165 193 0
191 207 0
175 198 0
194 208 0
195 209 0
171 196 0
191 207 0
198 211 0
4 14 0
186 204 0
170 195 0
181 201 0
188 205 0
168 194 0
184 203 0
177 199 0
175 198 0
147 172 0
198 211 0
186 204 0
176 199 0
168 194 0
186 204 0
171 196 0
49 74 0
183 203 0
199 211 0
172 197 0
196 210 0
185 204 0
190 207 0
194 208 0
184 203 0
165 193 0
174 198 0
185 204 0
149 173 0
196 209 0
173 186 0
180 201 0
164 181 0
190 206 0
191 207 0
45 72 0
170 196 0
98 84 0
162 191 0
173 197 0
178 199 0
173 197 0
184 203 0
188 205 0
149 173 0
183 202 0
182 202 0
169 195 0
177 199 0
160 155 0
171 196 0
192 208 0
191 207 0
168 195 0
175 198 0
165 182 0
186 204 0
63 94 0
171 196 0
173 197 0
174 198 0
170 196 0
189 206 0
176 199 0
164 192 0
182 202 0
48 78 0
179 200 0
178 200 0
184 203 0
181 202 0
163 192 0
157 177 0
164 193 0
166 193 0
185 204 0
192 207 0
178 199 0
58 91 0
48 78 0
173 197 0
170 196 0
176 199 0
175 198 0
179 200 0
183 202 0
186 204 0
164 192 0
167 194 0
52 86 0
179 164 0
166 193 0
15 33 0
173 197 0
166 193 0
5 16 0
50 79 0
188 205 0
163 192 0
46 77 0
166 194 0
165 193 0
182 202 0
162 191 0
164 192 0
188 205 0
161 180 0
167 194 0
187 205 0
163 192 0
196 210 0
169 195 0
173 197 0
191 207 0
169 195 0
173 197 0
56 89 0
172 197 0
166 193 0
173 197 0
163 192 0
165 193 0
174 198 0
166 194 0
170 195 0
199 211 0
162 191 0
164 192 0
166 193 0
184 203 0
172 197 0
164 193 0
166 193 0
60 92 0
1 5 0
171 196 0
189 206 0
170 195 0
59 91 0
161 156 0
189 206 0
15 33 0
186 204 0
163 192 0
163 192 0
180 201 0
183 202 0
152 175 0
48 78 0
178 200 0
170 196 0
171 196 0
187 205 0
195 209 0
166 193 0
170 196 0
169 195 0
166 193 0
13 30 0
176 199 0
4 12 0
177 199 0
166 193 0
182 202 0
194 209 0
4 12 0
46 76 0
163 192 0
174 198 0
169 195 0
52 81 0
163 192 0
182 202 0
184 203 0
16 36 0
180 201 0
148 173 0
53 82 0
0 0 0
13 31 0
173 197 0
50 79 0
176 199 0
0 1 0
163 192 0
48 78 0
164 192 0
141 138 0
33 41 0
50 79 0
46 77 0
185 204 0
48 78 0
3 7 0
45 76 0
164 193 0
165 193 0
196 210 0
166 193 0
191 207 0
53 82 0
47 77 0
147 149 0
170 196 0
157 153 0
47 78 0
57 90 0
165 193 0
162 192 0
3 8 0
52 81 0
175 198 0
171 196 0
180 201 0
181 201 0
169 195 0
170 195 0
165 193 0
58 90 0
172 196 0
169 195 0
123 91 0
146 140 0
165 193 0
196 210 0
173 197 0
189 206 0
0 2 0
81 38 0
164 192 0
164 193 0
164 193 0
168 195 0
63 22 0
162 192 0
5 0 0
167 194 0
166 158 0
39 55 0
172 197 0
163 192 0
162 191 0
175 198 0
167 194 0
162 156 0
157 145 0
166 194 0
59 20 0
178 163 0
51 81 0
46 76 0
42 60 0
168 195 0
175 198 0
20 8 0
176 162 0
155 125 0
190 206 0
165 193 0
168 159 0
172 197 0
169 159 0
159 154 0
152 151 0
157 154 0
133 134 0
150 142 0
43 57 0
178 200 0
165 158 0
6 3 0
188 205 0
173 197 0
174 162 0
162 191 0
140 137 0
196 210 0
51 80 0
163 192 0
187 205 0
83 63 0
167 194 0
167 194 0
165 193 0
174 198 0
9 14 0
99 45 0
51 81 0
100 63 0
149 141 0
178 163 0
181 201 0
133 134 0
148 141 0
181 201 0
171 196 0
63 22 0
172 161 0
162 156 0
86 64 0
134 134 0
176 198 0
167 194 0
194 209 0
89 65 0
0 0 0
105 92 0
171 196 0
186 204 0
190 206 0
121 99 0
54 72 0
181 202 0
0 0 0
61 32 0
154 144 0
98 63 0
92 67 0
90 35 0
173 197 0
96 68 0
88 53 0
118 84 0
176 163 0
172 197 0
170 160 0
137 117 0
183 202 0
138 136 0
32 38 0
166 158 0
26 17 0
143 120 0
180 201 0
182 202 0
179 164 0
89 49 0
48 78 0
177 163 0
172 197 0
88 65 0
187 204 0
81 27 0
100 73 0
158 126 0
79 50 0
168 159 0
85 64 0
175 198 0
182 202 0
75 46 0
24 4 0
137 136 0
178 200 0
177 199 0
129 132 0
171 160 0
139 137 0
168 159 0
111 94 0
151 142 0
31 23 0
138 136 0
106 92 0
169 195 0
132 134 0
173 197 0
87 53 0
183 203 0
152 143 0
162 156 0
176 199 0
144 139 0
176 199 0
164 193 0
142 113 0
175 162 0
173 161 0
172 196 0
165 193 0
194 209 0
134 134 0
179 200 0
153 175 0
166 193 0
174 198 0
186 204 0
194 208 0
184 203 0
173 197 0
177 199 0
171 196 0
170 195 0
173 197 0
160 179 0
170 195 0
179 200 0
181 201 0
119 139 0
169 195 0
162 191 0
167 183 0
189 206 0
184 203 0
164 192 0
175 198 0
168 194 0
182 202 0
183 203 0
177 199 0
179 200 0
168 194 0
168 194 0
172 196 0
54 88 0
177 199 0
172 186 0
162 191 0
175 198 0
178 200 0
177 199 0
183 203 0
156 177 0
152 175 0
165 193 0
168 195 0
178 200 0
150 174 0
170 196 0
173 197 0
163 192 0
194 209 0
180 201 0
186 204 0
188 205 0
159 179 0
175 198 0
164 193 0
160 179 0
190 206 0
50 80 0
169 184 0
179 200 0
51 85 0
167 194 0
168 195 0
160 179 0
180 201 0
182 202 0
194 209 0
178 200 0
175 198 0
177 199 0
186 204 0
191 207 0
193 208 0
172 197 0
46 72 0
182 202 0
198 211 0
175 198 0
46 77 0
162 191 0
182 202 0
181 201 0
173 197 0
165 193 0
175 187 0
146 172 0
164 192 0
176 199 0
172 197 0
146 172 0
162 192 0
164 193 0
172 196 0
184 203 0
180 201 0
170 196 0
172 197 0
154 176 0
166 193 0
47 77 0
170 195 0
181 201 0
187 205 0
173 197 0
164 192 0
165 182 0
180 201 0
61 93 0
57 90 0
190 206 0
173 197 0
162 192 0
181 201 0
156 177 0
166 193 0
161 191 0
172 196 0
42 65 0
168 195 0
171 160 0
190 206 0
189 206 0
58 91 0
198 211 0
60 93 0
48 78 0
163 192 0
186 204 0
189 206 0
172 196 0
190 206 0
174 197 0
165 193 0
168 194 0
175 198 0
1 5 0
49 64 0
168 194 0
57 90 0
181 201 0
169 195 0
166 193 0
170 195 0
178 200 0
47 78 0
14 32 0
163 192 0
162 191 0
181 201 0
164 193 0
173 197 0
167 194 0
182 202 0
3 12 0
168 195 0
46 77 0
162 191 0
168 194 0
162 192 0
164 192 0
174 198 0
163 192 0
193 208 0
84 64 0
14 32 0
166 194 0
52 81 0
59 91 0
0 0 0
14 34 0
46 77 0
47 77 0
62 93 0
163 192 0
185 203 0
179 200 0
46 77 0
185 203 0
190 206 0
184 203 0
194 209 0
63 94 0
56 89 0
61 93 0
46 77 0
14 32 0
43 49 0
52 81 0
167 194 0
184 203 0
54 83 0
187 204 0
45 76 0
45 76 0
173 197 0
173 197 0
165 193 0
167 194 0
186 204 0
157 177 0
185 204 0
60 92 0
46 77 0
48 78 0
186 204 0
173 197 0
162 191 0
169 195 0
54 82 0
62 94 0
51 80 0
50 79 0
171 196 0
61 93 0
181 202 0
172 196 0
0 0 0
166 194 0
8 0 0
1 5 0
164 193 0
190 206 0
47 77 0
13 31 0
56 89 0
56 89 0
162 192 0
168 195 0
35 37 0
188 205 0
163 192 0
168 194 0
174 197 0
174 197 0
59 91 0
176 199 0
162 191 0
163 192 0
165 193 0
48 78 0
175 198 0
137 118 0
167 194 0
54 87 0
162 191 0
47 78 0
63 95 0
55 88 0
187 205 0
53 82 0
0 0 0
167 194 0
13 25 0
162 191 0
170 160 0
178 164 0
49 64 0
161 191 0
0 0 0
47 78 0
14 31 0
3 12 0
185 204 0
129 132 0
162 191 0
2 6 0
192 207 0
150 142 0
170 195 0
58 18 0
62 94 0
35 42 0
45 62 0
48 64 0
175 198 0
165 193 0
3 7 0
181 201 0
162 191 0
49 78 0
162 192 0
186 204 0
171 196 0
60 92 0
164 193 0
179 201 0
118 103 0
138 136 0
45 62 0
43 60 0
171 196 0
0 2 0
35 42 0
170 160 0
0 3 0
169 195 0
44 50 0
34 42 0
113 78 0
171 196 0
174 198 0
177 199 0
110 94 0
13 22 0
64 16 0
30 27 0
13 25 0
5 0 0
3 6 0
135 135 0
184 203 0
188 205 0
34 39 0
37 53 0
3 8 0
160 155 0
52 21 0
140 137 0
143 138 0
173 197 0
30 27 0
143 120 0
131 133 0
124 100 0
132 133 0
141 119 0
177 199 0
19 1 0
148 141 0
1 3 0
167 158 0
37 53 0
174 197 0
171 196 0
135 135 0
37 53 0
180 201 0
117 84 0
172 196 0
123 99 0
168 195 0
48 15 0
141 113 0
175 198 0
156 145 0
140 137 0
148 141 0
151 142 0
185 203 0
123 100 0
46 76 0
177 199 0
72 46 0
186 204 0
56 22 0
124 100 0
174 198 0
186 204 0
173 197 0
180 201 0
175 198 0
175 198 0
113 95 0
50 9 0
142 138 0
85 64 0
77 43 0
178 200 0
166 158 0
118 84 0
85 64 0
178 163 0
134 134 0
178 164 0
174 198 0
152 143 0
186 204 0
167 158 0
181 201 0
174 162 0
132 133 0
158 154 0
169 195 0
58 23 0
11 0 0
124 106 0
84 48 0
40 12 0
186 204 0
144 139 0
176 199 0
170 160 0
173 197 0
171 196 0
16 11 0
103 74 0
163 192 0
119 98 0
139 137 0
183 202 0
191 207 0
193 208 0
171 196 0
193 208 0
189 206 0
174 197 0
192 208 0
176 199 0
180 201 0
176 199 0
190 206 0
171 196 0
196 210 0
153 175 0
194 208 0
162 191 0
147 172 0
175 198 0
190 207 0
173 197 0
178 200 0
186 204 0
168 194 0
165 193 0
176 199 0
174 198 0
171 196 0
170 184 0
152 175 0
165 193 0
198 211 0
198 210 0
181 201 0
197 210 0
151 174 0
179 200 0
171 196 0
164 181 0
155 177 0
182 202 0
192 207 0
164 193 0
169 195 0
169 195 0
53 82 0
180 201 0
170 196 0
42 69 0
192 207 0
190 206 0
156 125 0
181 201 0
191 207 0
194 208 0
188 205 0
175 198 0
184 203 0
49 79 0
190 206 0
45 76 0
178 200 0
177 199 0
171 196 0
167 194 0
169 195 0
187 205 0
169 195 0
17 37 0
168 194 0
45 76 0
176 199 0
169 195 0
192 207 0
170 184 0
199 211 0
56 89 0
195 209 0
180 201 0
180 201 0
173 197 0
174 198 0
179 200 0
189 206 0
188 205 0
176 199 0
60 92 0
172 196 0
171 185 0
47 77 0
191 207 0
183 203 0
180 201 0
176 199 0
172 197 0
197 210 0
53 82 0
164 192 0
156 177 0
170 195 0
181 201 0
171 196 0
52 81 0
174 198 0
179 200 0
48 78 0
166 193 0
162 191 0
166 193 0
177 199 0
163 192 0
195 209 0
180 201 0
172 185 0
179 200 0
58 91 0
164 192 0
55 88 0
41 69 0
61 93 0
183 203 0
15 35 0
171 196 0
185 204 0
164 192 0
182 202 0
152 175 0
191 207 0
188 205 0
173 197 0
51 80 0
52 81 0
179 201 0
181 201 0
179 200 0
187 205 0
165 193 0
164 192 0
186 204 0
53 82 0
171 196 0
44 71 0
148 141 0
175 198 0
184 203 0
164 193 0
183 202 0
52 81 0
164 193 0
167 194 0
162 191 0
178 200 0
145 171 0
48 78 0
162 191 0
167 194 0
177 199 0
177 199 0
48 64 0
59 91 0
192 207 0
175 198 0
177 199 0
47 77 0
60 92 0
155 153 0
162 192 0
182 202 0
58 90 0
167 194 0
174 198 0
63 94 0
13 31 0
46 77 0
48 78 0
0 0 0
151 123 0
46 76 0
166 193 0
3 12 0
3 7 0
169 195 0
0 0 0
4 13 0
13 29 0
62 94 0
170 195 0
180 201 0
162 191 0
186 204 0
183 202 0
168 194 0
13 31 0
61 93 0
174 198 0
46 77 0
166 194 0
183 202 0
46 63 0
50 79 0
176 199 0
185 203 0
162 192 0
180 201 0
164 192 0
136 135 0
176 199 0
162 191 0
166 193 0
169 195 0
179 200 0
177 199 0
169 195 0
0 0 0
46 77 0
47 78 0
46 77 0
46 77 0
168 195 0
4 12 0
177 199 0
158 154 0
163 192 0
150 174 0
165 193 0
49 79 0
50 79 0
164 157 0
166 193 0
61 93 0
13 26 0
170 195 0
163 192 0
148 141 0
51 80 0
171 196 0
189 206 0
166 193 0
184 203 0
53 82 0
194 209 0
131 133 0
116 97 0
172 197 0
15 32 0
178 200 0
172 197 0
169 195 0
61 93 0
176 199 0
17 37 0
49 79 0
189 206 0
53 82 0
176 163 0
131 108 0
38 47 0
164 157 0
186 204 0
163 192 0
138 111 0
163 192 0
174 198 0
162 192 0
110 81 0
187 205 0
192 207 0
52 81 0
165 193 0
112 82 0
162 191 0
162 191 0
15 6 0
134 134 0
143 139 0
141 113 0
164 193 0
167 194 0
103 92 0
163 192 0
171 196 0
168 194 0
174 162 0
123 91 0
162 191 0
164 192 0
161 191 0
190 206 0
164 192 0
167 194 0
136 117 0
164 193 0
178 200 0
163 192 0
53 82 0
165 193 0
178 200 0
166 193 0
173 197 0
132 133 0
184 203 0
133 134 0
169 195 0
37 43 0
155 125 0
139 137 0
163 192 0
52 86 0
176 162 0
125 75 0
138 136 0
30 28 0
178 200 0
195 209 0
187 205 0
0 0 0
1 4 0
183 202 0
166 193 0
140 137 0
178 164 0
109 94 0
192 207 0
172 196 0
99 69 0
184 203 0
138 136 0
140 112 0
172 197 0
176 198 0
3 7 0
171 160 0
195 209 0
76 37 0
47 78 0
9 14 0
158 154 0
178 164 0
66 20 0
196 209 0
190 206 0
181 201 0
140 137 0
178 200 0
180 201 0
191 207 0
139 137 0
193 208 0
186 204 0
191 207 0
105 75 0
49 79 0
83 63 0
95 68 0
169 195 0
176 199 0
11 21 0
146 140 0
177 163 0
88 46 0
109 70 0
173 197 0
177 199 0
175 198 0
101 64 0
172 196 0
190 206 0
188 205 0
138 136 0
139 137 0
185 203 0
175 198 0
183 202 0
141 138 0
63 22 0
108 93 0
45 9 0
177 199 0
140 137 0
180 201 0
186 204 0
110 77 0
140 137 0
167 158 0
192 207 0
130 133 0
136 135 0
167 194 0
169 195 0
174 197 0
147 140 0
171 196 0
174 197 0
147 140 0
136 136 0
175 162 0
116 97 0
168 194 0
177 199 0
145 139 0
139 137 0
190 206 0
183 202 0
186 204 0
54 83 0
187 205 0
12 26 0
194 209 0
171 196 0
170 196 0
189 206 0
175 198 0
177 188 0
180 201 0
194 208 0
180 201 0
180 201 0
173 197 0
183 202 0
52 82 0
163 181 0
180 201 0
184 203 0
185 203 0
182 202 0
169 195 0
191 207 0
151 174 0
181 202 0
162 180 0
197 210 0
172 196 0
194 208 0
186 204 0
174 198 0
190 206 0
0 2 0
181 201 0
172 196 0
163 192 0
184 203 0
185 203 0
192 208 0
173 197 0
173 197 0
168 195 0
184 203 0
167 194 0
48 78 0
178 200 0
163 192 0
189 205 0
165 193 0
47 78 0
186 204 0
62 94 0
153 175 0
154 176 0
46 76 0
183 203 0
179 200 0
163 192 0
169 195 0
175 198 0
171 196 0
153 175 0
52 81 0
188 205 0
164 192 0
180 201 0
47 73 0
172 197 0
151 174 0
194 208 0
184 203 0
169 195 0
179 200 0
178 200 0
162 191 0
175 198 0
54 82 0
150 174 0
172 196 0
171 196 0
166 182 0
174 198 0
175 198 0
196 210 0
177 199 0
187 204 0
177 199 0
193 208 0
168 195 0
191 207 0
46 77 0
189 206 0
178 200 0
46 77 0
174 198 0
174 198 0
174 198 0
170 195 0
163 192 0
185 203 0
184 203 0
164 193 0
168 194 0
166 193 0
178 200 0
48 78 0
176 198 0
163 192 0
190 206 0
164 192 0
179 200 0
170 196 0
166 194 0
182 202 0
167 194 0
58 90 0
41 68 0
166 194 0
184 203 0
185 203 0
183 202 0
167 183 0
176 199 0
180 201 0
183 202 0
168 195 0
170 195 0
180 201 0
165 193 0
186 204 0
182 202 0
61 93 0
166 193 0
176 199 0
170 196 0
47 78 0
157 154 0
147 172 0
179 201 0
171 196 0
172 197 0
196 210 0
167 194 0
175 198 0
180 201 0
0 0 0
184 203 0
183 202 0
139 137 0
157 154 0
170 195 0
164 192 0
164 193 0
180 201 0
185 203 0
153 176 0
164 193 0
166 194 0
163 192 0
167 194 0
165 193 0
170 196 0
167 194 0
47 15 0
13 31 0
48 78 0
17 37 0
61 93 0
171 196 0
162 191 0
58 90 0
53 82 0
169 195 0
187 205 0
13 31 0
164 192 0
173 197 0
131 133 0
183 202 0
180 201 0
200 212 0
4 14 0
153 152 0
165 193 0
163 192 0
168 195 0
168 195 0
179 200 0
166 193 0
62 94 0
58 91 0
169 195 0
163 192 0
182 202 0
170 195 0
45 76 0
161 156 0
32 31 0
45 76 0
173 197 0
61 93 0
181 201 0
13 30 0
170 196 0
16 36 0
171 160 0
171 196 0
163 192 0
13 31 0
176 199 0
164 192 0
50 80 0
63 94 0
166 193 0
16 36 0
42 60 0
61 93 0
163 192 0
164 192 0
196 209 0
43 60 0
168 195 0
15 35 0
50 80 0
51 80 0
174 197 0
52 81 0
162 191 0
179 200 0
178 200 0
49 79 0
144 139 0
57 90 0
13 31 0
164 192 0
46 76 0
162 191 0
1 5 0
48 68 0
198 211 0
3 12 0
163 192 0
168 195 0
174 198 0
162 192 0
45 62 0
7 8 0
164 192 0
164 192 0
163 192 0
41 51 0
187 204 0
7 11 0
177 199 0
162 191 0
62 94 0
54 83 0
167 158 0
168 194 0
58 90 0
76 30 0
39 41 0
174 197 0
164 192 0
162 192 0
154 144 0
8 11 0
51 80 0
14 24 0
181 201 0
30 26 0
33 39 0
185 203 0
175 198 0
166 193 0
191 207 0
4 12 0
51 70 0
189 206 0
183 203 0
174 197 0
8 15 0
109 77 0
161 191 0
50 69 0
166 194 0
143 138 0
11 19 0
35 35 0
196 209 0
51 80 0
15 28 0
45 62 0
130 132 0
7 11 0
172 160 0
164 192 0
187 204 0
152 151 0
154 144 0
133 134 0
79 38 0
168 194 0
172 161 0
165 157 0
108 93 0
125 87 0
24 11 0
51 80 0
27 28 0
43 60 0
173 161 0
167 194 0
168 194 0
165 193 0
166 158 0
49 64 0
47 63 0
177 199 0
124 91 0
49 65 0
156 153 0
16 1 0
9 3 0
166 193 0
188 205 0
175 162 0
175 162 0
140 137 0
143 139 0
1 4 0
177 199 0
176 199 0
105 65 0
166 194 0
132 109 0
176 163 0
179 200 0
48 64 0
186 204 0
187 205 0
61 19 0
172 160 0
152 143 0
145 139 0
184 203 0
88 65 0
137 111 0
142 138 0
144 139 0
171 196 0
110 81 0
145 140 0
70 39 0
181 201 0
73 40 0
109 94 0
192 208 0
175 198 0
193 208 0
168 194 0
133 116 0
135 110 0
67 31 0
146 140 0
92 67 0
175 198 0
174 198 0
135 135 0
142 138 0
167 158 0
62 16 0
170 196 0
132 109 0
168 195 0
182 202 0
171 196 0
97 59 0
187 205 0
170 195 0
137 111 0
135 135 0
180 201 0
176 162 0
185 204 0
174 197 0
134 110 0
142 138 0
191 207 0
169 195 0
184 203 0
137 136 0
135 135 0
185 204 0
186 204 0
179 200 0
119 90 0
176 199 0
172 197 0
180 201 0
173 197 0
172 197 0
200 212 0
167 194 0
176 199 0
150 174 0
167 194 0
4 12 0
179 200 0
194 208 0
173 197 0
164 192 0
185 204 0
165 193 0
175 198 0
165 193 0
149 173 0
181 201 0
167 194 0
52 86 0
177 199 0
184 203 0
177 199 0
191 207 0
194 209 0
181 201 0
165 158 0
42 69 0
175 198 0
182 202 0
180 201 0
61 93 0
169 195 0
180 201 0
169 195 0
180 201 0
153 175 0
169 184 0
177 199 0
182 202 0
189 206 0
52 86 0
172 196 0
192 207 0
178 199 0
170 195 0
171 196 0
171 196 0
190 206 0
190 206 0
197 210 0
188 205 0
164 193 0
186 204 0
162 192 0
171 196 0
176 198 0
53 82 0
160 179 0
138 158 0
51 81 0
166 193 0
197 210 0
182 202 0
168 195 0
193 208 0
183 202 0
49 79 0
197 210 0
167 194 0
13 31 0
170 196 0
176 199 0
182 202 0
173 197 0
167 194 0
170 195 0
164 192 0
164 192 0
189 206 0
46 77 0
165 193 0
177 199 0
167 194 0
185 203 0
180 201 0
61 93 0
183 202 0
181 201 0
167 194 0
187 204 0
179 200 0
1 5 0
194 208 0
166 194 0
165 193 0
160 179 0
191 207 0
169 195 0
169 195 0
199 211 0
164 192 0
163 192 0
177 199 0
49 79 0
155 176 0
46 77 0
179 200 0
196 210 0
188 205 0
162 192 0
105 92 0
186 204 0
168 195 0
46 73 0
173 197 0
168 195 0
166 194 0
171 196 0
181 201 0
190 206 0
164 193 0
170 195 0
184 203 0
182 202 0
47 78 0
175 198 0
46 77 0
182 202 0
181 201 0
178 200 0
149 173 0
47 77 0
162 191 0
154 176 0
46 76 0
139 158 0
182 202 0
164 192 0
174 198 0
162 191 0
169 195 0
187 205 0
166 194 0
61 93 0
167 194 0
162 192 0
179 200 0
42 69 0
46 77 0
170 196 0
173 197 0
170 196 0
176 199 0
163 192 0
194 209 0
136 96 0
163 192 0
53 82 0
61 93 0
187 204 0
48 78 0
167 194 0
169 195 0
184 203 0
185 204 0
166 193 0
51 81 0
166 193 0
169 195 0
48 78 0
42 65 0
175 198 0
194 209 0
174 197 0
160 179 0
45 76 0
165 193 0
174 197 0
162 191 0
175 198 0
21 16 0
176 199 0
169 195 0
47 77 0
52 81 0
171 196 0
166 193 0
17 37 0
181 201 0
166 194 0
15 33 0
63 94 0
47 78 0
167 194 0
17 37 0
4 14 0
0 2 0
50 79 0
167 194 0
170 195 0
168 194 0
179 200 0
17 37 0
17 37 0
191 207 0
32 4 0
193 208 0
160 155 0
180 201 0
13 31 0
160 155 0
177 199 0
180 201 0
180 201 0
0 0 0
192 207 0
182 202 0
62 94 0
164 192 0
179 200 0
163 192 0
148 149 0
158 178 0
53 82 0
168 194 0
182 202 0
141 138 0
171 196 0
38 46 0
196 210 0
186 204 0
52 81 0
179 200 0
51 80 0
170 195 0
18 9 0
181 201 0
160 155 0
47 77 0
184 203 0
13 31 0
167 194 0
48 78 0
166 193 0
40 47 0
172 197 0
40 55 0
174 197 0
162 191 0
169 195 0
171 196 0
166 194 0
100 73 0
158 154 0
163 192 0
164 192 0
166 193 0
157 145 0
179 200 0
189 206 0
62 94 0
175 198 0
162 191 0
189 206 0
167 194 0
171 196 0
166 194 0
51 81 0
165 193 0
161 191 0
196 209 0
64 23 0
139 137 0
148 150 0
169 195 0
7 10 0
164 192 0
151 151 0
183 203 0
130 132 0
165 193 0
28 15 0
136 135 0
38 54 0
188 205 0
167 194 0
186 204 0
151 151 0
179 200 0
156 145 0
107 93 0
184 203 0
6 7 0
49 79 0
178 164 0
168 194 0
124 106 0
152 124 0
130 133 0
166 194 0
168 195 0
168 194 0
166 193 0
131 108 0
25 17 0
177 199 0
89 66 0
181 201 0
9 11 0
192 207 0
176 163 0
168 159 0
173 197 0
46 7 0
177 199 0
112 82 0
122 74 0
161 156 0
2 6 0
115 96 0
173 161 0
170 195 0
178 163 0
177 163 0
120 98 0
107 93 0
155 144 0
31 23 0
180 201 0
149 141 0
174 162 0
192 208 0
86 64 0
134 116 0
182 202 0
112 82 0
173 197 0
176 198 0
62 94 0
177 163 0
144 139 0
137 136 0
178 200 0
100 63 0
145 140 0
183 203 0
64 29 0
148 141 0
39 54 0
12 24 0
178 200 0
3 7 0
118 97 0
131 109 0
191 207 0
168 159 0
171 196 0
172 196 0
148 141 0
164 157 0
170 196 0
167 194 0
144 139 0
170 160 0
22 17 0
186 204 0
49 15 0
176 199 0
178 163 0
184 203 0
181 201 0
67 28 0
171 196 0
122 105 0
166 193 0
114 96 0
157 126 0
188 205 0
104 56 0
169 195 0
167 158 0
170 195 0
173 161 0
162 156 0
168 194 0
183 202 0
9 16 0
181 201 0
176 163 0
143 139 0
151 142 0
184 203 0
167 194 0
106 75 0
90 46 0
178 200 0
190 206 0
175 198 0
166 194 0
166 194 0
167 194 0
192 208 0
167 194 0
181 201 0
199 211 0
167 194 0
178 200 0
189 206 0
183 202 0
185 203 0
196 209 0
170 195 0
189 206 0
174 198 0
184 203 0
175 198 0
182 202 0
192 207 0
169 195 0
178 200 0
170 185 0
184 203 0
170 196 0
172 196 0
166 193 0
164 181 0
172 197 0
150 174 0
169 195 0
172 196 0
194 208 0
194 209 0
194 208 0
17 39 0
176 199 0
173 197 0
130 153 0
161 155 0
169 195 0
181 201 0
62 94 0
168 194 0
183 202 0
174 197 0
183 202 0
177 199 0
52 81 0
169 195 0
45 72 0
193 208 0
174 198 0
172 197 0
170 196 0
172 196 0
182 202 0
170 195 0
171 196 0
163 192 0
11 27 0
118 138 0
172 196 0
167 194 0
56 89 0
164 193 0
179 200 0
193 208 0
194 209 0
134 134 0
189 205 0
177 199 0
182 202 0
162 191 0
169 195 0
166 193 0
183 202 0
176 199 0
180 201 0
164 192 0
187 204 0
165 193 0
191 207 0
172 196 0
50 79 0
192 207 0
186 204 0
166 193 0
192 208 0
185 204 0
46 63 0
184 203 0
187 205 0
54 82 0
163 192 0
165 193 0
174 197 0
152 151 0
190 206 0
186 204 0
173 197 0
166 193 0
188 205 0
47 77 0
171 196 0
162 191 0
167 194 0
163 192 0
165 193 0
167 183 0
166 194 0
50 80 0
190 206 0
196 209 0
46 76 0
191 207 0
194 208 0
198 211 0
162 191 0
179 200 0
178 200 0
154 152 0
168 194 0
176 198 0
168 194 0
51 80 0
57 90 0
179 200 0
179 200 0
190 206 0
181 201 0
196 209 0
187 205 0
52 81 0
165 193 0
172 196 0
46 77 0
41 68 0
180 201 0
46 76 0
47 78 0
182 202 0
176 199 0
163 192 0
46 77 0
173 197 0
178 200 0
51 81 0
172 196 0
175 198 0
191 207 0
46 77 0
178 200 0
190 206 0
164 192 0
181 201 0
162 191 0
54 82 0
161 191 0
170 195 0
179 200 0
0 2 0
173 197 0
173 197 0
193 208 0
170 195 0
164 192 0
171 196 0
46 77 0
48 78 0
170 196 0
1 4 0
162 192 0
170 196 0
166 194 0
180 201 0
187 205 0
165 193 0
191 207 0
178 200 0
53 82 0
189 206 0
51 80 0
14 32 0
1 5 0
189 206 0
13 30 0
167 194 0
182 202 0
164 193 0
49 79 0
3 0 0
167 194 0
59 92 0
168 194 0
17 37 0
61 93 0
5 15 0
1 4 0
171 160 0
47 78 0
171 196 0
171 196 0
184 203 0
168 194 0
190 206 0
46 77 0
135 135 0
190 206 0
4 9 0
12 24 0
164 192 0
15 33 0
178 200 0
169 195 0
48 78 0
162 192 0
164 193 0
184 203 0
62 94 0
162 191 0
17 37 0
51 81 0
185 204 0
14 32 0
4 12 0
179 200 0
59 91 0
169 159 0
178 200 0
47 77 0
170 195 0
72 32 0
168 194 0
164 192 0
39 54 0
170 196 0
47 77 0
15 33 0
47 78 0
61 93 0
163 192 0
165 193 0
179 200 0
163 192 0
49 64 0
181 202 0
163 192 0
162 191 0
161 155 0
167 194 0
165 193 0
166 193 0
33 38 0
165 193 0
165 193 0
179 164 0
162 191 0
157 154 0
163 192 0
172 196 0
162 192 0
47 77 0
181 202 0
182 202 0
47 77 0
164 181 0
147 149 0
44 61 0
49 79 0
169 195 0
186 204 0
172 197 0
15 1 0
178 199 0
164 193 0
11 22 0
143 139 0
62 94 0
49 79 0
152 151 0
179 200 0
57 90 0
142 113 0
181 202 0
12 21 0
37 53 0
3 7 0
181 202 0
187 205 0
180 201 0
175 198 0
179 200 0
163 192 0
128 124 0
163 192 0
53 87 0
40 45 0
15 25 0
178 200 0
16 31 0
158 154 0
153 152 0
13 22 0
175 198 0
163 192 0
80 27 0
35 37 0
143 138 0
117 73 0
141 138 0
43 57 0
39 44 0
169 159 0
113 95 0
137 136 0
53 87 0
180 201 0
182 202 0
183 202 0
33 41 0
139 137 0
192 207 0
139 136 0
146 140 0
173 197 0
141 137 0
169 195 0
8 12 0
165 157 0
50 56 0
188 205 0
152 143 0
174 198 0
113 95 0
1 5 0
148 141 0
175 198 0
74 46 0
172 197 0
98 59 0
154 144 0
136 135 0
143 114 0
9 13 0
109 94 0
106 92 0
49 64 0
30 11 0
38 15 0
80 33 0
171 196 0
185 203 0
179 201 0
187 204 0
175 198 0
131 133 0
183 202 0
177 199 0
137 111 0
176 199 0
75 46 0
178 164 0
121 99 0
140 112 0
195 209 0
28 22 0
153 143 0
41 48 0
174 162 0
185 204 0
186 204 0
14 0 0
171 160 0
107 70 0
143 98 0
149 141 0
179 200 0
173 197 0
23 3 0
175 162 0
135 135 0
172 197 0
195 209 0
113 95 0
129 132 0
140 137 0
149 142 0
170 160 0
174 197 0
121 99 0
167 194 0
131 133 0
175 198 0
166 194 0
177 199 0
174 162 0
155 144 0
190 206 0
175 198 0
188 205 0
189 206 0
182 202 0
175 198 0
184 203 0
177 199 0
180 201 0
183 202 0
182 202 0
92 50 0
198 211 0
152 175 0
182 202 0
175 198 0
165 193 0
195 209 0
188 205 0
175 198 0
175 198 0
164 192 0
178 200 0
163 181 0
177 199 0
196 209 0
166 182 0
188 205 0
189 206 0
171 196 0
194 209 0
188 205 0
178 200 0
198 211 0
181 201 0
186 204 0
180 201 0
171 196 0
182 202 0
170 195 0
175 198 0
179 200 0
198 210 0
178 199 0
166 194 0
170 196 0
172 197 0
177 199 0
159 178 0
179 200 0
191 207 0
197 210 0
166 193 0
163 192 0
198 211 0
174 197 0
187 205 0
174 198 0
183 202 0
183 202 0
54 88 0
195 209 0
166 193 0
167 194 0
57 90 0
167 194 0
170 196 0
179 200 0
187 205 0
161 191 0
181 201 0
196 210 0
169 195 0
174 197 0
172 197 0
171 196 0
188 205 0
53 82 0
195 209 0
166 193 0
172 197 0
47 78 0
196 210 0
42 69 0
197 210 0
49 79 0
181 201 0
167 194 0
171 196 0
47 78 0
164 192 0
16 36 0
146 172 0
177 199 0
184 203 0
200 212 0
178 200 0
46 76 0
172 197 0
163 192 0
176 199 0
173 197 0
185 204 0
170 195 0
167 194 0
176 199 0
168 194 0
168 194 0
166 193 0
190 206 0
180 201 0
178 200 0
170 196 0
172 196 0
46 77 0
182 202 0
195 209 0
61 93 0
163 192 0
61 93 0
170 196 0
163 192 0
173 197 0
131 154 0
178 200 0
162 192 0
50 80 0
183 202 0
185 203 0
49 79 0
164 192 0
163 192 0
164 192 0
13 31 0
190 206 0
166 193 0
61 93 0
162 191 0
62 94 0
42 69 0
165 193 0
162 191 0
171 196 0
171 196 0
169 195 0
185 204 0
193 208 0
178 200 0
45 76 0
164 192 0
171 185 0
190 206 0
175 198 0
197 210 0
61 93 0
186 204 0
54 82 0
168 194 0
164 192 0
53 87 0
58 91 0
167 194 0
165 193 0
54 83 0
164 193 0
16 36 0
55 83 0
175 198 0
171 196 0
61 93 0
188 205 0
62 94 0
49 79 0
172 197 0
62 94 0
168 194 0
175 198 0
163 192 0
172 197 0
61 93 0
162 191 0
16 12 0
174 198 0
163 192 0
46 76 0
163 192 0
194 209 0
180 201 0
182 202 0
165 193 0
180 201 0
132 116 0
173 197 0
166 158 0
163 192 0
173 197 0
44 71 0
187 205 0
162 191 0
163 156 0
193 208 0
166 194 0
192 207 0
11 23 0
163 192 0
184 203 0
13 3 0
182 202 0
171 196 0
163 192 0
4 12 0
171 196 0
178 163 0
187 204 0
172 196 0
169 195 0
4 11 0
182 202 0
62 94 0
17 36 0
46 77 0
12 24 0
167 194 0
12 22 0
174 197 0
13 31 0
53 82 0
3 11 0
163 192 0
190 206 0
175 162 0
182 202 0
187 205 0
162 191 0
45 76 0
160 127 0
167 194 0
168 195 0
46 76 0
169 195 0
48 78 0
175 198 0
11 23 0
48 78 0
163 192 0
165 193 0
181 201 0
183 202 0
57 90 0
173 197 0
166 194 0
176 199 0
178 200 0
39 54 0
125 75 0
182 202 0
162 192 0
161 191 0
172 197 0
15 32 0
173 197 0
17 37 0
184 203 0
163 192 0
192 208 0
47 67 0
167 194 0
162 191 0
47 78 0
173 197 0
184 203 0
51 70 0
9 1 0
177 199 0
187 204 0
38 54 0
147 140 0
63 95 0
166 193 0
59 92 0
135 95 0
171 196 0
163 192 0
143 138 0
172 161 0
3 10 0
165 193 0
49 56 0
48 78 0
162 191 0
168 195 0
188 205 0
163 192 0
173 197 0
178 200 0
187 205 0
165 193 0
165 193 0
162 156 0
178 200 0
171 196 0
181 201 0
133 116 0
186 204 0
11 6 0
50 79 0
163 192 0
154 152 0
43 57 0
164 192 0
170 196 0
130 108 0
100 52 0
182 202 0
168 194 0
162 191 0
188 205 0
107 93 0
184 203 0
168 194 0
180 201 0
166 193 0
168 194 0
72 46 0
186 204 0
136 135 0
185 203 0
175 198 0
111 95 0
150 123 0
170 196 0
185 203 0
160 155 0
39 55 0
168 194 0
134 135 0
60 92 0
178 163 0
0 3 0
114 96 0
149 141 0
146 140 0
132 134 0
60 92 0
117 73 0
116 96 0
170 160 0
156 145 0
11 22 0
168 194 0
164 157 0
109 70 0
138 136 0
1 3 0
21 14 0
179 200 0
36 53 0
42 60 0
140 137 0
152 123 0
8 8 0
157 145 0
166 194 0
142 138 0
182 202 0
177 163 0
133 134 0
139 97 0
148 141 0
31 38 0
170 196 0
176 199 0
130 108 0
143 139 0
166 193 0
91 54 0
130 108 0
178 200 0
186 204 0
168 159 0
112 95 0
176 199 0
93 61 0
58 22 0
158 154 0
136 111 0
131 109 0
173 197 0
114 96 0
173 197 0
145 140 0
170 195 0
168 159 0
180 201 0
108 93 0
150 123 0
190 206 0
166 158 0
131 133 0
50 56 0
164 181 0
167 194 0
166 182 0
179 200 0
168 194 0
177 199 0
146 172 0
162 180 0
178 200 0
179 200 0
172 196 0
176 199 0
178 200 0
189 206 0
3 12 0
176 199 0
147 172 0
135 147 0
158 178 0
181 201 0
184 203 0
182 202 0
162 191 0
197 210 0
56 89 0
195 209 0
51 81 0
192 207 0
168 194 0
168 195 0
182 202 0
173 197 0
168 195 0
191 207 0
100 107 0
17 37 0
166 194 0
171 196 0
189 206 0
185 203 0
180 201 0
174 198 0
187 204 0
195 209 0
182 202 0
167 194 0
169 195 0
168 194 0
183 202 0
189 205 0
184 203 0
191 207 0
174 187 0
187 205 0
200 212 0
159 178 0
175 198 0
184 203 0
170 196 0
180 201 0
188 205 0
185 204 0
172 196 0
172 197 0
166 193 0
5 0 0
171 196 0
186 204 0
165 193 0
184 203 0
180 201 0
186 204 0
166 193 0
169 195 0
175 198 0
175 198 0
57 89 0
184 203 0
171 196 0
167 194 0
162 191 0
186 204 0
184 203 0
179 200 0
56 89 0
168 195 0
174 198 0
183 202 0
169 195 0
180 201 0
164 192 0
165 193 0
167 183 0
180 201 0
193 208 0
61 93 0
177 199 0
195 209 0
169 195 0
165 193 0
165 193 0
181 201 0
174 198 0
187 204 0
168 194 0
165 193 0
54 83 0
170 196 0
179 200 0
57 90 0
163 192 0
165 182 0
167 183 0
187 205 0
168 195 0
48 78 0
163 192 0
172 197 0
46 77 0
177 199 0
46 77 0
51 80 0
52 81 0
46 76 0
169 195 0
161 179 0
176 199 0
178 200 0
47 77 0
167 194 0
178 200 0
186 204 0
184 203 0
60 92 0
163 192 0
56 89 0
165 193 0
165 193 0
49 79 0
55 88 0
13 30 0
41 69 0
191 207 0
63 94 0
162 191 0
171 196 0
165 193 0
166 193 0
50 80 0
165 193 0
46 76 0
191 207 0
175 198 0
175 198 0
58 91 0
172 197 0
161 180 0
167 158 0
166 194 0
162 192 0
162 191 0
166 193 0
163 192 0
61 93 0
170 195 0
10 21 0
197 210 0
164 193 0
60 92 0
48 78 0
51 81 0
162 191 0
163 192 0
167 194 0
173 197 0
187 205 0
163 192 0
182 202 0
190 206 0
47 77 0
165 193 0
47 77 0
154 176 0
165 193 0
45 76 0
44 61 0
63 94 0
40 39 0
54 82 0
49 65 0
53 82 0
47 78 0
164 192 0
167 194 0
190 206 0
168 195 0
185 203 0
46 77 0
179 200 0
170 195 0
168 194 0
169 195 0
168 194 0
162 191 0
145 121 0
168 194 0
171 196 0
170 195 0
192 207 0
172 196 0
191 207 0
184 203 0
180 201 0
152 151 0
186 204 0
57 90 0
139 137 0
62 94 0
168 194 0
187 205 0
57 90 0
61 93 0
3 7 0
13 31 0
182 202 0
186 204 0
176 198 0
45 76 0
186 204 0
49 79 0
3 12 0
191 207 0
0 0 0
42 60 0
54 87 0
178 200 0
163 192 0
176 198 0
170 196 0
164 192 0
13 31 0
164 192 0
161 191 0
168 195 0
163 192 0
139 137 0
154 124 0
164 192 0
192 207 0
186 204 0
164 192 0
165 193 0
162 191 0
194 209 0
149 173 0
163 192 0
167 194 0
162 191 0
175 198 0
177 199 0
194 208 0
194 208 0
165 193 0
181 201 0
61 93 0
162 192 0
172 197 0
160 155 0
179 200 0
191 207 0
92 43 0
164 192 0
162 191 0
51 81 0
0 0 0
180 201 0
55 72 0
9 13 0
168 194 0
153 152 0
169 159 0
179 164 0
48 78 0
21 1 0
167 194 0
165 193 0
164 192 0
173 197 0
161 156 0
15 30 0
15 35 0
183 202 0
178 200 0
181 202 0
165 193 0
132 116 0
164 193 0
133 134 0
56 73 0
164 193 0
162 192 0
10 18 0
39 54 0
187 204 0
55 72 0
166 194 0
179 200 0
19 8 0
134 135 0
186 204 0
27 17 0
42 8 0
46 77 0
163 192 0
172 197 0
169 195 0
101 64 0
130 93 0
117 97 0
55 84 0
104 92 0
76 30 0
138 111 0
164 192 0
183 202 0
30 30 0
167 194 0
111 95 0
147 121 0
181 201 0
172 197 0
168 194 0
167 194 0
182 202 0
173 197 0
129 132 0
171 196 0
176 199 0
175 162 0
167 158 0
148 141 0
103 74 0
178 200 0
145 139 0
176 199 0
127 76 0
178 200 0
177 199 0
151 142 0
99 69 0
141 112 0
14 7 0
175 198 0
188 205 0
149 141 0
110 94 0
30 4 0
132 134 0
46 77 0
13 25 0
177 199 0
138 136 0
179 200 0
180 201 0
67 20 0
174 198 0
140 137 0
167 158 0
185 204 0
105 80 0
177 199 0
166 193 0
168 195 0
187 205 0
131 133 0
135 117 0
168 195 0
163 156 0
181 201 0
56 17 0
180 201 0
28 5 0
72 29 0
139 112 0
95 58 0
168 194 0
175 162 0
190 206 0
169 195 0
72 45 0
46 76 0
13 7 0
124 100 0
38 44 0
184 203 0
145 139 0
121 85 0
173 197 0
91 66 0
195 209 0
188 205 0
169 195 0
189 206 0
182 202 0
182 202 0
54 88 0
170 195 0
181 201 0
199 211 0
57 12 0
167 194 0
194 208 0
152 175 0
171 196 0
172 197 0
176 199 0
165 193 0
171 196 0
166 182 0
179 200 0
180 201 0
193 208 0
172 197 0
188 205 0
188 205 0
181 201 0
183 202 0
174 198 0
157 177 0
15 32 0
189 206 0
187 205 0
169 195 0
174 198 0
164 192 0
174 198 0
195 209 0
160 179 0
46 77 0
47 77 0
172 196 0
191 207 0
186 204 0
170 195 0
168 195 0
194 208 0
168 194 0
168 194 0
51 80 0
170 195 0
169 195 0
193 208 0
166 194 0
165 193 0
167 194 0
49 79 0
168 195 0
54 82 0
172 197 0
185 204 0
167 194 0
169 195 0
181 201 0
195 209 0
48 78 0
163 192 0
173 197 0
165 193 0
183 202 0
164 192 0
63 94 0
154 176 0
198 211 0
47 77 0
189 206 0
183 203 0
177 199 0
180 201 0
162 192 0
169 195 0
191 207 0
164 192 0
178 200 0
181 202 0
155 177 0
186 204 0
168 194 0
167 194 0
163 192 0
175 198 0
190 206 0
51 81 0
174 187 0
163 192 0
184 203 0
15 32 0
172 197 0
187 205 0
194 208 0
173 197 0
197 210 0
184 203 0
164 192 0
169 195 0
182 202 0
164 192 0
175 198 0
176 199 0
168 194 0
170 195 0
133 134 0
12 19 0
168 194 0
188 205 0
187 205 0
178 199 0
172 197 0
55 88 0
176 199 0
54 83 0
48 78 0
166 194 0
182 202 0
59 91 0
61 93 0
51 80 0
178 200 0
173 197 0
163 192 0
162 191 0
49 79 0
175 198 0
162 191 0
173 197 0
1 5 0
174 198 0
191 207 0
170 195 0
168 195 0
186 204 0
184 203 0
16 36 0
162 191 0
167 194 0
163 192 0
182 202 0
162 191 0
185 204 0
47 77 0
175 198 0
166 193 0
174 198 0
13 30 0
47 77 0
178 199 0
46 77 0
49 79 0
49 79 0
172 186 0
165 193 0
62 93 0
181 201 0
47 78 0
170 196 0
162 191 0
175 198 0
176 199 0
179 201 0
175 198 0
50 80 0
179 200 0
163 192 0
51 80 0
173 197 0
162 192 0
53 82 0
181 201 0
167 194 0
176 199 0
180 201 0
180 201 0
164 193 0
147 140 0
17 37 0
182 202 0
174 198 0
163 192 0
162 192 0
163 192 0
14 32 0
164 192 0
162 192 0
173 197 0
167 194 0
171 196 0
174 198 0
170 195 0
176 199 0
179 200 0
51 81 0
186 204 0
60 92 0
172 196 0
182 202 0
177 199 0
165 193 0
171 196 0
180 201 0
183 202 0
162 191 0
172 197 0
47 77 0
48 78 0
195 209 0
135 135 0
157 178 0
182 202 0
164 192 0
171 196 0
46 77 0
155 153 0
51 80 0
53 82 0
58 90 0
176 199 0
171 196 0
3 12 0
44 61 0
174 198 0
49 68 0
92 50 0
42 57 0
59 91 0
41 59 0
37 53 0
166 193 0
48 63 0
62 94 0
182 202 0
165 193 0
184 203 0
197 210 0
160 155 0
179 201 0
181 201 0
180 201 0
63 95 0
162 192 0
49 79 0
183 202 0
134 134 0
162 191 0
195 209 0
168 194 0
196 209 0
61 93 0
179 200 0
164 192 0
31 32 0
169 159 0
185 203 0
166 193 0
181 201 0
176 199 0
134 135 0
180 201 0
171 196 0
174 198 0
50 57 0
171 196 0
197 210 0
172 197 0
169 195 0
190 206 0
14 32 0
162 191 0
154 144 0
198 210 0
179 200 0
147 140 0
56 89 0
169 195 0
168 194 0
162 191 0
60 92 0
181 201 0
51 80 0
129 132 0
41 59 0
87 65 0
59 92 0
170 196 0
53 71 0
146 140 0
191 207 0
12 24 0
44 61 0
168 194 0
166 194 0
168 159 0
145 140 0
166 193 0
175 198 0
175 198 0
167 194 0
163 192 0
134 134 0
163 192 0
52 86 0
162 191 0
171 196 0
179 200 0
143 139 0
194 209 0
43 57 0
200 212 0
90 54 0
172 197 0
3 7 0
181 201 0
132 133 0
51 81 0
172 197 0
191 207 0
165 193 0
163 192 0
34 42 0
166 193 0
183 202 0
179 200 0
164 193 0
12 30 0
177 199 0
89 65 0
133 134 0
193 208 0
177 163 0
0 0 0
186 204 0
176 199 0
50 80 0
6 5 0
156 145 0
167 194 0
166 193 0
129 108 0
138 136 0
194 208 0
155 144 0
100 60 0
84 48 0
147 140 0
185 203 0
174 162 0
148 122 0
178 200 0
185 203 0
161 156 0
158 154 0
133 134 0
150 123 0
173 197 0
174 198 0
174 197 0
76 30 0
44 50 0
188 205 0
136 135 0
165 193 0
79 27 0
168 159 0
142 113 0
184 203 0
179 200 0
176 199 0
111 82 0
82 27 0
179 200 0
123 105 0
99 69 0
117 89 0
181 201 0
174 198 0
187 205 0
177 199 0
107 76 0
34 8 0
140 137 0
75 49 0
41 5 0
70 37 0
137 136 0
170 195 0
186 204 0
147 140 0
163 192 0
169 195 0
183 202 0
150 142 0
172 161 0
193 208 0
171 196 0
179 200 0
187 205 0
171 196 0
164 193 0
173 197 0
144 171 0
176 199 0
192 207 0
184 203 0
168 194 0
153 175 0
179 200 0
182 202 0
175 198 0
183 202 0
120 98 0
189 205 0
191 207 0
166 193 0
165 193 0
156 177 0
60 92 0
165 193 0
183 202 0
171 196 0
174 198 0
60 92 0
190 206 0
180 201 0
163 180 0
57 90 0
63 95 0
175 198 0
173 197 0
171 196 0
182 202 0
193 208 0
171 196 0
172 197 0
198 211 0
182 202 0
197 210 0
171 196 0
45 76 0
161 180 0
177 199 0
177 199 0
173 197 0
166 194 0
187 205 0
13 31 0
49 79 0
190 206 0
178 200 0
180 201 0
178 200 0
190 206 0
183 202 0
185 203 0
186 204 0
13 30 0
193 208 0
166 193 0
175 198 0
171 196 0
174 198 0
169 195 0
165 193 0
164 193 0
180 201 0
177 199 0
165 193 0
166 193 0
170 196 0
172 196 0
185 203 0
17 37 0
167 194 0
189 205 0
172 197 0
166 193 0
165 193 0
148 173 0
164 181 0
162 192 0
196 209 0
190 206 0
180 201 0
183 202 0
190 206 0
166 194 0
17 37 0
60 92 0
48 78 0
46 77 0
45 76 0
54 87 0
180 201 0
168 194 0
180 201 0
172 196 0
180 201 0
164 192 0
41 59 0
171 196 0
56 84 0
169 195 0
164 192 0
43 60 0
172 197 0
163 180 0
164 193 0
53 87 0
176 199 0
163 192 0
50 80 0
166 193 0
46 77 0
173 197 0
192 207 0
189 206 0
173 197 0
4 14 0
62 94 0
187 205 0
167 194 0
168 194 0
48 78 0
185 204 0
193 208 0
165 193 0
179 200 0
166 194 0
179 200 0
166 194 0
164 192 0
170 195 0
172 197 0
181 201 0
178 200 0
173 197 0
183 203 0
195 209 0
167 194 0
182 202 0
179 200 0
180 201 0
176 199 0
167 194 0
62 94 0
48 78 0
167 194 0
166 193 0
47 78 0
184 203 0
194 209 0
162 192 0
187 205 0
193 208 0
46 67 0
195 209 0
167 194 0
47 78 0
62 93 0
172 196 0
49 79 0
170 196 0
161 191 0
183 203 0
162 191 0
173 197 0
189 206 0
136 136 0
15 33 0
61 93 0
183 202 0
187 205 0
172 197 0
167 194 0
162 191 0
173 197 0
189 206 0
174 197 0
17 37 0
45 76 0
168 194 0
3 8 0
41 6 0
171 196 0
177 199 0
182 202 0
179 200 0
178 200 0
162 191 0
165 193 0
190 206 0
169 195 0
163 192 0
8 15 0
47 78 0
181 202 0
167 194 0
47 77 0
169 195 0
62 94 0
168 194 0
181 201 0
45 50 0
14 32 0
165 193 0
168 194 0
178 200 0
167 194 0
169 195 0
47 77 0
166 193 0
53 82 0
187 205 0
189 206 0
60 92 0
49 79 0
172 196 0
163 192 0
167 194 0
62 93 0
186 204 0
17 37 0
173 197 0
51 81 0
170 196 0
163 192 0
185 204 0
194 208 0
190 206 0
50 79 0
170 195 0
44 61 0
185 204 0
179 200 0
188 205 0
172 196 0
175 198 0
14 28 0
174 198 0
62 94 0
164 192 0
173 197 0
49 64 0
173 197 0
54 82 0
162 191 0
49 79 0
183 203 0
11 3 0
178 164 0
171 196 0
190 206 0
152 124 0
182 202 0
58 91 0
169 195 0
130 133 0
115 96 0
163 192 0
175 198 0
178 200 0
50 80 0
10 17 0
45 76 0
197 210 0
171 196 0
0 3 0
183 202 0
25 22 0
45 44 0
172 196 0
159 154 0
165 193 0
167 194 0
169 195 0
171 196 0
185 203 0
192 207 0
51 70 0
171 196 0
33 41 0
149 141 0
41 48 0
185 204 0
176 199 0
47 67 0
173 197 0
179 200 0
174 198 0
172 197 0
190 206 0
179 200 0
189 205 0
191 207 0
57 90 0
171 196 0
102 55 0
163 192 0
153 152 0
56 73 0
170 196 0
179 200 0
49 79 0
35 42 0
135 135 0
178 199 0
83 45 0
173 161 0
3 8 0
191 207 0
179 201 0
174 198 0
54 83 0
141 138 0
170 196 0
174 162 0
190 206 0
182 202 0
180 201 0
177 163 0
173 197 0
189 206 0
172 196 0
166 193 0
173 197 0
55 88 0
190 206 0
135 135 0
170 195 0
168 194 0
150 142 0
165 193 0
168 194 0
170 196 0
14 32 0
143 120 0
187 205 0
184 203 0
62 94 0
152 143 0
96 68 0
59 91 0
176 199 0
86 64 0
149 142 0
106 76 0
191 207 0
141 138 0
176 163 0
180 201 0
174 197 0
139 137 0
184 203 0
9 0 0
106 92 0
149 141 0
91 43 0
147 141 0
132 134 0
186 204 0
187 205 0
177 163 0
111 82 0
160 155 0
162 156 0
133 134 0
130 133 0
167 194 0
167 194 0
166 194 0
185 204 0
181 201 0
177 199 0
194 208 0
185 204 0
134 110 0
179 200 0
184 203 0
174 198 0
119 98 0
130 108 0
194 208 0
178 200 0
176 162 0
173 197 0
139 112 0
141 119 0
131 115 0
177 199 0
151 142 0
178 200 0
106 80 0
129 132 0
184 203 0
165 193 0
182 202 0
172 197 0
184 203 0
170 196 0
169 195 0
169 195 0
171 196 0
182 202 0
176 199 0
192 207 0
183 202 0
166 194 0
172 197 0
188 205 0
183 202 0
192 208 0
190 206 0
184 203 0
178 200 0
178 200 0
156 177 0
180 201 0
13 31 0
174 197 0
179 200 0
163 192 0
157 177 0
175 198 0
185 203 0
196 209 0
184 203 0
182 202 0
195 209 0
60 93 0
194 208 0
174 198 0
188 205 0
190 206 0
56 89 0
180 201 0
174 198 0
175 198 0
192 208 0
178 200 0
174 198 0
186 204 0
181 201 0
192 208 0
173 197 0
159 178 0
178 200 0
188 205 0
173 197 0
174 198 0
152 175 0
170 196 0
170 195 0
198 211 0
179 200 0
178 200 0
197 210 0
185 203 0
176 199 0
178 199 0
52 81 0
200 212 0
167 194 0
165 193 0
170 195 0
166 193 0
166 194 0
51 80 0
168 194 0
17 37 0
180 201 0
165 193 0
177 199 0
190 206 0
169 184 0
176 199 0
169 195 0
166 194 0
45 71 0
181 201 0
60 92 0
183 202 0
169 195 0
44 71 0
49 79 0
172 197 0
173 197 0
167 194 0
163 192 0
184 203 0
173 197 0
60 92 0
169 195 0
173 197 0
192 207 0
183 202 0
165 193 0
167 194 0
176 199 0
172 197 0
181 201 0
189 206 0
61 93 0
49 79 0
195 209 0
176 199 0
167 194 0
190 206 0
116 97 0
187 205 0
54 88 0
13 31 0
162 191 0
40 68 0
167 158 0
196 210 0
167 194 0
165 182 0
169 195 0
182 202 0
174 198 0
176 199 0
177 199 0
196 209 0
190 207 0
57 90 0
186 204 0
192 207 0
55 83 0
179 200 0
183 203 0
165 193 0
166 193 0
189 206 0
162 191 0
163 192 0
47 77 0
165 193 0
169 195 0
178 199 0
176 199 0
184 203 0
56 84 0
185 203 0
17 37 0
183 202 0
174 197 0
173 197 0
176 199 0
162 191 0
194 208 0
188 205 0
164 157 0
174 198 0
168 194 0
46 76 0
173 197 0
191 207 0
169 195 0
186 204 0
168 194 0
60 92 0
178 200 0
59 92 0
182 202 0
50 80 0
198 211 0
171 196 0
173 197 0
184 203 0
175 198 0
50 79 0
52 81 0
55 88 0
58 90 0
166 193 0
177 199 0
162 191 0
169 195 0
48 78 0
53 82 0
48 78 0
164 193 0
165 193 0
162 191 0
186 204 0
15 32 0
45 76 0
54 87 0
162 191 0
48 78 0
187 205 0
184 203 0
171 196 0
146 172 0
49 79 0
168 194 0
14 32 0
171 196 0
179 200 0
47 77 0
163 192 0
111 82 0
174 198 0
53 87 0
176 199 0
46 77 0
4 13 0
199 211 0
181 201 0
48 78 0
177 199 0
57 90 0
165 193 0
163 192 0
163 192 0
148 149 0
164 193 0
4 13 0
47 77 0
180 201 0
1 0 0
165 193 0
178 200 0
165 193 0
162 156 0
177 199 0
0 1 0
168 194 0
154 152 0
11 17 0
178 163 0
1 5 0
162 191 0
175 198 0
46 76 0
188 205 0
59 92 0
163 192 0
131 133 0
23 11 0
165 193 0
177 199 0
14 31 0
163 192 0
184 203 0
170 196 0
171 196 0
164 193 0
169 195 0
178 200 0
181 201 0
165 193 0
163 192 0
161 191 0
62 94 0
47 77 0
41 59 0
53 87 0
188 205 0
41 51 0
146 140 0
164 193 0
170 195 0
50 80 0
164 192 0
177 199 0
167 194 0
188 205 0
46 77 0
173 197 0
192 208 0
168 194 0
13 25 0
16 11 0
167 194 0
177 199 0
190 206 0
140 137 0
162 191 0
172 197 0
50 79 0
151 151 0
46 77 0
146 140 0
171 196 0
165 193 0
179 200 0
55 89 0
183 202 0
165 193 0
190 206 0
172 160 0
173 197 0
162 192 0
29 25 0
187 205 0
50 80 0
164 157 0
188 205 0
192 207 0
16 36 0
49 13 0
31 37 0
186 204 0
56 89 0
133 134 0
165 193 0
55 88 0
172 197 0
189 206 0
37 46 0
166 193 0
163 156 0
162 191 0
184 203 0
165 193 0
181 201 0
172 161 0
13 25 0
133 134 0
127 92 0
136 136 0
153 143 0
190 206 0
172 196 0
166 158 0
187 204 0
108 93 0
133 134 0
182 202 0
167 194 0
143 113 0
181 202 0
165 193 0
119 104 0
147 140 0
182 202 0
167 194 0
190 206 0
166 194 0
37 11 0
103 65 0
173 197 0
102 55 0
147 140 0
35 30 0
41 56 0
112 78 0
181 201 0
128 93 0
165 157 0
171 196 0
13 31 0
180 201 0
172 196 0
176 162 0
168 194 0
171 196 0
169 195 0
117 97 0
107 80 0
188 205 0
165 193 0
174 162 0
176 199 0
180 201 0
105 56 0
147 140 0
145 139 0
186 204 0
177 199 0
164 193 0
176 199 0
192 207 0
146 140 0
182 202 0
169 159 0
167 194 0
177 199 0
178 200 0
178 200 0
133 109 0
169 195 0
132 109 0
133 134 0
173 197 0
158 154 0
135 135 0
174 198 0
175 198 0
173 197 0
176 199 0
182 202 0
193 208 0
166 182 0
167 194 0
166 194 0
193 208 0
18 40 0
191 207 0
173 197 0
166 194 0
164 193 0
169 195 0
169 195 0
178 200 0
182 202 0
161 179 0
181 201 0
163 192 0
175 198 0
177 199 0
185 203 0
147 172 0
175 198 0
153 175 0
181 201 0
200 212 0
186 204 0
190 206 0
171 196 0
176 199 0
167 194 0
170 196 0
191 207 0
193 208 0
191 207 0
197 210 0
179 200 0
184 203 0
166 193 0
169 195 0
171 196 0
194 208 0
167 194 0
47 73 0
63 94 0
170 195 0
192 208 0
166 193 0
189 205 0
186 204 0
53 82 0
163 181 0
187 205 0
163 192 0
56 89 0
186 204 0
182 202 0
169 195 0
166 193 0
110 89 0
193 208 0
169 195 0
169 195 0
50 79 0
166 193 0
183 203 0
195 209 0
178 200 0
163 192 0
173 197 0
187 205 0
185 203 0
191 207 0
45 76 0
50 79 0
169 195 0
184 203 0
149 173 0
52 86 0
57 90 0
15 35 0
172 196 0
170 196 0
180 201 0
60 92 0
174 197 0
163 192 0
165 193 0
182 202 0
198 211 0
182 202 0
189 206 0
182 202 0
166 194 0
165 193 0
52 81 0
182 202 0
187 205 0
194 208 0
185 204 0
176 198 0
172 197 0
179 200 0
177 199 0
170 195 0
183 202 0
171 196 0
167 194 0
162 191 0
174 197 0
200 212 0
170 196 0
16 36 0
187 205 0
188 205 0
171 196 0
177 199 0
188 205 0
54 88 0
47 78 0
49 79 0
193 208 0
162 191 0
52 81 0
185 203 0
178 200 0
174 198 0
151 164 0
59 91 0
174 198 0
163 192 0
163 192 0
167 194 0
164 193 0
48 78 0
166 194 0
46 77 0
53 87 0
54 88 0
163 192 0
167 194 0
43 70 0
177 199 0
180 201 0
166 193 0
153 175 0
173 197 0
164 192 0
165 193 0
169 195 0
171 160 0
162 192 0
164 192 0
162 191 0
56 20 0
166 193 0
186 204 0
61 93 0
162 191 0
184 203 0
185 204 0
183 202 0
182 202 0
174 198 0
167 194 0
47 78 0
15 35 0
58 90 0
178 200 0
194 209 0
186 204 0
170 185 0
167 194 0
179 200 0
173 197 0
167 194 0
51 80 0
17 37 0
181 201 0
180 201 0
179 200 0
167 194 0
4 13 0
165 193 0
199 211 0
163 192 0
34 42 0
14 32 0
163 192 0
62 93 0
57 90 0
13 31 0
165 193 0
170 195 0
171 196 0
176 163 0
38 47 0
177 199 0
56 89 0
167 194 0
181 201 0
12 21 0
188 205 0
178 200 0
51 86 0
10 15 0
154 144 0
175 198 0
171 196 0
61 93 0
162 191 0
163 192 0
190 206 0
166 193 0
1 5 0
49 79 0
192 207 0
4 14 0
163 192 0
51 80 0
168 194 0
52 81 0
10 21 0
174 197 0
27 27 0
167 194 0
19 1 0
45 62 0
52 81 0
179 200 0
162 191 0
47 78 0
165 193 0
17 37 0
195 209 0
176 199 0
166 194 0
54 82 0
166 193 0
141 137 0
172 196 0
46 76 0
176 199 0
179 200 0
167 194 0
47 63 0
51 80 0
167 158 0
155 153 0
183 202 0
47 77 0
167 194 0
166 193 0
182 202 0
40 55 0
178 200 0
173 197 0
163 192 0
175 198 0
168 195 0
40 55 0
162 191 0
184 203 0
49 79 0
168 194 0
163 192 0
177 199 0
63 94 0
44 43 0
186 204 0
171 196 0
188 205 0
163 192 0
168 194 0
60 92 0
168 194 0
172 196 0
167 194 0
181 201 0
48 78 0
25 12 0
176 162 0
168 194 0
134 134 0
181 201 0
182 202 0
178 200 0
84 33 0
170 196 0
162 192 0
171 196 0
170 160 0
164 192 0
3 7 0
167 158 0
171 196 0
176 199 0
52 81 0
184 203 0
50 79 0
127 107 0
181 201 0
50 65 0
5 5 0
90 66 0
175 198 0
168 195 0
30 28 0
145 139 0
163 192 0
168 194 0
172 160 0
188 205 0
180 201 0
4 0 0
162 191 0
98 69 0
55 72 0
78 32 0
164 192 0
137 136 0
175 198 0
52 70 0
164 192 0
169 195 0
171 196 0
166 193 0
36 43 0
12 21 0
52 14 0
135 135 0
157 154 0
28 22 0
111 77 0
165 193 0
177 199 0
48 64 0
149 141 0
173 161 0
49 79 0
15 33 0
134 110 0
130 133 0
157 145 0
135 110 0
15 8 0
121 98 0
163 192 0
174 162 0
141 137 0
190 206 0
152 143 0
170 195 0
179 200 0
177 199 0
156 145 0
165 157 0
185 204 0
183 202 0
126 107 0
167 194 0
151 142 0
31 10 0
169 195 0
177 199 0
173 161 0
171 196 0
0 1 0
12 23 0
170 195 0
164 192 0
179 200 0
163 156 0
95 67 0
144 139 0
118 89 0
178 200 0
142 113 0
123 99 0
179 200 0
176 163 0
167 194 0
179 200 0
141 137 0
190 206 0
92 43 0
145 139 0
84 41 0
180 201 0
129 132 0
178 163 0
120 98 0
138 136 0
191 207 0
88 46 0
183 203 0
171 196 0
145 139 0
189 206 0
132 134 0
94 62 0
191 207 0
119 138 0
182 202 0
171 196 0
47 77 0
193 208 0
161 191 0
179 200 0
174 187 0
175 198 0
158 178 0
166 194 0
175 198 0
170 195 0
178 200 0
172 197 0
192 208 0
39 44 0
177 199 0
184 203 0
167 194 0
191 207 0
187 204 0
179 201 0
164 192 0
168 194 0
170 195 0
120 98 0
195 209 0
170 196 0
170 195 0
169 195 0
165 193 0
171 185 0
189 206 0
63 94 0
185 204 0
173 197 0
169 195 0
162 191 0
187 205 0
14 32 0
169 195 0
55 88 0
168 195 0
190 206 0
190 206 0
168 194 0
181 201 0
176 199 0
165 193 0
184 203 0
149 173 0
169 195 0
179 200 0
190 206 0
178 200 0
54 83 0
178 200 0
167 194 0
186 204 0
183 202 0
183 202 0
163 192 0
168 194 0
0 3 0
175 198 0
195 209 0
170 195 0
200 212 0
176 199 0
165 193 0
54 83 0
180 201 0
181 202 0
184 203 0
166 194 0
175 198 0
50 79 0
175 198 0
195 209 0
176 199 0
63 94 0
183 202 0
173 197 0
169 195 0
193 208 0
167 194 0
164 192 0
186 204 0
168 194 0
164 192 0
50 80 0
167 194 0
170 196 0
185 204 0
187 205 0
4 14 0
182 202 0
184 203 0
184 203 0
163 192 0
166 193 0
173 197 0
61 93 0
197 210 0
176 198 0
174 198 0
150 174 0
172 196 0
177 199 0
196 209 0
183 203 0
164 192 0
162 191 0
179 201 0
179 200 0
176 199 0
179 200 0
168 194 0
179 200 0
187 205 0
171 196 0
170 196 0
168 194 0
57 90 0
50 79 0
199 211 0
166 194 0
163 192 0
53 82 0
171 196 0
166 194 0
179 164 0
13 30 0
174 198 0
11 22 0
175 198 0
176 199 0
186 204 0
165 193 0
163 192 0
187 205 0
184 203 0
166 193 0
170 195 0
184 203 0
195 209 0
193 208 0
168 195 0
45 71 0
181 201 0
173 197 0
174 198 0
178 200 0
164 192 0
163 192 0
13 31 0
167 194 0
53 82 0
62 94 0
55 83 0
185 203 0
165 193 0
47 77 0
170 195 0
196 210 0
165 193 0
168 195 0
15 33 0
181 201 0
63 94 0
61 93 0
50 80 0
183 202 0
167 194 0
60 92 0
196 210 0
166 193 0
177 199 0
187 205 0
155 153 0
52 86 0
182 202 0
188 205 0
13 30 0
167 194 0
168 194 0
194 208 0
191 207 0
187 205 0
1 5 0
58 91 0
181 201 0
163 192 0
196 210 0
186 204 0
61 93 0
151 151 0
171 196 0
13 31 0
163 192 0
165 193 0
167 194 0
189 205 0
173 197 0
167 194 0
170 195 0
178 200 0
164 193 0
58 91 0
46 76 0
174 197 0
162 191 0
184 203 0
0 3 0
53 82 0
170 195 0
168 194 0
166 193 0
178 200 0
168 195 0
47 77 0
165 157 0
167 194 0
166 193 0
7 1 0
191 207 0
163 192 0
133 134 0
170 196 0
172 196 0
49 79 0
47 77 0
135 135 0
104 92 0
153 124 0
47 78 0
172 197 0
27 28 0
145 121 0
145 148 0
193 208 0
163 192 0
177 199 0
11 22 0
178 200 0
175 198 0
52 12 0
47 77 0
186 204 0
173 197 0
177 199 0
164 192 0
48 78 0
61 93 0
163 192 0
45 62 0
173 197 0
60 92 0
165 193 0
172 161 0
178 164 0
174 198 0
190 206 0
183 202 0
165 193 0
53 71 0
182 202 0
61 93 0
191 207 0
61 22 0
177 199 0
129 132 0
163 192 0
163 192 0
185 204 0
48 78 0
39 54 0
47 77 0
58 91 0
162 191 0
134 134 0
192 207 0
186 204 0
162 191 0
50 65 0
175 198 0
61 93 0
53 82 0
164 192 0
95 54 0
130 115 0
56 89 0
49 64 0
170 195 0
193 208 0
178 200 0
132 134 0
140 112 0
180 201 0
187 205 0
176 198 0
180 201 0
48 64 0
54 88 0
165 193 0
141 138 0
138 136 0
173 197 0
0 0 0
174 198 0
153 152 0
168 195 0
167 194 0
15 1 0
164 193 0
183 202 0
130 133 0
168 194 0
120 90 0
140 137 0
185 203 0
166 193 0
166 193 0
177 199 0
182 202 0
191 207 0
162 191 0
152 151 0
162 192 0
147 140 0
118 97 0
176 198 0
194 208 0
119 104 0
144 139 0
86 48 0
155 153 0
0 0 0
181 201 0
7 9 0
136 135 0
165 193 0
166 193 0
170 196 0
92 35 0
47 10 0
113 95 0
177 199 0
193 208 0
141 138 0
171 196 0
156 153 0
175 198 0
169 195 0
154 152 0
130 133 0
188 205 0
158 126 0
191 207 0
51 80 0
192 207 0
138 136 0
122 99 0
120 85 0
12 17 0
138 136 0
0 0 0
175 198 0
177 199 0
129 108 0
135 135 0
142 138 0
174 198 0
194 209 0
46 76 0
165 193 0
34 29 0
86 64 0
167 194 0
185 203 0
168 159 0
141 138 0
173 197 0
176 199 0
113 95 0
99 69 0
176 199 0
172 197 0
38 15 0
147 140 0
171 160 0
137 111 0
168 194 0
174 161 0
107 93 0
146 140 0
132 134 0
114 78 0
167 194 0
176 199 0
189 206 0
183 202 0
176 199 0
164 192 0
165 182 0
194 208 0
170 195 0
181 201 0
171 196 0
189 206 0
56 89 0
54 83 0
174 197 0
168 194 0
177 199 0
178 200 0
168 195 0
163 192 0
183 203 0
193 208 0
164 192 0
62 94 0
176 199 0
193 208 0
164 193 0
131 154 0
167 194 0
197 210 0
183 202 0
169 195 0
184 203 0
55 88 0
170 196 0
178 200 0
196 209 0
185 204 0
194 208 0
178 200 0
194 209 0
181 201 0
164 192 0
149 173 0
170 195 0
168 195 0
168 194 0
61 93 0
184 203 0
146 172 0
177 199 0
164 192 0
199 211 0
188 205 0
175 198 0
173 197 0
184 203 0
164 192 0
55 84 0
166 193 0
184 203 0
182 202 0
181 201 0
176 199 0
180 201 0
41 59 0
186 204 0
168 194 0
190 206 0
47 77 0
53 82 0
144 171 0
53 82 0
0 0 0
162 191 0
196 210 0
174 198 0
192 207 0
169 195 0
156 177 0
55 88 0
164 192 0
48 78 0
181 201 0
181 202 0
169 195 0
163 192 0
164 193 0
162 192 0
173 197 0
163 192 0
170 196 0
167 194 0
54 83 0
50 80 0
161 191 0
177 199 0
172 196 0
63 94 0
173 197 0
172 197 0
59 91 0
50 79 0
186 204 0
186 204 0
61 93 0
164 192 0
178 200 0
168 194 0
172 197 0
176 198 0
172 197 0
179 200 0
165 193 0
162 191 0
180 201 0
173 197 0
162 191 0
172 196 0
182 202 0
170 195 0
178 200 0
171 196 0
185 203 0
164 192 0
59 91 0
13 31 0
166 194 0
183 202 0
172 197 0
166 193 0
48 78 0
63 94 0
182 202 0
61 93 0
152 175 0
182 202 0
186 204 0
188 205 0
63 94 0
163 192 0
162 191 0
168 195 0
172 196 0
194 208 0
177 199 0
190 206 0
165 193 0
181 202 0
58 15 0
169 195 0
180 201 0
162 191 0
178 200 0
13 31 0
169 195 0
162 191 0
180 201 0
176 199 0
49 79 0
166 193 0
88 49 0
162 191 0
167 194 0
154 176 0
170 196 0
54 83 0
165 193 0
57 90 0
180 201 0
37 37 0
163 192 0
55 83 0
177 199 0
173 197 0
171 196 0
163 192 0
169 195 0
162 192 0
163 192 0
49 79 0
16 36 0
178 200 0
49 79 0
61 93 0
179 200 0
196 209 0
50 65 0
174 198 0
167 194 0
180 201 0
181 201 0
46 76 0
170 195 0
17 37 0
175 198 0
181 201 0
170 196 0
0 2 0
46 77 0
165 193 0
171 196 0
170 196 0
1 6 0
177 199 0
161 191 0
169 195 0
46 76 0
162 191 0
62 94 0
172 197 0
183 202 0
56 89 0
14 31 0
174 198 0
57 90 0
168 195 0
13 27 0
163 192 0
162 191 0
169 195 0
196 209 0
176 199 0
178 200 0
164 193 0
176 199 0
58 91 0
165 182 0
163 192 0
191 207 0
168 195 0
175 198 0
180 201 0
167 194 0
12 19 0
162 191 0
174 198 0
166 193 0
54 72 0
178 164 0
156 153 0
179 200 0
165 193 0
0 3 0
132 133 0
194 208 0
61 93 0
62 94 0
181 201 0
178 200 0
173 161 0
186 204 0
163 192 0
200 212 0
166 194 0
197 210 0
168 195 0
165 193 0
177 199 0
138 111 0
175 162 0
14 6 0
191 207 0
186 204 0
145 148 0
129 108 0
176 199 0
165 193 0
140 137 0
191 207 0
166 194 0
196 210 0
162 191 0
46 77 0
165 157 0
167 194 0
169 159 0
163 192 0
176 199 0
36 43 0
182 202 0
191 207 0
59 92 0
38 40 0
12 19 0
161 191 0
172 161 0
36 30 0
194 209 0
177 199 0
177 199 0
179 200 0
189 206 0
145 148 0
172 197 0
145 148 0
12 24 0
73 26 0
118 97 0
186 204 0
164 192 0
174 197 0
60 93 0
193 208 0
48 63 0
45 76 0
176 199 0
131 94 0
171 196 0
38 8 0
162 191 0
49 65 0
174 198 0
180 201 0
163 192 0
163 156 0
195 209 0
167 194 0
168 194 0
168 195 0
163 192 0
43 61 0
78 32 0
10 18 0
179 164 0
43 60 0
46 77 0
49 79 0
2 4 0
1 4 0
27 20 0
90 40 0
172 197 0
182 202 0
172 196 0
171 196 0
116 97 0
120 104 0
58 91 0
163 192 0
187 205 0
165 193 0
180 201 0
171 196 0
163 192 0
191 207 0
121 99 0
188 205 0
165 193 0
166 194 0
146 140 0
168 159 0
72 25 0
185 203 0
197 210 0
178 200 0
192 207 0
139 137 0
181 201 0
175 198 0
175 198 0
172 197 0
134 110 0
165 157 0
44 61 0
106 93 0
91 66 0
167 194 0
141 138 0
123 99 0
169 195 0
178 163 0
182 202 0
183 203 0
174 197 0
177 163 0
182 202 0
148 141 0
184 203 0
125 92 0
162 156 0
186 204 0
178 200 0
178 200 0
178 200 0
153 124 0
192 207 0
168 195 0
176 163 0
175 162 0
15 9 0
182 202 0
164 192 0
185 204 0
170 160 0
170 195 0
177 199 0
121 99 0
169 195 0
170 160 0
162 191 0
174 198 0
183 203 0
164 193 0
184 203 0
182 202 0
165 193 0
178 200 0
186 204 0
52 81 0
177 199 0
168 194 0
176 199 0
169 195 0
181 201 0
169 195 0
180 201 0
176 199 0
178 199 0
177 199 0
183 203 0
168 194 0
172 197 0
159 179 0
183 202 0
180 201 0
171 196 0
51 80 0
172 186 0
186 204 0
164 192 0
184 203 0
173 197 0
173 197 0
147 172 0
177 199 0
170 195 0
187 205 0
165 182 0
166 193 0
192 207 0
174 197 0
191 207 0
169 195 0
193 208 0
163 192 0
172 196 0
170 195 0
177 199 0
166 194 0
186 204 0
168 194 0
183 203 0
192 207 0
163 192 0
189 206 0
191 207 0
148 173 0
156 177 0
186 204 0
170 196 0
196 209 0
167 194 0
184 203 0
183 202 0
51 81 0
174 198 0
179 200 0
175 198 0
179 200 0
165 193 0
164 192 0
184 203 0
175 198 0
51 80 0
168 194 0
165 193 0
45 76 0
51 85 0
167 194 0
166 193 0
161 191 0
188 205 0
186 204 0
42 69 0
176 199 0
173 197 0
46 77 0
162 191 0
165 193 0
188 205 0
168 194 0
187 204 0
172 197 0
195 209 0
180 201 0
165 193 0
163 192 0
135 135 0
172 196 0
46 77 0
50 80 0
47 77 0
163 192 0
47 77 0
176 199 0
60 92 0
166 193 0
177 199 0
50 79 0
183 202 0
36 53 0
52 81 0
173 161 0
180 201 0
168 194 0
171 196 0
188 205 0
167 194 0
4 13 0
178 200 0
182 202 0
167 194 0
185 203 0
175 198 0
53 82 0
162 191 0
198 211 0
164 192 0
182 202 0
171 196 0
179 201 0
165 193 0
13 31 0
162 191 0
49 75 0
172 196 0
162 191 0
177 199 0
184 203 0
183 202 0
163 192 0
181 201 0
178 200 0
163 192 0
146 162 0
166 193 0
13 31 0
162 191 0
164 192 0
46 77 0
165 193 0
164 193 0
182 202 0
194 208 0
175 198 0
172 197 0
49 56 0
52 81 0
180 201 0
192 207 0
163 192 0
163 192 0
179 164 0
161 191 0
162 191 0
164 192 0
173 197 0
47 77 0
178 200 0
185 203 0
178 200 0
176 199 0
169 195 0
177 199 0
172 196 0
173 197 0
172 197 0
178 200 0
171 196 0
42 60 0
3 12 0
163 192 0
189 206 0
186 204 0
176 199 0
184 203 0
163 192 0
167 194 0
175 198 0
188 205 0
164 192 0
11 19 0
63 94 0
170 195 0
179 200 0
159 155 0
51 80 0
162 191 0
165 193 0
46 76 0
140 137 0
60 92 0
169 195 0
170 195 0
165 193 0
187 205 0
46 76 0
173 197 0
191 207 0
180 201 0
163 192 0
192 207 0
162 191 0
40 55 0
167 194 0
46 77 0
181 201 0
46 77 0
166 182 0
50 80 0
169 195 0
50 79 0
49 79 0
55 72 0
198 211 0
165 193 0
170 160 0
162 191 0
163 192 0
190 206 0
168 194 0
179 200 0
48 78 0
52 81 0
164 193 0
0 0 0
182 202 0
138 136 0
171 196 0
63 94 0
187 204 0
166 194 0
183 203 0
150 142 0
162 192 0
48 78 0
164 192 0
52 81 0
11 22 0
150 142 0
164 193 0
3 8 0
171 196 0
167 194 0
41 59 0
186 204 0
162 191 0
56 89 0
194 209 0
41 59 0
137 136 0
65 23 0
191 207 0
170 196 0
191 207 0
153 152 0
166 193 0
170 195 0
174 198 0
41 51 0
163 192 0
163 192 0
169 195 0
166 193 0
179 200 0
16 6 0
9 16 0
173 197 0
164 192 0
163 192 0
14 31 0
182 202 0
168 195 0
56 73 0
189 206 0
190 206 0
42 57 0
138 136 0
181 201 0
168 195 0
14 31 0
191 207 0
163 192 0
156 153 0
177 199 0
41 59 0
190 206 0
170 196 0
177 163 0
162 191 0
29 29 0
163 192 0
186 204 0
153 152 0
174 162 0
15 28 0
169 159 0
139 112 0
42 56 0
175 198 0
177 199 0
189 206 0
47 63 0
46 66 0
132 134 0
180 201 0
163 156 0
48 63 0
176 199 0
162 191 0
167 158 0
144 139 0
173 161 0
135 135 0
170 195 0
43 60 0
130 133 0
180 201 0
168 159 0
60 22 0
157 154 0
53 87 0
188 205 0
40 55 0
183 202 0
38 47 0
173 197 0
86 53 0
166 193 0
167 194 0
179 200 0
174 198 0
181 202 0
145 140 0
170 195 0
160 155 0
186 204 0
173 197 0
184 203 0
151 151 0
188 205 0
152 143 0
165 193 0
186 204 0
182 202 0
175 198 0
140 137 0
139 137 0
149 141 0
169 195 0
182 202 0
139 137 0
154 144 0
157 153 0
96 54 0
134 135 0
178 200 0
168 159 0
188 205 0
45 44 0
171 196 0
147 121 0
183 202 0
61 93 0
172 197 0
185 203 0
160 155 0
142 113 0
171 160 0
141 137 0
5 4 0
191 207 0
169 195 0
90 35 0
1 0 0
182 202 0
177 199 0
168 195 0
172 186 0
182 202 0
148 122 0
84 39 0
171 196 0
175 198 0
6 8 0
179 200 0
172 161 0
167 194 0
188 205 0
185 204 0
168 195 0
166 193 0
195 209 0
176 199 0
172 197 0
176 199 0
175 198 0
164 192 0
169 195 0
176 198 0
61 93 0
192 208 0
169 184 0
181 201 0
151 174 0
177 199 0
183 202 0
167 194 0
41 69 0
197 210 0
171 196 0
179 200 0
170 195 0
182 202 0
178 200 0
186 204 0
188 205 0
166 193 0
190 206 0
193 208 0
168 194 0
194 208 0
165 193 0
172 197 0
199 211 0
181 201 0
165 193 0
171 196 0
174 198 0
50 79 0
176 198 0
170 196 0
167 194 0
164 192 0
164 193 0
175 162 0
188 205 0
165 193 0
172 196 0
176 199 0
170 195 0
147 172 0
10 25 0
170 195 0
163 192 0
16 36 0
171 196 0
63 94 0
53 82 0
189 205 0
162 191 0
164 192 0
188 205 0
162 191 0
38 62 0
182 202 0
190 206 0
180 201 0
164 192 0
189 206 0
179 201 0
180 201 0
182 202 0
174 198 0
176 199 0
189 205 0
51 80 0
167 194 0
47 77 0
164 192 0
193 208 0
162 191 0
166 193 0
175 198 0
162 191 0
187 204 0
162 191 0
166 194 0
166 194 0
176 199 0
185 204 0
176 199 0
167 194 0
162 191 0
166 193 0
4 14 0
184 203 0
3 6 0
170 195 0
49 79 0
175 198 0
167 194 0
170 195 0
162 191 0
165 193 0
178 200 0
167 194 0
186 204 0
60 92 0
174 198 0
167 194 0
169 195 0
167 194 0
56 84 0
30 37 0
13 30 0
176 199 0
184 203 0
167 194 0
162 191 0
163 192 0
45 76 0
192 207 0
146 172 0
169 195 0
177 199 0
180 201 0
49 79 0
171 196 0
169 195 0
162 192 0
180 201 0
184 203 0
190 206 0
185 204 0
48 64 0
167 194 0
163 192 0
127 88 0
178 200 0
162 192 0
45 76 0
175 162 0
162 191 0
173 197 0
162 192 0
176 199 0
163 192 0
193 208 0
181 201 0
163 192 0
56 89 0
175 198 0
47 77 0
62 94 0
187 205 0
178 200 0
61 93 0
17 37 0
178 164 0
50 80 0
49 79 0
176 199 0
45 76 0
184 203 0
189 206 0
178 200 0
171 196 0
157 154 0
63 94 0
48 78 0
165 193 0
162 192 0
185 204 0
177 199 0
11 21 0
175 198 0
168 195 0
4 13 0
52 81 0
175 198 0
53 82 0
170 196 0
182 202 0
172 196 0
171 196 0
191 207 0
52 81 0
186 204 0
165 193 0
167 194 0
165 193 0
170 195 0
165 193 0
163 192 0
15 35 0
52 81 0
42 60 0
60 92 0
167 194 0
164 193 0
177 199 0
13 31 0
51 85 0
0 2 0
182 202 0
184 203 0
172 197 0
162 192 0
166 193 0
178 200 0
166 193 0
38 53 0
163 192 0
162 191 0
165 193 0
167 194 0
169 195 0
47 77 0
194 208 0
47 77 0
144 148 0
169 195 0
14 32 0
183 203 0
166 193 0
159 154 0
173 197 0
47 77 0
173 197 0
41 59 0
181 201 0
186 204 0
166 193 0
180 201 0
171 196 0
181 201 0
182 202 0
188 205 0
167 194 0
171 196 0
175 198 0
180 201 0
40 48 0
47 78 0
146 140 0
175 198 0
172 161 0
62 94 0
162 191 0
169 159 0
152 151 0
167 194 0
165 193 0
178 200 0
183 202 0
175 198 0
175 198 0
177 199 0
52 70 0
15 28 0
169 195 0
165 193 0
173 197 0
173 197 0
48 78 0
166 194 0
172 196 0
166 194 0
48 78 0
164 192 0
176 199 0
189 206 0
179 200 0
43 61 0
162 191 0
1 4 0
164 192 0
42 60 0
52 86 0
145 140 0
163 192 0
164 192 0
174 197 0
166 193 0
168 194 0
131 133 0
166 193 0
172 196 0
41 55 0
173 197 0
141 138 0
41 56 0
171 196 0
190 206 0
171 196 0
177 199 0
47 77 0
172 161 0
166 194 0
174 198 0
164 193 0
154 144 0
171 196 0
185 203 0
129 132 0
43 49 0
43 60 0
13 31 0
169 195 0
164 192 0
176 163 0
174 198 0
174 162 0
169 195 0
168 194 0
17 32 0
177 199 0
42 56 0
22 15 0
176 199 0
135 135 0
171 196 0
151 151 0
180 201 0
171 196 0
44 61 0
157 154 0
168 195 0
164 192 0
182 202 0
34 42 0
121 90 0
184 203 0
119 98 0
168 195 0
188 205 0
166 194 0
131 94 0
133 134 0
112 78 0
153 152 0
141 138 0
178 163 0
2 4 0
121 74 0
183 203 0
135 135 0
184 203 0
137 136 0
55 20 0
176 199 0
193 208 0
176 198 0
193 208 0
118 97 0
52 86 0
38 54 0
172 161 0
193 208 0
180 201 0
132 133 0
138 136 0
180 201 0
165 193 0
178 200 0
170 195 0
170 195 0
176 199 0
171 196 0
165 193 0
132 109 0
181 201 0
170 196 0
106 92 0
105 92 0
168 159 0
182 202 0
181 201 0
177 163 0
170 196 0
179 200 0
183 202 0
177 199 0
142 138 0
140 112 0
190 206 0
61 93 0
100 45 0
113 83 0
194 208 0
166 193 0
189 205 0
171 196 0
194 208 0
170 196 0
178 200 0
181 201 0
132 134 0
189 206 0
164 192 0
187 204 0
162 192 0
165 193 0
194 209 0
61 93 0
142 160 0
188 205 0
174 197 0
185 204 0
47 77 0
191 207 0
195 209 0
171 196 0
166 194 0
174 198 0
191 207 0
151 174 0
183 202 0
176 188 0
165 193 0
172 196 0
187 205 0
191 207 0
182 202 0
50 79 0
178 200 0
186 204 0
173 197 0
59 92 0
173 197 0
164 193 0
186 204 0
167 194 0
164 192 0
178 200 0
181 201 0
185 204 0
167 194 0
178 200 0
161 180 0
179 200 0
191 207 0
166 193 0
191 207 0
164 193 0
163 192 0
165 193 0
177 199 0
184 203 0
172 197 0
191 207 0
165 182 0
58 91 0
186 204 0
188 205 0
168 195 0
46 77 0
182 202 0
166 193 0
49 79 0
174 198 0
194 209 0
183 203 0
178 200 0
166 193 0
162 192 0
177 199 0
53 87 0
176 199 0
167 194 0
193 208 0
167 194 0
162 191 0
195 209 0
178 200 0
163 192 0
177 199 0
166 194 0
157 178 0
58 91 0
169 195 0
170 195 0
53 82 0
58 90 0
175 198 0
165 193 0
188 205 0
172 197 0
50 80 0
175 198 0
195 209 0
187 205 0
163 192 0
174 198 0
193 208 0
149 173 0
190 206 0
167 194 0
169 195 0
175 198 0
47 77 0
178 200 0
171 196 0
168 194 0
175 198 0
162 192 0
175 198 0
200 212 0
176 199 0
51 81 0
163 192 0
189 206 0
177 199 0
169 195 0
162 191 0
166 194 0
51 80 0
163 192 0
196 210 0
55 84 0
4 14 0
163 192 0
162 191 0
163 192 0
162 192 0
161 191 0
173 197 0
174 198 0
54 88 0
170 196 0
174 197 0
56 89 0
49 79 0
55 89 0
47 77 0
162 191 0
162 191 0
168 194 0
195 209 0
181 201 0
179 200 0
168 195 0
162 191 0
162 192 0
179 200 0
52 81 0
167 194 0
171 196 0
191 207 0
163 192 0
162 191 0
174 198 0
162 191 0
57 90 0
165 193 0
164 193 0
172 197 0
46 73 0
46 77 0
186 204 0
4 12 0
161 191 0
165 193 0
173 197 0
50 80 0
193 208 0
167 194 0
48 78 0
166 193 0
57 90 0
192 208 0
46 77 0
176 198 0
176 199 0
178 200 0
175 198 0
164 192 0
174 198 0
168 195 0
63 94 0
172 196 0
165 193 0
188 205 0
47 77 0
179 200 0
185 204 0
190 206 0
177 199 0
184 203 0
57 90 0
171 196 0
164 193 0
164 192 0
167 194 0
59 91 0
149 173 0
164 192 0
172 197 0
172 197 0
14 32 0
168 194 0
164 192 0
35 26 0
168 194 0
61 93 0
167 194 0
178 199 0
61 93 0
60 92 0
168 194 0
175 198 0
47 77 0
168 194 0
162 191 0
168 194 0
46 77 0
184 203 0
182 202 0
186 204 0
162 191 0
13 25 0
174 161 0
164 192 0
46 77 0
162 192 0
61 93 0
59 91 0
173 197 0
164 192 0
171 196 0
52 81 0
173 197 0
165 193 0
162 191 0
166 194 0
165 193 0
173 197 0
186 204 0
155 176 0
58 91 0
165 193 0
178 164 0
49 79 0
163 192 0
168 194 0
166 193 0
45 76 0
165 193 0
193 208 0
42 60 0
166 193 0
176 199 0
132 133 0
104 92 0
168 195 0
192 207 0
133 134 0
138 136 0
174 197 0
1 5 0
172 197 0
163 192 0
3 12 0
46 77 0
183 202 0
176 199 0
59 91 0
191 207 0
164 192 0
168 183 0
169 195 0
196 209 0
162 191 0
169 195 0
62 93 0
59 92 0
179 200 0
171 196 0
163 192 0
176 199 0
51 70 0
12 24 0
139 137 0
61 93 0
163 192 0
189 206 0
164 192 0
170 160 0
168 194 0
60 92 0
162 191 0
184 203 0
181 201 0
178 200 0
179 200 0
183 202 0
144 139 0
170 196 0
172 196 0
172 196 0
184 203 0
162 192 0
165 193 0
185 204 0
183 202 0
14 26 0
14 32 0
154 144 0
59 91 0
166 194 0
26 5 0
162 192 0
163 192 0
37 7 0
163 192 0
177 199 0
175 198 0
48 67 0
178 200 0
164 192 0
136 135 0
140 137 0
174 197 0
176 199 0
166 193 0
119 98 0
192 207 0
186 204 0
165 193 0
177 199 0
121 98 0
147 121 0
191 207 0
166 193 0
169 195 0
188 205 0
139 137 0
146 140 0
171 196 0
166 193 0
107 93 0
140 137 0
171 196 0
62 93 0
159 155 0
165 193 0
176 199 0
170 160 0
179 200 0
140 137 0
169 159 0
172 197 0
148 141 0
175 198 0
160 155 0
117 89 0
62 94 0
180 201 0
179 200 0
181 201 0
169 195 0
194 208 0
173 161 0
174 198 0
161 156 0
139 137 0
13 26 0
144 139 0
169 195 0
186 204 0
180 201 0
175 198 0
178 199 0
161 155 0
137 136 0
132 134 0
155 153 0
125 106 0
8 1 0
190 206 0
160 155 0
145 121 0
74 34 0
172 196 0
183 202 0
63 95 0
169 195 0
184 203 0
183 202 0
192 208 0
192 207 0
170 195 0
190 206 0
177 199 0
140 137 0
140 112 0
183 203 0
125 92 0
183 202 0
190 206 0
168 194 0
175 198 0
180 201 0
174 198 0
185 203 0
189 206 0
200 212 0
183 202 0
184 203 0
182 202 0
192 207 0
169 195 0
183 202 0
158 178 0
166 194 0
185 204 0
168 195 0
165 193 0
183 203 0
172 197 0
158 178 0
14 32 0
174 198 0
177 199 0
175 198 0
185 204 0
183 202 0
183 202 0
183 203 0
191 207 0
176 199 0
190 207 0
171 196 0
179 200 0
177 199 0
49 79 0
156 177 0
186 204 0
174 197 0
183 202 0
163 192 0
61 93 0
166 193 0
170 195 0
182 202 0
180 201 0
179 200 0
192 208 0
189 206 0
174 198 0
194 208 0
146 149 0
180 201 0
164 192 0
182 202 0
176 199 0
171 196 0
165 193 0
172 196 0
183 203 0
54 88 0
184 203 0
178 200 0
176 199 0
187 204 0
48 78 0
174 198 0
54 82 0
169 195 0
184 203 0
170 196 0
184 203 0
176 198 0
189 206 0
167 183 0
172 197 0
47 77 0
166 193 0
175 198 0
191 207 0
55 88 0
162 192 0
182 202 0
46 77 0
182 202 0
172 197 0
182 202 0
163 192 0
58 91 0
46 77 0
166 194 0
59 91 0
47 78 0
56 89 0
191 207 0
179 200 0
169 195 0
163 192 0
49 79 0
62 93 0
45 76 0
51 80 0
57 90 0
144 161 0
162 191 0
164 192 0
173 197 0
169 195 0
196 209 0
49 78 0
62 94 0
175 198 0
196 209 0
164 192 0
163 192 0
162 191 0
163 192 0
15 35 0
162 192 0
168 195 0
165 182 0
13 30 0
179 200 0
161 191 0
176 199 0
190 206 0
189 206 0
163 192 0
183 202 0
156 153 0
166 193 0
168 194 0
181 201 0
167 194 0
193 208 0
180 201 0
179 200 0
166 193 0
162 191 0
192 208 0
180 201 0
162 191 0
47 77 0
188 205 0
169 195 0
162 192 0
168 194 0
60 92 0
171 196 0
174 198 0
177 199 0
59 92 0
171 196 0
167 194 0
162 191 0
173 197 0
176 199 0
191 207 0
95 72 0
170 196 0
168 194 0
179 200 0
50 80 0
47 77 0
162 192 0
176 199 0
175 198 0
163 192 0
167 194 0
47 77 0
52 81 0
167 194 0
173 197 0
14 31 0
178 200 0
167 194 0
3 12 0
171 196 0
165 193 0
171 196 0
49 79 0
174 197 0
186 204 0
190 206 0
180 201 0
14 32 0
163 192 0
174 197 0
2 1 0
190 206 0
43 70 0
168 195 0
174 198 0
54 87 0
49 79 0
132 134 0
167 194 0
166 193 0
163 192 0
44 71 0
171 196 0
200 212 0
169 195 0
179 200 0
178 200 0
175 198 0
176 198 0
186 204 0
46 77 0
174 198 0
168 194 0
184 203 0
167 194 0
166 193 0
164 193 0
162 192 0
48 78 0
170 196 0
165 193 0
175 198 0
62 94 0
14 24 0
169 195 0
48 78 0
186 204 0
186 204 0
180 201 0
178 200 0
174 197 0
181 201 0
176 199 0
177 199 0
109 81 0
168 194 0
185 203 0
163 192 0
175 198 0
170 195 0
168 194 0
162 191 0
180 201 0
178 200 0
5 2 0
162 191 0
168 195 0
62 94 0
136 135 0
52 81 0
166 193 0
14 32 0
168 194 0
172 196 0
172 196 0
177 199 0
47 77 0
83 41 0
54 88 0
163 192 0
168 195 0
177 199 0
182 202 0
193 208 0
181 202 0
183 202 0
188 205 0
46 77 0
20 16 0
53 82 0
170 195 0
165 193 0
9 14 0
173 197 0
160 155 0
177 199 0
184 203 0
164 193 0
183 202 0
52 86 0
48 64 0
171 196 0
180 201 0
184 203 0
180 201 0
166 193 0
5 7 0
46 77 0
11 23 0
167 194 0
150 142 0
165 193 0
10 15 0
162 191 0
162 191 0
171 196 0
170 195 0
172 197 0
167 194 0
175 198 0
185 203 0
178 200 0
190 206 0
11 23 0
46 54 0
163 192 0
183 202 0
136 135 0
11 5 0
163 192 0
191 207 0
169 195 0
164 192 0
28 3 0
166 193 0
170 160 0
177 199 0
175 198 0
126 92 0
174 198 0
168 195 0
173 197 0
105 92 0
187 205 0
177 199 0
175 198 0
166 193 0
159 154 0
47 78 0
136 111 0
169 195 0
0 0 0
165 193 0
165 157 0
165 193 0
63 95 0
114 59 0
165 193 0
176 199 0
163 192 0
49 15 0
168 194 0
171 196 0
144 139 0
179 200 0
10 11 0
155 153 0
173 197 0
169 195 0
121 99 0
170 196 0
165 193 0
132 116 0
188 205 0
136 117 0
165 157 0
151 123 0
141 137 0
170 195 0
131 133 0
191 207 0
191 207 0
183 202 0
47 77 0
0 3 0
173 197 0
172 197 0
194 209 0
112 95 0
177 199 0
185 204 0
169 159 0
172 161 0
164 193 0
41 56 0
84 39 0
137 136 0
146 140 0
65 16 0
166 194 0
177 199 0
138 118 0
83 55 0
167 194 0
181 201 0
175 198 0
180 201 0
175 198 0
179 200 0
122 91 0
186 204 0
176 199 0
188 205 0
177 199 0
185 203 0
125 75 0
38 44 0
132 109 0
0 0 0
179 200 0
176 199 0
166 193 0
176 199 0
192 208 0
191 207 0
186 204 0
174 197 0
174 198 0
57 90 0
178 200 0
196 210 0
184 203 0
163 192 0
188 205 0
172 196 0
186 204 0
157 177 0
164 192 0
170 195 0
164 193 0
187 204 0
168 194 0
57 90 0
169 184 0
183 202 0
181 201 0
173 197 0
180 201 0
162 191 0
174 198 0
168 194 0
193 208 0
165 193 0
175 198 0
188 205 0
162 192 0
180 201 0
185 204 0
170 196 0
164 192 0
15 32 0
137 157 0
186 204 0
180 201 0
169 195 0
164 192 0
177 199 0
48 78 0
192 207 0
56 84 0
172 197 0
163 192 0
191 207 0
165 193 0
60 92 0
179 200 0
163 192 0
186 204 0
167 194 0
164 181 0
164 192 0
188 205 0
164 192 0
175 198 0
191 207 0
146 172 0
195 209 0
181 201 0
178 189 0
184 203 0
162 180 0
169 195 0
162 191 0
46 77 0
62 94 0
170 195 0
169 195 0
166 194 0
59 91 0
173 197 0
52 81 0
162 192 0
161 191 0
167 194 0
178 200 0
169 195 0
162 191 0
177 199 0
162 191 0
164 192 0
185 203 0
188 205 0
164 193 0
181 202 0
163 192 0
47 77 0
162 191 0
175 198 0
164 192 0
63 95 0
53 87 0
163 192 0
173 197 0
165 193 0
47 78 0
45 76 0
162 192 0
162 191 0
198 211 0
164 192 0
162 191 0
166 193 0
169 195 0
57 90 0
46 77 0
164 181 0
170 196 0
62 93 0
173 197 0
49 79 0
181 201 0
165 193 0
181 201 0
166 194 0
171 196 0
178 200 0
48 78 0
164 192 0
180 201 0
170 196 0
129 132 0
167 194 0
167 194 0
190 206 0
170 196 0
164 192 0
193 208 0
183 203 0
165 193 0
48 78 0
177 199 0
46 77 0
161 191 0
174 197 0
186 204 0
180 201 0
163 192 0
173 197 0
46 76 0
163 192 0
45 76 0
53 87 0
166 194 0
177 199 0
163 192 0
47 77 0
175 198 0
169 195 0
172 196 0
181 202 0
184 203 0
176 199 0
174 198 0
170 196 0
166 193 0
177 199 0
164 192 0
58 90 0
172 197 0
170 196 0
163 192 0
48 78 0
166 193 0
46 76 0
46 77 0
176 199 0
180 201 0
162 191 0
46 76 0
194 209 0
177 199 0
59 91 0
4 13 0
14 32 0
169 195 0
174 197 0
177 199 0
171 196 0
190 206 0
189 206 0
172 196 0
174 198 0
166 194 0
183 202 0
48 64 0
41 59 0
164 192 0
168 194 0
175 198 0
168 194 0
171 196 0
195 209 0
166 193 0
164 192 0
194 208 0
1 3 0
186 204 0
164 193 0
171 196 0
48 78 0
163 192 0
162 192 0
164 192 0
172 197 0
182 202 0
177 199 0
162 191 0
49 79 0
41 51 0
182 202 0
53 82 0
49 79 0
174 197 0
168 194 0
162 192 0
12 27 0
17 37 0
184 203 0
49 79 0
188 205 0
62 94 0
188 205 0
45 62 0
176 199 0
175 198 0
163 192 0
181 201 0
183 203 0
177 199 0
166 193 0
45 76 0
172 197 0
141 137 0
17 37 0
175 162 0
166 193 0
169 195 0
169 195 0
12 19 0
172 196 0
162 191 0
162 191 0
164 192 0
179 201 0
189 206 0
57 90 0
191 207 0
162 191 0
12 22 0
187 205 0
115 59 0
165 193 0
169 195 0
171 196 0
168 194 0
162 191 0
162 191 0
163 192 0
166 193 0
178 199 0
170 195 0
168 194 0
164 193 0
167 194 0
163 192 0
162 191 0
190 206 0
162 191 0
146 140 0
162 191 0
58 90 0
56 73 0
162 191 0
160 155 0
47 77 0
43 61 0
193 208 0
189 206 0
167 194 0
177 163 0
163 192 0
124 106 0
164 192 0
186 204 0
163 192 0
171 196 0
195 209 0
174 198 0
37 46 0
95 44 0
46 76 0
53 82 0
158 154 0
165 193 0
169 195 0
162 191 0
161 156 0
180 201 0
24 25 0
52 70 0
166 194 0
49 79 0
178 200 0
46 77 0
164 192 0
174 197 0
46 77 0
163 192 0
171 196 0
142 119 0
184 203 0
43 60 0
133 134 0
48 68 0
39 55 0
135 135 0
165 193 0
170 195 0
169 159 0
164 192 0
150 142 0
165 193 0
163 192 0
138 136 0
65 20 0
185 203 0
171 196 0
171 196 0
184 203 0
169 195 0
106 75 0
164 192 0
173 161 0
196 210 0
179 200 0
172 197 0
192 207 0
170 196 0
4 2 0
85 34 0
162 192 0
169 195 0
146 140 0
191 207 0
157 145 0
187 205 0
169 195 0
155 125 0
166 193 0
166 158 0
27 27 0
176 199 0
172 197 0
118 84 0
134 110 0
166 194 0
147 141 0
168 194 0
176 163 0
172 196 0
143 138 0
140 137 0
45 53 0
136 117 0
176 199 0
168 194 0
175 198 0
191 207 0
131 133 0
167 194 0
114 78 0
177 199 0
174 198 0
163 192 0
189 206 0
175 198 0
167 158 0
122 99 0
182 202 0
93 53 0
51 80 0
192 207 0
186 204 0
137 136 0
139 112 0
141 138 0
183 203 0
10 0 0
182 202 0
121 99 0
167 194 0
170 195 0
191 207 0
183 202 0
168 195 0
153 175 0
169 195 0
157 167 0
147 172 0
187 205 0
172 196 0
168 194 0
182 202 0
149 173 0
168 194 0
47 77 0
168 195 0
190 206 0
149 173 0
168 194 0
168 195 0
168 194 0
192 208 0
179 200 0
180 201 0
169 195 0
178 200 0
198 211 0
63 95 0
172 197 0
162 191 0
166 193 0
176 199 0
178 200 0
190 206 0
193 208 0
189 206 0
182 202 0
192 208 0
167 194 0
182 202 0
56 84 0
168 194 0
155 176 0
163 192 0
175 198 0
191 207 0
182 202 0
173 197 0
190 206 0
167 194 0
162 191 0
168 195 0
171 196 0
180 201 0
145 171 0
166 193 0
186 204 0
168 195 0
54 83 0
170 196 0
165 193 0
161 179 0
168 194 0
165 193 0
163 192 0
168 194 0
156 177 0
166 193 0
60 92 0
162 191 0
55 84 0
195 209 0
173 197 0
167 194 0
177 199 0
174 198 0
161 191 0
164 192 0
172 197 0
173 197 0
171 196 0
162 192 0
171 196 0
186 204 0
163 192 0
134 110 0
166 194 0
165 193 0
188 205 0
170 196 0
187 204 0
130 133 0
172 196 0
49 79 0
167 194 0
167 194 0
60 92 0
165 193 0
53 86 0
50 80 0
48 78 0
181 201 0
164 193 0
166 193 0
165 193 0
162 191 0
49 79 0
167 194 0
47 77 0
164 192 0
170 196 0
179 200 0
48 78 0
163 192 0
189 206 0
54 88 0
167 194 0
194 208 0
189 206 0
195 209 0
162 191 0
162 191 0
162 191 0
58 91 0
177 199 0
46 76 0
164 192 0
165 193 0
172 197 0
169 184 0
58 91 0
171 196 0
178 200 0
164 193 0
175 198 0
164 193 0
180 201 0
174 198 0
165 193 0
196 210 0
167 194 0
169 195 0
49 78 0
163 192 0
164 192 0
48 78 0
59 92 0
193 208 0
163 192 0
51 80 0
47 78 0
176 199 0
13 30 0
170 196 0
195 209 0
16 6 0
166 193 0
163 192 0
167 194 0
186 204 0
50 79 0
174 198 0
194 208 0
193 208 0
163 192 0
172 197 0
171 196 0
164 192 0
184 203 0
177 199 0
133 134 0
47 77 0
179 200 0
178 200 0
164 192 0
167 194 0
180 201 0
45 76 0
185 204 0
165 193 0
162 191 0
181 201 0
197 210 0
170 196 0
188 205 0
162 191 0
170 196 0
170 196 0
169 195 0
60 92 0
62 93 0
166 194 0
187 205 0
174 198 0
170 196 0
172 197 0
38 54 0
176 163 0
190 206 0
163 192 0
162 191 0
58 91 0
50 80 0
184 203 0
179 164 0
167 194 0
167 194 0
168 194 0
165 157 0
176 199 0
182 202 0
13 31 0
171 196 0
53 82 0
184 203 0
163 192 0
182 202 0
189 206 0
180 201 0
184 203 0
186 204 0
184 203 0
162 191 0
13 31 0
169 195 0
182 202 0
167 194 0
46 62 0
46 77 0
157 177 0
162 191 0
178 200 0
162 191 0
189 206 0
185 203 0
53 71 0
173 197 0
164 193 0
164 192 0
189 206 0
162 191 0
52 81 0
50 80 0
162 191 0
182 202 0
163 192 0
163 192 0
13 25 0
60 92 0
33 25 0
171 196 0
171 196 0
165 193 0
165 193 0
194 209 0
168 194 0
166 193 0
167 194 0
46 77 0
162 191 0
186 204 0
57 90 0
14 32 0
177 163 0
169 195 0
173 197 0
123 99 0
164 192 0
161 191 0
179 200 0
13 31 0
178 200 0
188 205 0
181 201 0
169 195 0
164 192 0
187 205 0
173 161 0
46 76 0
165 193 0
164 192 0
173 197 0
114 83 0
172 197 0
178 200 0
45 76 0
17 32 0
176 198 0
48 78 0
48 78 0
188 205 0
51 80 0
164 192 0
49 79 0
162 191 0
173 197 0
173 197 0
170 195 0
1 1 0
177 199 0
47 77 0
165 193 0
103 74 0
171 196 0
178 200 0
156 153 0
182 202 0
193 208 0
177 163 0
15 33 0
143 120 0
63 95 0
166 193 0
170 195 0
189 206 0
181 201 0
83 48 0
177 199 0
133 116 0
178 200 0
163 192 0
177 163 0
48 63 0
185 204 0
174 197 0
166 194 0
176 199 0
170 196 0
195 209 0
165 193 0
36 32 0
0 1 0
186 204 0
166 194 0
152 151 0
37 53 0
95 72 0
178 200 0
164 192 0
138 136 0
168 195 0
177 199 0
165 193 0
191 207 0
168 194 0
151 142 0
164 193 0
39 55 0
128 107 0
176 199 0
170 196 0
165 193 0
166 193 0
156 145 0
162 191 0
167 194 0
168 194 0
40 55 0
24 19 0
49 79 0
183 202 0
143 139 0
42 11 0
53 71 0
164 192 0
174 198 0
168 195 0
171 196 0
187 205 0
136 135 0
55 88 0
164 192 0
184 203 0
174 162 0
170 196 0
180 201 0
184 203 0
164 192 0
67 23 0
142 138 0
156 145 0
42 60 0
169 195 0
141 113 0
168 194 0
172 196 0
178 200 0
180 201 0
167 158 0
188 205 0
180 201 0
163 192 0
162 192 0
180 201 0
147 141 0
191 207 0
182 202 0
181 201 0
142 138 0
167 194 0
176 199 0
58 90 0
148 173 0
182 202 0
180 201 0
182 202 0
169 195 0
189 205 0
170 196 0
166 158 0
173 197 0
168 195 0
164 192 0
176 199 0
176 199 0
185 203 0
163 192 0
172 197 0
187 205 0
184 203 0
168 195 0
165 193 0
166 193 0
188 205 0
170 196 0
169 195 0
182 202 0
182 202 0
185 203 0
186 204 0
168 195 0
181 201 0
185 203 0
47 77 0
192 208 0
188 205 0
162 191 0
165 193 0
185 204 0
178 200 0
162 191 0
167 194 0
187 204 0
165 193 0
176 198 0
170 196 0
179 200 0
162 180 0
172 196 0
193 208 0
153 165 0
191 207 0
177 199 0
176 198 0
181 201 0
47 77 0
189 206 0
165 193 0
168 194 0
49 79 0
168 195 0
184 203 0
49 79 0
168 195 0
180 201 0
181 201 0
163 192 0
182 202 0
46 67 0
169 195 0
48 78 0
46 76 0
165 193 0
168 195 0
170 195 0
161 191 0
170 196 0
186 204 0
171 196 0
14 32 0
166 193 0
171 196 0
177 199 0
167 194 0
185 204 0
187 205 0
163 192 0
174 197 0
167 194 0
63 94 0
167 194 0
167 194 0
163 192 0
46 77 0
169 195 0
11 27 0
164 193 0
162 191 0
173 197 0
62 94 0
168 194 0
166 193 0
174 197 0
172 197 0
186 204 0
177 199 0
174 197 0
180 201 0
163 192 0
163 192 0
163 192 0
57 90 0
162 191 0
173 197 0
165 193 0
169 195 0
176 199 0
177 199 0
186 204 0
187 205 0
192 207 0
176 199 0
60 93 0
190 206 0
172 196 0
184 203 0
174 198 0
169 195 0
60 92 0
165 193 0
168 195 0
41 56 0
49 79 0
148 141 0
162 191 0
184 203 0
62 94 0
51 85 0
185 203 0
181 201 0
47 78 0
169 195 0
191 207 0
176 199 0
184 203 0
62 94 0
189 206 0
162 191 0
165 193 0
175 198 0
45 76 0
161 191 0
165 193 0
192 207 0
187 205 0
165 193 0
192 207 0
59 91 0
49 79 0
47 77 0
162 191 0
59 91 0
162 191 0
182 202 0
162 191 0
172 197 0
165 193 0
162 191 0
184 203 0
172 197 0
63 95 0
48 78 0
52 86 0
162 191 0
181 201 0
170 195 0
186 204 0
172 196 0
41 56 0
177 199 0
164 193 0
180 201 0
191 207 0
48 78 0
166 193 0
173 197 0
162 191 0
189 206 0
45 76 0
171 196 0
13 31 0
162 191 0
173 197 0
134 134 0
175 198 0
167 194 0
46 77 0
62 94 0
184 203 0
163 192 0
163 192 0
169 195 0
176 199 0
175 187 0
167 194 0
3 12 0
163 192 0
168 195 0
151 151 0
14 32 0
177 199 0
164 193 0
164 192 0
182 202 0
182 202 0
171 196 0
49 79 0
197 210 0
195 209 0
63 94 0
195 209 0
169 195 0
139 137 0
164 193 0
48 78 0
31 37 0
54 71 0
164 192 0
175 198 0
179 200 0
182 202 0
165 193 0
0 2 0
55 83 0
43 52 0
0 0 0
185 204 0
190 206 0
172 196 0
185 204 0
171 196 0
169 195 0
173 197 0
165 193 0
169 195 0
176 199 0
178 200 0
165 193 0
170 160 0
162 191 0
181 201 0
192 207 0
163 192 0
55 89 0
176 199 0
183 203 0
163 192 0
166 193 0
176 199 0
180 201 0
167 194 0
165 193 0
31 24 0
44 50 0
170 160 0
46 76 0
133 134 0
162 192 0
181 202 0
135 135 0
169 195 0
46 77 0
167 194 0
13 30 0
59 92 0
10 16 0
41 55 0
167 194 0
123 105 0
183 202 0
196 210 0
172 197 0
169 195 0
62 94 0
162 191 0
177 199 0
164 193 0
164 192 0
181 202 0
117 89 0
177 199 0
194 208 0
162 191 0
188 205 0
179 200 0
171 196 0
172 196 0
41 59 0
179 200 0
172 196 0
189 206 0
175 198 0
163 192 0
68 25 0
58 90 0
191 207 0
167 194 0
11 15 0
137 136 0
194 208 0
163 192 0
162 191 0
163 156 0
112 95 0
163 192 0
178 200 0
181 202 0
178 164 0
177 199 0
41 56 0
168 195 0
62 94 0
172 197 0
6 7 0
174 197 0
185 203 0
196 210 0
1 4 0
142 138 0
174 198 0
174 197 0
62 94 0
120 90 0
56 89 0
166 193 0
133 109 0
135 135 0
138 111 0
60 92 0
4 14 0
143 138 0
111 71 0
174 162 0
104 56 0
170 195 0
164 192 0
173 197 0
169 195 0
43 57 0
143 139 0
193 208 0
165 193 0
176 199 0
13 26 0
176 199 0
184 203 0
155 153 0
185 204 0
165 193 0
17 13 0
180 201 0
135 117 0
140 137 0
104 92 0
166 193 0
115 96 0
175 198 0
187 205 0
40 45 0
162 192 0
163 192 0
186 204 0
180 201 0
173 197 0
187 205 0
117 97 0
178 200 0
184 203 0
120 85 0
167 194 0
179 200 0
183 202 0
51 11 0
130 133 0
135 110 0
184 203 0
171 196 0
180 201 0
172 196 0
130 133 0
167 194 0
173 197 0
165 193 0
164 192 0
182 202 0
143 139 0
170 196 0
169 195 0
174 161 0
171 196 0
186 204 0
190 206 0
180 201 0
180 201 0
165 182 0
176 198 0
165 193 0
190 206 0
198 211 0
187 204 0
185 203 0
171 196 0
163 192 0
186 204 0
173 197 0
165 193 0
168 194 0
171 196 0
172 197 0
180 201 0
181 201 0
165 193 0
176 198 0
162 191 0
155 177 0
169 195 0
162 191 0
183 202 0
52 81 0
183 202 0
183 202 0
171 196 0
174 198 0
170 195 0
172 197 0
188 205 0
175 198 0
163 181 0
47 73 0
182 202 0
172 197 0
196 209 0
174 197 0
166 194 0
193 208 0
166 194 0
171 196 0
173 197 0
189 206 0
173 197 0
166 193 0
181 201 0
162 192 0
51 85 0
163 192 0
183 202 0
177 199 0
182 202 0
163 192 0
15 35 0
190 206 0
166 194 0
37 53 0
168 195 0
174 197 0
173 197 0
186 204 0
183 202 0
171 196 0
200 212 0
186 204 0
182 202 0
168 195 0
169 195 0
172 197 0
164 192 0
37 61 0
14 34 0
175 198 0
190 206 0
188 205 0
163 192 0
171 196 0
167 194 0
162 191 0
172 197 0
164 192 0
184 203 0
192 207 0
161 191 0
167 194 0
169 195 0
172 196 0
190 206 0
163 192 0
56 89 0
179 200 0
162 191 0
46 76 0
187 205 0
52 86 0
198 210 0
162 191 0
178 200 0
198 211 0
182 202 0
170 195 0
15 33 0
179 200 0
177 199 0
163 192 0
162 191 0
183 202 0
162 192 0
162 191 0
183 202 0
184 203 0
184 203 0
3 11 0
48 78 0
173 197 0
179 200 0
168 195 0
167 194 0
164 192 0
164 192 0
176 199 0
15 33 0
163 192 0
162 192 0
182 202 0
181 202 0
29 22 0
171 196 0
4 13 0
62 93 0
163 180 0
163 192 0
171 196 0
149 173 0
53 87 0
188 205 0
48 78 0
187 205 0
167 194 0
175 198 0
46 77 0
173 197 0
166 193 0
167 194 0
48 78 0
190 206 0
167 194 0
176 199 0
164 192 0
177 199 0
172 197 0
166 194 0
165 193 0
40 55 0
177 199 0
178 200 0
194 209 0
177 199 0
163 192 0
180 201 0
15 34 0
45 76 0
191 207 0
32 38 0
167 194 0
52 86 0
165 193 0
48 78 0
35 30 0
45 76 0
179 200 0
137 136 0
164 192 0
172 196 0
176 199 0
164 192 0
183 202 0
177 199 0
167 194 0
3 11 0
170 196 0
163 192 0
178 200 0
46 76 0
171 196 0
175 198 0
194 208 0
49 79 0
15 28 0
178 200 0
193 208 0
49 79 0
194 209 0
50 79 0
169 195 0
166 193 0
165 193 0
47 77 0
171 196 0
162 191 0
162 191 0
61 93 0
163 192 0
17 37 0
162 191 0
195 209 0
154 152 0
0 0 0
170 195 0
189 206 0
174 198 0
177 199 0
195 209 0
181 201 0
193 208 0
172 196 0
10 16 0
184 203 0
171 196 0
47 77 0
57 90 0
183 202 0
48 78 0
170 196 0
162 191 0
164 192 0
164 192 0
166 193 0
181 202 0
51 80 0
171 196 0
176 199 0
182 202 0
167 194 0
195 209 0
53 82 0
37 37 0
49 79 0
179 200 0
179 200 0
166 193 0
54 83 0
169 195 0
52 81 0
47 77 0
194 209 0
50 80 0
163 192 0
165 193 0
153 152 0
177 199 0
187 205 0
193 208 0
168 195 0
169 159 0
162 192 0
163 192 0
164 192 0
29 30 0
176 199 0
190 206 0
171 196 0
162 192 0
163 192 0
171 196 0
174 197 0
171 196 0
179 200 0
55 89 0
140 137 0
50 79 0
14 34 0
173 197 0
163 192 0
138 111 0
162 191 0
167 194 0
164 192 0
172 197 0
163 192 0
167 194 0
185 203 0
163 192 0
162 191 0
182 202 0
0 0 0
164 157 0
131 115 0
168 194 0
53 82 0
75 37 0
52 81 0
184 203 0
189 206 0
142 138 0
188 205 0
46 77 0
184 203 0
174 198 0
164 157 0
177 163 0
180 201 0
167 194 0
164 192 0
164 192 0
164 193 0
161 155 0
156 153 0
137 118 0
165 193 0
170 195 0
98 59 0
149 150 0
116 89 0
166 193 0
165 193 0
47 77 0
0 0 0
162 191 0
21 3 0
162 191 0
172 197 0
165 193 0
149 150 0
178 163 0
165 193 0
6 8 0
9 0 0
161 191 0
172 196 0
166 193 0
173 197 0
157 154 0
46 77 0
55 88 0
167 194 0
134 134 0
142 138 0
77 37 0
171 196 0
189 205 0
156 153 0
62 94 0
41 59 0
151 151 0
49 65 0
193 208 0
147 141 0
183 202 0
0 0 0
163 157 0
168 195 0
168 195 0
164 192 0
168 194 0
0 1 0
189 206 0
170 195 0
64 35 0
139 112 0
164 157 0
175 198 0
142 138 0
164 193 0
170 196 0
108 93 0
133 134 0
165 193 0
164 193 0
187 204 0
179 200 0
132 133 0
163 156 0
191 207 0
121 104 0
192 207 0
134 134 0
173 197 0
166 194 0
35 6 0
179 200 0
164 193 0
23 25 0
152 143 0
149 141 0
184 203 0
185 204 0
167 194 0
188 205 0
117 97 0
182 202 0
182 202 0
111 94 0
175 198 0
166 194 0
174 197 0
194 209 0
183 202 0
193 208 0
179 200 0
180 201 0
163 192 0
189 206 0
176 199 0
164 192 0
166 193 0
182 202 0
198 211 0
183 202 0
162 191 0
162 191 0
174 197 0
175 198 0
53 82 0
181 202 0
146 172 0
180 201 0
166 194 0
171 196 0
187 204 0
168 195 0
181 201 0
58 91 0
177 199 0
169 195 0
171 196 0
59 92 0
167 194 0
13 31 0
175 198 0
174 198 0
190 206 0
176 199 0
177 199 0
169 195 0
165 193 0
177 199 0
172 196 0
167 194 0
189 205 0
166 193 0
166 194 0
186 204 0
176 162 0
165 193 0
165 193 0
13 29 0
167 194 0
163 192 0
156 177 0
162 191 0
58 91 0
164 192 0
179 200 0
179 200 0
182 202 0
42 69 0
168 194 0
187 204 0
192 207 0
178 200 0
170 196 0
167 194 0
182 202 0
184 203 0
165 193 0
176 188 0
55 88 0
166 193 0
55 89 0
168 194 0
170 195 0
167 194 0
162 191 0
174 198 0
168 195 0
183 202 0
60 93 0
168 194 0
63 94 0
173 197 0
165 193 0
162 191 0
169 195 0
171 196 0
187 205 0
179 200 0
53 87 0
163 192 0
168 195 0
54 87 0
184 203 0
193 208 0
186 204 0
172 196 0
62 93 0
174 198 0
161 191 0
195 209 0
162 191 0
178 200 0
178 199 0
60 92 0
172 197 0
167 194 0
164 192 0
63 95 0
176 199 0
177 199 0
185 203 0
9 16 0
191 207 0
163 192 0
51 80 0
191 207 0
162 156 0
169 195 0
166 194 0
190 206 0
178 200 0
184 203 0
163 192 0
54 88 0
168 194 0
51 81 0
52 81 0
172 196 0
180 201 0
168 195 0
164 192 0
175 198 0
178 200 0
3 7 0
178 200 0
165 193 0
16 36 0
44 61 0
180 201 0
60 92 0
63 94 0
162 191 0
179 200 0
168 194 0
163 192 0
162 192 0
166 194 0
165 193 0
156 153 0
164 193 0
184 203 0
193 208 0
50 79 0
165 193 0
175 198 0
50 80 0
177 199 0
166 182 0
179 200 0
170 196 0
163 192 0
53 82 0
185 204 0
180 201 0
186 204 0
165 193 0
47 77 0
163 192 0
47 78 0
49 79 0
190 206 0
168 194 0
162 192 0
163 192 0
163 192 0
62 93 0
165 193 0
62 94 0
47 77 0
170 196 0
63 94 0
171 196 0
19 41 0
168 194 0
46 77 0
160 179 0
166 194 0
58 90 0
163 192 0
185 203 0
63 94 0
13 30 0
172 196 0
186 204 0
173 197 0
46 76 0
168 194 0
46 77 0
61 93 0
189 206 0
193 208 0
170 195 0
177 199 0
50 79 0
174 197 0
41 59 0
166 193 0
173 197 0
186 204 0
184 203 0
136 111 0
48 78 0
173 197 0
188 205 0
176 199 0
166 193 0
169 195 0
168 194 0
193 208 0
174 197 0
173 197 0
171 196 0
47 77 0
162 191 0
181 201 0
10 18 0
174 197 0
162 191 0
162 191 0
46 54 0
188 205 0
192 208 0
172 197 0
47 77 0
17 37 0
169 195 0
176 199 0
162 192 0
139 137 0
62 94 0
163 192 0
163 192 0
182 202 0
176 198 0
92 50 0
191 207 0
193 208 0
184 203 0
45 76 0
158 154 0
180 201 0
189 205 0
173 197 0
169 195 0
137 136 0
56 89 0
49 79 0
162 156 0
180 201 0
197 210 0
153 143 0
186 204 0
165 193 0
181 201 0
162 191 0
6 4 0
174 198 0
164 192 0
132 134 0
137 136 0
166 194 0
162 191 0
183 202 0
170 195 0
163 192 0
192 207 0
57 90 0
196 210 0
130 115 0
177 199 0
167 194 0
165 193 0
185 204 0
115 96 0
81 38 0
30 32 0
162 191 0
190 206 0
172 197 0
183 203 0
173 197 0
163 192 0
172 196 0
163 192 0
15 29 0
163 192 0
172 161 0
129 132 0
190 206 0
61 21 0
172 196 0
167 158 0
134 135 0
154 152 0
196 209 0
134 95 0
129 132 0
162 191 0
184 203 0
159 155 0
135 135 0
183 202 0
163 192 0
170 195 0
163 192 0
150 150 0
186 204 0
50 79 0
167 194 0
169 195 0
141 138 0
187 205 0
162 191 0
192 207 0
46 54 0
71 20 0
177 163 0
165 193 0
51 85 0
141 112 0
168 195 0
185 203 0
78 38 0
181 201 0
166 193 0
173 197 0
8 0 0
174 198 0
176 199 0
167 194 0
108 93 0
146 140 0
173 197 0
162 156 0
142 120 0
166 193 0
153 143 0
175 198 0
176 163 0
119 73 0
173 197 0
167 194 0
182 202 0
10 21 0
164 193 0
185 204 0
171 196 0
175 198 0
173 197 0
167 158 0
135 135 0
162 192 0
182 202 0
177 199 0
171 196 0
164 192 0
186 204 0
166 193 0
162 191 0
158 154 0
52 86 0
116 96 0
167 194 0
54 12 0
171 160 0
140 137 0
170 196 0
179 200 0
173 197 0
177 163 0
101 74 0
187 204 0
146 140 0
156 153 0
164 192 0
159 155 0
61 93 0
172 161 0
195 209 0
171 196 0
172 196 0
174 198 0
52 21 0
197 210 0
190 206 0
174 198 0
166 193 0
184 203 0
164 193 0
156 177 0
199 211 0
50 79 0
155 176 0
171 196 0
60 93 0
163 192 0
192 208 0
183 203 0
172 197 0
52 86 0
179 200 0
182 202 0
165 193 0
176 199 0
160 179 0
50 80 0
171 196 0
192 208 0
183 203 0
45 76 0
185 204 0
190 206 0
165 193 0
173 197 0
172 197 0
183 203 0
183 202 0
168 195 0
168 194 0
184 203 0
171 196 0
169 195 0
165 193 0
169 195 0
172 197 0
61 93 0
163 192 0
3 12 0
73 30 0
182 202 0
166 193 0
166 193 0
196 210 0
191 207 0
62 93 0
53 82 0
164 193 0
184 203 0
162 192 0
164 192 0
171 196 0
185 204 0
168 194 0
165 193 0
54 83 0
179 200 0
162 191 0
168 195 0
191 207 0
164 192 0
196 210 0
162 191 0
53 82 0
166 194 0
163 192 0
186 204 0
63 94 0
172 197 0
189 206 0
50 80 0
163 192 0
186 204 0
164 192 0
183 202 0
182 202 0
166 193 0
166 193 0
47 77 0
189 206 0
49 79 0
191 207 0
190 207 0
179 200 0
49 79 0
167 194 0
42 69 0
165 193 0
166 194 0
53 87 0
174 197 0
174 198 0
168 194 0
177 199 0
174 198 0
60 92 0
180 201 0
172 197 0
177 199 0
164 192 0
162 191 0
174 197 0
197 210 0
166 194 0
182 202 0
63 95 0
162 191 0
170 196 0
165 193 0
196 209 0
48 78 0
177 199 0
183 203 0
175 198 0
163 192 0
168 195 0
60 92 0
177 199 0
163 192 0
179 200 0
164 193 0
172 197 0
184 203 0
171 196 0
187 205 0
187 204 0
164 192 0
48 78 0
184 203 0
178 200 0
162 192 0
166 194 0
177 199 0
177 163 0
164 192 0
50 79 0
165 193 0
163 192 0
163 192 0
15 33 0
162 191 0
172 186 0
166 194 0
170 196 0
0 0 0
48 78 0
168 195 0
163 192 0
47 77 0
42 69 0
60 92 0
165 193 0
186 204 0
13 30 0
163 192 0
169 195 0
171 185 0
182 202 0
166 193 0
186 204 0
163 192 0
166 193 0
60 92 0
45 76 0
170 196 0
163 192 0
169 195 0
186 204 0
58 91 0
17 37 0
168 195 0
192 208 0
144 148 0
171 196 0
166 193 0
27 29 0
195 209 0
166 194 0
174 197 0
171 196 0
164 192 0
190 206 0
61 93 0
165 193 0
182 202 0
176 199 0
185 204 0
54 82 0
182 202 0
164 193 0
180 201 0
170 160 0
191 207 0
52 81 0
148 141 0
161 191 0
170 159 0
47 77 0
185 204 0
187 204 0
61 93 0
182 202 0
168 159 0
62 94 0
188 205 0
195 209 0
163 192 0
180 201 0
56 89 0
171 196 0
165 193 0
190 206 0
167 194 0
190 206 0
164 192 0
188 205 0
167 194 0
164 192 0
177 199 0
179 200 0
49 79 0
169 195 0
162 192 0
194 208 0
17 37 0
163 192 0
62 94 0
176 199 0
189 206 0
176 199 0
11 19 0
190 206 0
162 192 0
181 201 0
171 196 0
163 192 0
174 198 0
49 79 0
162 191 0
165 193 0
174 198 0
164 192 0
173 197 0
178 200 0
57 90 0
172 196 0
183 202 0
34 41 0
188 205 0
169 195 0
84 41 0
4 12 0
162 191 0
173 197 0
168 195 0
131 133 0
163 192 0
43 70 0
169 195 0
175 198 0
48 78 0
53 82 0
173 197 0
175 198 0
175 198 0
55 88 0
192 207 0
189 206 0
48 78 0
10 21 0
163 192 0
176 199 0
168 194 0
166 194 0
168 195 0
174 198 0
60 92 0
43 61 0
164 193 0
55 83 0
170 195 0
166 193 0
175 198 0
49 79 0
171 160 0
184 203 0
173 161 0
167 194 0
178 199 0
163 192 0
142 138 0
53 82 0
29 3 0
168 195 0
170 195 0
167 194 0
171 196 0
0 0 0
131 133 0
163 192 0
38 47 0
53 71 0
131 133 0
171 196 0
166 194 0
45 50 0
54 88 0
13 27 0
193 208 0
188 205 0
10 21 0
52 13 0
172 196 0
150 151 0
166 193 0
43 61 0
174 162 0
190 206 0
68 33 0
59 91 0
177 163 0
170 196 0
165 193 0
184 203 0
61 93 0
168 195 0
171 196 0
177 163 0
104 80 0
135 135 0
130 132 0
169 195 0
186 204 0
95 54 0
152 124 0
36 43 0
53 87 0
172 196 0
185 203 0
167 158 0
169 195 0
171 196 0
168 195 0
176 163 0
181 201 0
85 64 0
118 89 0
137 136 0
164 192 0
164 193 0
159 155 0
37 40 0
133 116 0
168 195 0
142 120 0
95 58 0
169 195 0
176 198 0
175 198 0
162 191 0
174 198 0
183 203 0
175 162 0
180 201 0
162 191 0
169 195 0
175 198 0
190 206 0
156 145 0
165 193 0
130 133 0
174 162 0
178 200 0
167 194 0
29 3 0
167 194 0
104 56 0
185 203 0
171 196 0
163 192 0
168 194 0
193 208 0
102 74 0
4 5 0
166 193 0
189 206 0
178 163 0
164 193 0
168 194 0
177 199 0
150 142 0
183 202 0
147 141 0
173 161 0
165 193 0
165 193 0
182 202 0
54 87 0
6 18 0
12 28 0
178 199 0
50 80 0
169 195 0
165 193 0
179 200 0
180 201 0
170 195 0
14 32 0
161 191 0
164 192 0
190 206 0
178 200 0
173 197 0
160 179 0
146 172 0
186 204 0
176 199 0
197 210 0
62 93 0
168 195 0
185 203 0
168 195 0
184 203 0
183 202 0
163 192 0
172 196 0
164 192 0
175 198 0
178 200 0
173 197 0
177 199 0
164 181 0
197 210 0
187 204 0
196 210 0
189 205 0
193 208 0
188 205 0
165 193 0
175 198 0
194 208 0
172 196 0
169 195 0
170 195 0
191 207 0
188 205 0
185 204 0
187 204 0
171 196 0
173 197 0
171 196 0
171 196 0
175 198 0
184 203 0
182 202 0
173 197 0
173 197 0
51 85 0
190 206 0
153 176 0
171 196 0
60 92 0
162 191 0
167 194 0
178 200 0
57 90 0
173 197 0
166 193 0
182 202 0
176 199 0
171 185 0
169 195 0
150 174 0
190 206 0
193 208 0
60 92 0
169 195 0
164 192 0
181 201 0
178 200 0
171 196 0
179 200 0
162 191 0
179 200 0
168 194 0
166 193 0
177 199 0
162 191 0
13 31 0
180 201 0
168 195 0
166 193 0
164 193 0
52 81 0
173 197 0
42 49 0
169 195 0
170 196 0
162 191 0
55 89 0
163 192 0
188 205 0
45 62 0
167 194 0
190 206 0
49 79 0
63 94 0
168 194 0
17 37 0
165 193 0
167 194 0
54 83 0
62 93 0
195 209 0
156 177 0
174 197 0
170 195 0
60 92 0
189 206 0
61 93 0
164 192 0
161 191 0
162 192 0
168 194 0
162 191 0
56 89 0
46 76 0
164 192 0
167 194 0
165 193 0
162 192 0
48 78 0
176 199 0
181 201 0
165 193 0
176 199 0
163 192 0
175 198 0
200 212 0
170 184 0
165 193 0
165 193 0
180 201 0
172 196 0
185 204 0
170 196 0
165 193 0
46 77 0
167 194 0
164 193 0
162 192 0
167 194 0
177 199 0
166 193 0
190 206 0
167 194 0
195 209 0
49 79 0
174 198 0
170 196 0
163 192 0
163 192 0
171 196 0
16 36 0
51 80 0
168 194 0
170 195 0
179 200 0
156 177 0
178 200 0
55 83 0
136 117 0
178 200 0
196 209 0
172 197 0
60 92 0
162 191 0
175 198 0
171 196 0
168 194 0
167 194 0
163 192 0
50 80 0
166 193 0
56 89 0
47 77 0
164 193 0
182 202 0
185 204 0
170 195 0
188 205 0
1 5 0
162 191 0
164 192 0
165 193 0
183 202 0
176 199 0
47 77 0
163 192 0
194 209 0
169 195 0
15 6 0
172 196 0
166 194 0
179 200 0
120 120 0
175 198 0
130 108 0
162 191 0
149 141 0
48 78 0
144 139 0
159 154 0
162 191 0
192 207 0
169 195 0
167 194 0
174 198 0
182 202 0
159 154 0
185 204 0
184 203 0
0 1 0
176 199 0
168 195 0
179 200 0
198 210 0
186 204 0
182 202 0
53 71 0
184 203 0
174 198 0
197 210 0
42 60 0
47 78 0
164 192 0
48 78 0
55 88 0
176 199 0
169 195 0
165 193 0
120 85 0
171 196 0
59 18 0
185 204 0
15 29 0
193 208 0
12 21 0
179 200 0
174 197 0
60 92 0
50 80 0
49 79 0
176 199 0
45 62 0
31 37 0
164 192 0
178 200 0
53 82 0
170 196 0
172 197 0
50 65 0
60 92 0
166 158 0
163 192 0
163 192 0
166 194 0
167 194 0
145 121 0
179 200 0
169 195 0
167 194 0
163 192 0
182 202 0
190 206 0
182 202 0
182 202 0
3 6 0
196 210 0
194 209 0
170 196 0
169 195 0
184 203 0
156 153 0
173 197 0
180 201 0
186 204 0
169 195 0
176 199 0
155 153 0
192 207 0
142 138 0
170 196 0
148 149 0
173 197 0
50 65 0
162 192 0
163 192 0
193 208 0
163 192 0
169 195 0
195 209 0
155 153 0
166 193 0
181 201 0
179 200 0
174 198 0
174 198 0
184 203 0
132 133 0
55 88 0
189 206 0
165 193 0
181 202 0
150 142 0
169 195 0
162 191 0
162 191 0
175 198 0
190 206 0
180 201 0
144 139 0
182 202 0
186 204 0
46 77 0
184 203 0
114 96 0
152 143 0
164 192 0
182 202 0
131 133 0
145 139 0
132 134 0
171 196 0
156 153 0
179 200 0
194 208 0
153 144 0
14 1 0
163 192 0
177 199 0
3 8 0
134 135 0
129 132 0
170 195 0
174 198 0
164 192 0
136 135 0
171 196 0
184 203 0
183 202 0
166 193 0
184 203 0
176 199 0
125 87 0
153 152 0
132 109 0
191 207 0
183 203 0
147 140 0
126 92 0
186 204 0
165 193 0
170 160 0
168 195 0
171 196 0
180 201 0
174 162 0
175 198 0
132 109 0
175 198 0
145 139 0
162 191 0
162 191 0
175 162 0
156 153 0
151 143 0
117 97 0
186 204 0
175 198 0
185 204 0
141 119 0
184 203 0
173 197 0
170 196 0
144 139 0
164 192 0
175 198 0
171 196 0
143 138 0
172 197 0
177 163 0
132 134 0
179 164 0
112 95 0
51 81 0
182 202 0
186 204 0
191 207 0
180 201 0
165 193 0
173 197 0
169 195 0
162 191 0
180 201 0
190 206 0
170 195 0
172 197 0
176 199 0
179 200 0
171 196 0
180 201 0
192 208 0
48 78 0
181 201 0
159 179 0
167 194 0
165 193 0
189 206 0
169 195 0
170 196 0
165 193 0
49 79 0
182 202 0
163 192 0
168 194 0
171 196 0
164 193 0
171 196 0
179 200 0
196 210 0
151 175 0
168 194 0
181 202 0
169 184 0
169 195 0
57 90 0
180 201 0
60 92 0
167 194 0
170 195 0
184 203 0
180 201 0
176 162 0
178 200 0
171 196 0
162 191 0
170 196 0
45 76 0
177 199 0
168 195 0
162 192 0
47 77 0
171 196 0
172 197 0
197 210 0
163 192 0
169 195 0
185 204 0
169 195 0
166 193 0
170 196 0
165 193 0
171 196 0
186 204 0
167 194 0
53 87 0
163 192 0
55 84 0
162 191 0
191 207 0
191 207 0
15 33 0
185 203 0
164 192 0
195 209 0
164 192 0
186 204 0
171 196 0
163 192 0
167 194 0
162 191 0
171 196 0
164 192 0
144 171 0
48 78 0
182 202 0
174 197 0
162 191 0
182 202 0
56 89 0
171 196 0
168 195 0
55 88 0
177 199 0
175 198 0
184 203 0
163 181 0
199 211 0
171 196 0
179 200 0
187 205 0
189 206 0
48 78 0
47 77 0
56 89 0
50 80 0
190 206 0
162 191 0
173 197 0
180 201 0
176 199 0
175 198 0
54 82 0
46 77 0
148 163 0
13 31 0
60 92 0
183 202 0
191 207 0
195 209 0
51 81 0
163 192 0
46 77 0
165 193 0
169 195 0
170 195 0
55 88 0
165 193 0
184 203 0
168 195 0
184 203 0
165 193 0
165 193 0
169 195 0
177 199 0
167 194 0
46 77 0
63 94 0
45 76 0
164 192 0
166 194 0
179 200 0
174 198 0
62 94 0
170 196 0
166 194 0
176 199 0
170 196 0
45 76 0
170 195 0
167 194 0
167 194 0
163 192 0
161 191 0
197 210 0
177 163 0
179 200 0
166 194 0
169 195 0
185 204 0
166 194 0
46 77 0
167 194 0
165 193 0
182 202 0
166 193 0
170 195 0
173 197 0
163 192 0
200 212 0
53 87 0
47 78 0
175 198 0
165 193 0
170 196 0
187 205 0
165 193 0
166 193 0
163 192 0
46 76 0
170 196 0
172 197 0
163 192 0
163 192 0
167 194 0
179 200 0
174 198 0
173 197 0
167 194 0
163 192 0
174 197 0
181 201 0
167 194 0
169 195 0
183 202 0
141 113 0
47 78 0
149 150 0
174 198 0
2 6 0
165 193 0
53 17 0
161 191 0
176 199 0
184 203 0
163 192 0
172 196 0
14 32 0
55 88 0
193 208 0
176 198 0
137 136 0
171 196 0
148 150 0
173 197 0
175 198 0
16 10 0
185 203 0
175 198 0
48 78 0
180 201 0
63 95 0
164 192 0
167 194 0
181 201 0
163 192 0
162 191 0
163 192 0
168 195 0
170 195 0
164 192 0
53 82 0
169 195 0
50 80 0
14 31 0
172 161 0
174 198 0
164 192 0
1 5 0
166 193 0
193 208 0
172 197 0
183 203 0
42 60 0
35 40 0
169 195 0
168 194 0
43 50 0
163 192 0
189 206 0
165 193 0
181 201 0
48 78 0
176 199 0
164 193 0
155 144 0
194 209 0
143 120 0
186 204 0
195 209 0
164 192 0
170 195 0
54 71 0
48 78 0
162 192 0
170 195 0
166 194 0
167 194 0
181 201 0
22 1 0
13 31 0
178 164 0
177 199 0
163 192 0
60 92 0
164 193 0
182 202 0
195 209 0
13 31 0
175 198 0
193 208 0
45 53 0
164 193 0
167 194 0
170 196 0
73 29 0
189 205 0
176 199 0
169 195 0
130 133 0
55 89 0
162 191 0
170 195 0
52 81 0
47 77 0
162 191 0
184 203 0
187 205 0
169 195 0
162 192 0
45 76 0
55 88 0
118 98 0
38 54 0
174 198 0
188 205 0
144 139 0
162 191 0
48 78 0
29 4 0
177 199 0
2 6 0
154 152 0
180 201 0
53 87 0
52 81 0
173 197 0
136 135 0
174 198 0
177 199 0
175 162 0
170 196 0
182 202 0
179 200 0
166 194 0
149 150 0
49 65 0
171 160 0
175 198 0
185 203 0
176 199 0
155 153 0
167 194 0
170 195 0
138 118 0
179 200 0
3 8 0
168 195 0
171 196 0
152 152 0
173 197 0
173 161 0
13 19 0
178 200 0
51 85 0
38 38 0
46 77 0
62 32 0
154 144 0
180 201 0
177 199 0
172 197 0
11 18 0
13 31 0
170 196 0
183 202 0
182 202 0
141 138 0
133 134 0
173 197 0
156 153 0
172 196 0
163 192 0
60 92 0
166 193 0
170 196 0
177 199 0
169 195 0
120 98 0
179 164 0
166 193 0
172 197 0
194 209 0
35 26 0
188 205 0
167 194 0
187 205 0
184 203 0
167 194 0
152 143 0
175 198 0
3 7 0
43 57 0
0 1 0
146 140 0
63 94 0
136 117 0
171 196 0
170 196 0
156 144 0
188 205 0
131 133 0
191 207 0
177 163 0
189 206 0
188 205 0
182 202 0
166 193 0
191 207 0
193 208 0
180 201 0
46 77 0
189 206 0
179 200 0
169 184 0
189 206 0
165 193 0
166 193 0
176 199 0
163 192 0
189 206 0
185 204 0
194 208 0
180 201 0
169 195 0
162 192 0
171 196 0
175 198 0
170 195 0
153 152 0
194 209 0
177 199 0
180 201 0
171 196 0
186 204 0
165 193 0
160 179 0
199 211 0
172 197 0
189 206 0
172 196 0
164 192 0
49 79 0
181 201 0
165 193 0
54 87 0
190 206 0
167 194 0
187 205 0
178 200 0
178 200 0
181 202 0
179 201 0
54 83 0
158 178 0
172 196 0
174 197 0
174 198 0
164 193 0
166 193 0
192 207 0
165 182 0
46 77 0
63 94 0
185 203 0
168 195 0
188 205 0
173 197 0
164 193 0
171 196 0
61 93 0
165 193 0
164 193 0
168 194 0
169 195 0
165 193 0
181 201 0
182 202 0
192 207 0
173 197 0
167 194 0
175 198 0
4 13 0
180 201 0
146 172 0
73 21 0
178 200 0
173 197 0
192 208 0
165 193 0
57 90 0
0 4 0
186 204 0
165 193 0
48 78 0
162 191 0
62 94 0
179 200 0
62 94 0
166 193 0
176 199 0
175 198 0
179 200 0
175 198 0
173 197 0
48 78 0
179 200 0
193 208 0
172 196 0
189 206 0
163 192 0
48 78 0
194 208 0
47 78 0
169 195 0
169 195 0
164 192 0
164 192 0
176 199 0
47 77 0
166 194 0
180 201 0
165 193 0
165 193 0
162 191 0
166 193 0
186 204 0
60 92 0
166 193 0
169 195 0
184 203 0
56 89 0
171 196 0
165 193 0
181 202 0
166 193 0
171 196 0
167 194 0
173 197 0
168 194 0
189 206 0
180 201 0
167 194 0
179 200 0
49 79 0
175 198 0
48 78 0
187 204 0
162 191 0
51 80 0
184 203 0
167 194 0
60 92 0
171 196 0
166 193 0
167 194 0
175 198 0
48 78 0
168 194 0
167 194 0
186 204 0
176 199 0
186 204 0
48 78 0
179 200 0
48 64 0
167 194 0
46 77 0
180 201 0
172 196 0
148 173 0
164 192 0
166 193 0
176 198 0
189 206 0
185 204 0
164 192 0
166 194 0
162 191 0
162 192 0
172 197 0
178 200 0
4 12 0
173 197 0
55 89 0
191 207 0
60 92 0
168 194 0
162 192 0
148 150 0
59 92 0
177 199 0
177 199 0
182 202 0
165 193 0
162 191 0
167 194 0
168 195 0
169 195 0
163 192 0
168 194 0
171 160 0
173 197 0
165 193 0
171 196 0
163 192 0
17 37 0
163 192 0
166 194 0
62 94 0
193 208 0
194 209 0
59 91 0
178 199 0
182 202 0
180 201 0
166 193 0
1 3 0
168 194 0
47 78 0
14 32 0
62 94 0
179 200 0
62 94 0
163 192 0
179 200 0
179 200 0
162 191 0
136 135 0
165 193 0
163 192 0
31 26 0
162 192 0
167 194 0
161 191 0
167 194 0
162 191 0
182 202 0
169 195 0
192 207 0
194 208 0
172 197 0
61 93 0
173 197 0
168 194 0
4 8 0
163 192 0
162 191 0
58 91 0
183 202 0
164 192 0
190 206 0
167 158 0
184 203 0
47 77 0
177 199 0
176 199 0
61 93 0
186 204 0
44 53 0
53 82 0
171 196 0
165 193 0
169 195 0
165 193 0
47 77 0
178 163 0
182 202 0
165 193 0
50 79 0
50 79 0
166 158 0
167 194 0
163 192 0
166 193 0
91 35 0
129 132 0
123 91 0
42 60 0
41 48 0
2 3 0
164 193 0
135 135 0
163 192 0
181 201 0
173 197 0
163 192 0
170 196 0
165 193 0
166 193 0
163 192 0
11 21 0
53 82 0
50 80 0
171 196 0
45 76 0
172 197 0
165 193 0
187 205 0
49 79 0
129 115 0
149 141 0
54 72 0
112 71 0
12 24 0
169 195 0
171 196 0
53 87 0
2 8 0
42 49 0
128 107 0
162 192 0
169 195 0
162 192 0
47 63 0
178 200 0
174 198 0
170 195 0
167 194 0
46 62 0
80 27 0
155 153 0
7 9 0
190 206 0
52 70 0
164 192 0
174 197 0
173 197 0
164 192 0
163 192 0
170 196 0
137 136 0
180 201 0
168 194 0
166 193 0
40 39 0
153 152 0
175 198 0
178 164 0
176 198 0
180 201 0
164 193 0
166 158 0
132 134 0
172 196 0
185 204 0
172 197 0
141 113 0
174 197 0
184 203 0
167 194 0
178 164 0
139 137 0
62 94 0
181 202 0
172 197 0
132 133 0
163 192 0
135 135 0
171 196 0
171 196 0
9 15 0
38 44 0
175 198 0
173 197 0
82 27 0
153 143 0
47 63 0
184 203 0
171 160 0
183 203 0
164 192 0
44 58 0
90 54 0
172 196 0
172 197 0
173 197 0
55 26 0
167 158 0
171 160 0
132 109 0
181 201 0
172 161 0
185 203 0
175 162 0
166 193 0
163 192 0
178 200 0
163 192 0
170 160 0
62 26 0
168 194 0
62 94 0
169 195 0
133 134 0
183 202 0
173 197 0
174 198 0
185 204 0
182 202 0
165 193 0
147 140 0
15 12 0
170 195 0
178 200 0
183 202 0
172 196 0
175 198 0
162 191 0
168 195 0
184 203 0
162 192 0
181 201 0
152 175 0
180 201 0
165 193 0
167 194 0
151 174 0
166 194 0
169 195 0
180 201 0
187 205 0
188 205 0
134 155 0
188 205 0
169 195 0
175 198 0
184 203 0
187 205 0
171 196 0
169 195 0
56 89 0
186 204 0
194 209 0
162 191 0
179 200 0
125 106 0
190 206 0
162 191 0
174 198 0
187 204 0
187 205 0
171 196 0
168 195 0
184 203 0
163 192 0
165 193 0
180 201 0
177 199 0
187 205 0
188 205 0
182 202 0
173 197 0
180 201 0
169 195 0
178 200 0
180 201 0
191 207 0
54 87 0
169 195 0
170 196 0
175 198 0
183 202 0
193 208 0
183 202 0
163 192 0
166 193 0
53 87 0
46 76 0
175 198 0
163 192 0
170 196 0
174 198 0
174 197 0
167 194 0
151 151 0
166 193 0
165 193 0
51 80 0
169 195 0
183 202 0
167 183 0
193 208 0
162 191 0
180 201 0
176 198 0
4 13 0
172 197 0
162 191 0
194 208 0
168 194 0
169 195 0
62 94 0
195 209 0
170 196 0
47 77 0
171 196 0
170 195 0
166 193 0
153 143 0
164 192 0
179 200 0
165 193 0
199 211 0
163 192 0
191 207 0
164 193 0
181 201 0
163 192 0
57 90 0
166 193 0
171 196 0
171 196 0
53 87 0
164 192 0
184 203 0
12 30 0
168 195 0
59 92 0
163 192 0
186 204 0
175 198 0
181 202 0
58 91 0
164 192 0
191 207 0
168 195 0
48 78 0
177 199 0
182 202 0
164 192 0
54 83 0
46 77 0
167 194 0
168 194 0
153 175 0
172 197 0
167 194 0
49 79 0
187 205 0
57 90 0
166 193 0
172 196 0
170 196 0
164 192 0
185 204 0
178 200 0
195 209 0
187 205 0
190 206 0
165 193 0
175 198 0
174 198 0
173 197 0
165 193 0
171 196 0
166 193 0
148 173 0
169 195 0
167 194 0
164 192 0
161 191 0
55 84 0
170 196 0
165 193 0
51 80 0
169 195 0
170 195 0
175 162 0
173 197 0
190 206 0
168 194 0
167 194 0
180 201 0
165 193 0
167 194 0
168 194 0
177 199 0
162 191 0
169 195 0
183 202 0
163 192 0
177 199 0
164 192 0
164 192 0
195 209 0
164 192 0
63 94 0
162 191 0
46 77 0
49 79 0
58 90 0
164 192 0
163 192 0
137 157 0
179 200 0
162 191 0
168 194 0
192 207 0
162 191 0
172 196 0
178 200 0
157 153 0
166 194 0
0 2 0
161 191 0
163 192 0
164 193 0
46 77 0
171 196 0
62 94 0
187 205 0
170 196 0
165 193 0
3 10 0
163 192 0
51 80 0
178 199 0
167 194 0
167 194 0
194 209 0
47 78 0
165 193 0
57 90 0
162 192 0
181 201 0
163 192 0
172 196 0
50 80 0
13 31 0
174 198 0
163 192 0
49 79 0
165 193 0
171 196 0
185 203 0
177 199 0
181 201 0
161 191 0
174 198 0
60 92 0
54 82 0
168 194 0
183 202 0
188 205 0
163 192 0
178 200 0
163 192 0
162 191 0
174 198 0
169 195 0
55 88 0
169 195 0
186 204 0
164 193 0
57 90 0
175 198 0
165 193 0
173 197 0
184 203 0
42 60 0
27 20 0
175 198 0
23 16 0
183 202 0
181 201 0
177 199 0
162 191 0
166 193 0
190 206 0
168 194 0
165 193 0
165 193 0
162 191 0
59 91 0
189 206 0
174 198 0
173 197 0
160 155 0
168 194 0
164 192 0
191 207 0
162 191 0
184 203 0
164 192 0
165 193 0
189 206 0
138 118 0
147 140 0
162 192 0
50 56 0
49 79 0
68 38 0
169 195 0
162 191 0
196 210 0
59 91 0
176 198 0
172 196 0
169 159 0
174 198 0
181 201 0
187 205 0
15 28 0
11 18 0
164 192 0
170 196 0
42 52 0
180 201 0
188 205 0
164 193 0
166 193 0
169 195 0
48 78 0
131 133 0
54 83 0
167 194 0
184 203 0
43 60 0
167 194 0
189 206 0
171 196 0
167 194 0
167 194 0
178 163 0
130 133 0
169 159 0
164 193 0
164 192 0
174 197 0
124 92 0
174 162 0
178 200 0
62 94 0
162 191 0
108 57 0
189 206 0
42 56 0
48 78 0
169 195 0
160 155 0
164 192 0
42 60 0
52 81 0
184 203 0
180 201 0
169 195 0
152 152 0
154 152 0
67 28 0
156 153 0
178 200 0
162 191 0
81 31 0
164 157 0
168 194 0
161 155 0
130 108 0
169 195 0
163 192 0
47 77 0
49 79 0
173 197 0
133 134 0
167 194 0
11 22 0
135 135 0
165 193 0
183 202 0
169 159 0
183 202 0
137 117 0
49 68 0
168 195 0
178 200 0
172 197 0
163 156 0
172 161 0
178 200 0
162 192 0
166 194 0
3 0 0
139 137 0
167 194 0
186 204 0
163 192 0
191 207 0
166 193 0
183 202 0
177 163 0
141 119 0
164 192 0
170 195 0
168 195 0
49 79 0
164 192 0
194 208 0
164 157 0
193 208 0
167 194 0
178 200 0
168 195 0
188 205 0
166 193 0
177 199 0
170 196 0
187 205 0
163 192 0
182 202 0
171 196 0
186 204 0
135 135 0
178 200 0
167 194 0
163 192 0
171 196 0
200 212 0
197 210 0
183 202 0
167 194 0
162 191 0
195 209 0
188 205 0
169 195 0
173 197 0
194 208 0
190 207 0
185 203 0
166 193 0
176 199 0
186 204 0
174 198 0
185 204 0
189 206 0
181 201 0
166 193 0
165 193 0
192 207 0
168 194 0
167 194 0
173 197 0
0 0 0
54 88 0
182 202 0
174 198 0
190 206 0
189 206 0
179 200 0
171 196 0
199 211 0
153 175 0
167 194 0
62 93 0
175 198 0
174 198 0
177 199 0
182 202 0
165 193 0
166 194 0
56 89 0
15 35 0
166 193 0
162 191 0
168 195 0
185 204 0
165 193 0
169 195 0
163 192 0
161 191 0
170 195 0
176 199 0
173 197 0
131 133 0
166 193 0
171 196 0
15 35 0
171 196 0
188 205 0
162 191 0
167 194 0
163 192 0
53 87 0
47 77 0
179 200 0
16 35 0
188 205 0
180 201 0
200 212 0
166 193 0
172 196 0
164 192 0
171 196 0
180 201 0
167 194 0
174 198 0
184 203 0
163 192 0
180 201 0
163 192 0
173 197 0
47 77 0
195 209 0
47 77 0
193 208 0
163 192 0
56 89 0
172 197 0
176 199 0
165 193 0
147 172 0
173 197 0
164 192 0
195 209 0
170 196 0
163 192 0
58 91 0
45 76 0
187 205 0
164 192 0
162 192 0
175 198 0
175 198 0
164 193 0
61 93 0
169 195 0
179 201 0
169 195 0
52 81 0
178 200 0
165 193 0
175 198 0
165 193 0
62 94 0
169 195 0
175 198 0
180 201 0
163 192 0
167 194 0
177 199 0
173 197 0
165 193 0
175 198 0
180 201 0
171 196 0
173 197 0
183 202 0
186 204 0
170 196 0
201 212 0
167 194 0
176 199 0
167 194 0
170 195 0
168 195 0
166 193 0
48 78 0
182 202 0
188 205 0
164 192 0
188 205 0
169 195 0
177 199 0
162 192 0
181 201 0
163 192 0
190 206 0
193 208 0
180 201 0
184 203 0
175 198 0
174 197 0
181 201 0
146 149 0
173 161 0
179 200 0
46 77 0
174 198 0
173 197 0
168 194 0
55 88 0
190 206 0
173 197 0
53 82 0
15 4 0
168 184 0
46 77 0
170 196 0
163 192 0
162 192 0
163 192 0
162 191 0
165 193 0
71 45 0
194 208 0
165 193 0
162 191 0
46 77 0
188 205 0
3 12 0
183 202 0
168 194 0
164 192 0
165 193 0
52 81 0
187 205 0
180 201 0
166 193 0
168 195 0
164 192 0
188 205 0
49 79 0
191 207 0
181 202 0
173 197 0
168 195 0
166 193 0
167 194 0
54 88 0
167 194 0
164 192 0
52 81 0
189 206 0
179 200 0
190 206 0
173 197 0
181 202 0
180 201 0
168 194 0
51 80 0
166 194 0
21 12 0
14 32 0
165 193 0
26 15 0
167 194 0
4 13 0
164 192 0
163 192 0
165 193 0
165 193 0
46 77 0
169 195 0
168 195 0
178 200 0
44 58 0
173 197 0
183 203 0
168 195 0
162 192 0
180 201 0
167 194 0
187 205 0
138 118 0
41 59 0
165 193 0
177 199 0
166 193 0
186 204 0
101 45 0
162 191 0
188 205 0
165 193 0
179 200 0
189 206 0
172 197 0
166 193 0
169 195 0
47 77 0
176 199 0
184 203 0
189 205 0
166 193 0
179 200 0
162 191 0
4 13 0
185 204 0
190 206 0
134 117 0
166 193 0
169 195 0
170 195 0
176 199 0
1 3 0
189 206 0
93 58 0
57 90 0
166 193 0
163 192 0
12 24 0
166 193 0
48 78 0
166 193 0
172 197 0
14 28 0
162 191 0
174 197 0
165 193 0
192 207 0
168 195 0
176 199 0
180 201 0
57 90 0
191 207 0
169 195 0
195 209 0
187 204 0
174 197 0
162 191 0
177 199 0
170 196 0
172 197 0
163 192 0
169 159 0
42 56 0
47 78 0
46 76 0
172 197 0
3 8 0
175 198 0
183 203 0
162 191 0
41 59 0
13 27 0
59 91 0
133 134 0
177 199 0
173 197 0
165 193 0
167 194 0
175 198 0
175 198 0
182 202 0
164 192 0
141 137 0
169 159 0
133 134 0
174 198 0
180 201 0
74 46 0
106 80 0
169 195 0
163 192 0
180 201 0
186 204 0
163 192 0
142 113 0
169 195 0
108 70 0
166 193 0
64 23 0
162 191 0
108 70 0
180 201 0
186 204 0
165 193 0
180 201 0
175 198 0
155 152 0
1 4 0
184 203 0
137 136 0
120 85 0
172 197 0
39 55 0
162 192 0
122 99 0
194 209 0
53 82 0
189 206 0
190 206 0
17 32 0
59 91 0
165 193 0
20 4 0
174 198 0
195 209 0
172 197 0
169 195 0
144 139 0
143 113 0
171 196 0
186 204 0
177 199 0
56 73 0
184 203 0
168 195 0
169 195 0
165 193 0
167 194 0
192 207 0
47 77 0
192 207 0
163 192 0
186 204 0
165 193 0
197 210 0
186 204 0
171 160 0
166 194 0
166 193 0
171 196 0
47 9 0
170 160 0
165 193 0
177 199 0
170 195 0
174 197 0
166 193 0
172 197 0
194 209 0
62 94 0
163 192 0
182 202 0
183 203 0
180 201 0
61 93 0
162 192 0
168 194 0
162 191 0
164 193 0
168 195 0
176 199 0
191 207 0
181 201 0
175 198 0
170 195 0
58 90 0
50 80 0
182 202 0
183 203 0
180 201 0
187 205 0
174 198 0
183 202 0
172 196 0
172 197 0
178 200 0
193 208 0
180 201 0
167 194 0
177 199 0
185 203 0
170 195 0
178 200 0
180 201 0
173 197 0
165 193 0
163 192 0
163 192 0
49 79 0
62 94 0
174 187 0
49 79 0
167 194 0
162 191 0
173 197 0
168 194 0
168 195 0
50 79 0
48 78 0
173 197 0
165 193 0
188 205 0
184 203 0
175 198 0
165 193 0
17 37 0
175 198 0
175 198 0
3 12 0
14 34 0
176 198 0
47 77 0
57 90 0
177 199 0
52 81 0
119 85 0
192 207 0
169 195 0
162 191 0
179 200 0
163 192 0
179 200 0
184 203 0
63 94 0
182 202 0
167 194 0
196 210 0
177 199 0
169 195 0
47 77 0
192 208 0
189 206 0
183 202 0
183 202 0
183 203 0
175 198 0
165 193 0
181 202 0
163 192 0
168 195 0
190 206 0
56 84 0
174 198 0
164 192 0
179 200 0
179 200 0
165 193 0
180 201 0
166 194 0
181 201 0
163 192 0
193 208 0
169 195 0
189 206 0
174 198 0
46 77 0
58 90 0
173 197 0
51 81 0
171 196 0
175 198 0
183 203 0
163 192 0
53 82 0
48 78 0
193 208 0
162 192 0
179 200 0
52 81 0
162 191 0
172 196 0
45 72 0
13 31 0
181 201 0
190 206 0
176 199 0
163 192 0
165 193 0
190 206 0
174 198 0
164 192 0
172 197 0
172 197 0
164 193 0
170 196 0
167 194 0
162 191 0
190 206 0
165 193 0
175 198 0
171 196 0
167 194 0
176 199 0
176 199 0
168 195 0
178 200 0
175 198 0
166 194 0
171 196 0
169 195 0
164 192 0
184 203 0
170 195 0
178 200 0
169 195 0
181 201 0
162 191 0
178 200 0
129 115 0
195 209 0
50 65 0
188 205 0
174 197 0
63 94 0
189 206 0
169 195 0
173 197 0
182 202 0
179 200 0
163 192 0
172 196 0
179 200 0
166 194 0
173 197 0
166 194 0
175 198 0
190 206 0
145 139 0
179 200 0
172 197 0
174 198 0
178 200 0
187 205 0
166 194 0
162 191 0
194 208 0
169 195 0
179 200 0
177 199 0
176 199 0
162 191 0
164 193 0
180 201 0
162 191 0
186 204 0
16 35 0
162 191 0
164 192 0
167 194 0
162 192 0
169 195 0
46 62 0
162 191 0
162 191 0
163 192 0
177 199 0
183 202 0
167 194 0
42 60 0
173 197 0
169 195 0
165 193 0
162 191 0
169 195 0
186 204 0
46 76 0
162 191 0
36 37 0
52 86 0
179 200 0
177 163 0
169 195 0
163 192 0
54 88 0
0 3 0
175 198 0
170 196 0
163 192 0
163 156 0
164 192 0
164 192 0
164 192 0
184 203 0
194 208 0
174 197 0
171 196 0
177 199 0
168 195 0
173 197 0
166 194 0
11 20 0
163 192 0
164 193 0
173 197 0
146 140 0
187 205 0
175 198 0
189 206 0
179 200 0
0 0 0
184 203 0
171 196 0
164 192 0
166 193 0
179 200 0
154 152 0
174 198 0
165 193 0
194 209 0
183 202 0
162 156 0
182 202 0
173 197 0
54 83 0
166 193 0
178 200 0
177 199 0
170 196 0
175 198 0
193 208 0
174 198 0
133 134 0
162 191 0
47 78 0
190 206 0
182 202 0
181 201 0
1 3 0
58 91 0
161 191 0
129 132 0
174 198 0
172 196 0
131 133 0
162 192 0
165 193 0
173 197 0
175 198 0
191 207 0
162 191 0
164 193 0
185 203 0
166 194 0
129 132 0
0 0 0
50 79 0
58 91 0
82 38 0
179 200 0
166 194 0
135 135 0
136 135 0
188 205 0
167 194 0
168 194 0
171 160 0
181 201 0
173 197 0
163 192 0
166 194 0
182 202 0
49 79 0
165 193 0
185 203 0
131 133 0
176 198 0
47 11 0
154 152 0
56 89 0
177 199 0
12 24 0
166 193 0
163 192 0
166 193 0
137 136 0
163 192 0
164 193 0
174 162 0
178 200 0
142 138 0
169 195 0
133 134 0
172 197 0
172 197 0
184 203 0
159 155 0
137 136 0
176 162 0
166 193 0
182 202 0
169 195 0
181 201 0
138 111 0
173 197 0
164 157 0
162 191 0
162 191 0
72 25 0
166 193 0
190 206 0
163 156 0
164 193 0
140 137 0
194 209 0
190 206 0
180 201 0
113 78 0
171 160 0
175 162 0
47 77 0
157 153 0
109 94 0
156 153 0
169 159 0
156 145 0
133 134 0
107 76 0
179 200 0
36 53 0
165 193 0
50 79 0
163 192 0
170 195 0
171 196 0
162 192 0
162 192 0
180 201 0
164 192 0
170 160 0
189 206 0
175 162 0
167 194 0
169 195 0
168 194 0
162 192 0
136 135 0
186 204 0
164 192 0
176 199 0
184 203 0
46 66 0
169 195 0
187 204 0
165 193 0
162 191 0
166 194 0
171 196 0
165 193 0
172 196 0
53 82 0
165 193 0
168 195 0
172 197 0
182 202 0
171 196 0
179 200 0
164 192 0
181 201 0
170 196 0
183 203 0
187 205 0
174 197 0
171 196 0
166 194 0
173 197 0
173 197 0
167 194 0
175 198 0
147 172 0
138 136 0
164 192 0
170 195 0
183 202 0
162 191 0
154 176 0
171 196 0
130 144 0
163 192 0
168 195 0
184 203 0
50 79 0
172 197 0
170 196 0
174 187 0
199 211 0
168 194 0
156 177 0
191 207 0
194 209 0
168 194 0
184 203 0
181 201 0
187 204 0
184 203 0
170 196 0
191 207 0
50 79 0
178 200 0
190 206 0
163 192 0
166 193 0
176 199 0
174 198 0
171 196 0
166 193 0
164 193 0
180 201 0
183 203 0
164 192 0
156 177 0
189 206 0
52 81 0
162 191 0
200 212 0
61 93 0
168 194 0
173 197 0
176 199 0
165 193 0
163 192 0
169 195 0
162 192 0
162 191 0
165 193 0
173 197 0
158 154 0
173 197 0
181 201 0
180 201 0
191 207 0
185 203 0
172 196 0
173 197 0
162 191 0
163 192 0
188 205 0
170 195 0
183 202 0
179 200 0
162 191 0
192 207 0
146 140 0
172 197 0
163 192 0
169 195 0
193 208 0
178 200 0
165 193 0
168 195 0
166 193 0
162 191 0
167 194 0
41 68 0
147 172 0
162 191 0
62 94 0
166 193 0
164 192 0
62 94 0
45 76 0
178 200 0
177 199 0
54 88 0
166 193 0
43 70 0
172 197 0
165 193 0
181 202 0
165 193 0
164 192 0
46 77 0
186 204 0
58 90 0
166 193 0
177 199 0
46 76 0
51 80 0
174 198 0
190 206 0
164 192 0
133 134 0
46 77 0
163 192 0
55 83 0
14 31 0
169 195 0
163 192 0
31 9 0
183 202 0
171 196 0
169 195 0
167 194 0
184 203 0
179 200 0
164 193 0
167 194 0
62 93 0
190 206 0
178 200 0
165 193 0
164 192 0
170 195 0
162 191 0
189 206 0
192 207 0
49 79 0
170 196 0
51 80 0
172 197 0
164 193 0
165 193 0
194 208 0
184 203 0
185 204 0
163 192 0
158 154 0
162 192 0
55 88 0
162 192 0
163 192 0
57 90 0
171 196 0
190 206 0
48 78 0
164 193 0
173 197 0
162 191 0
171 196 0
38 54 0
161 127 0
162 191 0
167 194 0
51 80 0
173 197 0
178 200 0
183 202 0
62 94 0
169 195 0
196 209 0
168 194 0
176 199 0
176 199 0
178 200 0
50 80 0
173 197 0
174 198 0
167 194 0
170 196 0
54 88 0
17 37 0
163 192 0
140 119 0
193 208 0
170 195 0
172 197 0
172 197 0
177 199 0
59 92 0
196 209 0
15 33 0
172 196 0
162 191 0
173 197 0
179 201 0
172 197 0
169 195 0
168 195 0
171 196 0
187 204 0
184 203 0
165 193 0
98 69 0
182 202 0
174 197 0
178 200 0
193 208 0
176 199 0
13 31 0
54 71 0
194 208 0
185 203 0
171 196 0
145 139 0
177 199 0
47 63 0
192 207 0
46 76 0
179 200 0
183 202 0
190 206 0
63 94 0
180 201 0
99 52 0
37 53 0
168 195 0
186 204 0
174 197 0
167 194 0
162 191 0
163 192 0
162 191 0
169 195 0
184 203 0
173 197 0
138 136 0
186 204 0
26 24 0
161 155 0
164 192 0
168 194 0
13 23 0
181 201 0
165 193 0
183 202 0
193 208 0
59 92 0
164 193 0
170 195 0
168 195 0
165 193 0
59 91 0
193 208 0
60 92 0
165 193 0
166 194 0
46 63 0
162 192 0
179 200 0
179 200 0
183 202 0
174 197 0
49 68 0
165 193 0
50 79 0
47 77 0
175 198 0
178 200 0
169 195 0
185 203 0
165 193 0
169 195 0
45 50 0
61 93 0
25 4 0
109 94 0
136 135 0
39 54 0
148 141 0
162 156 0
164 192 0
187 204 0
164 193 0
170 196 0
168 195 0
152 151 0
162 192 0
165 193 0
61 93 0
162 191 0
87 42 0
171 196 0
137 117 0
184 203 0
46 76 0
49 68 0
168 194 0
162 191 0
164 192 0
189 206 0
167 194 0
168 194 0
59 91 0
164 192 0
165 193 0
147 149 0
173 197 0
184 203 0
182 202 0
164 192 0
94 53 0
160 155 0
162 191 0
182 202 0
112 71 0
181 201 0
17 37 0
174 197 0
162 191 0
182 202 0
177 163 0
143 139 0
164 157 0
172 196 0
48 78 0
189 206 0
162 191 0
169 195 0
164 192 0
134 134 0
136 135 0
106 56 0
195 209 0
164 193 0
183 202 0
178 199 0
37 53 0
148 141 0
29 36 0
186 204 0
120 104 0
166 194 0
139 136 0
43 60 0
48 55 0
181 201 0
140 137 0
41 59 0
141 138 0
176 199 0
174 197 0
178 200 0
164 157 0
44 58 0
154 144 0
163 192 0
177 199 0
133 134 0
177 199 0
166 193 0
149 141 0
170 196 0
176 199 0
29 30 0
163 192 0
160 155 0
169 195 0
182 202 0
174 197 0
172 161 0
113 78 0
173 197 0
168 194 0
167 194 0
170 196 0
182 202 0
194 208 0
167 194 0
168 195 0
181 201 0
172 197 0
186 204 0
198 211 0
198 211 0
41 68 0
166 194 0
176 199 0
172 186 0
161 180 0
171 196 0
166 193 0
177 199 0
175 198 0
188 205 0
185 203 0
189 206 0
166 194 0
188 205 0
190 206 0
193 208 0
177 199 0
176 199 0
171 160 0
191 207 0
170 185 0
174 198 0
178 199 0
168 195 0
46 77 0
184 203 0
168 195 0
46 76 0
164 192 0
173 197 0
170 196 0
165 193 0
180 201 0
166 183 0
167 194 0
172 197 0
164 192 0
167 194 0
162 192 0
163 192 0
184 203 0
163 192 0
164 192 0
163 192 0
177 199 0
164 192 0
163 192 0
165 193 0
154 176 0
167 194 0
176 199 0
165 193 0
163 192 0
164 192 0
173 197 0
172 197 0
185 203 0
175 198 0
179 200 0
173 197 0
182 202 0
177 199 0
187 205 0
164 192 0
166 193 0
60 92 0
172 196 0
172 196 0
168 194 0
167 194 0
49 79 0
162 192 0
171 196 0
179 200 0
46 76 0
167 194 0
169 195 0
181 201 0
183 202 0
174 197 0
177 199 0
51 85 0
167 194 0
184 203 0
147 140 0
166 193 0
186 204 0
186 204 0
189 206 0
184 203 0
54 82 0
171 196 0
60 92 0
167 194 0
176 199 0
164 192 0
165 193 0
186 204 0
184 203 0
179 200 0
168 194 0
162 191 0
167 194 0
163 192 0
168 195 0
170 196 0
172 197 0
164 192 0
164 193 0
178 200 0
158 154 0
180 201 0
52 81 0
164 192 0
63 94 0
173 197 0
173 197 0
164 192 0
58 90 0
196 210 0
48 74 0
163 192 0
177 199 0
164 192 0
186 204 0
162 192 0
165 193 0
163 192 0
46 77 0
165 193 0
57 90 0
177 199 0
189 205 0
162 191 0
46 77 0
54 87 0
175 198 0
189 205 0
187 204 0
182 202 0
188 205 0
174 198 0
193 208 0
170 196 0
179 200 0
179 200 0
179 200 0
166 193 0
170 196 0
165 193 0
195 209 0
170 195 0
186 204 0
168 195 0
168 194 0
166 193 0
173 197 0
167 194 0
163 192 0
165 193 0
174 197 0
176 199 0
170 195 0
169 195 0
162 192 0
192 207 0
171 196 0
170 196 0
17 37 0
172 197 0
170 196 0
60 92 0
183 202 0
165 193 0
176 199 0
186 204 0
178 200 0
163 192 0
56 89 0
17 37 0
164 192 0
167 194 0
164 192 0
1 5 0
162 191 0
53 82 0
164 193 0
183 203 0
167 194 0
167 194 0
61 93 0
193 208 0
170 195 0
48 78 0
174 198 0
171 196 0
13 31 0
177 199 0
170 195 0
180 201 0
166 194 0
178 200 0
135 135 0
175 198 0
166 193 0
178 200 0
192 207 0
163 192 0
171 196 0
162 191 0
165 193 0
189 206 0
166 193 0
62 94 0
63 94 0
180 201 0
47 78 0
194 209 0
173 197 0
174 198 0
151 151 0
171 196 0
183 203 0
162 191 0
171 196 0
50 80 0
187 205 0
63 94 0
13 7 0
164 192 0
169 195 0
163 192 0
167 194 0
164 193 0
190 206 0
172 197 0
156 153 0
58 91 0
176 199 0
48 78 0
58 91 0
164 192 0
172 196 0
179 200 0
0 2 0
38 46 0
59 92 0
63 94 0
143 139 0
134 134 0
193 208 0
61 93 0
163 192 0
187 205 0
48 78 0
173 197 0
173 197 0
49 79 0
169 195 0
169 195 0
60 92 0
162 191 0
177 199 0
170 195 0
164 192 0
166 193 0
168 194 0
44 16 0
167 194 0
50 79 0
168 194 0
171 196 0
163 192 0
165 193 0
183 202 0
89 49 0
175 198 0
168 194 0
46 77 0
158 154 0
188 205 0
172 197 0
180 201 0
169 195 0
170 196 0
193 208 0
37 53 0
165 193 0
187 205 0
164 192 0
52 81 0
186 204 0
172 196 0
190 206 0
173 197 0
54 71 0
49 79 0
159 154 0
168 195 0
179 200 0
164 193 0
166 194 0
165 193 0
177 199 0
162 191 0
47 77 0
188 205 0
8 12 0
179 200 0
180 201 0
168 194 0
179 200 0
171 160 0
178 200 0
165 193 0
168 195 0
178 200 0
53 82 0
89 42 0
141 138 0
166 193 0
189 206 0
137 136 0
171 196 0
177 199 0
170 160 0
163 192 0
48 64 0
192 207 0
142 120 0
191 207 0
157 154 0
172 197 0
63 95 0
166 194 0
168 194 0
54 88 0
134 134 0
172 197 0
165 193 0
167 158 0
177 199 0
16 36 0
162 191 0
137 136 0
183 202 0
150 150 0
110 77 0
196 210 0
193 208 0
166 193 0
132 133 0
165 157 0
134 134 0
179 200 0
172 197 0
181 202 0
151 151 0
63 19 0
171 196 0
39 55 0
140 137 0
154 176 0
49 79 0
173 161 0
194 208 0
166 158 0
172 197 0
178 164 0
58 90 0
146 140 0
167 194 0
186 204 0
162 192 0
166 194 0
185 203 0
109 70 0
180 201 0
40 48 0
127 92 0
173 197 0
167 194 0
142 138 0
162 191 0
184 203 0
51 12 0
48 78 0
176 163 0
74 32 0
163 192 0
169 195 0
191 207 0
166 193 0
180 201 0
174 198 0
172 196 0
182 202 0
178 200 0
164 192 0
175 198 0
162 192 0
50 80 0
146 172 0
166 193 0
195 209 0
51 86 0
163 192 0
63 94 0
184 203 0
169 195 0
174 197 0
46 77 0
177 199 0
61 93 0
149 173 0
182 202 0
169 195 0
175 198 0
184 203 0
165 193 0
59 91 0
168 194 0
186 204 0
186 204 0
166 193 0
187 204 0
41 68 0
170 196 0
162 192 0
45 76 0
175 198 0
183 203 0
165 193 0
61 93 0
183 202 0
186 204 0
12 28 0
54 87 0
164 193 0
62 94 0
167 183 0
180 201 0
171 196 0
189 206 0
114 96 0
191 207 0
171 196 0
172 197 0
157 177 0
179 200 0
164 192 0
171 196 0
177 199 0
171 196 0
168 194 0
57 90 0
181 201 0
182 202 0
182 202 0
189 206 0
53 82 0
41 68 0
171 196 0
193 208 0
182 202 0
197 210 0
183 202 0
163 192 0
177 199 0
177 199 0
163 192 0
165 193 0
178 200 0
183 202 0
173 197 0
171 196 0
191 207 0
171 196 0
167 194 0
169 195 0
163 192 0
167 194 0
185 203 0
181 202 0
180 201 0
194 208 0
54 88 0
175 198 0
168 194 0
172 196 0
166 193 0
168 194 0
152 175 0
165 193 0
164 192 0
170 196 0
169 195 0
164 193 0
164 192 0
54 83 0
171 196 0
167 194 0
181 201 0
190 206 0
50 80 0
176 199 0
168 194 0
163 192 0
46 77 0
185 203 0
63 94 0
186 204 0
46 77 0
51 80 0
165 193 0
163 192 0
189 206 0
163 192 0
13 31 0
161 191 0
172 196 0
164 192 0
181 201 0
165 193 0
48 78 0
177 199 0
194 209 0
45 76 0
4 12 0
55 89 0
183 202 0
163 192 0
173 197 0
49 79 0
186 204 0
175 198 0
182 202 0
189 206 0
199 211 0
166 193 0
162 191 0
167 194 0
165 193 0
129 93 0
169 195 0
50 79 0
182 202 0
48 78 0
165 193 0
122 99 0
61 93 0
46 66 0
179 200 0
162 191 0
136 96 0
170 196 0
181 201 0
50 79 0
156 153 0
193 208 0
163 192 0
0 2 0
51 80 0
187 205 0
185 203 0
192 207 0
52 81 0
176 199 0
169 195 0
166 194 0
165 193 0
190 206 0
184 203 0
15 28 0
169 195 0
167 194 0
183 202 0
56 89 0
174 198 0
165 193 0
163 192 0
162 191 0
183 202 0
173 197 0
186 204 0
165 193 0
176 199 0
170 196 0
48 78 0
165 193 0
186 204 0
176 198 0
47 77 0
186 204 0
180 201 0
52 86 0
190 206 0
163 192 0
47 77 0
167 194 0
178 200 0
180 201 0
165 193 0
176 199 0
46 77 0
193 208 0
166 193 0
176 199 0
179 200 0
177 199 0
154 152 0
176 199 0
161 191 0
60 92 0
58 91 0
50 69 0
163 192 0
162 192 0
162 191 0
175 198 0
163 192 0
164 192 0
179 200 0
14 31 0
167 194 0
61 93 0
165 193 0
167 194 0
189 206 0
135 135 0
165 193 0
169 195 0
166 193 0
163 192 0
163 192 0
165 193 0
163 157 0
169 195 0
61 93 0
179 200 0
191 207 0
163 192 0
181 201 0
165 193 0
167 194 0
3 7 0
194 208 0
171 196 0
163 192 0
173 197 0
53 82 0
192 207 0
48 78 0
2 3 0
151 151 0
163 192 0
185 204 0
173 197 0
171 196 0
172 197 0
3 10 0
181 201 0
176 198 0
167 194 0
173 197 0
185 203 0
13 30 0
194 208 0
169 195 0
166 193 0
186 204 0
166 193 0
162 191 0
178 200 0
185 203 0
174 198 0
165 193 0
166 193 0
164 192 0
130 133 0
157 154 0
90 42 0
144 139 0
167 194 0
180 201 0
163 192 0
194 208 0
168 194 0
189 206 0
178 164 0
174 198 0
166 193 0
183 203 0
181 201 0
166 193 0
162 192 0
171 160 0
182 202 0
43 60 0
63 94 0
182 202 0
186 204 0
163 192 0
163 192 0
137 136 0
48 78 0
163 192 0
152 151 0
176 199 0
164 193 0
183 202 0
181 201 0
172 196 0
170 196 0
162 191 0
162 191 0
165 193 0
162 191 0
159 127 0
129 132 0
180 201 0
164 193 0
168 194 0
181 202 0
174 197 0
180 201 0
177 199 0
184 203 0
166 193 0
168 194 0
123 99 0
175 198 0
49 79 0
169 195 0
162 191 0
170 195 0
167 194 0
180 201 0
175 198 0
150 142 0
161 155 0
191 207 0
132 134 0
150 174 0
147 140 0
163 192 0
42 60 0
115 96 0
162 191 0
177 199 0
136 135 0
184 203 0
163 192 0
182 202 0
183 202 0
7 6 0
140 137 0
166 194 0
152 151 0
171 196 0
177 163 0
172 197 0
171 196 0
172 197 0
24 11 0
170 196 0
165 157 0
30 37 0
77 32 0
175 198 0
177 199 0
173 197 0
171 196 0
174 197 0
184 203 0
163 192 0
159 155 0
136 135 0
169 195 0
171 196 0
2 6 0
162 191 0
150 142 0
140 137 0
172 197 0
167 194 0
177 163 0
149 142 0
167 194 0
186 204 0
170 195 0
166 193 0
163 192 0
53 87 0
163 192 0
170 196 0
176 199 0
180 201 0
186 204 0
187 205 0
171 196 0
167 194 0
180 201 0
172 196 0
173 197 0
54 87 0
196 210 0
59 91 0
162 192 0
167 194 0
148 173 0
170 195 0
184 203 0
179 200 0
173 197 0
167 194 0
164 193 0
166 194 0
172 197 0
177 199 0
168 195 0
161 191 0
96 83 0
163 192 0
45 76 0
183 203 0
166 193 0
170 196 0
164 192 0
172 197 0
179 200 0
134 116 0
177 199 0
165 193 0
183 202 0
174 198 0
197 210 0
191 207 0
175 198 0
162 191 0
185 203 0
182 202 0
60 92 0
46 76 0
173 197 0
167 194 0
179 200 0
171 196 0
190 206 0
172 197 0
163 192 0
171 196 0
52 81 0
169 195 0
182 202 0
169 184 0
183 202 0
180 201 0
51 80 0
163 192 0
188 205 0
184 203 0
180 201 0
176 198 0
187 204 0
51 80 0
178 200 0
60 93 0
166 194 0
61 93 0
177 199 0
170 196 0
183 203 0
162 191 0
177 199 0
173 197 0
163 192 0
186 204 0
170 196 0
169 195 0
171 196 0
190 206 0
186 204 0
50 80 0
190 206 0
166 193 0
167 194 0
47 78 0
164 193 0
55 88 0
179 200 0
162 191 0
169 195 0
176 199 0
50 79 0
180 201 0
62 94 0
162 191 0
47 77 0
165 193 0
194 209 0
168 195 0
174 198 0
181 201 0
166 193 0
163 192 0
167 194 0
42 60 0
55 89 0
173 197 0
167 194 0
166 193 0
162 191 0
193 208 0
173 197 0
47 78 0
169 195 0
164 192 0
51 81 0
186 204 0
184 203 0
162 191 0
165 193 0
3 12 0
183 203 0
156 177 0
72 29 0
162 191 0
16 38 0
173 197 0
171 196 0
60 92 0
166 193 0
174 197 0
168 195 0
172 196 0
189 206 0
62 94 0
162 192 0
197 210 0
170 196 0
176 199 0
165 193 0
164 192 0
37 53 0
184 203 0
178 200 0
48 78 0
48 78 0
164 193 0
163 192 0
177 199 0
167 194 0
177 199 0
171 196 0
195 209 0
182 202 0
172 197 0
181 202 0
181 202 0
48 78 0
51 81 0
180 201 0
178 200 0
164 192 0
162 192 0
187 205 0
174 197 0
170 195 0
183 202 0
170 195 0
3 10 0
194 209 0
167 194 0
166 193 0
172 196 0
46 77 0
189 206 0
166 193 0
171 196 0
170 195 0
180 201 0
126 106 0
164 193 0
164 192 0
77 32 0
195 209 0
168 194 0
17 37 0
162 191 0
192 207 0
166 194 0
176 199 0
178 200 0
55 88 0
46 77 0
194 208 0
47 77 0
53 82 0
40 47 0
172 197 0
60 92 0
145 148 0
168 195 0
172 197 0
168 195 0
177 199 0
183 202 0
181 201 0
54 87 0
50 80 0
166 193 0
167 194 0
165 193 0
1 0 0
50 79 0
59 91 0
66 35 0
162 191 0
53 87 0
50 79 0
172 196 0
52 81 0
58 91 0
181 201 0
165 193 0
183 202 0
176 199 0
51 80 0
164 192 0
166 193 0
170 195 0
168 194 0
185 204 0
178 164 0
163 192 0
163 192 0
181 201 0
192 207 0
176 199 0
181 201 0
4 13 0
52 81 0
163 192 0
61 93 0
177 199 0
59 91 0
173 197 0
1 3 0
47 63 0
4 10 0
170 196 0
44 71 0
166 193 0
165 193 0
164 192 0
52 81 0
166 193 0
182 202 0
186 204 0
183 202 0
170 160 0
62 94 0
167 194 0
172 197 0
47 77 0
168 195 0
163 192 0
167 194 0
190 206 0
180 201 0
41 56 0
169 195 0
165 193 0
130 133 0
165 193 0
182 202 0
162 192 0
163 192 0
175 198 0
117 84 0
163 156 0
178 163 0
166 193 0
172 197 0
81 27 0
47 77 0
150 150 0
165 193 0
164 192 0
51 81 0
162 191 0
179 200 0
170 195 0
165 193 0
56 89 0
57 15 0
166 194 0
187 205 0
171 196 0
170 195 0
153 152 0
159 155 0
134 134 0
169 195 0
34 39 0
172 197 0
176 163 0
167 194 0
176 199 0
164 192 0
50 79 0
174 198 0
124 86 0
172 197 0
180 201 0
175 198 0
163 156 0
179 200 0
172 196 0
116 72 0
167 194 0
122 74 0
171 196 0
191 207 0
163 192 0
162 192 0
185 204 0
164 193 0
63 94 0
167 194 0
177 199 0
153 152 0
182 202 0
162 191 0
134 134 0
157 154 0
169 195 0
165 193 0
179 200 0
190 206 0
173 197 0
166 193 0
184 203 0
181 201 0
75 46 0
61 93 0
183 202 0
196 210 0
190 206 0
145 140 0
170 195 0
170 196 0
144 139 0
178 200 0
172 196 0
11 22 0
1 4 0
170 196 0
192 207 0
157 154 0
177 199 0
164 193 0
185 203 0
162 192 0
148 173 0
167 194 0
162 192 0
131 133 0
184 203 0
166 193 0
178 200 0
3 8 0
165 193 0
136 135 0
176 199 0
171 160 0
113 95 0
176 199 0
190 206 0
164 193 0
0 0 0
141 137 0
185 203 0
174 197 0
178 200 0
130 132 0
163 192 0
175 198 0
173 197 0
164 192 0
176 199 0
169 195 0
196 210 0
183 203 0
167 194 0
170 196 0
187 205 0
167 194 0
183 202 0
163 192 0
168 194 0
193 208 0
54 83 0
162 191 0
3 12 0
181 201 0
169 195 0
181 201 0
168 194 0
163 192 0
175 198 0
189 206 0
186 204 0
168 194 0
176 199 0
164 193 0
171 196 0
183 202 0
164 192 0
167 194 0
147 172 0
165 182 0
154 176 0
180 201 0
162 191 0
161 191 0
175 198 0
165 193 0
189 206 0
196 210 0
173 197 0
163 192 0
190 206 0
165 193 0
180 201 0
181 201 0
52 81 0
174 198 0
162 191 0
178 200 0
186 204 0
187 205 0
179 200 0
163 192 0
167 194 0
176 199 0
170 196 0
168 195 0
186 204 0
164 192 0
171 196 0
174 198 0
162 192 0
46 77 0
195 209 0
171 196 0
191 207 0
162 191 0
53 82 0
176 199 0
56 89 0
170 196 0
51 86 0
188 205 0
169 195 0
171 196 0
189 206 0
189 206 0
162 191 0
165 193 0
163 192 0
180 201 0
174 198 0
163 192 0
190 206 0
165 193 0
167 194 0
176 199 0
175 198 0
163 192 0
201 212 0
163 192 0
174 197 0
169 195 0
170 195 0
176 199 0
47 78 0
162 191 0
163 192 0
162 191 0
179 200 0
165 193 0
196 210 0
169 195 0
184 203 0
49 79 0
171 196 0
175 198 0
162 191 0
59 91 0
166 193 0
177 199 0
162 191 0
164 193 0
52 86 0
57 90 0
164 192 0
163 192 0
180 201 0
51 80 0
193 208 0
167 194 0
168 195 0
171 196 0
187 205 0
47 77 0
163 192 0
11 21 0
172 197 0
163 192 0
180 201 0
171 196 0
166 194 0
186 204 0
165 193 0
173 197 0
171 185 0
165 193 0
170 160 0
181 201 0
46 77 0
163 192 0
168 194 0
167 194 0
167 194 0
158 154 0
58 91 0
145 171 0
178 200 0
181 202 0
168 194 0
171 196 0
185 204 0
170 196 0
164 192 0
177 199 0
183 202 0
176 199 0
165 193 0
169 195 0
145 140 0
1 4 0
174 198 0
3 12 0
167 194 0
3 12 0
174 197 0
165 193 0
174 198 0
162 191 0
175 198 0
177 199 0
136 135 0
189 206 0
164 192 0
172 197 0
192 207 0
58 90 0
173 197 0
183 202 0
179 200 0
166 194 0
174 198 0
186 204 0
187 204 0
171 196 0
163 192 0
186 204 0
164 192 0
156 153 0
176 199 0
172 197 0
164 193 0
186 204 0
15 33 0
61 93 0
170 196 0
183 203 0
181 201 0
194 208 0
153 175 0
166 194 0
181 201 0
184 203 0
184 203 0
166 193 0
176 199 0
177 199 0
163 192 0
177 199 0
63 94 0
170 195 0
176 199 0
167 194 0
173 197 0
172 197 0
184 203 0
49 79 0
165 193 0
170 196 0
187 205 0
174 198 0
50 65 0
162 191 0
163 192 0
48 78 0
165 193 0
47 63 0
191 207 0
177 199 0
165 193 0
50 80 0
175 198 0
170 195 0
162 191 0
169 195 0
177 199 0
168 194 0
185 204 0
182 202 0
186 204 0
50 79 0
172 161 0
180 201 0
171 196 0
181 202 0
175 198 0
168 194 0
181 201 0
187 205 0
46 77 0
18 10 0
168 195 0
174 198 0
165 193 0
7 6 0
171 196 0
190 206 0
176 199 0
163 192 0
174 197 0
174 198 0
166 193 0
49 79 0
170 196 0
4 13 0
187 205 0
183 202 0
167 194 0
164 193 0
169 195 0
183 202 0
183 202 0
169 195 0
178 199 0
174 198 0
54 83 0
164 192 0
164 192 0
172 196 0
50 79 0
185 203 0
177 199 0
48 64 0
190 206 0
130 132 0
171 196 0
182 202 0
46 77 0
176 199 0
164 192 0
19 10 0
156 153 0
174 198 0
170 195 0
165 193 0
161 179 0
178 200 0
187 205 0
48 78 0
58 91 0
50 80 0
177 199 0
194 208 0
162 192 0
162 191 0
183 203 0
63 95 0
52 81 0
165 193 0
189 206 0
53 82 0
158 154 0
183 203 0
132 133 0
178 199 0
137 136 0
141 113 0
186 204 0
178 164 0
163 192 0
163 192 0
164 192 0
52 81 0
168 194 0
165 193 0
189 206 0
172 196 0
182 202 0
189 206 0
175 198 0
151 151 0
178 164 0
156 145 0
152 151 0
163 157 0
164 193 0
187 205 0
59 91 0
162 191 0
165 193 0
47 67 0
187 205 0
134 135 0
162 192 0
196 210 0
177 199 0
189 205 0
166 193 0
183 203 0
174 198 0
52 81 0
173 161 0
174 198 0
45 76 0
187 205 0
37 5 0
176 199 0
137 136 0
157 178 0
139 137 0
198 211 0
181 201 0
165 193 0
169 195 0
192 207 0
188 205 0
169 195 0
168 195 0
7 0 0
177 199 0
166 158 0
112 67 0
169 195 0
178 164 0
187 205 0
131 115 0
178 200 0
45 62 0
170 195 0
134 134 0
191 207 0
54 87 0
14 31 0
170 160 0
111 95 0
149 122 0
178 163 0
173 197 0
185 204 0
173 197 0
173 197 0
176 198 0
139 137 0
178 164 0
176 199 0
182 202 0
178 200 0
155 144 0
164 193 0
188 205 0
165 193 0
192 207 0
180 201 0
169 195 0
183 202 0
181 201 0
166 193 0
184 203 0
164 193 0
189 205 0
182 202 0
171 196 0
175 198 0
181 201 0
147 172 0
181 202 0
188 205 0
170 195 0
173 197 0
156 177 0
184 203 0
166 193 0
175 198 0
172 197 0
62 94 0
172 196 0
184 203 0
197 210 0
163 192 0
176 198 0
164 192 0
168 194 0
181 202 0
183 202 0
154 176 0
178 200 0
172 197 0
192 207 0
163 192 0
185 204 0
189 206 0
181 201 0
50 79 0
169 195 0
171 196 0
187 205 0
14 32 0
166 194 0
169 195 0
63 95 0
162 191 0
199 211 0
161 191 0
164 192 0
47 77 0
63 94 0
183 203 0
13 31 0
167 194 0
170 196 0
183 202 0
172 197 0
167 194 0
50 80 0
62 94 0
166 193 0
194 209 0
165 193 0
58 90 0
175 198 0
166 193 0
177 199 0
185 204 0
162 191 0
13 31 0
164 193 0
174 198 0
162 191 0
168 194 0
172 196 0
163 192 0
169 195 0
49 79 0
163 192 0
188 205 0
179 200 0
167 194 0
165 193 0
46 77 0
165 193 0
148 173 0
180 201 0
180 201 0
63 94 0
163 192 0
174 198 0
177 199 0
173 197 0
55 89 0
173 197 0
170 195 0
178 200 0
48 73 0
167 194 0
178 200 0
173 161 0
164 193 0
54 88 0
43 60 0
166 193 0
168 195 0
174 197 0
173 197 0
192 207 0
169 195 0
177 199 0
167 194 0
51 85 0
157 178 0
182 202 0
53 87 0
190 206 0
167 194 0
184 203 0
168 194 0
163 192 0
46 77 0
166 194 0
186 204 0
15 32 0
171 196 0
169 195 0
185 203 0
163 192 0
170 195 0
48 78 0
173 197 0
189 206 0
168 195 0
171 196 0
171 196 0
181 201 0
48 78 0
172 197 0
164 193 0
176 199 0
162 192 0
165 193 0
47 77 0
184 203 0
13 23 0
167 194 0
165 193 0
170 195 0
62 94 0
168 194 0
63 95 0
162 191 0
177 199 0
177 199 0
184 203 0
166 193 0
104 75 0
15 33 0
175 198 0
52 81 0
159 178 0
47 78 0
47 78 0
167 194 0
168 194 0
163 192 0
165 193 0
177 199 0
168 194 0
38 38 0
57 90 0
177 199 0
174 198 0
163 192 0
163 192 0
165 193 0
179 200 0
168 195 0
176 199 0
60 92 0
52 81 0
175 198 0
50 79 0
179 200 0
52 81 0
176 198 0
170 196 0
168 194 0
16 35 0
166 194 0
182 202 0
117 97 0
162 191 0
168 194 0
166 193 0
193 208 0
170 195 0
163 192 0
177 199 0
183 202 0
165 193 0
164 193 0
47 63 0
58 91 0
188 205 0
181 202 0
165 193 0
55 88 0
176 199 0
163 192 0
193 208 0
12 24 0
171 196 0
177 199 0
173 197 0
17 37 0
48 78 0
178 200 0
165 193 0
0 0 0
162 192 0
168 194 0
162 191 0
84 48 0
49 79 0
189 206 0
60 92 0
163 192 0
168 194 0
185 203 0
168 194 0
163 192 0
165 157 0
150 150 0
190 206 0
16 36 0
166 193 0
54 88 0
174 198 0
171 196 0
183 202 0
165 193 0
168 194 0
164 193 0
136 135 0
165 193 0
170 195 0
194 209 0
180 201 0
39 55 0
114 78 0
172 196 0
162 191 0
59 92 0
164 192 0
172 196 0
168 194 0
173 197 0
175 198 0
178 200 0
162 191 0
196 210 0
175 198 0
173 197 0
166 194 0
167 194 0
17 37 0
195 209 0
167 194 0
121 104 0
169 195 0
177 199 0
60 92 0
174 162 0
171 196 0
162 191 0
165 193 0
172 197 0
49 65 0
169 195 0
178 200 0
163 192 0
47 77 0
50 79 0
164 193 0
45 76 0
167 194 0
162 191 0
178 163 0
175 198 0
184 203 0
137 118 0
130 133 0
162 191 0
165 193 0
50 80 0
155 153 0
2 4 0
193 208 0
189 206 0
167 194 0
167 194 0
174 198 0
169 195 0
164 193 0
162 191 0
137 136 0
162 192 0
169 195 0
173 197 0
165 193 0
168 194 0
172 161 0
170 196 0
165 193 0
162 191 0
200 212 0
132 133 0
166 193 0
187 205 0
172 197 0
48 78 0
171 196 0
178 200 0
174 198 0
169 195 0
183 202 0
168 195 0
165 193 0
166 194 0
189 206 0
178 200 0
138 136 0
156 153 0
42 60 0
172 196 0
46 76 0
164 192 0
175 198 0
185 204 0
178 200 0
173 197 0
173 197 0
164 193 0
178 200 0
49 79 0
168 194 0
50 80 0
176 199 0
163 192 0
18 32 0
187 204 0
178 200 0
183 202 0
189 206 0
10 16 0
191 207 0
165 193 0
188 205 0
164 192 0
174 197 0
173 197 0
181 202 0
150 142 0
193 208 0
181 201 0
187 205 0
9 16 0
170 196 0
173 161 0
162 191 0
139 137 0
173 197 0
162 156 0
12 30 0
178 200 0
184 203 0
156 153 0
183 202 0
171 196 0
188 205 0
176 199 0
183 202 0
171 196 0
185 204 0
165 193 0
171 196 0
166 193 0
156 145 0
134 110 0
163 192 0
194 208 0
