P3
100 56
255
220 235 255
220 235 255
220 235 255
220 235 255
220 235 255
220 235 255
220 235 255
220 235 255
220 235 255
220 235 255
220 235 255
220 235 255
220 235 255
220 235 255
220 235 255
220 235 255
220 235 255
220 235 255
220 235 255
220 235 255
220 235 255
220 235 255
220 235 255
220 235 255
220 235 255
220 235 255
220 235 255
220 235 255
220 235 255
220 235 255
220 235 255
220 235 255
220 235 255
220 235 255
220 235 255
220 235 255
220 235 255
220 235 255
220 235 255
220 235 255
220 235 255
220 235 255
220 235 255
220 235 255
220 235 255
220 235 255
220 235 255
220 235 255
220 235 255
220 235 255
220 235 255
220 235 255
220 235 255
220 235 255
220 235 255
220 235 255
220 235 255
220 235 255
220 235 255
220 235 255
220 235 255
220 235 255
220 235 255
220 235 255
220 235 255
220 235 255
220 235 255
220 235 255
220 235 255
220 235 255
220 235 255
220 235 255
220 235 255
220 235 255
220 235 255
220 235 255
220 235 255
220 235 255
220 235 255
220 235 255
220 235 255
220 235 255
220 235 255
220 235 255
220 235 255
220 235 255
220 235 255
220 235 255
220 235 255
220 235 255
220 235 255
220 235 255
220 235 255
220 235 255
220 235 255
220 235 255
220 235 255
220 235 255
220 235 255
220 235 255
221 235 255
221 235 255
221 235 255
221 235 255
221 235 255
221 235 255
221 235 255
221 235 255
221 235 255
221 235 255
221 235 255
221 235 255
221 235 255
221 235 255
221 235 255
221 235 255
221 235 255
221 235 255
221 235 255
221 235 255
221 235 255
221 235 255
221 235 255
221 235 255
221 235 255
221 235 255
221 235 255
221 235 255
221 235 255
221 235 255
221 235 255
221 235 255
221 235 255
221 235 255
221 235 255
221 235 255
221 235 255
221 235 255
221 235 255
221 235 255
221 235 255
221 235 255
221 235 255
221 235 255
221 235 255
221 235 255
221 235 255
221 235 255
221 235 255
221 235 255
221 235 255
221 235 255
221 235 255
221 235 255
221 235 255
221 235 255
221 235 255
221 235 255
221 235 255
221 235 255
221 235 255
221 235 255
221 235 255
221 235 255
221 235 255
221 235 255
221 235 255
221 235 255
221 235 255
221 235 255
221 235 255
221 235 255
221 235 255
221 235 255
221 235 255
221 235 255
221 235 255
221 235 255
221 235 255
221 235 255
221 235 255
221 235 255
221 235 255
221 235 255
221 235 255
221 235 255
221 235 255
221 235 255
221 235 255
221 235 255
221 235 255
221 235 255
221 235 255
221 235 255
221 235 255
221 235 255
221 235 255
221 235 255
221 235 255
221 235 255
221 235 255
221 235 255
221 235 255
221 235 255
221 235 255
221 235 255
221 235 255
221 235 255
221 235 255
221 235 255
221 235 255
221 235 255
221 235 255
221 235 255
221 235 255
221 235 255
221 235 255
221 235 255
221 235 255
221 235 255
221 235 255
221 235 255
221 235 255
221 235 255
221 235 255
221 235 255
221 235 255
221 235 255
221 235 255
221 235 255
221 235 255
221 235 255
221 235 255
221 235 255
221 235 255
221 235 255
221 235 255
221 235 255
221 235 255
221 235 255
221 235 255
221 235 255
221 235 255
221 235 255
221 235 255
221 235 255
221 235 255
221 235 255
221 235 255
221 235 255
221 235 255
221 235 255
221 235 255
221 235 255
221 235 255
221 235 255
221 235 255
221 235 255
221 235 255
221 235 255
221 235 255
221 235 255
221 235 255
221 235 255
221 235 255
221 235 255
221 235 255
221 235 255
221 235 255
221 235 255
221 235 255
221 235 255
221 235 255
221 235 255
221 235 255
221 235 255
221 235 255
221 235 255
221 235 255
221 235 255
221 235 255
221 235 255
221 235 255
221 235 255
221 235 255
221 235 255
221 235 255
221 235 255
221 235 255
221 235 255
221 235 255
221 235 255
221 235 255
221 235 255
221 235 255
221 235 255
221 235 255
221 235 255
221 235 255
221 235 255
221 235 255
221 235 255
221 235 255
221 235 255
221 235 255
221 235 255
221 235 255
221 235 255
221 235 255
221 235 255
221 235 255
221 235 255
221 235 255
221 235 255
221 235 255
221 235 255
221 235 255
221 235 255
221 235 255
221 235 255
221 235 255
221 235 255
221 235 255
221 235 255
221 235 255
221 235 255
221 235 255
221 235 255
221 235 255
221 235 255
221 235 255
221 235 255
221 235 255
221 235 255
221 235 255
221 235 255
221 235 255
221 235 255
221 235 255
221 235 255
221 235 255
221 235 255
221 235 255
221 235 255
221 235 255
221 235 255
221 235 255
221 235 255
221 235 255
221 235 255
221 235 255
221 235 255
221 235 255
221 235 255
221 235 255
221 235 255
221 235 255
221 235 255
221 235 255
221 235 255
221 235 255
221 235 255
221 235 255
221 235 255
221 235 255
221 235 255
221 235 255
221 235 255
221 235 255
221 235 255
221 235 255
221 235 255
221 235 255
221 235 255
221 235 255
221 235 255
221 235 255
221 235 255
221 235 255
221 235 255
221 235 255
221 235 255
221 235 255
221 235 255
221 235 255
221 235 255
221 235 255
221 235 255
221 235 255
221 235 255
221 235 255
221 235 255
221 235 255
221 235 255
221 235 255
221 235 255
221 235 255
221 235 255
221 235 255
221 235 255
221 236 255
221 236 255
221 236 255
221 236 255
221 236 255
221 236 255
221 236 255
221 236 255
221 236 255
221 236 255
221 236 255
221 236 255
221 236 255
221 236 255
221 236 255
221 236 255
221 236 255
221 236 255
221 236 255
221 236 255
221 236 255
221 236 255
221 236 255
221 236 255
221 236 255
221 236 255
221 236 255
221 236 255
221 236 255
221 236 255
221 236 255
221 236 255
221 236 255
221 236 255
221 236 255
221 236 255
221 236 255
221 236 255
198 205 218
171 168 173
150 138 135
169 167 173
177 179 188
189 193 204
189 193 204
221 236 255
199 215 236
209 226 249
169 183 207
186 200 221
163 176 199
201 215 236
169 185 206
219 234 255
221 236 255
221 236 255
221 236 255
221 236 255
221 236 255
221 236 255
218 231 249
205 214 228
190 197 206
184 190 198
181 188 198
183 189 198
184 190 198
183 189 198
200 209 221
221 236 255
221 236 255
221 236 255
221 236 255
221 236 255
221 236 255
221 236 255
221 236 255
221 236 255
221 236 255
221 236 255
221 236 255
221 236 255
221 236 255
221 236 255
221 236 255
221 236 255
221 236 255
221 236 255
221 236 255
221 236 255
221 236 255
221 236 255
221 236 255
221 236 255
221 236 255
221 236 255
221 236 255
221 236 255
221 236 255
221 236 255
222 236 255
221 236 255
221 236 255
221 236 255
221 236 255
221 236 255
221 236 255
221 236 255
221 236 255
221 236 255
222 236 255
222 236 255
221 236 255
222 236 255
221 236 255
222 236 255
222 236 255
221 236 255
221 236 255
221 236 255
222 236 255
222 236 255
222 236 255
221 236 255
222 236 255
222 236 255
222 236 255
221 236 255
222 236 255
222 236 255
222 236 255
222 236 255
221 236 255
222 236 255
221 236 255
222 236 255
213 226 244
153 151 152
131 116 108
125 99 80
129 101 80
122 98 80
125 97 77
119 94 76
118 104 93
179 194 215
112 90 106
117 52 76
118 8 57
142 111 137
126 139 163
129 142 162
125 141 163
140 157 181
152 165 188
205 221 242
221 236 255
221 236 255
210 220 236
195 203 214
168 174 181
167 173 181
166 173 181
162 171 181
162 171 181
162 171 181
163 171 181
163 171 181
166 172 181
166 173 181
179 183 189
209 220 236
213 225 242
221 236 255
222 236 255
221 236 255
222 236 255
221 236 255
222 236 255
221 236 255
221 236 255
222 236 255
221 236 255
222 236 255
221 236 255
221 236 255
221 236 255
221 236 255
221 236 255
221 236 255
221 236 255
222 236 255
222 236 255
221 236 255
221 236 255
221 236 255
222 236 255
221 236 255
222 236 255
222 236 255
222 236 255
222 236 255
222 236 255
222 236 255
222 236 255
222 236 255
222 236 255
222 236 255
222 236 255
222 236 255
222 236 255
222 236 255
222 236 255
222 236 255
222 236 255
222 236 255
222 236 255
222 236 255
222 236 255
222 236 255
222 236 255
222 236 255
222 236 255
222 236 255
222 236 255
222 236 255
222 236 255
222 236 255
222 236 255
222 236 255
222 236 255
222 236 255
222 236 255
222 236 255
222 236 255
178 179 188
136 120 111
125 99 80
127 100 80
125 96 78
119 93 76
108 87 72
157 148 154
138 147 158
119 120 143
130 62 78
124 84 111
134 110 135
116 111 132
129 147 171
119 128 143
108 113 133
137 156 181
118 130 148
150 171 198
135 150 171
188 199 221
174 176 181
168 174 181
164 172 181
161 170 181
160 170 181
158 169 181
157 168 181
156 168 181
156 168 181
156 168 181
157 168 181
159 169 181
161 170 181
163 171 181
168 174 181
170 175 181
191 197 206
218 231 249
222 236 255
222 236 255
222 236 255
222 236 255
222 236 255
222 236 255
222 236 255
222 236 255
222 236 255
222 236 255
222 236 255
222 236 255
222 236 255
222 236 255
222 236 255
222 236 255
222 236 255
222 236 255
222 236 255
222 236 255
222 236 255
222 236 255
222 236 255
222 236 255
222 236 255
222 236 255
222 236 255
222 236 255
222 236 255
222 236 255
222 236 255
222 236 255
222 236 255
222 236 255
222 236 255
222 236 255
222 236 255
222 236 255
222 236 255
222 236 255
222 236 255
222 236 255
222 236 255
222 236 255
222 236 255
222 236 255
222 236 255
222 236 255
222 236 255
222 236 255
222 236 255
222 236 255
222 236 255
222 236 255
222 236 255
222 236 255
222 236 255
222 236 255
222 236 255
190 193 204
120 92 77
119 94 79
120 96 78
119 93 74
111 93 74
120 95 76
125 121 128
168 184 206
150 171 198
140 150 172
133 142 166
129 148 172
129 141 163
121 135 160
105 120 143
106 118 138
107 117 140
121 134 153
131 133 163
133 149 174
163 166 172
172 176 181
166 172 181
161 170 181
160 170 181
157 168 181
155 168 181
155 167 181
154 167 181
153 167 181
153 166 181
154 167 181
154 167 181
155 167 181
157 168 181
158 169 181
161 170 181
165 172 181
169 174 181
174 177 181
206 215 228
222 236 255
222 236 255
222 236 255
222 236 255
222 236 255
222 236 255
222 236 255
222 236 255
222 236 255
222 236 255
222 236 255
222 236 255
222 236 255
222 236 255
222 236 255
222 236 255
222 236 255
222 236 255
222 236 255
222 236 255
222 236 255
222 236 255
222 236 255
222 236 255
222 236 255
222 236 255
222 236 255
222 236 255
222 236 255
222 236 255
222 236 255
222 236 255
222 236 255
222 236 255
222 236 255
222 236 255
222 236 255
222 236 255
222 236 255
222 236 255
222 236 255
222 236 255
222 236 255
222 236 255
222 236 255
222 236 255
222 236 255
222 236 255
222 236 255
222 236 255
222 236 255
222 236 255
222 236 255
222 236 255
222 236 255
222 236 255
222 236 255
222 236 255
136 119 110
125 98 78
119 94 76
128 101 80
120 93 75
120 95 76
146 140 143
122 138 163
131 149 172
127 146 171
130 148 171
133 149 171
123 140 166
102 107 122
76 85 106
89 99 118
85 97 118
61 68 90
119 138 162
120 132 153
167 168 171
171 175 181
165 172 181
161 170 181
159 169 181
157 168 181
155 167 181
154 167 181
153 166 181
152 166 181
152 166 181
151 166 181
152 166 181
152 166 181
153 166 181
154 167 181
156 168 181
158 169 181
160 170 181
164 172 181
168 173 181
172 176 181
201 209 221
222 236 255
222 236 255
222 236 255
222 236 255
222 236 255
222 236 255
222 236 255
222 236 255
222 236 255
222 236 255
222 236 255
222 236 255
222 236 255
222 236 255
222 236 255
222 236 255
222 236 255
222 236 255
222 236 255
222 236 255
222 236 255
222 236 255
222 236 255
222 236 255
222 236 255
222 236 255
222 236 255
222 236 255
222 236 255
222 236 255
222 236 255
222 236 255
222 236 255
222 236 255
222 236 255
222 236 255
222 236 255
222 236 255
222 236 255
222 236 255
222 236 255
222 236 255
222 236 255
222 236 255
222 236 255
222 236 255
222 236 255
222 236 255
222 236 255
222 236 255
222 236 255
222 236 255
222 236 255
222 236 255
222 236 255
215 226 244
177 179 188
117 93 75
103 77 64
120 95 76
109 88 70
114 91 72
112 87 69
148 162 182
100 113 129
144 160 181
134 152 176
117 131 165
81 88 112
89 91 134
86 97 120
67 60 86
29 5 76
29 6 76
32 6 83
94 94 112
177 178 181
170 175 181
165 172 181
163 171 181
160 170 181
157 168 181
156 168 181
154 167 181
153 166 181
152 166 181
151 166 181
151 165 181
151 165 181
151 166 181
152 166 181
152 166 181
153 167 181
155 167 181
156 168 181
159 169 181
161 170 181
164 172 181
168 174 181
173 176 181
197 204 214
222 236 255
222 236 255
222 236 255
222 236 255
222 236 255
222 236 255
222 236 255
222 236 255
222 236 255
222 236 255
222 236 255
222 236 255
222 236 255
222 236 255
222 236 255
222 236 255
222 236 255
222 236 255
222 236 255
222 236 255
222 236 255
222 236 255
223 236 255
223 236 255
223 236 255
223 236 255
223 236 255
223 236 255
223 236 255
223 236 255
223 236 255
223 236 255
223 236 255
223 236 255
223 236 255
223 236 255
223 236 255
223 236 255
223 236 255
223 236 255
223 236 255
223 236 255
223 236 255
223 236 255
223 236 255
223 236 255
223 236 255
223 236 255
223 236 255
223 236 255
223 236 255
223 236 255
223 236 255
223 236 255
223 236 255
125 98 77
98 81 61
102 79 64
118 90 71
112 91 73
127 100 80
141 141 149
126 143 158
130 146 164
137 149 176
120 133 161
96 93 151
94 83 162
54 36 110
103 114 129
99 110 137
30 6 81
42 23 84
77 75 111
148 149 156
171 175 181
168 174 181
164 172 181
162 171 181
159 169 181
157 168 181
155 168 181
154 167 181
153 166 181
152 166 181
152 166 181
152 166 181
151 166 181
152 166 181
152 166 181
153 166 181
154 167 181
155 167 181
156 168 181
158 169 181
160 170 181
163 171 181
166 173 181
169 174 181
175 177 181
199 205 214
223 236 255
223 236 255
223 236 255
223 236 255
223 236 255
223 236 255
223 236 255
223 236 255
223 236 255
223 236 255
223 236 255
223 236 255
223 236 255
223 236 255
223 236 255
223 236 255
223 236 255
223 236 255
223 236 255
223 236 255
223 236 255
223 236 255
223 236 255
223 236 255
223 236 255
223 236 255
223 236 255
223 236 255
223 236 255
223 236 255
223 236 255
223 236 255
223 236 255
223 236 255
223 236 255
223 236 255
223 236 255
223 236 255
223 236 255
223 236 255
223 236 255
223 236 255
223 236 255
223 236 255
223 236 255
223 236 255
223 236 255
223 236 255
223 236 255
223 236 255
223 236 255
223 236 255
223 236 255
164 164 170
123 96 76
115 91 73
113 93 72
111 86 68
123 97 78
112 97 89
140 153 166
137 153 174
131 148 175
116 134 158
113 124 160
77 51 152
80 50 140
86 90 125
130 143 162
122 135 153
98 104 124
108 122 150
153 156 163
175 177 181
169 174 181
167 173 181
164 172 181
161 170 181
159 169 181
158 169 181
156 168 181
155 167 181
154 167 181
154 167 181
153 166 181
153 166 181
153 166 181
153 166 181
153 167 181
154 167 181
155 167 181
155 167 181
157 168 181
159 169 181
160 170 181
162 171 181
166 172 181
168 174 181
172 176 181
178 178 181
223 236 255
223 236 255
223 236 255
223 236 255
223 236 255
223 236 255
223 236 255
223 236 255
223 236 255
223 236 255
223 236 255
223 236 255
223 236 255
223 236 255
223 236 255
223 236 255
223 236 255
223 236 255
223 236 255
223 236 255
223 236 255
200 215 236
216 230 249
217 230 249
196 209 228
193 208 228
216 230 249
201 216 236
208 222 242
201 215 236
194 208 228
208 223 242
201 216 236
193 208 228
195 209 228
193 208 228
192 208 228
192 207 228
170 185 206
194 209 228
187 201 221
192 208 228
178 193 214
208 223 242
178 193 214
185 200 221
217 230 249
178 193 214
147 165 189
184 200 221
209 223 242
210 223 242
176 192 214
160 157 162
112 89 72
98 75 61
110 86 70
110 87 70
108 83 68
94 78 60
164 177 194
97 95 108
140 157 181
132 149 171
35 49 111
95 97 155
127 142 170
119 133 153
151 171 198
116 124 152
73 74 78
145 156 172
177 178 181
172 176 181
169 174 181
166 173 181
164 172 181
162 171 181
160 170 181
159 169 181
158 169 181
156 168 181
156 168 181
155 167 181
154 167 181
155 167 181
154 167 181
155 167 181
156 168 181
156 168 181
156 168 181
157 168 181
158 169 181
159 169 181
161 170 181
163 171 181
165 172 181
168 174 181
170 175 181
175 177 181
181 184 189
184 200 221
194 208 228
185 200 221
192 208 228
195 209 228
209 223 242
208 223 242
209 223 242
175 191 214
209 223 242
201 216 236
216 230 249
216 230 249
217 230 249
203 217 236
208 222 242
208 223 242
209 223 242
223 237 255
202 216 236
147 165 189
142 159 181
138 156 181
137 156 181
161 177 198
139 157 181
148 166 189
136 155 181
134 155 181
159 175 198
149 166 189
140 158 181
138 156 181
138 156 181
141 158 181
148 166 189
140 157 181
160 176 198
135 155 181
141 158 181
136 155 181
138 156 181
139 157 181
139 157 181
138 157 181
153 168 189
137 156 181
135 155 181
137 156 181
137 156 181
136 156 181
140 158 181
118 106 103
90 72 63
110 87 70
108 84 68
100 78 64
113 88 70
101 105 99
154 163 183
119 131 150
131 155 160
63 86 133
72 90 153
126 144 169
142 163 189
142 160 183
127 136 157
115 108 157
89 101 124
180 180 181
176 178 181
172 176 181
170 174 181
167 173 181
165 172 181
163 171 181
162 171 181
161 170 181
160 170 181
159 169 181
158 169 181
158 169 181
157 168 181
157 168 181
157 168 181
157 168 181
157 168 181
158 169 181
158 169 181
159 169 181
160 170 181
161 170 181
163 171 181
164 172 181
166 173 181
168 174 181
171 175 181
174 176 181
178 179 181
153 164 181
137 156 181
137 156 181
153 169 189
136 156 181
137 156 181
139 157 181
148 166 189
138 156 181
136 156 181
138 156 181
143 159 181
137 156 181
136 155 181
143 170 186
152 168 189
143 163 194
146 165 189
136 155 181
136 155 181
139 157 181
135 155 181
135 155 181
134 154 181
139 157 181
138 157 181
140 157 181
135 155 181
137 156 181
140 157 181
141 158 181
138 157 181
137 156 181
137 156 181
138 156 181
136 156 181
139 157 181
134 155 181
137 156 181
140 148 174
140 158 181
137 156 181
136 155 181
139 157 181
141 158 181
137 156 181
140 157 181
139 157 181
131 151 173
133 151 173
139 157 181
140 157 181
128 133 146
91 73 59
96 75 60
94 74 58
102 83 62
106 84 65
138 161 159
151 160 181
144 141 151
150 184 182
124 172 100
65 95 134
128 146 170
127 147 171
84 87 105
130 141 171
118 95 159
85 54 111
178 179 181
175 177 181
172 176 181
170 175 181
168 174 181
166 173 181
165 172 181
164 172 181
163 171 181
162 170 181
161 170 181
161 170 181
160 170 181
160 170 181
160 170 181
159 169 181
160 169 181
160 170 181
160 170 181
161 170 181
162 171 181
163 171 181
163 171 181
164 172 181
166 172 181
167 173 181
169 174 181
171 175 181
174 177 181
177 178 181
174 176 181
146 165 189
133 154 181
140 157 181
137 158 174
130 159 160
137 156 181
141 158 181
108 155 152
83 164 131
124 146 165
118 125 159
117 152 168
83 190 145
121 166 165
122 144 182
103 131 174
97 128 178
112 137 153
130 146 166
143 140 185
137 156 181
126 147 174
130 151 177
137 156 181
134 154 181
132 153 181
137 156 181
142 159 181
130 143 165
117 102 122
125 119 140
137 156 181
136 155 181
137 156 181
136 155 181
138 157 181
134 154 181
140 139 165
154 90 128
151 82 120
136 139 164
114 120 140
121 125 139
135 150 171
139 154 176
137 156 181
139 157 181
110 133 146
61 95 85
131 150 166
138 156 181
130 135 148
105 83 67
103 79 63
83 65 51
101 80 63
103 80 66
133 141 143
127 120 134
135 140 188
141 152 171
96 131 151
109 157 199
117 145 172
66 87 115
88 77 96
102 118 131
72 95 90
164 171 165
179 179 181
176 178 181
174 177 181
172 176 181
170 175 181
169 174 181
167 173 181
166 173 181
166 173 181
165 172 181
163 171 181
164 172 181
163 171 181
162 171 181
162 171 181
162 171 181
162 171 181
163 171 181
163 171 181
164 172 181
164 172 181
165 172 181
166 173 181
167 173 181
168 174 181
168 174 181
171 175 181
173 176 181
175 177 181
177 178 181
182 181 181
142 155 168
143 162 185
137 156 181
121 157 142
102 147 79
100 151 102
75 141 86
61 144 86
40 140 86
91 125 106
117 99 110
84 113 125
47 163 109
85 161 134
115 119 130
74 79 77
23 92 91
71 66 73
90 64 84
153 26 189
144 149 182
80 105 135
109 139 152
114 144 159
133 162 162
131 171 140
136 165 162
135 155 181
122 127 152
101 77 91
121 123 147
127 146 174
137 156 181
124 149 162
91 135 118
129 152 172
141 158 181
120 132 165
85 72 125
118 60 110
124 121 147
98 95 105
101 107 98
112 111 105
136 148 163
132 135 151
118 117 128
85 94 76
56 88 85
113 132 153
163 178 209
136 147 165
100 83 63
85 64 51
108 86 69
102 83 65
108 84 68
194 199 218
202 222 236
171 182 203
134 159 179
193 207 222
141 167 159
144 167 190
155 169 187
85 94 99
105 117 119
119 123 133
183 182 181
180 180 181
177 178 181
176 178 181
173 176 181
172 176 181
171 175 181
170 175 181
169 174 181
168 174 181
167 173 181
167 173 181
167 173 181
166 173 181
166 172 181
165 172 181
166 173 181
166 173 181
166 173 181
166 173 181
167 173 181
167 173 181
168 174 181
168 174 181
170 175 181
171 175 181
171 175 181
173 176 181
174 177 181
176 178 181
178 179 181
181 180 181
153 158 161
111 138 159
140 162 192
86 124 83
65 104 53
40 113 39
44 110 86
38 90 103
69 109 66
97 97 65
119 66 114
110 47 123
95 86 116
125 140 162
121 136 163
140 184 237
115 147 188
78 23 49
77 23 49
187 208 245
185 206 245
88 149 128
60 157 87
43 158 60
111 172 84
122 173 78
118 159 100
150 204 208
149 204 218
106 105 117
157 166 190
191 207 230
174 187 211
29 101 33
31 110 36
38 98 29
96 138 60
93 147 70
65 61 103
69 70 103
128 140 166
86 93 107
99 98 90
103 97 88
108 114 120
129 122 123
77 124 119
41 130 137
106 132 157
141 156 183
167 172 210
171 173 205
123 118 126
102 81 64
98 77 60
97 71 58
102 78 63
175 190 206
220 235 255
220 235 255
212 225 247
214 229 249
208 222 243
221 235 255
209 223 242
221 235 255
211 224 245
212 225 242
182 181 181
180 180 181
179 179 181
177 178 181
176 178 181
175 177 181
174 176 181
173 176 181
172 176 181
172 175 181
171 175 181
169 174 181
169 174 181
169 174 181
169 174 181
169 174 181
169 174 181
169 174 181
169 174 181
170 175 181
170 174 181
171 175 181
171 175 181
172 175 181
172 175 181
173 176 181
174 176 181
175 177 181
176 178 181
178 179 181
179 179 181
182 181 181
182 183 188
157 186 245
166 191 234
104 128 135
113 138 143
85 111 121
29 34 90
52 58 93
112 121 109
105 113 95
100 78 101
122 51 134
96 62 112
123 139 164
107 130 147
95 117 128
98 114 137
114 73 93
76 57 72
153 176 208
130 161 209
45 103 170
40 100 148
59 160 94
108 173 140
140 177 194
143 181 175
149 200 205
134 178 187
123 174 170
128 142 163
154 175 202
125 150 167
26 94 30
43 106 34
85 76 26
86 77 27
81 109 118
71 106 75
78 77 114
109 127 147
103 112 128
97 101 106
115 125 140
132 150 174
102 105 122
116 146 167
37 95 120
37 103 120
63 134 91
83 120 102
114 125 141
118 136 157
89 69 54
78 63 51
79 64 52
90 70 58
170 180 198
195 213 235
206 225 243
218 234 255
218 234 255
219 234 255
219 234 255
219 234 255
220 235 255
220 235 255
205 216 232
184 182 181
182 181 181
181 180 181
179 179 181
178 179 181
177 178 181
177 178 181
176 178 181
175 177 181
175 177 181
174 177 181
173 176 181
173 176 181
173 176 181
172 176 181
172 176 181
173 176 181
173 176 181
172 176 181
173 176 181
172 176 181
174 176 181
174 177 181
175 177 181
175 177 181
175 177 181
176 178 181
177 178 181
178 179 181
179 179 181
181 180 181
183 181 181
176 173 172
76 94 153
130 143 176
119 140 162
130 149 172
114 134 156
64 75 112
86 97 110
124 138 162
118 135 157
103 86 112
89 15 52
99 53 81
143 159 176
59 86 90
74 100 117
153 54 74
166 38 67
138 56 64
125 149 170
44 94 166
29 64 117
35 76 141
77 138 125
140 165 159
168 148 193
165 170 219
102 131 136
96 138 143
108 141 141
125 143 167
136 155 181
138 156 181
89 125 116
65 143 41
65 153 43
81 132 80
64 123 150
48 97 118
82 111 150
132 150 174
133 150 172
120 134 153
137 156 181
140 157 179
138 156 185
134 146 164
83 94 115
19 97 61
37 114 47
46 101 49
61 114 81
124 141 161
124 134 150
75 60 50
98 76 60
79 63 51
148 156 168
196 213 237
215 232 255
216 232 255
216 233 255
216 233 255
210 226 249
217 233 255
199 214 236
218 233 255
200 210 225
185 182 181
184 182 181
183 181 181
181 180 181
181 180 181
180 180 181
179 179 181
178 179 181
178 179 181
178 179 181
177 178 181
177 178 181
176 178 181
177 178 181
176 178 181
176 178 181
176 178 181
176 178 181
176 178 181
176 178 181
177 178 181
177 178 181
177 178 181
178 179 181
178 179 181
178 179 181
179 179 181
180 180 181
181 180 181
182 181 181
183 181 181
184 182 181
156 159 157
95 115 143
94 110 140
124 143 165
131 136 171
115 109 157
112 114 145
125 137 157
148 166 189
120 129 150
106 52 72
92 10 45
99 11 48
110 97 135
125 112 200
119 106 189
153 88 156
174 36 70
172 34 66
116 103 132
74 88 126
30 66 124
49 91 129
123 100 142
138 112 164
92 88 139
116 101 146
122 126 156
120 148 166
105 132 140
119 133 146
123 141 159
123 140 162
126 144 166
61 137 40
128 71 149
137 75 154
107 59 123
47 85 117
61 106 151
126 146 168
131 154 171
129 148 171
129 143 163
120 145 166
138 161 182
171 186 209
94 115 131
40 100 61
59 112 60
53 97 51
63 85 74
127 143 165
129 148 171
96 106 116
80 66 51
92 97 116
114 131 163
197 216 242
212 231 255
212 231 255
207 225 249
214 232 255
207 225 249
207 225 249
215 232 255
215 232 255
143 160 162
143 146 141
179 177 176
185 182 181
184 182 181
183 181 181
182 181 181
182 181 181
182 181 181
181 180 181
180 180 181
180 180 181
180 180 181
180 180 181
180 179 181
179 179 181
179 179 181
180 179 181
180 180 181
181 180 181
180 180 181
180 180 181
180 180 181
180 180 181
181 180 181
181 180 181
181 180 181
182 181 181
183 181 181
184 182 181
184 182 181
185 182 181
186 183 181
114 118 112
89 129 70
118 142 154
114 117 156
101 94 133
102 61 136
95 57 127
171 190 214
182 202 228
154 170 184
66 60 50
66 60 50
74 27 38
112 100 166
109 98 176
121 109 194
132 102 178
153 46 86
121 41 58
172 190 183
100 115 134
91 79 152
113 36 186
121 31 193
96 44 168
29 67 113
28 64 114
89 110 141
135 152 176
133 150 175
130 151 173
128 148 171
109 121 142
122 145 164
110 123 123
46 8 105
89 44 121
56 18 108
71 84 136
91 111 137
119 144 173
126 148 172
136 156 181
123 143 165
146 166 190
181 205 236
160 183 215
123 140 162
50 97 50
47 91 47
45 99 56
31 104 65
31 104 69
110 145 148
96 111 120
52 68 62
77 109 127
115 147 184
149 165 203
209 229 255
199 217 242
211 230 255
211 230 255
212 231 255
213 231 255
206 222 246
213 231 255
134 140 143
92 106 107
86 96 118
124 137 142
153 152 156
167 166 166
179 177 176
179 177 176
185 182 181
185 182 181
184 182 181
184 182 181
184 182 181
183 181 181
183 181 181
183 181 181
183 181 181
183 181 181
183 181 181
183 181 181
183 181 181
184 182 181
184 182 181
184 182 181
184 182 181
184 182 181
184 182 181
185 182 181
185 182 181
174 172 171
175 173 171
150 154 158
112 109 113
84 86 88
94 133 79
111 147 106
117 130 156
102 60 132
85 52 114
94 56 119
94 82 111
103 106 128
60 69 59
69 88 79
86 106 110
120 135 154
97 82 148
93 82 149
94 83 148
91 77 139
116 122 143
131 140 163
167 180 174
127 131 162
123 90 182
112 28 181
114 29 187
105 27 176
47 60 123
26 60 106
72 88 122
137 156 181
117 151 125
116 163 14
113 156 58
106 139 107
110 139 146
106 113 134
41 2 94
45 2 102
39 2 87
63 52 105
72 113 144
67 123 158
57 107 143
114 135 159
126 142 163
139 157 181
73 65 155
77 82 156
94 103 158
94 122 121
37 83 46
27 87 55
36 121 77
37 124 79
68 121 102
81 99 101
103 113 130
73 90 111
78 88 128
97 108 154
184 201 222
201 221 249
201 218 247
209 229 255
200 218 244
210 229 255
210 230 255
210 229 255
120 132 147
88 87 86
109 102 114
104 79 104
112 118 109
66 89 80
100 107 93
102 100 86
137 130 127
120 123 129
118 128 128
147 140 151
121 127 136
148 149 151
157 156 156
167 166 166
149 150 151
174 172 171
146 148 151
152 154 156
155 155 156
155 155 156
162 162 161
156 155 156
136 138 143
139 142 145
135 136 144
111 125 94
106 109 111
92 86 74
107 120 125
78 91 90
114 100 114
74 73 84
80 114 69
88 123 83
129 147 171
77 63 104
80 49 106
64 40 71
71 42 66
69 41 63
68 42 64
128 142 165
135 155 181
133 150 172
126 142 171
98 102 137
103 106 151
105 111 149
118 133 158
130 148 174
98 95 116
100 105 120
119 89 178
113 28 181
96 24 156
99 25 162
55 45 113
20 47 83
88 141 122
46 152 68
50 160 38
78 155 30
90 128 11
96 138 12
122 149 151
91 99 127
38 14 71
39 2 89
37 2 82
49 59 110
59 111 141
56 108 137
58 108 145
82 119 142
135 155 181
99 102 171
64 35 168
57 31 149
56 31 149
80 78 151
77 102 102
31 103 64
33 114 70
81 104 58
102 106 52
114 109 71
103 114 117
106 125 151
59 73 95
80 94 118
68 73 142
181 201 234
199 220 247
201 220 247
198 217 243
201 221 249
208 228 255
207 228 255
173 188 213
101 111 114
101 99 101
117 122 128
70 77 90
89 81 88
84 112 89
105 115 116
54 80 95
83 76 81
103 85 102
88 92 101
105 112 120
68 66 67
107 85 59
103 76 98
103 90 88
82 75 78
104 110 109
114 120 128
95 117 104
86 108 109
120 124 131
76 100 87
99 104 118
95 102 102
49 49 84
102 113 78
112 125 126
101 112 102
68 90 100
86 79 90
81 65 82
90 90 107
58 88 44
104 125 131
119 132 153
92 100 122
98 110 122
55 31 48
72 44 67
72 44 67
67 40 61
133 146 176
120 134 144
121 139 145
126 143 116
125 142 89
117 131 117
126 142 156
129 148 174
126 146 162
67 79 75
109 120 140
126 122 173
94 26 154
87 22 143
61 30 97
82 92 123
111 128 151
18 147 38
19 143 37
20 157 40
21 165 43
97 144 18
78 115 10
102 122 118
99 95 125
67 41 87
64 38 83
68 70 102
55 75 100
44 87 103
51 96 124
46 87 111
81 109 139
127 142 163
54 28 135
57 32 154
57 32 150
47 26 122
78 75 151
125 134 157
87 122 123
28 90 57
115 103 44
121 94 106
120 83 131
107 76 112
127 139 167
119 133 153
31 24 148
25 19 119
141 145 159
166 175 187
180 197 219
197 219 247
203 226 255
203 226 255
204 226 255
179 197 221
106 93 100
85 81 59
107 112 114
66 66 78
83 87 103
66 82 109
50 31 111
74 75 107
94 101 116
102 103 109
105 128 99
105 121 95
107 105 114
101 108 114
110 115 121
99 99 105
108 113 119
102 107 110
107 100 100
112 72 65
115 121 128
95 95 109
88 109 105
104 117 119
112 120 128
73 109 84
68 104 89
71 86 95
88 97 103
75 82 89
104 105 115
90 93 123
101 72 97
102 116 129
124 144 163
137 156 181
124 145 163
129 140 165
112 50 75
115 50 76
72 39 60
71 42 64
178 190 219
145 157 192
99 109 133
128 138 183
109 122 111
106 121 64
131 149 147
114 136 152
131 149 171
84 119 119
126 145 161
113 124 146
106 112 141
105 95 114
125 102 122
137 117 141
111 124 113
22 172 44
15 124 32
17 136 35
17 132 33
58 95 15
90 126 10
104 121 133
67 42 89
62 37 78
48 30 59
40 26 51
66 86 99
43 84 107
48 83 105
48 69 85
110 136 160
104 122 146
94 100 164
46 25 126
50 27 134
45 24 111
107 120 150
118 137 153
124 136 153
113 127 141
116 79 126
122 76 143
111 69 131
126 78 145
118 72 134
112 129 159
23 17 111
124 120 127
142 136 137
134 136 137
132 128 132
176 195 223
199 224 255
194 218 249
194 217 249
201 224 255
104 139 137
60 89 70
100 103 107
85 87 96
94 101 111
37 63 99
103 107 123
58 66 105
32 49 112
114 120 128
101 109 109
108 114 118
108 116 122
113 120 128
106 38 98
107 80 105
93 98 103
57 56 40
79 83 84
126 107 83
114 104 93
109 115 123
109 118 121
114 120 128
96 103 112
61 74 80
59 114 92
82 90 99
116 122 128
96 104 117
71 82 101
84 94 125
96 60 69
120 85 103
131 148 172
122 139 162
133 148 172
132 55 82
133 56 84
125 52 78
118 51 77
123 133 154
115 124 155
86 80 128
117 122 190
125 130 204
123 128 197
91 98 105
118 134 135
140 157 181
122 146 164
129 152 173
135 154 176
144 154 172
141 157 181
143 124 146
147 121 141
141 117 138
129 109 128
110 129 113
14 112 28
14 116 28
43 120 64
81 112 100
115 139 151
81 80 103
48 30 67
41 25 47
14 13 12
77 103 110
16 14 13
18 25 14
76 90 108
119 136 156
113 131 156
115 134 162
106 123 147
66 71 105
40 24 116
53 51 108
123 139 168
130 148 172
136 121 146
125 105 121
125 67 124
110 70 133
111 70 134
125 75 139
99 60 109
114 124 150
87 88 128
118 118 117
125 121 121
131 129 128
115 102 104
146 154 173
182 208 242
168 191 222
186 210 242
190 216 249
114 128 140
9 109 59
104 115 116
73 92 93
88 103 111
94 100 107
94 100 111
97 103 114
73 78 91
105 109 116
108 115 123
108 112 119
102 107 109
103 102 112
96 92 101
100 95 106
109 115 121
108 63 64
119 52 59
122 96 88
95 89 80
112 116 121
110 117 124
107 114 123
95 102 107
75 113 91
60 115 81
107 114 121
107 114 121
102 109 118
79 85 98
96 102 114
81 10 25
123 99 117
126 147 175
139 157 181
110 91 109
117 48 72
101 42 65
105 43 67
110 45 69
131 126 148
123 134 169
117 119 174
146 151 201
156 161 208
150 157 204
118 127 150
128 148 164
127 146 172
133 151 172
136 155 181
135 147 163
152 160 183
152 160 183
150 147 163
110 90 107
113 89 102
128 108 127
107 89 104
48 85 48
14 114 28
86 122 115
99 118 128
131 153 172
103 115 139
34 20 43
50 70 78
139 204 232
141 211 244
148 216 244
89 123 134
119 137 167
121 138 166
139 157 181
132 153 181
138 157 181
129 147 173
131 149 172
127 146 171
132 149 172
128 97 109
148 7 68
145 7 66
144 7 65
107 75 101
124 131 168
113 123 150
82 50 93
103 112 134
101 111 137
112 112 117
102 103 105
128 128 128
120 113 119
121 128 145
127 146 174
140 163 192
151 175 206
156 190 208
110 133 118
82 106 98
89 102 101
32 71 64
53 77 78
79 84 88
112 119 128
113 120 128
104 107 114
114 113 127
127 115 139
125 114 131
113 115 123
99 104 111
108 110 119
97 101 109
110 112 118
96 40 44
73 47 51
102 86 91
107 106 112
110 119 128
102 114 115
104 111 114
109 117 122
76 82 83
88 107 102
112 118 122
108 114 121
80 81 86
95 101 108
87 77 93
109 49 63
129 143 162
135 155 181
133 148 172
115 93 113
117 49 72
83 33 52
102 42 63
113 46 69
122 126 144
99 113 137
118 119 157
163 167 211
157 164 211
157 164 211
160 165 211
127 141 166
125 143 162
137 156 181
118 128 145
161 165 183
153 160 183
159 163 183
161 165 183
147 142 155
102 85 100
110 91 107
110 88 101
116 132 147
105 129 140
115 137 151
124 141 165
125 137 178
127 142 173
99 109 136
142 200 218
150 217 244
145 213 244
148 216 244
132 186 204
128 150 174
118 131 158
113 129 153
128 148 174
137 156 181
130 148 171
137 156 181
137 156 181
129 131 154
151 7 67
143 7 63
143 7 65
137 69 94
131 202 218
134 206 228
132 202 222
130 163 185
116 131 154
102 115 133
84 82 80
80 77 76
71 69 69
98 103 116
100 114 135
130 149 174
102 127 140
92 143 120
85 137 100
86 134 99
85 103 97
89 99 103
84 92 96
47 61 61
61 69 70
110 113 116
105 108 114
105 108 113
96 93 107
98 85 98
126 109 127
104 105 111
104 108 114
110 114 118
99 93 98
104 107 117
78 71 76
75 56 58
90 89 93
105 106 108
110 108 111
111 114 118
101 106 113
100 107 112
58 75 64
98 103 110
106 114 118
94 102 102
112 116 124
104 99 104
86 89 151
94 91 130
90 63 115
104 80 134
104 82 129
110 103 139
104 61 79
79 33 49
101 41 65
92 76 97
127 140 164
136 155 181
110 95 123
134 136 170
114 116 156
147 152 198
119 129 198
110 119 162
126 141 166
129 145 169
100 99 124
140 141 157
146 150 165
162 163 178
112 120 131
118 125 136
98 81 96
71 55 65
92 90 105
132 149 173
126 151 173
132 147 181
112 123 167
123 134 177
122 133 177
127 144 176
145 201 219
142 197 217
150 212 232
137 176 174
133 147 125
120 116 86
119 119 102
129 147 172
134 154 181
124 140 163
128 145 166
129 147 171
138 152 172
127 140 164
142 7 64
117 5 53
120 5 52
125 199 197
77 159 140
106 184 184
125 185 198
121 174 185
125 152 165
127 141 164
119 135 156
115 126 142
109 120 135
117 132 152
130 148 172
117 132 153
84 131 95
92 146 106
90 140 100
88 142 103
82 105 91
100 110 115
96 103 109
94 98 101
93 96 99
74 81 82
111 117 124
101 105 110
94 95 105
68 59 70
69 59 71
109 110 118
105 105 111
109 111 115
108 114 121
108 114 121
102 101 103
110 112 119
89 92 97
109 113 121
105 108 113
107 108 110
119 125 131
105 114 120
91 98 114
51 50 118
65 65 111
103 107 111
68 56 61
66 73 111
16 55 150
69 40 103
85 41 103
81 40 102
90 45 114
88 44 109
97 79 122
92 101 118
87 88 105
91 98 118
98 95 117
135 155 181
104 116 138
99 101 129
97 109 162
101 120 190
101 125 202
110 133 210
109 128 174
127 145 172
93 101 131
78 76 99
100 104 119
100 104 120
94 98 111
93 96 111
107 110 125
112 124 143
118 132 153
126 141 162
128 147 173
122 134 181
130 141 186
106 109 145
106 115 152
126 136 181
116 140 178
98 141 166
101 120 116
116 103 32
127 111 34
118 107 33
119 106 33
114 111 85
113 129 151
141 158 181
122 133 152
137 153 176
132 150 175
138 156 181
113 5 50
106 5 48
74 108 75
12 147 87
11 146 87
9 121 74
51 139 111
97 146 148
119 143 155
143 159 181
138 152 174
137 151 174
131 145 165
137 151 174
131 151 176
122 146 152
78 121 93
77 132 92
80 123 86
51 95 64
40 106 98
102 120 119
109 114 119
87 91 97
92 96 101
109 114 119
95 100 103
106 110 114
96 100 103
99 100 103
87 91 95
103 104 109
86 86 95
103 106 112
98 101 106
92 97 103
111 115 121
108 111 115
106 109 115
108 116 115
118 118 118
105 108 112
93 96 103
98 102 112
48 47 93
32 28 91
35 31 102
80 75 78
54 40 44
21 42 108
13 43 111
65 34 81
61 29 71
83 40 97
61 29 73
82 40 101
69 42 100
131 147 171
133 148 172
133 148 172
120 138 162
134 154 181
124 139 169
106 114 143
87 104 163
89 108 168
97 115 179
106 127 202
96 115 182
126 146 184
61 81 144
70 72 95
81 84 96
89 90 103
85 83 92
92 104 120
113 127 147
132 149 173
126 141 164
129 145 168
123 140 168
119 131 176
114 125 167
107 113 149
128 137 184
86 85 123
80 92 131
92 139 155
97 96 58
107 93 28
98 84 26
116 102 31
109 99 31
111 101 30
130 143 162
122 134 154
133 141 163
119 138 161
128 147 172
134 150 171
114 99 119
39 94 59
12 148 87
10 127 76
10 123 74
10 124 74
9 111 66
79 117 121
122 153 167
128 145 166
136 151 175
138 156 181
136 155 181
131 148 171
121 132 153
129 145 168
82 131 97
66 103 81
66 107 78
42 84 59
24 86 83
21 75 69
104 109 113
105 109 114
102 107 111
109 114 119
110 114 119
89 96 96
112 116 121
101 101 103
75 73 79
101 103 108
103 105 108
99 102 106
108 114 121
107 111 116
105 108 112
102 103 105
104 108 117
117 123 129
112 116 124
100 101 105
100 103 109
29 41 75
31 26 88
27 23 79
56 66 81
72 69 71
37 54 106
18 60 154
21 25 72
76 35 83
53 25 66
88 60 93
106 85 96
107 88 105
115 95 109
117 117 139
132 150 178
129 146 169
127 141 164
131 146 170
124 139 162
104 117 168
90 106 164
92 107 165
92 108 170
95 115 182
87 103 161
122 143 199
53 70 131
56 73 130
48 52 83
59 60 69
95 107 125
119 136 159
108 124 143
121 139 163
133 154 181
138 157 181
127 145 171
116 125 163
121 130 170
78 75 120
59 44 110
52 31 101
54 32 106
61 58 108
91 82 37
83 75 24
103 91 28
96 85 26
97 87 26
93 82 25
120 134 151
130 150 176
138 156 181
125 139 161
117 133 157
116 123 146
113 121 141
59 116 99
10 124 73
11 134 80
8 108 65
9 109 66
34 105 87
45 102 108
48 100 110
85 119 131
105 126 149
134 151 174
122 140 162
129 148 165
126 141 162
129 148 170
109 125 142
52 90 63
49 81 57
53 93 73
24 86 82
24 87 82
13 52 47
96 101 105
93 99 100
86 85 84
100 102 105
89 89 93
110 114 118
107 109 111
99 98 101
96 96 98
108 113 118
91 93 96
89 95 96
104 108 113
97 103 104
101 102 103
101 99 99
83 81 78
93 94 96
76 77 79
60 61 69
25 22 73
47 46 62
62 63 73
87 87 90
89 96 112
16 54 136
26 55 152
42 57 103
63 32 79
67 51 64
100 77 85
90 74 84
105 84 96
117 98 110
113 94 109
124 120 138
130 148 173
130 145 168
136 152 174
137 156 181
94 109 151
74 86 134
66 76 115
80 94 147
83 101 165
81 98 157
87 106 160
48 63 114
49 65 116
49 65 117
138 156 181
113 130 164
127 141 163
138 157 181
137 156 181
132 150 174
138 156 181
133 151 176
115 129 159
90 96 133
47 28 95
53 31 103
49 28 95
46 27 90
47 28 92
62 45 95
85 87 90
58 76 114
92 90 83
87 83 61
50 49 14
124 140 156
121 139 163
126 142 167
130 139 163
129 148 171
123 144 167
122 138 162
83 124 124
9 117 70
9 113 67
9 108 68
33 98 86
47 98 105
51 106 115
45 96 114
45 91 99
44 88 94
128 147 168
121 143 163
134 151 172
125 142 164
136 156 179
111 126 141
108 122 135
39 63 41
67 93 79
24 84 76
18 67 68
22 78 75
70 82 84
82 84 85
64 61 58
99 102 105
88 90 93
86 89 93
83 84 84
91 93 98
94 96 99
93 89 89
89 91 98
88 88 88
88 83 85
104 110 117
94 94 94
92 95 100
94 98 105
99 102 108
88 89 92
68 66 62
71 72 73
80 80 88
67 61 60
77 87 96
96 109 147
31 46 140
43 42 152
41 39 133
46 43 153
83 70 125
86 70 78
98 83 94
102 85 96
100 82 97
91 78 91
121 116 132
136 156 181
132 151 176
122 138 160
125 144 173
112 128 156
94 110 156
66 78 124
75 92 149
86 102 161
103 121 168
60 78 113
46 62 112
53 69 126
65 83 133
135 155 181
139 157 181
138 158 180
130 147 173
128 144 168
108 118 142
122 140 162
125 142 167
97 109 129
77 78 115
45 26 86
51 30 99
41 24 82
51 29 95
41 37 91
52 80 152
50 96 175
51 95 170
50 90 158
49 92 162
109 120 132
128 147 171
119 139 159
130 148 171
125 149 174
129 146 169
126 146 170
112 132 152
118 135 157
9 111 65
6 89 54
9 115 68
46 96 107
47 97 106
47 98 110
44 90 100
46 92 100
44 88 96
101 128 147
97 117 124
129 148 171
132 151 176
122 140 159
125 149 172
109 125 142
91 114 122
113 133 153
72 93 106
45 67 72
17 62 60
14 48 45
82 86 90
75 81 89
73 74 75
94 96 98
84 82 83
78 78 78
88 90 94
92 90 90
108 111 114
96 92 95
79 80 82
77 77 82
95 92 93
87 88 90
89 91 94
83 83 86
85 84 84
78 80 86
75 71 67
80 80 81
88 85 89
110 125 136
113 126 152
104 112 138
29 27 95
42 40 148
40 40 145
48 47 166
44 43 153
82 68 127
94 76 87
81 65 76
91 76 88
87 73 82
91 75 89
118 131 153
111 124 152
130 148 171
103 115 132
121 136 160
86 96 124
40 48 79
61 76 117
66 80 129
119 136 162
43 68 110
54 69 122
46 59 107
82 96 129
129 148 171
133 151 177
136 155 181
131 154 180
137 156 181
138 154 177
138 157 181
116 135 156
107 119 131
80 88 119
35 21 69
46 27 89
48 28 89
38 22 79
45 69 133
52 97 175
44 81 156
54 100 179
49 91 172
45 84 160
76 107 165
125 139 157
117 132 151
108 129 142
136 155 181
128 144 162
99 124 132
106 126 141
117 137 152
97 118 132
80 112 107
15 71 48
45 92 100
46 97 108
49 100 107
40 84 95
38 78 92
43 88 97
63 88 94
122 140 161
121 141 162
111 125 141
123 141 162
120 136 156
119 136 155
133 148 168
121 131 152
151 146 190
159 151 197
144 138 180
134 116 142
111 107 124
89 97 105
85 89 92
95 97 99
68 70 70
93 91 91
82 86 90
103 105 107
92 90 91
100 103 110
80 76 73
91 92 93
81 83 90
90 91 95
96 96 100
100 101 103
64 63 64
75 75 77
65 63 65
99 106 121
103 111 124
105 113 126
96 107 126
89 105 130
97 105 134
40 37 130
41 40 147
41 39 137
42 41 146
42 41 144
79 59 70
97 79 92
66 54 63
110 91 105
106 92 105
132 146 166
125 140 165
135 155 181
135 153 176
130 147 169
91 130 130
79 163 130
86 174 133
84 173 132
86 179 140
65 126 122
34 42 76
54 67 100
125 145 173
112 131 158
122 140 162
131 149 174
126 146 172
128 148 174
127 145 166
119 132 167
110 121 181
100 91 196
74 36 202
65 32 165
64 33 158
38 23 77
35 20 68
44 79 142
42 79 145
51 95 176
45 85 156
45 84 147
43 78 149
47 87 156
107 125 154
133 154 181
126 146 171
126 148 173
117 138 188
64 90 191
94 117 195
117 133 154
122 141 162
91 109 130
107 124 145
28 60 78
30 61 69
40 82 89
37 77 86
36 73 79
44 91 101
64 92 103
135 153 176
122 135 155
131 146 166
131 146 167
127 142 162
126 142 164
106 118 132
155 148 191
166 159 208
158 155 208
155 154 208
156 154 208
145 137 177
74 71 84
115 124 138
94 101 109
81 79 81
86 84 87
84 82 79
64 61 57
85 85 86
46 40 38
95 95 97
77 77 79
76 69 74
39 35 36
40 36 34
62 60 61
64 61 59
77 81 87
93 99 108
92 101 121
64 64 65
110 122 139
136 150 169
116 129 147
103 110 125
92 102 123
43 41 141
36 34 121
41 41 147
41 40 143
61 49 99
83 66 75
73 60 71
80 66 81
119 133 156
128 146 169
136 155 181
124 141 167
121 139 161
121 131 152
83 171 132
86 176 136
90 182 140
84 176 136
90 185 143
90 182 138
35 43 62
83 96 114
115 132 155
139 157 181
106 119 139
114 132 159
133 150 171
98 107 182
103 111 185
88 91 188
77 62 189
68 32 187
68 33 186
69 33 173
69 33 190
56 28 138
29 27 69
39 71 129
44 80 145
41 75 148
49 91 163
43 78 142
41 76 137
40 72 128
103 121 138
121 139 163
138 156 181
103 122 188
52 83 203
50 81 203
47 77 189
50 80 198
105 126 192
129 149 173
127 141 158
106 120 136
33 68 79
38 79 87
34 72 78
34 68 79
71 101 113
115 130 149
122 140 163
134 152 176
120 137 157
125 142 164
119 136 156
113 129 148
107 120 138
158 150 187
171 161 208
165 158 208
159 156 208
164 158 208
172 162 208
158 144 180
125 136 151
90 97 109
86 94 104
81 84 88
41 38 40
21 20 17
63 65 68
50 48 48
43 40 37
54 51 51
52 50 50
48 47 47
34 30 28
66 64 61
132 99 111
138 80 96
147 80 93
120 60 104
98 73 96
104 99 110
90 80 84
114 123 138
109 119 134
112 122 155
38 38 135
38 36 132
30 30 108
39 37 123
64 61 67
50 41 46
70 75 85
100 112 132
130 148 172
112 126 146
128 147 172
132 147 167
114 127 149
95 146 139
82 169 130
66 126 94
92 188 143
77 153 116
74 152 118
82 167 128
74 87 106
115 131 155
122 140 165
115 132 158
128 147 171
110 124 171
78 82 180
86 88 194
80 83 176
86 88 194
82 83 185
80 79 191
59 28 160
68 31 174
68 33 182
61 29 168
23 14 48
29 47 99
27 50 105
39 71 140
40 75 134
43 79 143
52 96 170
50 73 120
116 133 159
130 149 176
76 99 190
46 73 186
51 81 190
48 78 193
49 79 190
47 75 183
50 78 195
116 135 173
115 133 154
122 137 157
97 115 133
33 69 75
30 61 67
68 81 91
104 117 132
128 146 167
136 153 176
114 130 148
125 139 159
133 149 171
116 130 149
131 149 171
100 111 132
98 94 127
151 136 181
171 161 199
162 147 186
173 156 201
145 134 169
137 129 161
94 97 111
107 119 129
82 92 103
79 89 100
90 93 107
64 61 58
69 76 80
63 65 71
28 28 27
26 20 22
21 17 15
74 76 79
94 99 109
133 64 77
152 72 88
148 70 86
160 74 90
154 73 90
152 71 87
121 101 114
93 99 110
113 121 137
97 105 117
91 99 110
51 50 114
31 29 106
33 34 118
101 107 126
84 92 104
104 111 128
120 129 147
111 127 140
97 112 132
108 119 136
122 137 160
113 130 153
140 158 181
85 139 129
75 152 116
80 160 123
66 134 103
91 184 140
74 146 109
82 170 132
127 144 168
96 103 121
122 139 163
97 104 122
121 136 176
78 82 157
81 83 184
82 82 180
79 80 173
79 82 184
85 87 186
82 81 182
65 58 169
70 33 181
68 32 176
66 31 171
103 107 171
101 120 160
46 84 150
39 73 131
34 64 122
30 55 112
32 58 108
89 104 132
116 134 161
120 140 162
42 67 170
41 66 169
45 72 176
48 76 183
52 81 198
48 76 189
47 74 184
58 78 162
121 141 166
107 122 141
87 101 118
88 100 112
76 90 105
63 80 93
105 117 134
126 144 165
127 142 162
113 129 149
119 131 153
113 126 149
126 142 162
128 145 166
107 112 131
102 100 135
112 110 141
114 108 139
112 106 142
114 107 141
101 83 108
112 106 135
114 127 144
123 136 147
127 138 154
101 108 119
98 107 122
100 111 124
96 102 111
95 100 109
105 108 118
93 101 114
103 111 121
88 97 110
128 90 100
130 60 76
137 64 76
146 68 84
156 73 90
144 67 81
130 59 70
141 68 77
130 141 164
95 102 104
94 98 103
112 122 137
20 27 83
24 23 89
77 83 118
110 122 145
109 120 138
118 130 152
128 145 166
127 142 166
122 139 164
131 146 170
127 142 162
129 147 161
124 140 164
83 140 116
81 167 128
70 121 89
74 149 114
59 121 93
79 158 118
85 168 125
103 114 134
112 122 142
128 147 172
130 148 173
115 127 187
79 79 174
69 70 160
71 70 154
86 87 189
78 80 179
81 81 174
74 75 169
70 68 172
57 26 149
55 26 150
63 29 167
108 121 164
114 129 152
101 118 153
56 73 109
26 49 100
57 83 115
111 127 152
105 120 144
111 127 149
116 135 173
45 74 183
40 63 155
46 74 182
44 71 158
44 70 178
45 70 173
36 56 140
43 70 169
134 151 174
116 130 149
136 156 181
140 157 181
116 129 145
132 150 174
128 140 156
121 137 156
117 134 159
112 131 153
135 151 174
135 150 173
130 147 169
109 125 147
125 140 159
113 109 142
107 101 135
111 107 142
109 106 142
106 97 125
103 96 128
103 92 123
118 98 137
132 87 148
126 72 142
131 80 141
114 106 141
122 137 157
112 122 137
106 117 130
99 105 116
127 142 163
109 115 126
102 113 118
114 58 72
126 59 72
157 74 90
135 63 76
134 63 78
141 66 78
119 64 70
135 65 79
121 114 128
72 71 78
89 92 96
93 102 115
45 50 67
109 122 145
118 127 149
140 134 131
174 157 114
180 165 127
189 168 119
161 160 153
157 156 151
115 133 158
125 145 168
123 141 160
135 155 181
124 143 160
68 123 102
71 148 114
60 128 95
62 130 103
67 137 103
43 89 73
130 147 177
131 149 172
115 132 158
136 155 181
89 99 144
58 60 136
81 83 184
76 76 170
71 73 162
70 71 159
71 74 158
55 59 131
71 69 169
56 25 144
47 23 126
56 26 150
119 138 164
88 105 131
96 111 134
69 78 93
90 102 123
123 135 152
91 106 128
94 106 131
112 129 154
130 147 169
69 103 168
68 101 149
38 64 149
41 67 160
40 64 152
51 81 198
37 57 140
69 88 156
121 133 157
128 147 174
120 137 163
134 148 167
136 155 181
129 147 171
127 146 177
135 149 172
132 151 176
128 149 172
126 141 164
118 133 151
131 149 174
128 148 174
90 97 111
115 121 139
87 83 110
95 90 123
102 93 128
101 92 123
103 73 120
140 54 150
135 54 149
128 51 145
145 57 157
135 52 140
126 67 135
128 109 157
98 104 122
128 139 154
133 150 174
100 109 125
123 134 149
131 147 167
129 88 104
136 61 76
121 55 69
103 61 64
107 82 73
77 80 65
78 87 67
87 85 70
73 71 67
108 115 139
123 137 157
117 136 158
122 138 159
103 124 147
141 139 134
182 157 107
192 169 119
190 168 119
186 167 119
182 165 119
183 163 116
144 144 138
122 135 154
128 149 173
113 130 146
124 140 162
90 114 118
63 133 99
60 120 90
68 136 101
61 126 97
100 137 135
127 142 163
125 139 162
132 149 174
137 156 181
116 129 170
70 75 158
63 62 140
73 74 165
75 78 169
77 77 169
51 53 120
68 69 156
62 61 140
38 17 108
48 22 123
90 88 163
104 122 152
110 122 156
107 122 145
111 130 163
112 131 162
112 126 153
122 139 165
122 144 159
124 180 119
123 182 111
129 189 114
124 185 114
119 172 113
80 128 130
39 63 152
39 64 150
68 84 156
119 140 174
123 141 164
129 146 169
125 139 158
130 148 173
114 128 152
114 128 153
115 125 147
125 135 154
126 144 169
134 148 169
111 122 149
124 137 160
118 127 146
125 140 165
118 131 158
111 122 144
122 133 152
73 69 89
69 55 83
99 95 121
135 70 151
150 56 155
141 55 150
141 54 149
141 54 149
131 52 145
140 54 150
136 70 147
129 134 156
124 136 159
117 131 151
126 141 160
119 130 150
109 120 135
121 116 138
103 47 58
112 64 68
80 87 66
78 87 67
80 88 67
78 87 67
81 89 67
77 86 67
90 102 99
124 140 160
101 111 138
133 147 166
125 130 138
133 117 78
173 158 113
174 155 110
177 156 110
165 149 106
180 154 110
173 156 108
153 151 122
118 138 158
130 148 172
95 116 123
115 131 152
71 88 90
92 109 114
72 88 86
51 64 62
55 90 85
85 103 107
128 145 172
132 148 177
124 141 170
124 140 169
122 137 177
82 89 149
70 73 159
58 59 131
67 66 155
74 76 168
69 69 154
58 60 130
46 27 124
58 53 116
79 86 121
92 102 140
107 123 150
110 125 148
91 102 125
122 134 163
120 136 162
104 116 143
124 150 149
124 174 128
127 188 114
116 172 102
124 183 111
117 175 105
127 184 109
115 165 98
86 128 135
39 55 126
108 127 168
113 131 158
125 141 165
131 149 174
118 132 151
129 147 172
131 149 171
125 143 169
134 152 176
126 143 171
106 117 135
136 155 181
130 142 165
127 142 166
134 151 174
122 141 171
127 144 167
127 140 165
135 152 177
133 143 164
123 134 158
124 116 155
126 50 135
133 51 138
130 50 137
121 47 129
139 52 145
139 54 149
131 52 144
119 46 123
130 136 168
126 143 164
117 131 151
126 142 165
125 141 162
124 140 160
121 131 150
115 54 67
70 63 53
73 81 62
76 81 62
71 76 58
75 81 64
79 87 67
74 81 63
83 93 84
116 131 146
136 156 181
127 142 164
125 119 107
172 149 104
170 147 104
175 152 104
148 127 89
185 164 116
182 159 110
162 143 100
148 130 92
122 144 168
122 137 157
117 136 154
114 136 151
123 143 163
117 130 146
117 136 151
115 139 150
110 127 142
115 134 149
134 150 172
128 147 174
127 143 173
112 129 154
130 148 174
124 141 170
83 88 147
54 58 121
68 69 155
47 50 111
54 56 129
46 43 100
68 72 92
88 94 108
90 100 127
91 103 139
107 120 155
122 139 167
118 132 161
124 137 166
121 140 171
129 149 176
120 163 129
120 171 104
100 143 87
120 178 105
123 182 111
125 182 108
120 179 108
109 161 96
99 156 94
90 104 130
117 131 156
108 124 155
115 132 160
120 139 168
115 131 154
125 144 169
131 149 171
127 143 168
124 137 163
129 148 171
126 143 168
137 151 173
130 148 173
129 148 171
125 141 169
118 132 153
135 155 181
133 149 165
123 141 165
122 141 162
126 143 168
120 102 143
128 49 136
131 49 131
126 50 140
127 51 141
121 48 132
136 53 145
123 45 124
114 44 122
124 122 153
137 154 176
116 132 156
112 123 141
107 115 131
120 130 147
115 127 146
101 105 120
64 73 57
75 82 62
65 73 57
75 81 62
79 87 67
71 79 60
75 84 65
71 78 60
62 67 52
132 148 169
124 138 158
113 103 84
143 125 87
166 146 101
151 135 96
180 157 110
173 154 110
155 135 95
163 140 97
144 133 92
121 130 142
135 155 181
133 152 176
134 152 176
124 146 165
133 152 176
119 134 150
122 144 169
112 131 148
113 135 156
130 136 168
130 148 174
125 141 166
105 121 153
124 146 164
91 102 130
80 88 111
68 74 100
54 58 98
57 65 101
92 101 116
48 53 81
107 122 145
96 109 136
127 144 169
119 135 159
122 139 168
127 147 174
119 132 160
122 139 161
129 147 177
129 152 168
118 174 105
116 167 103
125 183 111
113 160 95
126 185 111
114 169 102
122 173 107
117 173 105
92 140 82
110 131 151
114 132 161
120 133 158
128 143 165
98 105 129
135 151 171
129 148 172
118 135 158
132 149 174
124 139 168
131 148 172
129 146 173
126 146 172
131 149 172
131 148 171
136 155 181
126 146 171
125 145 165
134 151 177
135 155 181
128 144 167
127 140 159
127 133 165
121 47 129
109 43 122
110 43 115
111 43 117
128 47 130
128 50 138
124 46 126
124 48 131
119 127 147
114 123 146
129 151 175
128 141 163
108 114 129
110 119 139
104 103 122
95 98 108
67 72 57
73 79 60
74 78 60
63 70 54
64 71 54
63 71 54
69 73 57
70 77 60
76 81 75
113 126 143
121 139 161
117 122 135
121 106 71
136 117 81
140 116 81
171 146 100
136 118 84
176 148 103
170 148 103
164 144 102
120 138 155
135 142 164
118 125 142
134 146 165
130 154 176
137 154 176
132 150 174
122 141 162
129 149 172
127 147 165
132 102 147
123 141 173
133 154 181
100 114 148
130 148 174
106 116 143
96 105 136
104 115 143
98 112 139
121 139 165
101 114 141
100 113 132
106 122 144
113 130 157
109 125 138
131 148 171
127 146 172
121 136 160
119 136 160
125 140 168
128 147 177
127 142 163
123 177 105
99 147 86
91 133 82
128 182 106
120 177 108
101 153 92
120 175 105
111 157 96
104 154 92
121 137 151
114 131 163
114 131 161
129 148 174
126 146 171
131 151 172
137 153 177
137 156 181
116 134 167
122 139 163
113 131 161
132 144 170
138 156 181
133 152 176
123 137 161
136 153 177
136 155 181
139 157 181
132 146 168
134 147 169
138 156 181
125 141 164
130 144 165
96 37 110
112 43 118
102 42 109
113 44 123
122 47 126
110 42 118
93 37 105
116 64 126
128 141 164
116 131 152
114 123 144
131 140 164
128 147 172
83 89 108
124 139 158
111 118 135
68 74 56
71 78 60
66 73 55
67 74 57
64 69 54
65 70 52
67 73 56
68 76 58
83 93 83
80 99 97
120 135 155
94 98 100
142 123 84
124 107 74
158 126 85
171 148 103
152 120 84
132 116 80
156 130 88
152 129 102
135 110 129
159 51 66
159 10 35
147 71 86
147 110 130
145 130 152
137 154 176
128 141 162
137 156 181
127 144 166
132 93 136
135 155 181
121 134 156
133 154 181
139 157 181
124 140 164
139 157 181
129 147 172
115 131 158
116 131 157
131 149 174
123 140 167
126 146 175
129 147 174
134 154 181
132 153 181
136 155 181
128 147 171
128 147 171
136 154 179
139 157 181
135 155 181
97 141 88
113 168 99
103 149 89
103 152 91
105 154 92
109 161 101
106 149 88
105 153 91
108 155 97
119 138 163
121 138 162
137 156 181
126 145 163
136 155 181
129 144 167
137 156 181
137 156 181
131 150 174
132 153 172
131 149 177
135 155 181
135 155 181
122 141 163
134 154 181
126 140 163
135 149 175
127 139 167
134 154 181
137 156 181
129 141 167
128 140 166
128 146 173
116 122 150
119 64 129
112 44 117
113 44 123
85 31 87
112 43 119
103 38 108
126 141 166
114 123 145
128 142 162
118 127 151
132 150 174
125 134 157
127 141 162
126 142 165
110 120 137
103 118 132
53 59 45
67 73 56
69 76 58
64 69 53
61 67 52
68 76 58
65 68 52
103 103 97
128 144 164
115 134 143
126 138 155
114 127 145
130 108 70
131 112 77
130 119 80
149 129 89
149 126 85
152 126 89
164 78 61
154 51 66
143 10 34
160 10 35
156 10 35
158 10 35
148 70 86
148 111 130
134 149 169
131 150 174
139 157 181
128 99 142
127 138 162
139 157 181
116 130 156
130 141 163
131 148 171
136 155 181
130 149 177
137 156 181
131 147 169
136 153 176
135 155 181
132 151 172
127 145 166
135 155 181
131 149 173
134 154 181
129 148 177
130 152 173
133 152 172
122 140 165
125 139 162
119 156 135
94 137 82
95 132 82
107 157 95
98 144 84
102 155 93
108 154 93
90 122 75
103 149 88
123 145 163
122 141 169
132 147 167
134 155 173
134 152 168
133 154 181
127 145 165
134 154 181
132 151 168
130 152 173
126 145 170
127 145 162
124 144 163
133 149 173
135 155 181
135 155 173
130 148 164
126 135 160
130 146 171
130 148 172
132 142 166
110 112 140
122 133 155
111 121 143
123 133 156
98 51 102
85 33 89
78 56 87
66 34 66
56 20 57
130 144 170
127 143 168
117 133 153
117 131 154
125 137 160
122 126 146
113 123 144
130 147 172
129 143 164
120 133 152
63 68 52
50 55 42
56 62 47
43 48 37
57 63 48
51 52 38
61 68 67
97 111 129
121 130 148
114 122 132
120 129 143
94 97 101
98 95 92
109 85 57
112 90 60
122 103 71
119 103 86
131 85 79
152 10 33
148 10 32
150 10 34
144 10 32
148 10 32
164 11 35
158 10 35
157 10 34
142 92 110
122 146 165
134 150 171
124 121 146
132 149 172
134 149 175
129 151 172
135 153 176
130 148 172
131 147 169
132 149 177
127 145 169
134 150 171
129 149 172
132 152 172
141 158 181
138 157 181
136 153 176
130 149 172
130 150 172
134 154 181
129 148 174
131 150 172
131 151 172
114 132 152
127 147 164
96 141 107
91 130 76
94 137 83
96 141 82
104 152 91
69 103 62
110 150 111
131 149 172
123 141 165
133 151 172
133 152 172
133 149 172
121 134 153
133 147 174
135 155 181
122 142 166
137 156 181
137 156 181
122 136 158
128 141 165
138 154 172
133 154 181
131 147 175
135 155 181
129 148 174
125 142 168
132 149 172
117 126 153
135 155 181
130 141 167
117 132 151
112 121 147
105 102 127
88 78 103
82 84 96
86 88 105
82 73 97
98 100 123
105 112 127
109 120 144
114 123 144
132 143 166
112 125 149
115 130 153
133 149 171
96 108 130
120 132 151
122 140 162
96 108 123
65 73 71
57 64 64
53 59 45
43 47 35
67 71 67
98 105 114
108 115 125
114 128 146
137 156 181
118 132 151
118 124 132
98 104 106
81 81 84
107 117 131
112 108 109
129 119 133
149 9 32
148 10 32
141 9 31
158 10 34
140 9 32
155 10 34
139 9 30
140 9 30
139 9 30
144 84 103
113 121 139
138 156 181
133 132 159
119 135 158
119 131 155
131 149 171
133 154 181
135 150 175
123 144 165
132 151 176
136 155 181
136 152 174
135 155 181
130 142 165
139 157 181
127 140 158
116 134 155
142 158 181
137 156 181
135 153 172
122 139 162
114 137 144
81 109 104
129 149 164
113 134 144
116 135 148
106 132 118
91 128 89
84 121 70
76 104 64
61 86 46
105 125 123
117 133 147
124 142 162
119 138 156
132 151 172
130 150 172
127 142 166
132 153 173
122 132 152
136 155 181
129 147 171
128 145 166
139 157 181
137 156 181
139 157 181
137 156 181
123 136 160
133 141 169
137 156 181
132 148 175
137 156 181
133 148 175
127 132 160
132 148 173
129 141 165
119 121 150
124 132 155
152 166 192
138 146 166
122 123 144
128 134 153
118 126 147
128 141 164
128 146 172
120 138 162
121 127 148
131 143 168
114 124 145
129 145 167
118 132 153
122 139 161
117 132 152
119 134 152
90 101 115
50 56 61
82 90 100
65 74 82
121 135 152
92 112 122
87 94 102
121 136 157
104 120 140
104 117 131
123 136 154
120 130 150
119 126 134
111 118 130
124 141 163
142 96 115
154 10 33
137 9 30
125 8 28
145 9 31
130 8 28
161 10 34
146 10 32
128 8 28
112 8 26
149 49 66
133 142 164
114 142 157
97 83 110
124 140 164
134 149 172
109 113 140
135 150 175
137 156 181
133 149 175
138 156 181
127 144 168
140 139 189
137 156 181
127 142 170
142 159 181
136 155 181
136 156 181
132 151 172
121 137 153
108 133 142
80 111 104
32 85 39
31 84 39
60 98 71
77 103 101
90 119 108
103 122 130
91 105 105
108 123 130
67 95 75
99 116 119
99 116 136
89 111 110
126 146 163
122 143 163
132 149 163
132 152 172
125 144 162
129 149 172
135 155 181
125 140 164
135 155 181
140 158 181
137 156 181
131 147 175
131 149 171
138 156 181
130 148 167
127 144 165
137 156 181
133 152 177
139 157 181
111 117 142
135 153 176
137 156 181
144 160 183
153 168 192
161 178 208
157 175 208
151 173 208
155 174 208
156 172 203
162 175 203
160 174 200
131 147 172
126 146 172
128 141 165
130 142 166
134 153 177
128 147 171
110 129 152
127 143 163
126 143 163
107 122 141
113 126 142
99 111 130
113 122 140
94 108 118
110 125 142
124 141 162
118 133 152
122 140 162
117 126 146
128 143 163
128 147 172
130 145 164
124 140 162
131 149 172
127 140 162
133 135 158
153 10 33
149 10 32
134 9 29
114 8 24
148 9 31
109 8 25
121 8 28
118 8 27
144 9 32
125 68 56
100 113 114
89 127 129
100 103 124
112 116 141
130 148 174
126 141 165
129 147 171
130 148 173
137 151 186
134 125 193
139 142 183
154 120 220
157 118 230
157 127 221
151 134 212
130 144 179
133 152 177
133 150 171
82 112 104
30 80 37
31 83 37
31 83 38
33 86 39
33 86 39
32 86 39
31 84 39
49 76 63
112 131 143
110 122 139
109 126 134
124 143 154
121 140 160
133 151 171
131 151 172
132 151 172
131 151 172
133 152 172
133 154 173
129 145 162
120 135 154
135 153 176
138 156 181
129 145 169
138 157 181
135 155 181
127 142 167
127 147 163
129 147 170
126 139 165
131 150 177
138 157 181
133 145 170
121 135 162
130 140 169
137 156 181
154 168 192
168 181 208
158 176 208
151 173 208
148 171 208
149 171 208
152 173 208
160 177 208
165 180 208
153 168 192
136 155 181
123 134 156
130 149 172
129 146 167
124 139 166
135 155 181
134 148 175
129 148 172
114 130 147
117 133 153
134 150 172
127 147 172
114 131 152
132 149 172
131 149 172
108 123 141
127 139 162
128 147 171
136 149 171
136 155 181
125 138 162
115 128 143
129 148 174
138 157 181
129 138 162
138 9 30
100 6 21
135 9 29
116 8 26
115 7 25
140 9 30
132 9 28
95 7 20
113 48 43
28 92 69
29 97 72
31 101 75
121 133 153
94 101 125
138 156 181
121 132 157
134 154 181
135 155 181
151 124 210
160 119 230
163 120 230
160 119 230
160 119 230
163 120 230
148 118 214
129 116 176
144 146 197
129 148 172
68 101 88
32 82 39
31 84 39
33 85 38
30 77 34
32 84 38
32 81 35
30 80 37
49 82 64
108 130 141
127 148 164
123 141 159
110 129 152
120 138 153
110 134 145
125 143 164
124 145 163
136 155 181
138 157 181
139 157 181
129 148 171
135 155 181
137 156 181
137 156 181
136 155 181
129 146 173
140 157 181
135 155 181
131 148 173
122 142 163
137 156 181
140 157 181
129 149 171
123 135 158
138 156 181
123 139 165
121 141 158
155 166 197
166 180 208
159 176 208
154 174 208
151 172 208
152 173 208
155 174 208
160 177 208
164 179 208
139 150 170
134 150 176
136 150 175
126 142 162
133 150 171
130 146 167
131 147 173
130 148 173
122 140 162
132 148 173
110 129 152
127 146 171
136 148 171
135 155 181
133 149 171
123 140 162
137 156 181
137 156 181
130 148 171
135 146 170
137 156 181
122 136 157
129 147 166
133 150 172
121 138 161
137 156 181
107 69 83
107 7 23
123 8 27
115 7 25
129 8 26
122 8 27
132 9 29
84 59 46
42 82 61
32 104 76
31 100 75
33 107 78
113 116 141
129 139 162
125 140 165
132 145 167
129 147 171
142 119 188
155 114 218
155 111 213
158 114 220
152 113 218
162 117 218
156 116 224
153 110 206
141 107 203
127 97 186
101 114 138
58 91 67
31 79 37
31 82 37
26 70 31
30 80 36
32 83 37
28 75 34
30 79 36
32 84 38
49 85 65
116 137 153
138 156 181
128 151 165
126 139 165
132 150 174
127 148 172
135 155 173
135 155 173
135 155 181
131 153 173
135 155 181
138 156 181
117 137 152
136 156 181
138 156 181
138 156 181
131 149 171
143 159 181
133 148 176
140 158 181
137 156 181
131 147 173
134 151 172
124 146 164
138 156 181
134 154 181
108 123 144
160 170 192
171 183 208
163 179 208
160 177 208
159 177 208
160 177 208
161 178 208
166 180 208
169 182 208
144 138 159
128 134 155
122 142 163
126 146 171
129 148 172
130 148 172
131 148 173
129 149 173
134 152 176
117 131 151
123 141 162
129 141 162
134 151 172
126 140 168
131 147 175
128 143 162
115 125 146
131 153 181
139 157 181
135 155 181
128 146 171
132 150 172
128 146 171
124 139 162
117 133 152
129 148 172
131 129 152
124 49 62
96 6 22
101 6 21
106 7 24
117 8 26
122 24 31
48 86 66
31 99 73
29 93 67
32 103 76
28 90 66
131 154 174
128 142 163
126 141 165
129 147 171
137 140 169
134 103 187
162 118 224
152 110 206
157 116 224
154 113 218
159 119 230
155 114 218
151 109 206
141 106 203
130 94 179
22 48 28
25 59 30
28 72 33
23 56 23
31 83 38
31 80 36
26 69 31
27 74 34
30 77 34
24 61 26
30 76 34
97 121 130
136 155 181
136 155 181
135 155 173
137 156 181
131 149 174
132 150 172
136 155 181
128 146 172
130 149 172
132 148 175
138 154 176
137 156 181
130 148 171
137 156 181
139 157 181
130 148 171
130 150 172
135 155 181
127 142 158
138 156 181
139 157 181
134 151 174
133 154 181
131 148 171
129 148 172
107 122 144
136 142 156
150 158 177
163 170 186
171 183 208
157 163 186
167 181 208
171 183 208
171 183 208
157 169 188
100 89 100
126 134 155
132 149 171
125 142 165
130 148 172
136 155 181
131 151 176
136 155 181
136 155 181
133 150 172
135 148 171
128 143 160
131 147 171
139 150 171
135 148 171
134 149 171
135 155 181
130 146 168
129 145 167
126 144 163
133 150 172
128 146 171
122 131 151
123 139 161
122 129 151
122 127 147
119 131 151
121 126 142
111 7 23
80 5 18
81 5 18
83 6 20
72 42 34
27 88 64
25 80 61
27 84 63
31 99 73
30 96 72
